ncols	178
nrows	225
xllcorner	1669333.329241
yllcorner	496308.452995
cellsize	90.000000
NODATA_value	nan
4.27	4.31	4.41	4.51	4.64	4.81	5.03	5.30	5.62	6.03	6.41	6.71	7.01	7.06	6.85	6.49	6.07	5.66	5.18	4.88	3.93	2.21	1.45	1.00	0.70	0.59	0.72	0.93	2.07	1.82	1.56	3.41	3.07	3.22	3.20	3.25	3.32	3.49	3.72	3.95	4.18	4.36	4.52	4.67	4.81	4.92	4.96	4.95	4.95	4.92	4.85	4.75	4.68	4.60	4.51	4.36	4.46	3.36	2.00	1.05	0.27	0.51	1.06	1.43	1.72	1.98	2.10	2.11	2.07	1.99	1.84	1.69	1.58	2.64	2.39	2.22	2.08	1.94	3.39	3.38	3.37	3.36	3.36	3.38	3.47	3.58	3.68	3.79	3.89	3.98	4.05	4.09	4.13	4.15	4.16	4.18	4.19	4.20	4.22	4.23	4.25	4.26	4.28	4.29	4.29	4.30	4.30	4.27	4.25	4.24	4.24	4.24	4.25	4.26	4.27	4.27	4.29	4.32	4.34	4.36	4.38	4.40	4.41	4.43	4.45	4.47	4.50	4.55	4.58	4.61	4.65	4.70	4.77	4.85	4.94	5.06	5.24	5.44	5.64	5.85	6.01	6.15	6.30	6.43	6.57	6.72	6.85	6.94	7.02	7.11	7.22	7.30	7.35	7.34	7.25	7.13	7.03	6.96	6.92	6.89	6.85	6.78	6.71	6.65	6.58	6.47	6.28	6.03	5.72	5.43	5.16	4.93	4.76	4.67	4.48	9.34	4.32	4.32	
4.27	4.31	4.41	4.51	4.64	4.81	5.03	5.30	5.62	6.03	6.41	6.71	7.01	7.06	6.85	6.49	6.07	5.66	5.18	4.88	3.93	2.21	1.45	1.00	0.70	0.59	0.72	0.93	2.07	1.82	1.56	3.41	3.07	3.22	3.20	3.25	3.32	3.49	3.72	3.95	4.18	4.36	4.52	4.67	4.81	4.92	4.96	4.95	4.95	4.92	4.85	4.75	4.68	4.60	4.51	4.36	4.46	3.36	2.00	1.05	0.27	0.51	1.06	1.43	1.72	1.98	2.10	2.11	2.07	1.99	1.84	1.69	1.58	2.64	2.39	2.22	2.08	1.94	3.39	3.38	3.37	3.36	3.36	3.38	3.47	3.58	3.68	3.79	3.89	3.98	4.05	4.09	4.13	4.15	4.16	4.18	4.19	4.20	4.22	4.23	4.25	4.26	4.28	4.29	4.29	4.30	4.30	4.27	4.25	4.24	4.24	4.24	4.25	4.26	4.27	4.27	4.29	4.32	4.34	4.36	4.38	4.40	4.41	4.43	4.45	4.47	4.50	4.55	4.58	4.61	4.65	4.70	4.77	4.85	4.94	5.06	5.24	5.44	5.64	5.85	6.01	6.15	6.30	6.43	6.57	6.72	6.85	6.94	7.02	7.11	7.22	7.30	7.35	7.34	7.25	7.13	7.03	6.96	6.92	6.89	6.85	6.78	6.71	6.65	6.58	6.47	6.28	6.03	5.72	5.43	5.16	4.93	4.76	4.67	4.48	9.34	4.32	4.32	
4.21	4.24	4.33	4.43	4.54	4.68	4.86	5.09	5.34	5.64	5.97	6.23	6.42	6.40	6.78	6.30	5.84	5.47	5.11	4.93	1.92	2.33	1.92	1.63	1.39	1.19	1.14	1.14	1.90	1.65	3.12	3.01	2.72	2.96	3.02	3.12	3.24	3.43	3.64	3.87	4.09	4.26	4.38	4.50	4.61	4.72	4.79	4.81	4.81	4.80	4.76	4.68	4.63	4.57	4.50	4.31	4.42	2.03	1.87	1.29	0.79	0.51	0.59	0.82	1.08	1.24	1.27	1.26	1.25	1.15	1.03	0.98	0.92	2.14	2.00	1.93	1.86	3.17	3.17	3.20	3.23	3.24	3.26	3.31	3.41	3.54	3.65	3.76	3.86	3.95	4.02	4.08	4.11	4.14	4.15	4.17	4.19	4.20	4.21	4.22	4.24	4.25	4.26	4.28	4.27	4.29	4.30	4.28	4.25	4.24	4.24	4.25	4.25	4.26	4.26	4.27	4.28	4.30	4.32	4.35	4.38	4.39	4.40	4.42	4.43	4.44	4.46	4.51	4.55	4.59	4.63	4.67	4.72	4.79	4.87	4.96	5.09	5.27	5.45	5.62	5.78	5.92	6.05	6.16	6.25	6.34	6.45	6.58	6.70	7.03	6.99	6.94	6.91	6.88	6.82	6.77	6.71	6.64	6.55	6.86	6.69	6.56	6.44	6.33	6.26	6.17	6.01	5.80	5.57	5.36	5.16	4.95	4.78	4.72	4.63	4.45	4.39	4.39	
4.08	4.12	4.19	4.28	4.36	4.46	4.57	4.72	4.87	5.07	5.29	5.54	5.57	6.46	6.15	7.36	7.68	7.32	5.13	5.16	2.64	2.74	2.46	2.24	2.02	1.87	1.77	2.34	2.04	1.86	3.00	2.81	2.60	2.89	2.97	3.08	3.21	3.37	3.55	3.74	3.93	4.08	4.18	4.28	4.36	4.45	4.52	4.56	4.60	4.64	4.63	4.61	4.61	4.57	4.50	4.37	4.61	2.05	2.13	1.80	1.53	1.29	1.07	0.96	0.94	0.90	0.84	0.83	0.82	0.74	0.74	0.82	0.89	1.81	1.78	1.81	1.82	2.98	3.02	3.10	3.15	3.18	3.20	3.26	3.37	3.49	3.60	3.71	3.82	3.91	3.98	4.04	4.08	4.11	4.13	4.15	4.17	4.18	4.19	4.21	4.22	4.23	4.25	4.26	4.26	4.29	4.31	4.29	4.26	4.25	4.25	4.25	4.26	4.26	4.26	4.26	4.27	4.28	4.29	4.32	4.35	4.37	4.38	4.40	4.41	4.41	4.42	4.45	4.49	4.52	4.56	4.60	4.64	4.68	4.74	4.80	4.88	5.00	5.14	5.28	5.40	5.52	5.62	5.70	5.76	5.81	6.53	6.56	6.53	6.45	6.39	7.56	7.67	7.75	7.55	7.35	7.13	6.91	6.69	6.46	7.57	7.59	7.61	7.39	7.11	6.84	6.55	6.22	5.91	5.65	5.19	5.02	4.87	4.77	4.74	4.65	4.55	4.55	
3.96	3.99	4.06	4.12	4.19	4.26	4.34	4.44	4.56	4.73	4.90	5.09	5.16	6.13	7.12	7.59	7.79	7.96	6.80	5.51	2.89	2.85	2.71	2.56	2.35	2.24	2.17	2.52	2.30	2.18	3.12	2.85	2.94	2.95	3.02	3.09	3.21	3.35	3.50	3.67	3.84	3.97	4.07	4.16	4.26	4.35	4.41	4.46	4.53	4.59	4.88	4.83	4.81	4.71	4.54	4.56	1.70	2.24	2.26	2.09	1.91	1.73	1.54	1.44	1.39	1.32	1.27	1.28	1.24	1.21	1.21	1.25	1.95	1.88	1.89	1.92	1.94	2.98	3.03	3.09	3.13	3.16	3.17	3.25	3.36	3.46	3.57	3.68	3.79	3.88	3.95	4.01	4.05	4.08	4.11	4.13	4.15	4.16	4.18	4.19	4.20	4.22	4.24	4.24	4.25	4.29	4.31	4.28	4.26	4.25	4.24	4.24	4.25	4.26	4.25	4.24	4.25	4.26	4.27	4.29	4.32	4.34	4.35	4.38	4.40	4.39	4.40	4.42	4.45	4.46	4.48	4.52	4.55	4.59	4.63	4.67	4.73	4.81	4.93	5.04	5.12	5.21	5.30	5.37	5.46	6.26	6.25	6.23	6.17	7.32	7.46	7.56	7.65	7.64	7.74	7.76	7.78	7.77	7.80	7.80	7.77	7.78	7.78	7.68	7.66	7.75	7.70	7.78	7.73	5.67	5.46	5.10	4.93	4.74	4.74	4.77	4.72	4.72	
3.85	3.88	3.93	3.98	4.03	4.08	4.15	4.23	4.32	4.46	4.62	4.79	6.01	5.88	7.25	7.89	8.24	8.12	6.74	2.59	3.06	2.95	2.85	2.72	2.57	2.48	2.42	2.67	2.51	3.32	3.18	2.92	3.02	3.02	3.05	3.10	3.20	3.33	3.47	3.63	3.78	3.89	3.99	4.07	4.17	4.29	4.37	4.44	4.53	4.57	4.87	4.84	4.82	4.72	4.50	4.72	1.77	2.50	2.44	2.34	2.21	2.04	1.88	1.80	1.74	1.64	1.61	1.61	1.56	1.55	1.58	1.61	2.06	2.02	2.04	2.06	2.98	3.00	3.06	3.10	3.12	3.13	3.16	3.24	3.34	3.45	3.56	3.67	3.77	3.86	3.93	3.99	4.03	4.07	4.09	4.11	4.13	4.14	4.16	4.17	4.19	4.21	4.23	4.23	4.25	4.29	4.30	4.27	4.25	4.24	4.24	4.24	4.24	4.25	4.24	4.23	4.24	4.25	4.26	4.27	4.30	4.32	4.32	4.34	4.37	4.36	4.37	4.39	4.42	4.42	4.43	4.45	4.46	4.48	4.51	4.55	4.60	4.67	4.78	4.88	4.95	5.03	5.11	5.18	5.23	6.01	6.00	6.00	7.13	7.27	7.41	7.50	7.62	7.75	7.81	7.82	7.87	7.89	7.93	7.96	7.96	7.98	7.98	7.95	7.95	8.07	8.10	8.18	8.02	7.81	5.46	5.38	5.01	4.90	4.80	4.90	4.84	4.84	
3.74	3.77	3.82	3.86	3.90	3.94	4.00	4.06	4.14	4.26	4.44	4.62	5.81	5.71	7.51	8.08	8.39	8.26	5.78	3.07	3.19	3.09	3.01	2.87	2.73	2.65	2.59	2.77	2.65	3.40	3.20	2.99	3.13	3.12	3.13	3.15	3.21	3.31	3.44	3.59	3.72	3.83	3.93	4.01	4.13	4.25	4.33	4.42	4.53	4.92	4.86	4.86	4.83	4.74	4.57	4.93	2.19	2.67	2.59	2.52	2.41	2.26	2.15	2.09	2.00	1.91	1.89	1.84	1.77	1.75	1.78	1.83	2.17	2.16	2.20	2.21	3.02	3.05	3.10	3.12	3.13	3.13	3.16	3.23	3.32	3.43	3.54	3.65	3.75	3.84	3.91	3.97	4.01	4.04	4.07	4.09	4.11	4.12	4.14	4.15	4.17	4.20	4.22	4.23	4.26	4.30	4.29	4.26	4.24	4.23	4.23	4.23	4.23	4.24	4.23	4.22	4.23	4.24	4.24	4.26	4.29	4.30	4.30	4.32	4.33	4.32	4.32	4.34	4.36	4.37	4.38	4.39	4.39	4.40	4.41	4.44	4.48	4.56	4.66	4.75	4.83	4.91	4.99	5.04	5.87	5.85	5.87	5.83	7.01	7.19	7.38	7.46	7.62	7.79	7.86	7.85	7.91	8.00	8.05	8.09	8.13	8.17	8.17	8.21	8.21	8.42	8.51	8.40	8.17	7.88	7.37	5.48	5.18	8.59	4.96	4.98	4.93	4.93	
3.64	3.67	3.71	3.75	3.78	3.81	3.87	3.92	4.00	4.12	4.37	4.48	5.69	7.01	7.79	8.42	8.46	8.29	2.36	3.33	3.26	3.22	3.14	2.97	2.86	2.79	3.05	2.85	2.75	3.44	3.19	3.22	3.19	3.19	3.20	3.23	3.28	3.35	3.46	3.58	3.70	3.79	3.88	3.97	4.10	4.23	4.32	4.44	4.53	4.89	4.86	4.88	4.85	4.71	4.74	5.33	2.43	2.74	2.69	2.62	2.52	2.39	2.33	2.28	2.21	2.17	2.14	2.06	1.98	1.94	1.93	2.24	2.22	2.24	2.29	2.32	3.07	3.12	3.15	3.16	3.15	3.15	3.19	3.25	3.33	3.43	3.53	3.62	3.72	3.81	3.89	3.95	3.99	4.02	4.05	4.08	4.09	4.11	4.12	4.14	4.16	4.19	4.20	4.22	4.27	4.29	4.27	4.25	4.24	4.23	4.22	4.22	4.22	4.22	4.21	4.20	4.22	4.23	4.23	4.24	4.27	4.27	4.28	4.29	4.29	4.28	4.28	4.29	4.31	4.31	4.31	4.31	4.31	4.31	4.31	4.33	4.36	4.44	4.52	4.59	4.67	4.74	4.81	4.87	5.70	5.70	5.72	5.66	6.94	7.18	7.36	7.42	7.59	7.79	7.86	7.88	7.98	8.11	8.15	8.16	8.23	8.29	8.35	8.33	8.44	8.68	8.77	8.69	8.44	7.89	7.42	5.52	5.33	4.95	5.02	5.00	5.02	5.02	
3.55	3.57	3.62	3.64	3.67	3.70	3.75	3.81	3.89	4.03	4.23	4.40	5.58	7.23	8.08	8.56	8.52	7.75	3.09	3.43	3.29	3.25	3.15	2.99	2.91	2.86	3.06	2.89	3.55	3.41	3.16	3.22	3.19	3.19	3.20	3.25	3.31	3.40	3.50	3.62	3.72	3.80	3.88	3.97	4.11	4.23	4.34	4.46	4.92	4.88	4.88	4.89	4.86	4.65	4.88	1.35	2.68	2.78	2.77	2.72	2.61	2.48	2.45	2.41	2.35	2.33	2.33	2.25	2.19	2.15	2.13	2.31	2.26	2.28	2.31	3.05	3.10	3.15	3.18	3.18	3.18	3.19	3.24	3.29	3.37	3.47	3.55	3.63	3.71	3.80	3.88	3.93	3.97	4.00	4.03	4.06	4.08	4.09	4.11	4.13	4.15	4.18	4.19	4.22	4.27	4.28	4.25	4.24	4.23	4.22	4.22	4.21	4.21	4.20	4.20	4.19	4.20	4.22	4.22	4.23	4.25	4.25	4.25	4.26	4.26	4.24	4.25	4.26	4.27	4.27	4.26	4.25	4.24	4.22	4.22	4.23	4.26	4.33	4.41	4.47	4.54	4.60	4.65	4.69	5.54	5.56	5.57	6.75	6.91	7.14	7.29	7.40	7.61	7.80	7.83	7.90	8.04	8.15	8.17	8.26	8.38	8.47	8.47	8.47	8.67	9.06	9.03	8.80	8.49	7.89	7.42	5.48	5.43	5.19	5.20	5.05	5.04	5.04	
3.46	3.48	3.53	3.55	3.57	3.60	3.65	3.71	3.80	3.96	4.16	5.48	5.47	7.50	8.34	8.64	8.56	6.05	3.33	3.40	3.32	3.28	3.19	3.06	2.98	2.94	3.09	2.95	3.56	3.35	3.15	3.25	3.22	3.20	3.21	3.25	3.30	3.39	3.49	3.60	3.71	3.80	3.87	3.98	4.13	4.24	4.36	4.48	4.90	4.88	4.91	4.92	4.88	4.67	5.03	2.12	2.91	2.87	2.87	2.81	2.68	2.59	2.56	2.52	2.45	2.45	2.43	2.36	2.32	2.33	2.34	2.46	2.42	2.40	2.39	3.03	3.06	3.12	3.15	3.15	3.15	3.20	3.26	3.32	3.41	3.51	3.59	3.66	3.74	3.83	3.89	3.93	3.96	3.99	4.02	4.05	4.07	4.08	4.10	4.12	4.15	4.17	4.19	4.23	4.26	4.26	4.23	4.22	4.22	4.21	4.21	4.20	4.20	4.19	4.19	4.19	4.20	4.22	4.21	4.21	4.23	4.24	4.24	4.25	4.24	4.22	4.23	4.23	4.22	4.22	4.22	4.19	4.17	4.16	4.16	4.18	4.22	4.28	4.35	4.40	4.46	4.53	4.57	5.43	5.41	5.45	5.45	6.69	6.89	7.12	7.23	7.41	7.63	7.74	7.77	7.89	8.06	8.17	8.23	8.38	8.57	8.63	8.55	8.59	8.96	9.29	9.16	8.96	8.58	7.81	7.29	5.62	5.54	5.34	5.35	5.27	5.11	5.11	
3.37	3.39	3.44	3.47	3.48	3.52	3.57	3.63	3.74	3.99	4.11	5.38	6.87	7.83	8.55	8.69	8.52	2.78	3.43	3.38	3.37	3.34	3.22	3.13	3.07	3.32	3.11	3.00	3.57	3.31	3.32	3.27	3.25	3.23	3.24	3.28	3.34	3.41	3.50	3.60	3.69	3.77	3.84	3.97	4.14	4.25	4.37	4.49	4.90	4.90	4.93	4.93	4.87	4.80	5.32	2.47	3.02	2.96	2.93	2.85	2.72	2.66	2.63	2.57	2.54	2.55	2.51	2.46	2.43	2.42	2.59	2.54	2.52	2.52	2.52	3.11	3.12	3.13	3.12	3.10	3.08	3.15	3.22	3.28	3.39	3.49	3.58	3.66	3.74	3.83	3.89	3.93	3.96	3.99	4.01	4.03	4.05	4.07	4.08	4.10	4.14	4.15	4.18	4.23	4.25	4.24	4.22	4.21	4.21	4.20	4.19	4.19	4.18	4.18	4.18	4.19	4.19	4.21	4.21	4.20	4.22	4.23	4.23	4.23	4.21	4.18	4.18	4.19	4.17	4.16	4.16	4.13	4.10	4.09	4.10	4.12	4.17	4.23	4.28	4.33	4.37	4.43	4.46	5.31	5.30	5.34	5.33	6.68	6.90	7.10	7.19	7.40	7.63	7.70	7.79	7.95	8.11	8.20	8.32	8.49	8.66	8.66	8.53	8.66	9.17	9.42	9.12	8.93	8.65	7.66	7.83	5.86	5.71	5.41	5.63	5.58	5.31	5.31	
3.30	3.32	3.35	3.39	3.40	3.44	3.50	3.57	3.69	3.91	4.07	5.31	7.13	8.03	8.68	8.72	6.34	3.26	3.45	3.38	3.37	3.33	3.20	3.13	3.09	3.28	3.10	3.03	3.52	3.26	3.31	3.26	3.23	3.22	3.24	3.28	3.34	3.44	3.53	3.63	3.71	3.78	3.87	4.01	4.16	4.29	4.41	4.90	4.90	4.93	4.96	4.94	4.81	4.96	2.90	2.75	3.05	3.02	2.97	2.87	2.74	2.70	2.66	2.60	2.60	2.60	2.55	2.52	2.50	2.49	2.61	2.56	2.54	2.53	3.13	3.15	3.18	3.19	3.17	3.13	3.11	3.16	3.21	3.26	3.35	3.46	3.54	3.61	3.70	3.80	3.86	3.89	3.93	3.96	3.99	4.01	4.03	4.04	4.06	4.09	4.12	4.14	4.17	4.22	4.23	4.21	4.20	4.20	4.19	4.19	4.18	4.16	4.16	4.17	4.18	4.19	4.19	4.20	4.20	4.20	4.20	4.21	4.21	4.21	4.19	4.15	4.14	4.14	4.12	4.10	4.09	4.06	4.02	4.01	4.02	4.03	4.07	4.13	4.18	4.24	4.30	4.34	4.37	5.22	5.25	5.28	6.52	6.70	6.91	7.07	7.20	7.45	7.67	7.72	7.83	8.01	8.13	8.25	8.47	8.61	8.78	8.72	8.56	8.77	9.35	9.39	9.04	8.96	8.30	6.05	10.11	5.85	5.71	5.36	10.23	5.75	5.40	5.40	
3.23	3.25	3.29	3.31	3.33	3.37	3.43	3.51	3.65	3.86	5.19	5.24	7.46	8.44	8.75	8.71	2.50	3.44	3.40	3.39	3.38	3.33	3.23	3.17	3.14	3.28	3.14	3.69	3.46	3.24	3.32	3.27	3.24	3.24	3.25	3.28	3.34	3.43	3.53	3.63	3.71	3.77	3.88	4.04	4.19	4.32	4.44	4.90	4.90	4.94	4.98	4.97	4.76	5.07	1.71	3.01	3.09	3.10	3.03	2.89	2.78	2.76	2.71	2.64	2.65	2.63	2.58	2.55	2.55	2.57	2.67	2.64	2.63	2.61	3.14	3.14	3.16	3.16	3.14	3.12	3.14	3.21	3.28	3.32	3.40	3.49	3.56	3.62	3.69	3.78	3.83	3.86	3.90	3.93	3.96	3.98	4.00	4.02	4.05	4.08	4.11	4.14	4.18	4.22	4.21	4.19	4.18	4.17	4.17	4.16	4.15	4.13	4.15	4.17	4.18	4.19	4.20	4.20	4.20	4.20	4.19	4.19	4.19	4.19	4.17	4.13	4.10	4.09	4.08	4.05	4.03	3.99	3.94	3.91	3.91	3.93	3.99	4.07	4.14	4.21	4.28	4.32	5.18	5.19	5.24	5.24	6.50	6.71	6.94	7.07	7.31	7.58	7.74	7.83	7.93	8.06	8.16	8.28	8.56	8.69	9.01	8.75	8.68	9.17	9.98	10.42	10.55	11.01	8.36	8.45	9.42	7.05	5.61	10.17	9.28	5.89	5.47	5.47	
3.16	3.18	3.22	3.24	3.26	3.31	3.38	3.47	3.64	3.84	5.12	6.70	7.84	8.64	8.81	8.35	3.12	3.48	3.39	3.41	3.40	3.32	3.25	3.21	3.49	3.27	3.16	3.69	3.41	3.40	3.32	3.29	3.25	3.25	3.27	3.32	3.38	3.46	3.54	3.64	3.71	3.76	3.89	4.06	4.21	4.34	4.86	4.89	4.92	4.95	4.99	4.98	4.81	5.23	2.32	3.19	3.16	3.14	3.05	2.89	2.81	2.78	2.71	2.67	2.68	2.65	2.60	2.59	2.59	2.72	2.69	2.67	2.66	2.67	3.20	3.21	3.21	3.17	3.12	3.09	3.10	3.17	3.27	3.33	3.40	3.50	3.59	3.65	3.72	3.80	3.84	3.87	3.90	3.93	3.95	3.97	3.99	4.01	4.04	4.07	4.09	4.13	4.18	4.20	4.18	4.16	4.15	4.15	4.15	4.14	4.12	4.09	4.15	4.18	4.19	4.20	4.20	4.20	4.19	4.19	4.18	4.17	4.17	4.17	4.16	4.11	4.06	4.04	4.03	4.01	3.97	3.92	3.85	3.81	3.82	3.87	3.96	4.05	4.14	4.21	4.29	4.33	5.13	5.17	5.24	5.24	6.54	6.78	6.98	7.10	7.42	7.68	7.77	7.84	7.95	8.55	8.98	9.16	10.19	10.67	10.15	9.88	9.65	10.06	11.06	11.26	10.96	10.77	7.85	8.23	8.99	8.02	7.73	9.93	9.83	6.02	5.81	5.81	
3.09	3.11	3.15	3.18	3.21	3.26	3.34	3.45	3.70	3.84	5.06	7.03	8.19	8.76	8.85	4.69	3.37	3.41	3.39	3.42	3.41	3.30	3.25	3.23	3.43	3.25	3.17	3.62	3.36	3.38	3.32	3.28	3.26	3.25	3.27	3.32	3.40	3.48	3.56	3.66	3.72	3.78	3.93	4.11	4.26	4.38	4.86	4.90	4.94	4.97	4.99	4.97	4.95	5.56	2.66	3.26	3.20	3.17	3.05	2.88	2.83	2.80	2.72	2.70	2.70	2.64	2.61	2.60	2.60	2.70	2.68	2.67	2.65	3.19	3.20	3.22	3.23	3.19	3.14	3.13	3.15	3.20	3.28	3.34	3.39	3.47	3.56	3.63	3.71	3.78	3.82	3.85	3.89	3.92	3.95	3.97	3.98	4.00	4.03	4.06	4.09	4.12	4.17	4.17	4.14	4.13	4.12	4.12	4.12	4.12	4.11	4.13	4.16	4.19	4.19	4.20	4.20	4.19	4.18	4.18	4.17	4.16	4.15	4.16	4.14	4.10	4.03	4.00	3.98	3.96	3.91	3.85	3.78	3.74	3.77	3.84	3.95	4.05	4.13	4.21	4.32	4.38	5.14	5.19	5.28	6.42	6.53	6.87	7.24	7.57	8.12	8.57	8.73	9.18	9.84	9.78	9.30	9.12	9.65	9.68	9.62	9.62	9.39	9.53	10.42	10.84	10.82	10.85	8.56	8.00	9.12	8.75	9.35	9.83	9.46	5.95	6.19	6.19	
3.04	3.05	3.09	3.13	3.17	3.21	3.30	3.44	3.66	4.97	6.24	7.41	8.48	8.85	8.75	2.92	3.44	3.36	3.39	3.41	3.39	3.30	3.27	3.25	3.40	3.25	3.79	3.55	3.33	3.38	3.33	3.30	3.28	3.28	3.29	3.34	3.41	3.50	3.59	3.66	3.72	3.81	3.96	4.14	4.28	4.39	4.86	4.90	4.94	4.99	4.99	4.90	5.10	3.61	2.96	3.29	3.25	3.19	3.05	2.91	2.86	2.83	2.75	2.72	2.71	2.64	2.60	2.60	2.61	2.70	2.68	2.68	2.68	3.20	3.20	3.22	3.20	3.15	3.10	3.12	3.17	3.23	3.33	3.40	3.44	3.50	3.57	3.64	3.72	3.76	3.79	3.82	3.85	3.89	3.91	3.93	3.95	3.97	4.01	4.04	4.07	4.12	4.15	4.14	4.12	4.10	4.10	4.09	4.10	4.10	4.11	4.13	4.16	4.18	4.19	4.20	4.20	4.19	4.18	4.17	4.16	4.14	4.13	4.14	4.13	4.08	4.01	3.96	3.93	3.91	3.86	3.78	3.69	3.65	3.68	3.77	3.93	4.09	4.17	4.23	4.31	5.43	5.38	5.34	5.37	7.08	7.61	7.98	8.23	8.25	8.27	8.80	9.06	8.84	8.39	8.16	8.01	8.14	8.74	9.14	9.19	9.57	9.56	9.56	10.39	11.04	10.90	10.82	9.47	8.54	9.31	9.34	9.30	9.70	8.64	8.65	10.38	10.38	
2.99	3.00	3.03	3.07	3.13	3.17	3.26	3.44	3.67	4.91	6.54	7.82	8.69	8.91	6.14	3.34	3.41	3.36	3.39	3.41	3.37	3.31	3.27	3.25	3.37	3.25	3.78	3.49	3.47	3.39	3.34	3.30	3.28	3.29	3.31	3.37	3.44	3.53	3.63	3.68	3.73	3.84	4.02	4.19	4.31	4.83	4.88	4.92	4.95	5.00	5.00	4.83	5.22	1.82	3.22	3.31	3.29	3.19	3.03	2.92	2.88	2.82	2.75	2.73	2.69	2.64	2.59	2.59	2.73	2.68	2.68	2.67	2.67	3.20	3.22	3.24	3.21	3.14	3.10	3.10	3.15	3.22	3.31	3.40	3.45	3.51	3.59	3.66	3.75	3.78	3.81	3.84	3.87	3.89	3.92	3.93	3.95	3.97	4.00	4.04	4.07	4.12	4.14	4.11	4.09	4.08	4.07	4.08	4.08	4.09	4.10	4.13	4.15	4.17	4.19	4.19	4.19	4.18	4.17	4.16	4.15	4.13	4.11	4.12	4.11	4.06	3.99	3.92	3.89	3.86	3.80	3.71	3.59	3.51	3.50	3.54	3.68	3.86	3.97	4.02	4.05	4.01	5.56	5.32	5.22	7.21	7.71	8.03	8.15	7.99	7.78	8.11	8.37	8.04	7.90	8.24	8.44	8.81	9.34	9.23	9.26	9.73	9.70	9.54	10.34	11.20	11.09	10.73	9.70	9.31	9.59	8.97	9.39	9.11	8.79	9.03	10.02	10.02	
2.94	2.95	2.98	3.02	3.08	3.16	3.26	3.53	3.69	4.87	6.92	8.21	8.83	8.89	2.67	3.44	3.37	3.38	3.40	3.42	3.36	3.32	3.30	3.54	3.35	3.27	3.71	3.45	3.46	3.38	3.34	3.31	3.29	3.30	3.33	3.40	3.47	3.56	3.64	3.69	3.75	3.88	4.07	4.23	4.34	4.83	4.90	4.94	4.96	5.01	5.01	4.85	5.38	2.42	3.41	3.34	3.30	3.19	3.01	2.92	2.89	2.81	2.77	2.74	2.68	2.64	2.59	2.59	2.69	2.66	2.66	2.65	3.18	3.18	3.20	3.20	3.17	3.10	3.08	3.11	3.17	3.25	3.33	3.41	3.46	3.50	3.57	3.65	3.72	3.76	3.78	3.81	3.85	3.88	3.90	3.92	3.94	3.96	4.00	4.04	4.09	4.11	4.11	4.08	4.06	4.05	4.05	4.06	4.07	4.08	4.10	4.12	4.14	4.16	4.18	4.18	4.18	4.17	4.16	4.15	4.13	4.12	4.10	4.10	4.09	4.05	3.97	3.90	3.85	3.80	3.73	3.63	3.48	3.36	3.27	3.18	3.18	3.29	3.40	3.53	3.62	3.62	3.55	5.06	5.02	4.96	7.14	7.43	7.78	7.80	7.63	7.83	8.02	7.91	8.46	8.70	8.14	8.33	8.76	8.88	9.18	9.42	9.42	9.80	10.57	11.08	11.15	10.75	10.11	10.27	9.67	8.24	8.21	9.15	9.53	9.83	9.24	9.24	
2.87	2.89	2.94	2.98	3.03	3.13	3.27	3.52	4.74	6.05	7.39	8.52	8.91	8.20	3.26	3.42	3.34	3.39	3.42	3.41	3.34	3.32	3.32	3.49	3.34	3.88	3.64	3.41	3.46	3.39	3.34	3.33	3.32	3.32	3.36	3.43	3.51	3.59	3.67	3.71	3.78	3.93	4.13	4.28	4.80	4.83	4.91	4.94	4.97	5.00	5.01	4.98	5.66	2.79	3.51	3.38	3.29	3.15	3.01	2.92	2.87	2.80	2.76	2.72	2.64	2.60	2.58	2.72	2.66	2.64	2.63	2.64	3.16	3.18	3.19	3.18	3.12	3.05	3.04	3.09	3.16	3.25	3.34	3.43	3.49	3.52	3.59	3.67	3.73	3.75	3.77	3.80	3.82	3.85	3.87	3.88	3.90	3.93	3.97	4.03	4.08	4.09	4.08	4.05	4.03	4.03	4.04	4.05	4.06	4.07	4.09	4.11	4.13	4.15	4.16	4.17	4.17	4.16	4.15	4.13	4.11	4.10	4.09	4.07	4.07	4.03	3.96	3.87	3.81	3.77	3.69	3.57	3.41	3.26	3.16	2.99	2.91	2.99	3.06	3.14	3.27	3.35	3.38	4.97	5.04	5.01	4.83	6.97	7.16	7.23	7.33	7.67	8.08	8.53	8.40	7.69	7.68	8.58	9.22	9.16	9.29	9.71	10.08	10.47	10.48	10.46	10.57	10.53	10.52	10.72	9.90	7.84	6.32	9.10	9.66	9.19	8.93	8.93	
2.82	2.83	2.88	2.95	3.01	3.09	3.26	3.53	4.69	6.37	7.84	8.72	8.91	2.71	3.47	3.36	3.35	3.39	3.42	3.40	3.35	3.34	3.32	3.46	3.35	3.86	3.58	3.56	3.46	3.40	3.35	3.33	3.33	3.33	3.38	3.46	3.54	3.62	3.69	3.74	3.82	3.98	4.19	4.33	4.81	4.85	4.93	4.96	4.99	5.00	4.98	5.21	6.10	3.05	3.51	3.41	3.28	3.09	2.99	2.91	2.83	2.78	2.74	2.68	2.61	2.57	2.56	2.66	2.62	2.61	2.59	2.59	3.13	3.17	3.17	3.14	3.07	3.02	3.03	3.08	3.16	3.24	3.33	3.42	3.48	3.51	3.58	3.66	3.72	3.76	3.78	3.80	3.82	3.85	3.88	3.89	3.90	3.93	3.99	4.05	4.08	4.07	4.06	4.03	4.01	4.01	4.02	4.04	4.05	4.06	4.08	4.10	4.12	4.14	4.15	4.16	4.16	4.15	4.14	4.12	4.10	4.09	4.07	4.05	4.04	4.02	3.95	3.86	3.79	3.74	3.66	3.53	3.35	3.19	3.11	2.98	2.89	2.98	3.08	3.11	3.09	3.09	3.13	4.97	5.09	5.05	4.90	4.70	6.77	6.82	7.06	7.71	8.40	8.28	7.63	7.59	8.18	8.85	8.92	8.71	8.89	9.71	10.33	10.53	10.32	10.03	9.86	10.11	10.68	11.04	10.63	7.03	6.30	8.45	9.78	9.27	10.13	10.13	
2.77	2.79	2.83	2.91	3.01	3.09	3.27	3.54	4.67	6.81	8.24	8.87	8.64	3.10	3.47	3.34	3.38	3.41	3.44	3.39	3.37	3.36	3.61	3.44	3.36	3.79	3.54	3.55	3.46	3.40	3.36	3.34	3.34	3.36	3.41	3.49	3.59	3.67	3.71	3.77	3.87	4.03	4.23	4.37	4.82	4.87	4.94	4.97	5.00	4.99	4.90	5.39	2.29	3.36	3.48	3.39	3.24	3.04	2.94	2.87	2.79	2.76	2.71	2.65	2.59	2.53	2.53	2.62	2.60	2.58	2.56	3.08	3.11	3.15	3.14	3.08	3.00	2.97	3.00	3.06	3.15	3.24	3.34	3.42	3.48	3.52	3.58	3.64	3.67	3.72	3.77	3.79	3.80	3.83	3.86	3.86	3.87	3.92	4.02	4.09	4.04	4.05	4.05	4.00	3.98	3.99	4.01	4.02	4.04	4.05	4.07	4.09	4.11	4.12	4.14	4.15	4.15	4.14	4.13	4.11	4.09	4.07	4.06	4.04	4.02	4.00	3.94	3.86	3.77	3.71	3.63	3.50	3.31	3.12	3.00	2.88	2.77	2.82	3.02	3.16	3.10	2.91	2.82	2.94	5.03	5.13	5.09	5.00	4.87	6.82	6.97	7.44	7.83	7.81	7.87	8.06	8.35	8.61	8.65	8.36	8.42	9.33	9.90	10.08	10.11	9.79	9.61	10.07	10.68	11.21	10.85	6.86	5.86	9.28	9.84	9.92	10.24	10.24	
2.72	2.75	2.80	2.88	2.98	3.10	3.36	4.52	5.79	7.34	8.53	8.94	3.95	3.41	3.39	3.35	3.38	3.43	3.45	3.38	3.38	3.38	3.56	3.42	3.94	3.72	3.50	3.56	3.48	3.42	3.38	3.36	3.36	3.39	3.44	3.52	3.62	3.69	3.73	3.81	3.92	4.09	4.28	4.83	4.84	4.91	4.95	4.97	4.99	4.99	4.89	5.55	2.47	3.62	3.47	3.33	3.15	2.98	2.88	2.80	2.73	2.71	2.65	2.57	2.53	2.48	2.63	2.56	2.54	2.53	2.51	3.04	3.09	3.13	3.11	3.03	2.93	2.91	2.97	3.05	3.14	3.23	3.32	3.41	3.47	3.54	3.62	3.64	3.66	3.71	3.77	3.79	3.79	3.82	3.85	3.83	3.82	3.89	4.06	4.14	4.01	4.01	4.07	3.98	3.95	3.97	3.99	4.01	4.03	4.04	4.06	4.08	4.09	4.11	4.13	4.13	4.13	4.13	4.12	4.10	4.08	4.06	4.04	4.02	3.99	3.97	3.93	3.86	3.76	3.69	3.61	3.49	3.32	3.13	2.95	2.77	2.59	2.53	2.68	2.93	3.04	2.88	2.69	2.75	2.97	5.12	5.28	5.22	5.09	4.80	6.72	6.94	7.43	7.79	7.99	8.18	8.38	8.48	8.58	8.44	8.40	9.02	9.45	9.62	9.67	9.57	10.00	10.49	10.71	11.27	10.84	6.69	5.86	9.06	10.00	9.93	9.96	9.96	
2.68	2.72	2.80	2.86	2.96	3.11	3.37	4.44	6.18	7.83	8.76	8.77	2.93	3.48	3.32	3.34	3.38	3.44	3.44	3.38	3.38	3.39	3.54	3.44	3.94	3.67	3.66	3.57	3.50	3.42	3.38	3.36	3.37	3.40	3.46	3.53	3.63	3.69	3.74	3.83	3.97	4.14	4.31	4.82	4.86	4.93	4.97	4.98	4.96	5.00	5.06	5.85	2.88	3.68	3.41	3.23	3.05	2.91	2.79	2.68	2.64	2.64	2.55	2.45	2.42	2.39	2.51	2.44	2.44	2.42	2.41	2.96	3.05	3.09	3.05	2.96	2.87	2.85	2.93	3.03	3.12	3.23	3.32	3.36	3.42	3.54	3.63	3.63	3.64	3.69	3.75	3.80	3.78	3.81	3.86	3.84	3.81	3.86	4.09	4.21	4.03	3.98	4.06	4.00	3.94	3.95	3.98	4.00	4.01	4.03	4.04	4.06	4.08	4.10	4.11	4.12	4.12	4.12	4.11	4.09	4.07	4.05	4.03	4.00	3.97	3.95	3.91	3.86	3.77	3.68	3.60	3.50	3.36	3.20	3.03	2.82	2.57	2.36	2.34	2.54	2.81	2.83	2.67	2.63	2.77	4.98	5.26	5.28	5.12	4.89	6.69	6.84	7.29	7.66	7.78	8.06	8.42	8.45	8.50	8.55	8.58	9.00	9.43	9.54	9.52	9.88	10.51	10.67	10.72	11.20	10.08	6.70	5.75	8.64	9.99	10.08	9.47	9.47	
2.62	2.67	2.77	2.84	2.94	3.10	3.38	4.39	6.75	8.25	8.92	6.17	3.28	3.40	3.31	3.34	3.39	3.44	3.43	3.42	3.41	3.68	3.52	3.46	3.86	3.63	3.65	3.57	3.49	3.41	3.36	3.35	3.37	3.41	3.47	3.55	3.64	3.70	3.76	3.86	4.02	4.20	4.80	4.81	4.87	4.94	5.00	4.98	4.91	4.98	5.36	6.38	3.24	3.65	3.35	3.13	2.91	2.78	2.67	2.51	2.48	2.52	2.41	2.30	2.25	2.23	2.35	2.29	2.29	2.27	2.83	2.87	2.99	3.04	2.96	2.85	2.79	2.79	2.88	2.99	3.08	3.20	3.33	3.34	3.36	3.50	3.61	3.62	3.63	3.66	3.72	3.79	3.78	3.78	3.82	3.82	3.80	3.81	4.04	4.24	4.09	3.95	3.99	3.97	3.93	3.93	3.96	3.98	4.00	4.02	4.03	4.05	4.07	4.09	4.10	4.11	4.11	4.11	4.10	4.08	4.06	4.04	4.01	3.99	3.96	3.93	3.90	3.85	3.78	3.68	3.60	3.52	3.40	3.26	3.11	2.92	2.66	2.40	2.24	2.34	2.61	2.73	2.62	2.54	2.63	2.88	5.09	5.13	5.07	4.98	6.85	6.90	7.23	7.53	7.68	7.94	8.36	8.50	8.55	8.61	8.70	9.11	9.67	9.89	10.12	10.21	10.26	10.72	10.71	11.05	9.35	6.55	5.50	8.24	9.77	9.08	10.11	10.11	
2.55	2.61	2.71	2.81	2.94	3.15	4.22	5.52	7.30	8.62	8.85	2.65	3.37	3.32	3.34	3.37	3.42	3.45	3.42	3.44	3.45	3.65	3.52	4.01	3.79	3.59	3.64	3.57	3.49	3.42	3.37	3.36	3.39	3.42	3.47	3.56	3.64	3.68	3.76	3.89	4.07	4.27	4.80	4.79	4.86	4.97	5.04	4.98	4.89	4.91	5.63	4.41	3.60	4.40	5.31	4.48	2.73	2.53	2.41	2.21	2.19	2.34	2.23	2.09	2.06	2.34	2.17	2.11	2.11	2.08	2.64	2.71	2.87	2.98	2.92	2.76	2.67	2.71	2.83	2.96	3.04	3.16	3.33	3.37	3.33	3.44	3.57	3.60	3.62	3.65	3.70	3.77	3.81	3.80	3.80	3.79	3.78	3.80	3.99	4.23	4.19	3.99	3.94	3.94	3.91	3.93	3.95	3.97	3.99	4.00	4.02	4.04	4.06	4.07	4.09	4.09	4.10	4.10	4.09	4.07	4.05	4.03	4.00	3.97	3.95	3.92	3.89	3.84	3.79	3.70	3.61	3.54	3.44	3.31	3.16	2.99	2.77	2.51	2.29	2.25	2.46	2.65	2.61	2.51	2.53	2.73	2.97	4.95	5.02	4.96	4.72	6.73	6.99	7.26	7.43	7.76	8.28	8.56	8.81	8.85	8.81	9.15	9.90	10.41	10.23	9.90	10.32	10.58	10.59	10.70	8.83	6.43	5.42	8.38	9.63	9.47	8.79	8.79	
2.51	2.56	2.68	2.81	2.93	3.20	4.14	6.03	7.83	8.84	6.61	3.22	3.35	3.29	3.34	3.38	3.44	3.47	3.43	3.45	3.47	3.62	3.53	3.99	3.74	3.74	3.65	3.58	3.49	3.43	3.38	3.38	3.41	3.44	3.49	3.57	3.63	3.67	3.75	3.91	4.14	4.85	4.83	4.78	4.84	4.98	5.05	4.96	4.90	4.94	5.95	2.97	4.92	6.02	5.05	4.83	4.44	4.14	3.65	2.99	2.86	1.77	1.71	1.68	1.68	2.13	1.92	1.83	1.88	2.61	2.42	2.43	2.62	2.78	2.85	2.75	2.62	2.65	2.79	2.93	3.02	3.11	3.31	3.41	3.34	3.41	3.52	3.55	3.60	3.64	3.68	3.74	3.79	3.81	3.80	3.78	3.77	3.78	3.93	4.21	4.27	4.05	3.93	3.92	3.89	3.91	3.94	3.96	3.98	3.99	4.00	4.02	4.04	4.06	4.07	4.08	4.09	4.09	4.08	4.07	4.05	4.02	3.99	3.96	3.93	3.91	3.88	3.84	3.79	3.71	3.62	3.54	3.46	3.34	3.21	3.04	2.85	2.64	2.39	2.24	2.33	2.54	2.58	2.45	2.40	2.55	2.76	4.82	4.94	4.97	4.86	4.72	6.87	6.98	7.10	7.51	8.12	8.53	8.93	9.03	8.98	9.22	9.79	10.14	10.00	10.08	10.48	10.69	10.41	9.84	8.08	6.17	5.42	8.22	9.33	8.77	11.09	11.09	
2.49	2.55	2.69	2.85	2.98	3.22	4.11	6.66	8.36	8.83	2.52	3.33	3.29	3.31	3.34	3.38	3.44	3.46	3.46	3.48	3.50	3.62	3.56	3.92	3.71	3.75	3.67	3.59	3.51	3.44	3.39	3.37	3.41	3.44	3.50	3.57	3.60	3.65	3.74	3.92	4.21	4.92	4.86	4.76	4.83	4.97	5.01	4.85	4.75	5.12	6.41	5.08	7.14	5.96	5.30	4.81	4.50	4.27	3.74	2.99	2.70	2.91	1.14	1.35	1.26	2.17	1.93	1.62	1.50	2.63	2.35	2.22	2.32	2.41	2.52	2.59	2.57	2.61	2.74	2.89	3.00	3.07	3.26	3.43	3.38	3.41	3.50	3.51	3.57	3.61	3.66	3.72	3.77	3.80	3.80	3.78	3.76	3.76	3.86	4.15	4.32	4.15	3.95	3.90	3.88	3.88	3.92	3.95	3.97	3.97	3.99	4.01	4.03	4.05	4.06	4.07	4.08	4.08	4.07	4.06	4.04	4.02	3.98	3.95	3.93	3.90	3.87	3.83	3.78	3.72	3.64	3.56	3.47	3.38	3.26	3.10	2.93	2.75	2.52	2.31	2.28	2.40	2.45	2.33	2.24	2.37	2.62	2.82	4.86	4.90	4.91	4.89	4.76	6.81	6.85	7.26	7.86	8.37	8.68	8.99	9.20	9.11	9.41	9.85	10.02	10.26	10.79	10.92	9.94	8.12	6.88	5.74	5.38	7.64	9.00	10.29	11.71	11.71	
2.47	2.55	2.68	2.81	2.98	3.26	5.22	7.32	8.73	6.99	3.13	3.28	3.26	3.32	3.34	3.38	3.44	3.46	3.49	3.51	3.74	3.64	4.11	3.90	3.71	3.78	3.71	3.62	3.53	3.45	3.41	3.40	3.41	3.45	3.52	3.55	3.55	3.60	3.70	3.93	4.30	5.01	4.91	4.77	4.87	5.02	4.98	4.70	4.56	5.16	6.57	4.41	4.55	6.02	5.40	4.95	4.60	4.37	3.88	3.21	2.79	2.97	3.06	5.51	1.21	2.13	2.08	1.82	1.50	1.54	2.49	2.27	2.23	2.19	2.14	2.21	2.38	2.52	2.65	2.78	2.92	3.02	3.21	3.40	3.38	3.42	3.49	3.48	3.54	3.58	3.61	3.68	3.76	3.80	3.79	3.78	3.77	3.74	3.82	4.07	4.32	4.27	4.04	3.92	3.87	3.87	3.92	3.94	3.96	3.97	3.98	4.00	4.01	4.03	4.05	4.05	4.07	4.07	4.06	4.06	4.04	4.01	3.98	3.95	3.92	3.90	3.86	3.82	3.78	3.72	3.65	3.58	3.49	3.40	3.31	3.17	3.01	2.84	2.63	2.38	2.31	2.38	2.39	2.27	2.17	2.24	2.52	2.79	2.89	4.83	4.83	4.85	4.77	6.73	6.68	6.94	7.72	8.21	8.53	8.95	8.98	8.96	9.42	9.69	9.80	10.18	11.07	10.52	8.28	7.03	5.73	5.42	5.21	5.83	9.34	11.05	11.60	11.60	
2.45	2.54	2.69	2.78	2.95	3.78	5.86	7.96	8.81	2.49	3.28	3.20	3.25	3.31	3.34	3.40	3.46	3.48	3.53	3.57	3.77	3.71	4.13	3.89	3.91	3.85	3.78	3.67	3.56	3.46	3.42	3.43	3.42	3.44	3.52	3.51	3.49	3.53	3.57	3.83	4.81	4.95	4.75	4.61	4.87	5.18	4.99	4.58	4.48	4.93	7.49	5.36	5.73	6.58	5.59	5.01	4.54	4.30	3.96	3.43	3.02	2.77	2.84	2.79	2.94	1.86	1.94	1.82	1.58	1.55	2.59	2.49	2.43	2.28	2.03	1.91	2.12	2.41	2.59	2.73	2.84	2.94	3.12	3.33	3.36	3.42	3.48	3.47	3.53	3.57	3.58	3.63	3.72	3.78	3.78	3.78	3.78	3.74	3.76	3.95	4.23	4.31	4.14	3.98	3.89	3.85	3.90	3.93	3.94	3.96	3.97	3.98	3.99	4.01	4.03	4.04	4.05	4.06	4.06	4.05	4.03	4.00	3.97	3.95	3.92	3.89	3.86	3.82	3.78	3.72	3.67	3.60	3.52	3.43	3.33	3.22	3.08	2.93	2.73	2.48	2.38	2.48	2.51	2.36	2.20	2.20	2.41	2.71	2.88	2.89	4.78	4.78	4.79	4.60	6.58	6.62	7.27	7.87	8.30	8.59	8.68	8.87	9.42	9.59	9.49	10.03	11.23	9.93	7.07	5.93	5.57	5.11	4.85	5.96	10.00	6.87	12.11	12.11	
2.44	2.55	2.73	2.86	3.09	3.86	6.65	8.57	6.45	3.12	3.19	3.14	3.21	3.26	3.31	3.40	3.46	3.53	3.59	3.91	3.82	3.82	4.15	3.95	3.98	3.95	3.89	3.77	3.63	3.48	3.37	3.37	3.40	3.45	3.53	3.52	3.50	3.53	3.51	3.72	4.50	4.82	4.83	4.84	5.55	5.42	4.99	4.50	4.48	4.75	8.13	6.83	7.80	7.42	6.17	5.09	4.51	4.28	4.13	3.77	3.32	2.91	2.59	2.76	2.65	2.09	1.91	1.69	1.51	1.43	2.46	2.56	2.65	2.56	2.18	1.86	1.95	2.27	2.52	2.69	2.82	2.91	3.05	3.22	3.32	3.40	3.42	3.43	3.50	3.56	3.59	3.61	3.66	3.75	3.77	3.77	3.79	3.76	3.74	3.84	4.09	4.26	4.19	4.05	3.92	3.85	3.88	3.92	3.93	3.95	3.97	3.98	3.98	4.00	4.02	4.03	4.04	4.04	4.05	4.04	4.02	4.00	3.97	3.95	3.92	3.89	3.86	3.82	3.78	3.73	3.68	3.62	3.55	3.45	3.35	3.26	3.15	3.01	2.83	2.59	2.42	2.50	2.65	2.55	2.33	2.24	2.35	2.58	2.81	2.92	4.85	4.79	4.77	4.76	6.69	6.58	6.85	7.66	8.09	8.33	8.60	8.79	9.21	9.44	9.35	9.89	11.31	9.60	6.62	5.73	5.52	4.96	4.18	7.96	5.23	7.04	12.16	12.16	
2.51	2.63	2.81	2.91	3.14	5.01	7.53	8.74	2.55	3.20	3.08	3.10	3.16	3.19	3.26	3.37	3.43	3.56	3.67	3.94	3.93	4.38	4.29	4.27	4.15	4.09	4.03	3.90	3.74	3.58	3.41	3.37	3.43	3.53	3.61	3.60	3.62	3.66	3.67	3.96	4.52	4.85	5.26	5.43	5.47	5.25	5.00	4.46	4.44	2.53	5.03	5.86	6.96	7.70	7.20	5.70	4.68	4.30	4.20	4.02	3.64	3.19	2.85	2.60	2.28	2.11	2.14	2.18	1.56	1.16	2.06	2.41	2.61	2.67	2.41	1.93	1.87	2.13	2.40	2.61	2.78	2.93	3.05	3.12	3.28	3.41	3.38	3.39	3.47	3.53	3.59	3.60	3.63	3.68	3.73	3.75	3.78	3.77	3.76	3.80	3.95	4.14	4.17	4.09	3.97	3.86	3.86	3.90	3.92	3.94	3.96	3.97	3.97	3.98	3.99	4.01	4.03	4.03	4.04	4.03	4.01	3.99	3.97	3.95	3.92	3.90	3.86	3.83	3.78	3.74	3.69	3.63	3.57	3.48	3.38	3.29	3.19	3.07	2.92	2.70	2.44	2.37	2.55	2.62	2.43	2.28	2.32	2.46	2.64	2.84	4.92	4.85	4.78	4.86	4.88	6.90	6.94	7.41	7.97	8.30	8.64	8.93	9.08	9.20	9.33	9.90	11.27	9.58	6.83	5.87	5.67	5.15	4.04	8.11	5.01	11.35	12.00	12.00	
2.56	2.78	3.07	3.10	3.47	5.83	8.45	3.91	3.14	3.04	2.93	2.97	3.04	3.14	3.21	3.25	3.38	3.64	3.85	4.08	4.12	4.44	4.44	4.48	4.38	4.27	4.16	4.03	3.90	3.81	3.70	3.61	3.64	3.74	3.83	3.77	3.77	3.78	3.81	4.10	5.27	5.26	5.52	6.06	5.47	5.41	4.96	4.44	2.38	4.57	4.87	2.73	5.98	7.18	5.74	6.54	5.29	4.46	4.16	4.04	3.80	3.48	3.23	2.97	2.67	2.46	2.27	2.03	1.98	1.63	3.13	2.03	2.46	2.52	2.41	1.98	1.78	2.00	2.28	2.50	2.69	2.89	3.06	3.08	3.24	3.42	3.38	3.38	3.44	3.50	3.56	3.58	3.60	3.65	3.70	3.73	3.77	3.79	3.81	3.82	3.90	4.06	4.13	4.09	4.00	3.88	3.85	3.89	3.91	3.93	3.95	3.97	3.97	3.97	3.97	3.99	4.02	4.02	4.02	4.02	4.00	3.98	3.96	3.95	3.92	3.90	3.87	3.83	3.79	3.75	3.70	3.65	3.59	3.51	3.41	3.33	3.23	3.12	2.98	2.80	2.54	2.31	2.33	2.49	2.44	2.27	2.25	2.36	2.49	2.68	2.91	4.92	4.84	4.90	5.01	4.86	6.90	7.14	7.79	8.31	8.69	9.07	9.20	9.09	9.26	10.03	10.97	9.38	7.11	6.31	5.83	5.42	4.44	8.49	5.11	7.24	8.58	8.58	
2.66	2.91	3.50	3.59	4.26	7.33	8.06	2.94	3.10	2.83	2.67	2.44	2.34	2.49	2.72	3.04	3.41	3.82	4.24	4.27	4.43	4.30	4.35	4.41	4.42	4.38	4.31	4.19	4.08	4.02	3.97	3.90	3.89	4.01	4.12	4.04	3.95	3.98	4.32	4.67	5.02	5.21	6.35	6.43	5.58	4.98	4.89	4.52	4.45	4.52	4.72	5.05	5.58	6.53	7.27	7.00	5.91	4.94	4.30	4.08	3.88	3.66	3.45	3.18	3.02	3.11	2.52	4.78	1.93	2.73	4.50	3.22	2.20	2.41	2.25	1.91	1.68	1.80	2.12	2.38	2.55	2.78	2.98	3.05	3.22	3.38	3.35	3.36	3.42	3.50	3.57	3.57	3.57	3.61	3.68	3.74	3.76	3.79	3.84	3.86	3.86	4.01	4.15	4.12	4.01	3.90	3.85	3.88	3.90	3.92	3.94	3.96	3.97	3.96	3.95	3.97	4.01	4.01	4.01	4.01	4.00	3.98	3.96	3.95	3.92	3.90	3.87	3.84	3.80	3.76	3.72	3.66	3.60	3.54	3.45	3.37	3.28	3.17	3.04	2.90	2.70	2.44	2.28	2.32	2.36	2.27	2.20	2.27	2.37	2.51	2.74	2.91	4.89	4.89	4.96	4.91	6.91	6.84	7.53	8.37	8.74	9.00	9.25	9.11	9.22	10.05	10.55	9.18	7.28	6.51	6.01	5.52	4.76	9.05	5.20	7.20	8.68	8.68	
2.80	2.99	3.78	4.04	6.56	8.44	3.69	2.68	2.11	1.91	1.58	1.47	1.62	2.31	3.18	3.64	3.95	4.21	4.42	4.62	4.49	4.31	4.28	4.31	4.34	4.40	4.44	4.41	4.32	4.25	4.18	4.06	3.98	4.04	4.18	4.36	4.27	4.45	4.48	4.60	5.09	5.50	6.27	6.31	5.66	4.93	4.77	4.59	4.57	4.61	4.72	4.97	5.43	6.12	6.76	6.85	4.43	5.28	4.59	4.19	3.95	3.76	3.58	3.25	2.93	3.00	3.27	3.26	4.67	2.93	4.02	4.39	4.84	2.27	2.11	1.76	1.57	1.62	1.94	2.27	2.45	2.64	2.84	2.95	3.16	3.30	3.30	3.33	3.38	3.48	3.57	3.58	3.57	3.57	3.61	3.69	3.75	3.78	3.83	3.85	3.81	3.89	4.12	4.19	4.05	3.90	3.85	3.87	3.90	3.91	3.93	3.95	3.97	3.95	3.94	3.95	3.99	4.01	3.99	4.00	3.99	3.97	3.95	3.95	3.92	3.90	3.88	3.84	3.81	3.77	3.73	3.68	3.62	3.56	3.49	3.41	3.34	3.23	3.10	2.97	2.82	2.62	2.42	2.28	2.25	2.26	2.21	2.23	2.29	2.37	2.54	2.70	2.85	4.83	4.87	4.90	6.93	6.74	7.22	8.29	8.68	8.79	9.17	9.23	9.22	9.61	9.75	8.69	7.38	6.78	6.14	5.60	5.04	4.98	5.43	7.28	8.83	8.83	
2.90	3.09	3.50	3.68	7.98	11.30	5.03	4.07	2.88	2.14	2.04	1.80	2.22	2.86	3.52	3.75	3.81	3.89	4.22	4.40	4.42	4.39	4.42	4.44	4.40	4.40	4.51	4.62	4.62	4.59	4.54	4.42	4.31	4.29	4.17	4.02	4.15	4.43	5.31	5.53	5.49	5.79	6.10	4.85	2.94	3.03	2.46	4.61	4.62	4.63	4.76	4.99	5.34	5.88	6.46	6.75	6.52	5.96	4.98	4.36	4.10	3.96	3.79	3.40	2.95	3.01	3.28	5.44	4.88	4.40	4.25	4.43	4.51	2.06	1.97	1.59	1.40	1.45	1.75	2.13	2.40	2.57	2.71	2.86	3.08	3.20	3.23	3.29	3.34	3.40	3.50	3.54	3.56	3.58	3.58	3.64	3.73	3.78	3.82	3.84	3.81	3.80	3.99	4.18	4.12	3.96	3.85	3.85	3.89	3.91	3.92	3.94	3.96	3.95	3.93	3.94	3.98	4.00	3.98	3.98	3.99	3.96	3.95	3.94	3.93	3.91	3.89	3.85	3.82	3.78	3.74	3.70	3.64	3.58	3.52	3.45	3.38	3.28	3.16	3.03	2.90	2.76	2.59	2.39	2.24	2.20	2.20	2.24	2.28	2.32	2.44	2.58	2.71	4.76	4.75	4.85	4.85	6.78	6.90	8.02	8.57	8.57	9.04	9.30	9.17	9.26	9.08	8.10	7.22	6.77	5.94	5.39	4.89	5.04	5.54	7.55	10.98	10.98	
3.05	3.17	2.78	2.56	5.97	11.82	5.44	3.63	2.59	1.72	2.14	2.97	3.23	3.24	3.27	3.41	3.55	3.54	3.95	4.06	4.18	4.34	4.51	4.68	4.66	4.56	4.61	4.72	4.77	4.78	4.79	4.82	4.67	4.41	3.82	3.72	4.37	4.58	5.16	5.67	5.95	6.37	5.49	5.53	2.50	2.56	4.79	4.67	4.69	4.68	4.73	3.15	5.29	5.81	4.38	4.57	6.69	4.72	5.54	4.75	4.37	4.25	4.08	3.61	3.09	2.98	5.41	3.44	5.23	4.54	4.23	4.26	1.49	2.00	1.92	1.45	1.14	1.17	1.48	1.91	2.27	2.52	2.63	2.77	2.99	3.10	3.14	3.24	3.32	3.37	3.44	3.50	3.53	3.55	3.56	3.62	3.72	3.78	3.81	3.84	3.83	3.79	3.88	4.07	4.14	4.04	3.88	3.83	3.88	3.90	3.91	3.93	3.95	3.95	3.93	3.92	3.96	3.98	3.97	3.97	3.98	3.96	3.94	3.94	3.93	3.91	3.89	3.86	3.83	3.80	3.76	3.71	3.66	3.60	3.55	3.49	3.42	3.33	3.23	3.11	2.98	2.85	2.72	2.56	2.35	2.17	2.10	2.18	2.27	2.29	2.37	2.50	2.64	2.77	4.72	4.88	4.99	4.61	6.65	7.72	8.39	8.32	8.72	8.89	8.99	9.35	9.08	7.57	7.09	6.07	5.61	4.96	8.65	5.03	10.01	11.53	12.94	12.94	
3.15	3.14	2.47	2.66	4.56	10.17	4.82	3.02	2.87	2.53	2.91	3.34	3.52	3.50	3.31	3.43	3.38	3.77	3.95	4.02	4.13	4.34	4.54	4.81	4.97	4.94	4.95	5.00	5.14	5.00	4.88	4.87	4.80	4.64	3.69	4.11	4.78	4.94	5.34	5.79	6.06	6.18	4.71	5.31	4.78	4.54	4.38	3.99	3.85	3.75	3.46	3.35	5.17	3.94	4.23	6.57	6.67	6.59	6.08	5.33	4.83	4.53	4.31	3.85	3.28	3.03	3.12	3.39	3.43	4.92	4.32	1.25	3.38	2.07	2.10	1.54	0.99	0.83	1.14	1.61	2.02	2.36	2.57	2.68	2.89	3.02	3.04	3.17	3.31	3.36	3.42	3.48	3.49	3.49	3.51	3.59	3.68	3.74	3.77	3.81	3.84	3.81	3.84	3.98	4.09	4.09	3.95	3.84	3.86	3.89	3.90	3.92	3.94	3.95	3.93	3.92	3.94	3.97	3.97	3.96	3.97	3.96	3.94	3.94	3.93	3.91	3.89	3.87	3.85	3.82	3.78	3.73	3.68	3.63	3.57	3.52	3.45	3.37	3.29	3.20	3.07	2.94	2.82	2.69	2.50	2.26	2.06	2.02	2.11	2.17	2.25	2.36	2.48	2.69	4.77	4.99	5.11	4.82	6.60	7.46	8.21	8.19	8.47	8.34	8.56	9.18	9.09	7.85	7.28	6.08	5.56	4.77	4.51	5.26	9.95	11.97	13.57	13.57	
3.15	3.12	2.70	3.33	3.31	9.79	6.03	3.21	2.73	2.63	2.76	2.99	3.26	3.43	3.35	3.29	3.10	3.47	3.79	4.00	4.14	4.37	4.54	4.71	4.94	5.12	5.31	5.51	5.62	5.40	5.24	5.32	5.04	4.27	3.61	4.27	4.98	5.36	5.88	6.33	6.63	5.72	4.67	3.75	4.79	4.67	4.53	2.54	2.32	2.22	3.55	3.32	3.22	5.49	6.10	6.49	6.59	6.62	6.34	5.95	5.48	4.97	4.51	4.10	3.57	3.28	3.26	3.34	3.31	3.26	4.58	2.79	3.19	2.06	2.33	1.83	1.09	0.69	0.86	1.29	1.71	2.12	2.41	2.55	2.77	2.94	2.94	3.04	3.23	3.34	3.40	3.45	3.45	3.45	3.49	3.55	3.64	3.69	3.72	3.79	3.84	3.83	3.82	3.91	4.03	4.10	4.03	3.86	3.83	3.88	3.90	3.91	3.93	3.95	3.93	3.92	3.93	3.95	3.96	3.95	3.96	3.95	3.93	3.93	3.93	3.91	3.90	3.88	3.86	3.83	3.79	3.75	3.70	3.65	3.60	3.55	3.48	3.40	3.34	3.28	3.16	3.02	2.90	2.78	2.63	2.42	2.17	1.98	1.93	1.98	2.12	2.25	2.35	2.58	2.84	4.99	5.22	4.99	6.62	7.18	7.97	8.24	8.51	8.08	8.15	8.74	8.94	8.04	6.48	6.22	5.65	4.58	8.41	9.37	10.40	8.16	9.80	9.80	
3.17	3.19	3.03	3.63	3.81	10.29	6.93	4.35	3.25	3.08	3.14	3.10	3.13	3.20	3.59	3.45	3.51	3.48	3.67	3.90	4.08	4.33	4.55	4.68	4.81	4.96	5.19	5.93	5.99	5.86	6.21	6.04	5.43	4.21	3.63	4.56	5.22	5.49	5.86	6.38	6.89	5.09	4.72	2.93	2.20	2.50	2.42	2.20	2.24	2.05	1.97	3.41	3.25	3.30	3.77	4.17	6.37	6.48	6.47	6.28	5.77	5.59	4.89	4.38	3.97	3.60	3.48	3.35	3.36	3.33	3.01	2.91	3.03	1.34	2.49	2.16	1.31	0.70	0.74	1.11	1.41	1.82	2.19	2.36	2.59	2.83	2.86	2.90	3.09	3.26	3.38	3.43	3.39	3.41	3.46	3.52	3.60	3.66	3.68	3.74	3.82	3.83	3.81	3.86	3.97	4.08	4.11	3.95	3.83	3.86	3.89	3.91	3.92	3.94	3.94	3.92	3.92	3.94	3.95	3.95	3.95	3.95	3.93	3.92	3.92	3.91	3.90	3.89	3.86	3.84	3.81	3.77	3.73	3.68	3.63	3.57	3.51	3.44	3.38	3.34	3.25	3.12	2.98	2.86	2.73	2.57	2.35	2.11	1.92	1.84	1.95	2.12	2.23	2.47	2.77	4.94	5.28	5.30	4.89	6.95	7.55	8.08	8.30	7.92	7.74	8.10	8.72	8.19	6.40	6.31	5.80	4.73	8.21	9.14	5.98	8.13	9.84	9.84	
3.21	3.23	3.26	3.91	3.76	10.68	7.58	5.40	4.37	3.47	3.21	3.28	3.20	3.02	3.50	3.65	3.82	3.80	3.83	3.91	4.05	4.26	4.49	4.71	4.88	4.94	4.93	5.75	5.92	6.69	6.49	6.26	5.73	4.17	3.94	5.22	5.58	5.68	6.04	6.58	6.82	4.50	3.81	2.70	2.02	2.06	2.63	2.48	2.46	1.97	3.82	3.59	3.33	5.04	5.51	5.84	6.05	6.20	6.20	6.20	6.18	5.50	5.19	4.57	4.27	3.97	3.80	3.65	3.53	2.73	5.02	4.49	2.89	3.41	1.53	2.54	1.64	0.68	0.54	0.96	1.27	1.54	1.91	2.14	2.36	2.66	2.80	2.81	2.94	3.15	3.34	3.42	3.37	3.37	3.44	3.49	3.55	3.61	3.63	3.68	3.76	3.80	3.80	3.81	3.90	4.01	4.12	4.06	3.86	3.84	3.89	3.90	3.91	3.93	3.94	3.92	3.91	3.92	3.94	3.94	3.94	3.94	3.93	3.92	3.92	3.91	3.90	3.89	3.87	3.85	3.82	3.79	3.75	3.71	3.65	3.59	3.53	3.47	3.42	3.38	3.31	3.20	3.06	2.93	2.81	2.68	2.51	2.30	2.06	1.86	1.80	1.89	2.04	2.31	2.66	3.02	5.29	5.54	5.29	7.16	7.36	7.80	7.78	7.76	7.34	7.52	8.07	8.50	6.21	6.24	5.98	5.24	8.63	8.88	5.76	8.14	14.45	14.45	
3.13	3.12	3.21	3.91	3.90	10.50	9.21	6.98	5.41	4.18	3.76	3.83	4.50	3.49	3.48	3.63	3.83	3.88	3.93	3.99	4.07	4.26	4.44	4.61	4.86	4.93	5.47	5.55	5.66	6.88	6.74	6.17	5.68	4.51	4.23	5.05	5.60	5.98	6.42	7.08	6.76	3.45	3.53	2.51	2.19	2.53	2.63	2.68	2.16	2.39	3.97	3.79	3.46	3.35	3.56	5.71	5.84	3.90	6.01	5.90	5.91	6.00	5.16	4.47	4.29	4.23	4.11	3.97	3.75	2.98	3.18	2.83	2.84	2.99	5.03	1.83	2.23	1.05	0.39	0.68	1.17	1.42	1.65	1.87	2.07	2.39	2.68	2.75	2.84	3.04	3.25	3.39	3.37	3.35	3.41	3.46	3.52	3.56	3.60	3.65	3.69	3.75	3.77	3.77	3.84	3.94	4.06	4.10	3.92	3.82	3.88	3.89	3.90	3.92	3.94	3.92	3.90	3.91	3.93	3.94	3.93	3.93	3.93	3.92	3.92	3.91	3.90	3.89	3.88	3.86	3.84	3.81	3.77	3.73	3.68	3.61	3.56	3.50	3.45	3.41	3.37	3.28	3.15	3.02	2.90	2.79	2.65	2.47	2.26	2.01	1.78	1.71	1.84	2.14	2.46	2.85	5.16	5.66	5.65	5.25	7.36	7.51	7.37	7.52	7.15	7.40	7.81	8.24	5.95	5.79	5.71	5.44	8.89	4.96	5.81	8.19	12.74	12.74	
2.95	2.96	3.02	3.29	3.18	9.13	12.26	8.02	6.17	5.26	4.89	4.77	4.56	4.17	4.05	3.95	3.86	3.85	3.90	3.99	4.11	4.33	4.57	4.72	4.85	4.89	5.59	5.46	6.62	7.11	7.14	6.57	6.21	5.15	4.72	5.09	5.32	5.59	5.93	6.75	5.24	3.49	3.05	2.46	2.10	2.58	2.07	2.60	2.70	2.77	2.78	3.95	3.72	3.51	3.58	3.84	5.73	3.89	5.96	5.89	6.15	6.34	5.28	4.25	4.06	4.26	4.34	4.27	3.94	3.33	2.71	3.05	3.00	4.46	3.27	4.02	1.84	1.88	0.88	0.62	1.02	1.41	1.55	1.64	1.77	2.06	2.44	2.67	2.74	2.89	3.12	3.30	3.33	3.31	3.36	3.43	3.48	3.51	3.57	3.65	3.67	3.69	3.74	3.74	3.78	3.88	4.01	4.10	3.98	3.84	3.84	3.88	3.89	3.91	3.93	3.92	3.91	3.91	3.92	3.93	3.93	3.93	3.93	3.92	3.91	3.91	3.89	3.90	3.88	3.86	3.85	3.83	3.79	3.75	3.69	3.63	3.58	3.53	3.48	3.44	3.40	3.34	3.23	3.11	2.99	2.90	2.77	2.62	2.43	2.20	1.92	1.70	1.72	1.99	2.27	2.60	5.00	5.71	5.85	5.51	5.19	7.00	6.97	7.15	7.15	7.48	7.83	8.24	5.45	5.06	4.97	8.95	5.08	5.25	5.97	8.20	14.38	14.38	
2.85	2.83	2.79	2.30	2.24	3.61	11.67	8.17	6.45	5.85	5.46	5.22	4.94	4.82	4.58	4.29	3.99	3.84	3.84	3.93	4.03	4.21	4.47	4.71	4.88	5.62	5.43	6.26	6.73	7.09	7.02	6.68	6.62	6.10	5.64	5.65	5.57	5.53	5.70	6.35	3.67	4.19	3.06	2.29	2.88	1.70	2.82	2.69	2.80	2.85	2.83	2.73	2.88	2.84	2.60	3.75	5.71	3.88	6.03	6.10	6.48	6.56	5.83	4.37	3.80	3.99	4.32	4.44	4.28	3.77	3.09	3.29	3.25	3.06	4.50	3.52	1.58	2.53	1.85	1.18	1.09	1.38	1.53	1.52	1.53	1.74	2.15	2.53	2.68	2.78	2.98	3.17	3.26	3.27	3.32	3.40	3.45	3.46	3.53	3.63	3.65	3.65	3.70	3.74	3.72	3.81	3.98	4.10	4.05	3.90	3.83	3.85	3.88	3.90	3.92	3.92	3.92	3.91	3.91	3.91	3.92	3.93	3.92	3.92	3.91	3.90	3.89	3.90	3.89	3.87	3.86	3.84	3.81	3.76	3.72	3.66	3.61	3.56	3.51	3.47	3.43	3.38	3.30	3.20	3.09	2.99	2.86	2.72	2.56	2.36	2.10	1.79	1.65	1.83	2.11	2.42	4.85	5.56	5.96	5.69	5.34	5.19	5.34	5.48	5.45	7.39	7.56	7.70	5.27	4.91	8.30	4.91	5.23	5.46	6.28	12.45	14.12	14.12	
2.66	2.62	2.50	1.84	2.23	2.57	10.26	8.86	7.19	6.30	5.68	5.19	4.88	4.77	4.66	4.34	4.05	3.87	3.82	3.87	3.91	4.01	4.19	4.37	4.60	5.68	5.39	6.52	7.00	7.15	7.00	6.52	6.15	5.85	5.65	5.63	5.41	5.23	5.85	6.17	3.79	5.38	3.40	2.66	2.39	1.97	2.54	2.93	2.87	2.79	2.89	3.04	3.64	3.06	3.21	3.66	5.71	3.89	6.04	6.44	6.78	6.92	6.19	5.10	3.97	3.77	4.12	4.42	4.45	4.11	3.72	3.48	3.35	3.28	4.70	3.12	5.01	1.32	2.16	1.84	1.56	1.49	1.49	1.42	1.35	1.44	1.81	2.28	2.57	2.71	2.87	3.03	3.15	3.23	3.29	3.37	3.41	3.42	3.48	3.59	3.62	3.61	3.65	3.72	3.69	3.71	3.90	4.09	4.10	4.00	3.88	3.82	3.85	3.89	3.90	3.91	3.92	3.91	3.89	3.90	3.91	3.92	3.92	3.91	3.91	3.90	3.89	3.89	3.89	3.87	3.87	3.85	3.82	3.78	3.74	3.69	3.63	3.58	3.54	3.50	3.46	3.42	3.36	3.27	3.17	3.07	2.94	2.81	2.66	2.48	2.24	1.90	1.61	1.64	1.93	2.28	2.81	5.31	5.84	5.85	5.63	5.36	5.50	5.59	5.58	5.65	5.70	4.89	5.06	6.31	4.69	4.99	5.40	6.04	6.63	8.36	13.92	13.92	
2.44	2.41	2.26	2.04	2.71	2.36	9.75	9.24	7.58	6.46	5.81	5.28	5.07	4.77	4.68	4.43	4.21	4.01	3.89	3.85	3.87	3.97	4.15	4.18	4.29	5.32	6.63	7.05	7.47	7.50	7.43	7.09	6.63	6.12	5.80	5.68	4.93	4.08	5.27	4.61	3.88	4.24	3.38	2.84	2.68	2.37	2.67	2.91	2.79	2.77	3.02	3.03	2.67	3.49	5.07	5.37	3.53	3.78	3.77	4.07	4.55	7.16	6.79	5.76	4.88	4.03	4.00	4.33	4.52	4.35	3.89	3.33	3.46	3.42	3.26	4.59	3.12	3.30	4.72	1.90	2.05	1.90	1.65	1.34	1.13	1.18	1.44	1.90	2.35	2.61	2.77	2.91	3.00	3.12	3.23	3.31	3.38	3.39	3.43	3.53	3.57	3.57	3.61	3.66	3.66	3.65	3.77	3.99	4.09	4.06	3.98	3.85	3.83	3.87	3.89	3.90	3.92	3.92	3.89	3.88	3.90	3.92	3.92	3.91	3.90	3.90	3.89	3.89	3.89	3.88	3.87	3.86	3.83	3.79	3.76	3.71	3.66	3.61	3.57	3.53	3.49	3.45	3.40	3.32	3.24	3.15	3.02	2.89	2.76	2.60	2.39	2.08	1.73	1.58	1.75	2.08	2.55	3.39	5.77	5.90	5.82	5.47	5.43	5.40	5.52	5.69	4.71	4.78	6.44	4.79	4.68	5.04	6.04	6.19	6.82	11.57	13.82	13.82	
2.33	2.28	2.18	2.18	3.10	2.93	9.45	9.37	7.77	6.55	5.72	5.31	4.95	4.86	4.71	4.47	4.29	4.10	3.92	3.78	3.77	3.88	4.05	4.10	5.08	5.03	6.52	6.90	7.27	7.22	7.22	7.28	7.30	6.86	6.41	6.02	4.22	1.97	2.31	5.59	5.08	4.45	3.75	3.24	2.93	2.86	2.97	2.76	2.68	3.03	2.94	2.83	4.16	3.95	3.84	3.84	3.91	3.71	3.68	3.84	6.87	5.23	7.13	6.56	6.14	5.05	4.43	4.45	4.60	4.55	4.21	3.72	3.63	3.58	3.46	3.24	3.01	2.94	2.92	3.29	2.10	2.42	2.19	1.58	1.05	0.92	1.08	1.45	1.95	2.39	2.66	2.81	2.88	2.98	3.11	3.22	3.34	3.37	3.39	3.48	3.52	3.53	3.58	3.61	3.61	3.61	3.67	3.85	4.02	4.06	4.05	3.95	3.84	3.84	3.87	3.90	3.91	3.92	3.90	3.88	3.89	3.91	3.91	3.90	3.90	3.90	3.90	3.89	3.89	3.88	3.87	3.87	3.85	3.81	3.78	3.74	3.69	3.65	3.60	3.55	3.51	3.47	3.43	3.37	3.31	3.22	3.11	2.98	2.87	2.73	2.55	2.30	1.99	1.73	1.68	1.88	2.36	3.19	3.91	5.84	5.74	5.70	5.33	5.11	5.36	5.57	4.56	6.15	4.61	4.67	8.02	5.72	6.08	6.28	10.70	12.14	13.96	13.96	
2.27	2.21	2.07	2.08	3.08	2.92	9.20	9.06	8.19	6.98	5.84	5.19	4.98	4.76	4.59	4.33	4.18	4.05	3.88	3.73	3.69	3.78	3.90	3.96	4.94	4.82	6.41	6.53	7.04	7.09	7.17	7.48	7.51	7.10	6.57	5.67	1.75	2.73	4.13	5.00	5.42	5.27	4.40	3.80	3.35	3.30	3.16	2.61	2.80	3.31	3.01	2.79	4.66	4.32	2.84	3.01	4.10	3.95	3.93	6.05	6.51	7.11	7.34	7.01	7.01	6.24	5.45	4.99	4.81	4.71	4.45	4.11	3.86	3.67	3.49	3.43	3.19	2.90	2.71	2.77	3.35	2.51	2.77	2.20	1.36	0.90	0.88	1.11	1.44	1.98	2.45	2.67	2.78	2.87	2.97	3.09	3.25	3.35	3.37	3.43	3.47	3.48	3.55	3.58	3.57	3.60	3.62	3.71	3.89	4.02	4.05	4.01	3.91	3.83	3.83	3.87	3.90	3.92	3.90	3.88	3.89	3.90	3.90	3.90	3.90	3.90	3.89	3.89	3.89	3.88	3.88	3.87	3.86	3.83	3.80	3.77	3.72	3.67	3.63	3.58	3.53	3.50	3.46	3.42	3.36	3.29	3.19	3.07	2.97	2.85	2.70	2.50	2.26	2.00	1.74	1.77	2.27	3.00	3.68	3.92	5.56	5.93	5.40	4.09	5.53	5.71	6.04	6.12	4.37	4.58	4.58	5.55	5.96	9.85	10.96	12.83	13.84	13.84	
2.27	2.12	1.90	1.82	2.45	2.27	8.97	9.69	7.92	6.89	6.06	5.15	4.87	4.69	4.53	4.32	4.11	3.98	3.85	3.71	3.73	3.87	3.95	4.75	4.60	5.81	6.26	6.72	7.20	7.32	7.50	7.93	8.15	7.72	7.27	3.09	2.93	3.63	4.79	5.17	5.27	5.86	5.64	4.19	3.90	3.48	3.11	2.58	3.03	3.20	3.06	2.68	3.20	3.43	3.28	4.20	3.99	3.96	3.99	4.07	6.13	6.59	7.14	7.26	7.44	7.03	6.51	5.94	5.44	5.01	4.64	4.38	4.15	3.79	3.67	3.53	3.28	2.99	2.69	2.75	2.94	2.17	1.93	2.79	2.19	1.47	1.06	1.07	1.19	1.56	2.10	2.46	2.66	2.79	2.89	3.00	3.15	3.29	3.34	3.38	3.41	3.42	3.49	3.55	3.54	3.58	3.60	3.62	3.74	3.93	4.03	4.03	3.99	3.90	3.81	3.83	3.88	3.91	3.91	3.89	3.88	3.88	3.89	3.90	3.90	3.90	3.89	3.89	3.89	3.89	3.88	3.87	3.86	3.84	3.81	3.78	3.75	3.70	3.66	3.61	3.56	3.53	3.50	3.46	3.41	3.35	3.26	3.15	3.06	2.97	2.84	2.67	2.48	2.25	1.93	1.81	2.20	2.90	3.45	3.70	3.79	4.25	5.65	4.24	4.03	6.18	6.09	4.23	4.33	4.47	7.91	8.24	9.18	9.91	10.69	12.50	13.37	13.37	
2.20	2.05	1.75	1.57	1.60	1.22	7.43	11.13	7.01	6.26	5.61	5.18	4.69	4.51	4.42	4.31	4.11	3.93	3.79	3.65	3.68	3.87	4.04	4.74	5.66	5.88	6.05	6.64	6.98	7.15	7.46	7.96	8.30	8.33	8.95	3.68	3.77	3.80	4.58	5.09	4.95	5.43	6.27	5.75	4.44	3.70	2.99	2.96	3.45	3.71	3.71	3.90	3.92	3.77	3.63	4.31	4.02	3.97	5.55	5.77	5.85	5.97	5.42	7.18	7.42	6.88	7.25	7.01	6.53	5.85	5.12	4.72	4.46	4.16	3.82	3.43	3.04	2.58	2.97	2.77	2.70	1.83	1.64	1.78	2.71	2.29	1.78	1.48	1.36	1.43	1.75	2.15	2.48	2.69	2.80	2.91	3.05	3.21	3.30	3.33	3.35	3.37	3.42	3.46	3.49	3.54	3.57	3.58	3.64	3.79	3.97	4.05	4.04	4.01	3.89	3.81	3.83	3.87	3.89	3.90	3.89	3.86	3.87	3.89	3.90	3.89	3.89	3.89	3.88	3.89	3.89	3.88	3.87	3.85	3.83	3.80	3.77	3.73	3.69	3.64	3.60	3.56	3.53	3.49	3.45	3.40	3.32	3.23	3.15	3.08	2.97	2.82	2.65	2.45	2.16	1.96	2.20	2.78	3.22	3.42	3.58	4.06	4.45	4.26	4.11	6.03	4.36	4.37	4.45	5.85	7.92	8.47	9.17	9.72	10.47	12.40	13.44	13.44	
2.23	2.07	1.76	1.44	1.16	0.97	5.70	11.75	7.21	5.67	5.19	5.13	4.70	4.41	4.26	4.22	4.10	3.95	3.80	3.70	3.70	3.83	4.75	4.74	6.19	6.40	6.46	6.60	6.84	7.14	7.48	7.93	8.14	8.62	6.48	4.48	4.05	3.79	4.25	5.01	4.83	4.70	4.58	5.39	5.43	3.90	3.36	3.23	3.40	3.65	3.95	4.00	3.83	3.91	3.77	4.52	4.20	4.04	5.50	3.66	5.78	5.68	5.00	6.25	6.35	7.13	7.38	7.55	7.46	7.13	6.50	5.75	5.17	4.78	4.49	4.06	3.48	2.89	2.50	2.24	2.88	1.77	1.71	1.59	2.52	2.48	2.23	1.91	1.73	1.61	1.61	1.85	2.21	2.50	2.67	2.79	2.91	3.06	3.21	3.28	3.30	3.33	3.37	3.39	3.42	3.50	3.54	3.55	3.59	3.66	3.81	4.00	4.06	4.04	4.00	3.91	3.85	3.84	3.86	3.89	3.90	3.88	3.85	3.87	3.89	3.88	3.88	3.89	3.88	3.88	3.89	3.88	3.87	3.86	3.83	3.81	3.79	3.75	3.72	3.68	3.63	3.59	3.56	3.53	3.48	3.44	3.38	3.30	3.24	3.19	3.09	2.94	2.79	2.62	2.35	2.15	2.28	2.64	2.96	3.16	3.38	3.81	4.17	4.10	3.99	5.86	5.96	6.02	6.13	6.02	8.08	8.35	9.03	9.83	10.63	12.39	13.83	13.83	
2.31	2.18	1.85	1.51	1.15	1.32	4.61	11.02	6.91	5.17	5.33	5.17	4.82	4.48	4.24	4.18	4.09	3.97	3.83	3.76	3.72	3.81	4.73	5.97	6.20	6.10	6.49	6.69	7.03	7.57	7.95	8.28	8.48	9.17	4.69	4.44	4.17	3.79	3.46	4.00	3.91	4.42	4.02	5.06	5.30	4.42	4.08	4.04	4.05	4.11	4.33	4.44	4.51	4.56	4.03	4.09	4.53	4.15	5.56	5.62	5.72	4.18	4.92	5.92	6.47	6.73	6.44	6.10	6.75	7.56	7.60	7.15	6.45	6.01	5.78	5.33	4.54	3.59	2.99	2.74	2.54	2.26	2.10	2.05	2.08	2.23	2.30	2.17	2.03	1.90	1.77	1.82	2.01	2.27	2.50	2.67	2.80	2.92	3.04	3.17	3.24	3.28	3.32	3.34	3.37	3.44	3.50	3.52	3.56	3.59	3.65	3.84	4.02	4.04	4.02	4.01	4.00	3.92	3.86	3.87	3.91	3.92	3.89	3.87	3.88	3.88	3.87	3.88	3.88	3.88	3.88	3.88	3.87	3.88	3.86	3.83	3.80	3.77	3.74	3.71	3.66	3.63	3.60	3.57	3.53	3.48	3.43	3.36	3.32	3.30	3.21	3.06	2.94	2.81	2.58	2.37	2.40	2.57	2.74	2.93	3.17	3.53	3.83	3.84	3.81	5.88	6.02	6.19	6.36	6.34	6.18	8.32	8.86	9.75	10.53	12.37	13.84	13.84	
2.38	2.25	1.95	1.63	1.33	1.47	1.40	10.10	7.02	5.65	5.26	5.08	4.76	4.52	4.25	4.13	4.02	3.90	3.72	3.55	3.40	3.51	4.66	6.48	6.45	6.46	6.70	7.06	7.35	7.85	8.40	8.77	9.44	5.33	4.49	4.18	3.77	3.10	2.25	2.12	2.94	3.45	3.59	3.71	5.16	4.99	4.83	4.98	4.80	4.57	4.73	4.83	4.76	5.07	5.48	5.16	4.64	4.19	4.01	4.49	4.59	4.27	4.38	5.08	5.63	6.20	6.52	6.45	6.95	6.85	6.93	6.21	7.22	6.81	6.69	6.62	6.12	5.02	3.98	3.46	3.27	3.19	2.88	2.34	1.95	1.98	2.23	2.30	2.21	2.08	2.00	2.03	2.07	2.14	2.33	2.55	2.71	2.80	2.87	2.98	3.11	3.19	3.23	3.27	3.32	3.37	3.43	3.50	3.54	3.56	3.57	3.66	3.87	4.02	4.00	3.96	4.03	4.04	3.92	3.86	3.90	3.92	3.92	3.92	3.91	3.89	3.87	3.88	3.89	3.89	3.89	3.88	3.87	3.89	3.90	3.87	3.84	3.81	3.78	3.75	3.71	3.67	3.64	3.61	3.58	3.53	3.48	3.43	3.39	3.38	3.31	3.18	3.07	3.00	2.84	2.64	2.54	2.56	2.64	2.77	2.95	3.24	3.50	3.58	3.68	3.85	5.90	6.13	6.42	6.47	6.41	6.26	8.66	9.47	10.48	12.55	13.89	13.89	
2.45	2.34	2.05	1.75	1.51	1.46	0.92	9.79	7.46	6.03	5.39	5.04	4.72	4.54	4.27	4.12	3.98	3.86	3.66	3.29	2.93	4.24	4.20	6.66	6.84	7.14	7.17	7.33	7.64	8.16	8.72	9.45	6.26	5.92	4.87	4.30	3.54	2.84	2.48	2.05	4.21	2.05	2.82	3.87	3.82	4.32	4.75	5.07	5.14	5.03	4.94	4.93	5.12	5.23	5.59	5.57	5.15	5.26	5.38	5.39	5.36	5.02	5.05	5.43	5.38	5.55	5.87	5.74	5.73	6.09	6.28	6.73	6.53	5.86	6.12	6.31	5.57	6.00	5.38	4.42	3.96	3.90	3.77	3.30	2.50	2.04	2.17	2.35	2.29	2.16	2.10	2.19	2.23	2.18	2.24	2.41	2.63	2.76	2.80	2.84	2.92	3.04	3.12	3.17	3.24	3.29	3.33	3.43	3.52	3.54	3.56	3.58	3.67	3.88	4.00	3.95	3.96	4.04	3.99	3.89	3.88	3.88	3.89	3.92	3.94	3.92	3.89	3.88	3.88	3.90	3.91	3.90	3.88	3.87	3.89	3.90	3.87	3.85	3.81	3.79	3.77	3.72	3.67	3.64	3.61	3.59	3.54	3.50	3.48	3.45	3.39	3.28	3.17	3.12	3.04	2.87	2.71	2.61	2.59	2.63	2.74	2.99	3.22	3.31	3.48	3.75	5.82	5.99	6.41	6.50	6.35	6.20	8.31	8.73	9.77	12.35	14.03	14.03	
2.57	2.46	2.15	1.85	1.52	1.34	0.91	8.41	7.69	6.00	5.46	5.09	4.72	4.55	4.30	4.12	4.00	3.94	3.71	3.20	2.65	3.93	3.65	6.44	6.94	7.56	7.29	7.35	7.77	8.35	8.92	6.68	6.51	5.83	4.80	4.09	3.47	3.19	2.99	2.85	2.79	2.69	2.65	3.22	3.70	3.98	4.25	4.60	4.80	4.83	4.92	5.01	5.04	5.05	5.11	5.32	4.85	4.86	5.23	5.28	5.24	5.24	5.03	5.21	5.20	5.17	5.41	5.42	5.32	5.48	5.42	5.56	5.68	5.46	5.48	5.80	6.61	6.08	5.17	4.45	3.53	3.05	3.01	3.44	3.10	2.60	1.84	2.44	2.40	2.28	2.21	2.26	2.30	2.26	2.23	2.31	2.49	2.66	2.77	2.80	2.79	2.84	2.97	3.05	3.13	3.21	3.24	3.32	3.45	3.50	3.53	3.57	3.59	3.67	3.86	3.99	4.01	4.02	3.99	3.95	3.92	3.89	3.86	3.88	3.91	3.92	3.90	3.89	3.87	3.87	3.90	3.91	3.89	3.85	3.85	3.88	3.88	3.86	3.83	3.80	3.80	3.78	3.73	3.67	3.65	3.63	3.58	3.56	3.55	3.52	3.47	3.39	3.29	3.22	3.15	3.03	2.87	2.73	2.59	2.50	2.57	2.82	2.99	3.00	3.16	3.50	3.69	5.76	6.21	6.37	6.16	6.07	6.10	6.24	8.66	11.52	13.86	13.86	
2.66	2.58	2.30	1.98	1.58	1.20	1.01	8.58	7.43	5.92	5.41	5.07	4.75	4.58	4.40	4.25	4.18	4.25	3.98	3.35	2.69	3.74	3.39	5.80	6.63	7.51	7.59	7.61	7.84	7.31	7.12	7.07	6.71	5.11	3.93	3.19	3.06	3.19	3.40	3.63	3.82	4.09	4.23	4.05	4.06	4.16	4.05	4.24	4.39	4.50	4.57	4.74	4.82	4.77	4.89	5.22	5.17	5.09	5.15	5.01	4.64	4.62	4.61	4.91	4.96	4.80	4.93	5.01	4.90	5.00	4.93	4.88	4.96	4.91	4.63	4.62	5.54	5.97	5.41	4.60	3.85	3.42	3.28	3.69	3.44	3.15	2.82	2.67	2.56	2.43	2.38	2.37	2.39	2.34	2.26	2.30	2.41	2.52	2.61	2.70	2.70	2.64	2.75	2.90	3.00	3.11	3.17	3.24	3.35	3.43	3.49	3.54	3.58	3.58	3.64	3.85	4.04	4.08	4.01	3.96	3.96	3.94	3.89	3.87	3.89	3.89	3.89	3.90	3.88	3.85	3.86	3.91	3.90	3.85	3.84	3.86	3.86	3.85	3.83	3.82	3.81	3.80	3.76	3.71	3.69	3.68	3.62	3.59	3.60	3.57	3.52	3.48	3.41	3.33	3.25	3.14	3.02	2.87	2.71	2.56	2.55	2.71	2.78	2.79	2.93	3.21	3.46	3.69	5.90	6.18	6.23	6.24	6.37	6.54	6.60	11.13	13.91	13.91	
2.78	2.72	2.47	2.18	1.78	1.17	1.13	6.35	7.24	5.91	5.42	5.10	4.79	4.64	4.54	4.51	4.53	4.67	4.61	3.83	3.29	3.00	3.18	2.81	6.06	3.58	3.95	3.87	4.58	4.22	7.34	7.30	6.05	4.65	3.45	3.12	3.27	3.76	4.08	4.06	4.02	4.13	4.41	4.41	4.31	4.30	4.20	4.13	4.07	4.41	4.44	4.60	4.66	4.60	4.72	5.00	5.12	5.04	4.89	5.08	4.44	4.06	4.17	4.43	4.53	4.29	4.28	4.50	4.58	4.60	4.53	4.61	4.66	4.56	4.38	4.31	5.08	5.24	5.27	5.01	4.46	3.99	3.27	4.00	3.99	3.39	2.89	3.12	2.91	2.72	2.58	2.45	2.46	2.44	2.34	2.37	2.45	2.50	2.52	2.58	2.64	2.48	2.45	2.68	2.87	3.00	3.10	3.19	3.28	3.37	3.45	3.50	3.54	3.57	3.55	3.63	3.86	4.07	4.09	4.00	3.96	3.96	3.94	3.90	3.90	3.91	3.90	3.90	3.89	3.86	3.85	3.89	3.91	3.87	3.86	3.88	3.88	3.85	3.85	3.85	3.84	3.83	3.78	3.74	3.73	3.72	3.67	3.65	3.65	3.64	3.59	3.55	3.49	3.43	3.35	3.25	3.12	3.00	2.89	2.78	2.69	2.63	2.61	2.65	2.83	3.06	3.28	3.56	3.99	4.39	6.45	6.51	6.59	6.74	6.78	11.21	13.74	13.74	
2.90	2.86	2.67	2.41	2.02	1.28	1.48	6.02	6.89	5.76	5.34	5.10	4.79	4.62	4.53	4.50	4.49	5.38	5.00	4.32	3.59	3.12	2.45	4.86	5.60	3.17	3.75	3.85	3.88	4.43	4.62	7.40	7.46	4.38	4.01	4.16	4.24	4.36	4.63	4.47	4.20	3.89	3.82	4.23	4.16	4.21	4.20	4.08	3.37	3.76	4.40	4.55	4.61	4.57	4.68	4.89	4.23	4.13	4.42	4.58	4.05	3.28	2.92	3.73	4.18	4.29	4.37	4.37	4.39	4.43	4.25	4.24	4.24	4.10	4.00	4.99	4.83	4.87	4.88	4.69	4.32	4.19	3.92	3.59	3.37	3.49	3.49	3.34	3.28	3.20	2.96	2.61	2.51	2.52	2.47	2.50	2.51	2.53	2.57	2.62	2.69	2.45	2.16	2.37	2.72	2.89	3.00	3.12	3.22	3.30	3.40	3.47	3.50	3.54	3.56	3.55	3.64	3.86	4.03	4.10	4.07	3.98	3.95	3.92	3.90	3.91	3.91	3.90	3.87	3.86	3.87	3.88	3.90	3.89	3.88	3.89	3.88	3.86	3.87	3.86	3.85	3.86	3.83	3.78	3.77	3.76	3.73	3.70	3.71	3.71	3.67	3.61	3.56	3.50	3.43	3.34	3.23	3.11	3.05	3.01	2.89	2.69	2.55	2.55	2.73	2.99	3.22	3.47	3.84	4.17	4.50	6.55	6.77	6.99	7.08	9.26	13.53	13.53	
2.98	2.95	2.83	2.64	2.32	1.64	1.97	5.77	6.60	5.68	5.22	5.06	4.84	4.70	4.62	4.46	4.44	5.11	4.95	5.25	4.31	3.34	2.57	4.32	5.24	2.81	3.54	3.79	3.95	4.48	4.47	5.03	5.79	5.22	4.37	4.53	4.63	4.55	4.50	4.39	4.41	4.27	4.54	4.24	4.18	4.41	4.45	4.54	4.55	4.41	4.45	4.57	4.59	4.60	4.75	3.84	3.76	3.54	3.26	3.40	2.55	1.53	1.72	3.43	3.85	4.04	4.08	4.02	4.02	4.69	4.82	4.94	5.11	5.19	3.37	3.25	4.70	4.66	4.69	4.76	4.46	4.10	3.84	2.55	2.05	1.83	1.83	2.20	3.33	2.49	2.40	2.96	2.68	2.62	2.63	2.65	2.60	2.56	2.60	2.69	2.79	2.54	2.04	2.06	2.47	2.75	2.88	3.03	3.14	3.22	3.34	3.44	3.48	3.51	3.56	3.58	3.58	3.66	3.80	4.01	4.16	4.09	3.98	3.95	3.92	3.90	3.91	3.92	3.88	3.86	3.88	3.89	3.87	3.87	3.89	3.89	3.88	3.86	3.86	3.86	3.84	3.86	3.87	3.82	3.79	3.79	3.76	3.73	3.74	3.77	3.74	3.67	3.62	3.57	3.49	3.41	3.34	3.25	3.22	3.20	3.08	2.87	2.65	2.53	2.62	2.90	3.19	3.40	3.67	3.96	4.26	4.60	6.92	7.16	7.38	9.48	13.49	13.49	
3.07	3.03	2.95	2.83	2.62	2.14	2.48	5.10	6.28	5.68	5.19	4.98	4.85	4.81	4.70	4.57	4.94	5.03	5.69	5.31	4.25	3.69	2.94	2.21	5.01	2.49	3.26	3.69	4.01	4.62	4.36	4.87	5.70	5.98	5.16	5.05	4.94	4.76	4.57	4.32	4.70	4.72	4.55	4.32	4.21	3.00	2.40	2.54	2.99	4.39	4.54	4.70	4.71	4.71	3.40	3.26	2.99	2.13	1.50	3.72	3.98	4.17	2.11	1.54	1.37	0.91	1.14	2.04	3.21	3.49	4.57	4.61	4.82	5.01	5.00	4.80	4.57	4.51	4.82	3.07	3.06	2.53	3.04	3.91	3.46	2.92	2.26	2.26	2.48	2.60	2.63	2.34	2.88	2.71	2.74	2.76	2.71	2.66	2.63	2.67	2.79	2.61	2.08	1.91	2.20	2.53	2.76	2.94	3.05	3.13	3.24	3.35	3.42	3.47	3.52	3.58	3.60	3.59	3.62	3.77	4.04	4.18	4.10	3.99	3.95	3.93	3.92	3.92	3.89	3.86	3.87	3.88	3.86	3.85	3.87	3.88	3.88	3.88	3.87	3.87	3.85	3.86	3.89	3.86	3.83	3.83	3.80	3.76	3.78	3.80	3.78	3.72	3.67	3.63	3.56	3.48	3.42	3.38	3.37	3.34	3.23	3.05	2.86	2.64	2.55	2.81	3.20	3.37	3.51	3.75	3.99	4.34	4.89	7.19	7.51	9.51	13.21	13.21	
3.10	3.08	3.05	2.99	2.87	2.59	2.91	4.82	5.97	5.65	5.20	4.99	4.91	4.90	4.87	4.99	4.94	6.26	6.11	5.24	4.42	3.87	3.33	2.74	3.96	2.30	2.92	3.51	3.99	4.23	4.38	4.80	5.62	5.73	5.15	4.78	4.77	4.84	4.83	4.81	4.73	4.68	4.34	4.17	2.15	1.88	1.75	4.12	4.58	4.48	4.57	4.81	4.97	3.07	2.64	1.87	1.41	4.42	4.76	4.64	4.62	4.84	4.15	3.67	4.14	3.32	1.78	1.50	1.60	1.62	1.73	1.65	1.95	2.43	4.87	4.60	4.34	4.43	4.77	3.09	3.02	2.06	4.35	4.24	2.24	2.56	2.15	2.08	2.25	2.62	2.90	2.84	2.59	2.83	2.77	2.81	2.79	2.78	2.77	2.72	2.70	2.54	2.13	1.86	2.00	2.28	2.55	2.80	2.96	3.07	3.19	3.28	3.34	3.42	3.48	3.55	3.60	3.61	3.59	3.62	3.78	4.04	4.18	4.10	3.99	3.95	3.93	3.91	3.88	3.85	3.86	3.86	3.86	3.86	3.85	3.84	3.87	3.89	3.88	3.88	3.88	3.89	3.91	3.90	3.87	3.86	3.83	3.81	3.82	3.83	3.81	3.78	3.71	3.66	3.61	3.55	3.49	3.46	3.47	3.44	3.33	3.19	3.04	2.82	2.61	2.78	3.24	3.44	3.44	3.52	3.71	4.04	4.61	7.10	7.63	9.47	10.77	10.77	
3.13	3.12	3.11	3.10	3.06	2.89	3.12	4.62	5.82	5.61	5.15	5.02	4.93	5.03	5.36	5.17	5.93	6.24	6.61	4.45	4.43	3.83	3.52	3.22	2.70	4.67	2.66	3.32	3.91	4.31	4.50	4.83	5.50	5.78	5.06	4.46	4.51	4.55	4.68	4.73	4.66	4.50	4.21	4.33	4.57	4.78	4.89	4.83	4.67	4.57	4.55	4.80	2.40	1.89	1.75	2.07	4.77	4.78	4.82	4.81	4.72	4.12	4.07	4.60	4.30	3.34	1.35	1.54	1.62	1.94	1.77	1.58	1.70	1.95	2.29	4.66	4.23	4.26	4.67	2.77	2.28	4.55	4.68	4.50	2.82	2.06	1.53	2.07	2.14	2.42	2.88	3.04	2.88	2.69	2.31	2.86	2.90	2.90	2.93	2.90	2.67	2.42	2.15	1.84	1.83	2.06	2.30	2.57	2.79	2.98	3.15	3.26	3.28	3.36	3.44	3.49	3.56	3.61	3.62	3.60	3.62	3.78	4.05	4.19	4.13	4.00	3.95	3.95	3.90	3.86	3.86	3.85	3.85	3.87	3.87	3.84	3.85	3.88	3.88	3.88	3.88	3.89	3.90	3.90	3.89	3.88	3.86	3.85	3.85	3.85	3.84	3.83	3.76	3.68	3.65	3.60	3.55	3.53	3.54	3.53	3.43	3.30	3.19	3.00	2.75	2.80	3.26	3.55	3.47	3.39	3.50	3.76	4.30	7.03	7.83	9.55	10.61	10.61	
3.13	3.14	3.15	3.16	3.16	3.06	3.19	4.24	5.77	5.71	5.15	4.91	4.77	5.32	5.49	6.69	6.29	6.87	7.14	4.79	4.48	3.76	3.55	3.46	3.14	4.67	2.60	3.21	3.86	4.39	4.64	4.88	5.27	5.26	4.91	4.83	4.50	4.38	4.53	4.63	4.54	4.44	4.48	4.31	4.40	4.58	4.65	4.63	4.57	4.52	4.52	2.47	2.72	2.28	1.83	4.86	4.91	5.00	5.04	5.04	4.70	4.14	3.86	3.89	2.11	2.04	1.69	1.45	1.02	1.16	1.45	1.59	1.80	2.09	2.55	3.03	2.97	2.41	2.04	2.11	4.79	4.77	4.94	4.74	4.14	3.32	2.62	2.45	2.27	2.38	2.82	3.14	2.95	2.59	2.31	2.07	2.22	2.35	3.08	3.02	2.72	2.35	2.21	1.99	1.75	1.82	2.11	2.39	2.62	2.82	3.02	3.18	3.24	3.30	3.40	3.45	3.50	3.57	3.62	3.62	3.60	3.64	3.81	4.07	4.20	4.13	4.01	3.98	3.96	3.90	3.87	3.86	3.83	3.86	3.91	3.87	3.83	3.85	3.87	3.88	3.89	3.89	3.89	3.90	3.91	3.90	3.89	3.88	3.88	3.86	3.85	3.86	3.82	3.75	3.71	3.66	3.61	3.59	3.60	3.59	3.51	3.40	3.32	3.17	2.92	2.88	3.25	3.58	3.52	3.41	3.48	3.56	4.04	6.92	7.87	9.67	10.66	10.66	
3.08	3.11	3.16	3.18	3.20	3.18	3.30	4.12	5.85	5.94	5.30	5.53	5.30	6.27	7.11	7.24	6.90	7.59	8.08	5.11	4.68	3.86	3.68	3.59	3.39	4.19	5.44	3.30	3.93	4.47	4.80	4.96	4.74	4.93	4.93	4.83	4.59	4.37	4.39	4.49	4.50	4.55	4.54	4.46	4.50	4.53	4.49	4.50	4.44	4.35	4.43	4.61	4.93	1.81	5.12	4.87	4.91	5.04	5.25	5.33	3.24	4.36	2.32	3.81	1.32	2.04	2.30	1.76	1.97	1.63	1.30	1.68	1.92	2.36	5.05	4.96	4.79	2.39	2.54	4.85	4.79	4.76	4.73	4.98	3.53	2.73	2.19	2.55	2.58	1.81	2.72	3.24	3.28	2.92	2.50	2.15	2.34	2.51	2.61	3.15	2.71	2.21	2.10	2.16	1.87	1.62	1.83	2.23	2.55	2.76	2.91	3.03	3.16	3.27	3.39	3.44	3.46	3.52	3.59	3.63	3.63	3.61	3.67	3.85	4.09	4.20	4.11	4.01	3.98	3.94	3.91	3.87	3.83	3.84	3.91	3.90	3.83	3.84	3.86	3.88	3.90	3.90	3.91	3.92	3.93	3.93	3.93	3.92	3.91	3.89	3.87	3.87	3.85	3.81	3.80	3.75	3.68	3.66	3.66	3.63	3.56	3.48	3.43	3.30	3.07	2.99	3.23	3.53	3.50	3.43	3.56	3.54	3.80	4.70	7.62	9.58	10.75	10.75	
3.05	3.07	3.14	3.18	3.22	3.24	3.38	3.92	5.62	5.91	6.07	5.75	6.35	6.60	7.15	6.87	6.42	7.09	7.73	5.14	4.80	3.99	3.81	3.71	3.52	4.48	5.53	3.44	4.01	4.55	4.89	4.64	4.32	4.70	4.74	4.76	4.62	4.43	4.34	4.33	4.35	4.42	4.47	4.55	4.69	4.69	4.50	4.45	4.43	4.25	4.30	4.51	4.72	5.00	5.00	4.88	4.84	4.89	5.20	5.52	3.51	2.96	2.65	2.36	1.86	1.92	1.70	1.70	1.58	1.35	1.41	1.97	4.45	4.71	5.01	5.02	4.90	1.68	4.80	4.92	4.91	4.67	4.71	5.02	4.89	2.87	1.90	1.31	1.40	1.54	1.85	2.57	2.60	2.48	3.13	2.40	2.60	2.82	3.04	3.50	2.91	2.14	1.77	1.97	1.98	1.55	1.49	1.86	2.34	2.71	2.91	2.96	3.02	3.18	3.35	3.42	3.43	3.47	3.55	3.61	3.64	3.63	3.64	3.71	3.91	4.16	4.23	4.11	3.98	3.95	3.94	3.90	3.85	3.85	3.90	3.92	3.86	3.83	3.86	3.88	3.90	3.92	3.93	3.94	3.94	3.95	3.95	3.95	3.94	3.92	3.89	3.88	3.86	3.83	3.83	3.81	3.74	3.73	3.76	3.70	3.59	3.54	3.53	3.42	3.20	3.08	3.20	3.45	3.49	3.43	3.61	3.61	3.60	4.26	5.36	9.33	10.67	10.67	
3.00	3.02	3.09	3.15	3.19	3.22	3.36	3.80	5.56	6.76	6.26	5.89	6.91	7.16	7.47	7.40	6.97	7.10	7.56	5.57	4.75	4.08	3.92	3.83	3.62	4.90	3.19	3.57	4.07	4.60	4.87	4.85	4.77	4.65	4.62	4.69	4.64	4.50	4.39	4.30	4.25	4.28	4.36	4.48	4.70	4.90	4.74	4.43	1.69	2.27	4.38	4.52	4.57	4.69	4.82	4.89	4.85	4.84	5.10	5.49	3.73	4.93	3.00	2.39	2.02	1.78	1.60	1.64	1.45	1.53	1.75	2.14	4.39	4.53	4.86	5.05	2.11	4.85	4.87	4.91	4.94	4.88	4.86	5.14	4.49	3.23	2.89	1.87	1.32	1.47	1.59	1.95	2.60	2.58	2.37	2.51	2.67	3.03	3.26	3.83	3.33	2.40	1.74	1.79	1.88	1.52	1.24	1.41	1.87	2.40	2.82	2.95	2.91	3.05	3.26	3.37	3.42	3.44	3.50	3.58	3.63	3.64	3.65	3.65	3.73	3.98	4.25	4.25	4.04	3.95	3.96	3.91	3.87	3.87	3.89	3.92	3.90	3.85	3.85	3.87	3.90	3.92	3.94	3.95	3.96	3.96	3.97	3.97	3.96	3.95	3.92	3.90	3.88	3.85	3.85	3.83	3.76	3.77	3.84	3.78	3.64	3.60	3.61	3.52	3.34	3.18	3.17	3.36	3.50	3.49	3.64	3.68	3.53	3.89	5.00	7.34	10.51	10.51	
2.95	2.96	3.02	3.08	3.13	3.18	3.25	3.60	6.78	7.19	6.34	6.93	6.86	7.25	7.68	7.87	7.85	7.74	7.28	5.49	4.59	4.09	4.03	3.95	3.76	4.69	5.82	3.78	4.21	4.60	4.72	4.63	4.59	4.55	4.49	4.55	4.59	4.52	4.38	4.29	4.23	4.26	4.28	4.29	4.49	4.96	1.65	1.01	4.32	4.47	4.60	4.66	4.59	4.57	4.64	4.76	4.79	4.84	5.09	5.38	3.75	3.25	3.13	3.10	2.81	2.30	1.79	1.58	1.44	1.71	2.03	4.56	4.50	4.52	4.70	2.13	5.09	5.21	5.19	5.03	4.92	4.89	4.91	5.17	4.72	3.14	2.53	2.05	1.12	1.36	1.67	2.07	2.93	3.33	2.86	3.06	2.01	3.03	3.40	3.45	3.82	3.06	2.34	2.00	1.93	1.56	1.16	1.11	1.40	1.88	2.45	2.82	2.84	2.93	3.15	3.29	3.37	3.42	3.47	3.54	3.61	3.64	3.66	3.65	3.64	3.76	4.09	4.31	4.19	4.01	3.96	3.90	3.84	3.86	3.88	3.89	3.90	3.88	3.86	3.86	3.89	3.92	3.94	3.96	3.97	3.98	3.98	3.98	3.98	3.98	3.96	3.94	3.91	3.88	3.89	3.87	3.79	3.77	3.86	3.83	3.70	3.66	3.68	3.62	3.48	3.33	3.22	3.31	3.49	3.56	3.71	3.74	3.56	3.71	4.73	7.20	10.27	10.27	
2.90	2.91	2.95	3.01	3.06	3.13	3.15	3.32	4.94	7.25	6.43	7.31	7.16	7.23	7.49	7.65	7.71	7.69	6.16	5.50	4.47	4.02	4.04	4.05	3.94	4.39	3.68	4.00	4.49	4.76	4.50	4.32	4.38	4.39	4.40	4.43	4.47	4.44	4.37	4.22	4.13	4.22	4.32	4.15	4.22	1.42	0.90	4.60	4.37	4.51	4.66	4.77	4.78	4.72	4.66	4.63	4.60	4.71	4.98	3.90	3.49	3.26	3.40	3.29	2.91	3.90	2.06	1.59	1.77	2.02	4.35	4.56	4.65	4.68	2.30	4.80	5.00	5.38	5.59	5.45	5.23	5.13	4.82	5.01	4.76	3.19	2.57	1.59	0.66	0.85	1.32	2.08	2.98	3.68	3.28	3.62	3.11	1.81	2.25	4.47	4.29	3.73	3.22	2.88	2.48	1.88	1.31	1.06	1.16	1.52	2.00	2.45	2.69	2.81	3.03	3.21	3.30	3.39	3.45	3.49	3.56	3.63	3.66	3.67	3.65	3.66	3.87	4.19	4.29	4.16	4.02	3.92	3.84	3.83	3.88	3.89	3.88	3.89	3.88	3.86	3.89	3.91	3.94	3.96	3.98	3.99	3.99	3.99	3.99	4.00	4.00	3.99	3.95	3.90	3.90	3.93	3.87	3.82	3.89	3.87	3.75	3.72	3.74	3.70	3.60	3.50	3.38	3.36	3.46	3.57	3.77	3.83	3.66	3.70	4.51	6.90	8.52	8.52	
2.85	2.87	2.91	2.94	2.98	3.05	3.14	3.39	4.75	6.84	7.67	7.58	7.56	7.46	7.53	7.57	7.61	7.95	4.77	5.46	4.53	4.07	4.01	4.07	4.13	3.91	6.04	4.20	4.81	0.80	4.44	3.99	4.11	4.21	4.32	4.36	4.30	4.37	4.35	4.27	4.12	4.09	0.45	4.18	4.16	4.55	4.69	4.48	4.36	4.47	4.58	4.72	4.86	4.89	4.85	4.68	4.54	4.63	4.08	3.99	3.88	3.77	3.50	2.73	2.46	2.87	2.19	1.69	2.12	3.63	4.25	4.48	4.69	4.82	2.33	4.96	4.96	5.27	5.63	5.69	5.09	5.14	5.15	4.96	4.59	3.55	2.95	1.67	1.43	1.98	1.10	1.58	2.99	3.81	2.97	2.26	3.54	3.54	4.08	4.56	4.60	4.21	3.30	3.83	3.01	2.92	2.10	1.59	1.39	1.51	1.83	2.13	2.42	2.66	2.93	3.17	3.25	3.35	3.43	3.46	3.52	3.60	3.65	3.68	3.67	3.64	3.71	3.95	4.22	4.29	4.16	3.99	3.88	3.83	3.86	3.89	3.87	3.87	3.88	3.87	3.88	3.91	3.93	3.96	3.98	4.00	4.00	4.00	4.00	3.99	4.01	4.02	3.99	3.93	3.88	3.92	3.95	3.90	3.93	3.93	3.82	3.77	3.78	3.76	3.71	3.65	3.58	3.52	3.47	3.53	3.81	3.99	3.92	3.89	4.35	6.42	8.00	8.00	
2.80	2.83	2.88	2.90	2.93	3.01	3.13	3.51	4.38	7.78	7.66	7.42	7.37	7.40	7.65	7.81	7.72	7.71	5.76	5.21	4.60	4.24	3.97	4.07	4.25	4.17	5.72	6.25	5.16	4.35	4.48	3.74	3.78	4.04	4.27	4.29	4.18	4.19	4.22	4.31	1.39	4.08	4.10	4.13	4.19	4.33	4.34	4.31	4.32	4.41	4.49	4.65	4.88	4.98	4.97	4.36	4.08	3.98	3.83	3.92	3.97	3.91	3.14	2.49	2.88	2.63	2.24	2.20	3.84	4.27	4.25	4.39	4.61	2.66	5.02	5.17	5.21	5.34	5.60	5.30	5.32	5.42	5.36	4.93	4.44	3.58	3.08	2.19	1.49	1.42	2.07	1.36	2.47	3.29	1.83	4.18	2.58	2.24	3.07	3.56	2.64	3.63	3.36	4.21	4.34	3.97	3.25	2.55	2.07	1.97	2.06	2.16	2.28	2.50	2.85	3.15	3.24	3.33	3.41	3.43	3.48	3.57	3.64	3.67	3.69	3.67	3.66	3.77	4.03	4.26	4.26	4.10	3.95	3.85	3.84	3.88	3.89	3.86	3.86	3.87	3.89	3.91	3.93	3.96	3.98	4.00	4.01	4.02	4.01	4.00	4.01	4.02	4.01	3.99	3.91	3.90	3.95	3.95	3.98	3.97	3.88	3.82	3.82	3.80	3.78	3.74	3.71	3.70	3.60	3.51	3.74	4.09	4.29	4.34	4.46	5.90	7.27	7.27	
2.72	2.77	2.83	2.86	2.88	2.99	3.14	3.59	3.93	7.61	8.08	7.72	7.70	7.71	7.84	7.86	7.35	6.51	5.61	4.84	4.52	4.36	4.05	4.01	3.73	5.56	4.41	6.74	5.49	2.63	2.27	3.69	3.61	3.89	0.55	0.91	1.08	3.93	4.00	4.27	4.38	4.24	4.07	4.07	4.22	4.30	4.22	4.20	4.27	4.32	4.34	4.55	4.97	5.21	4.96	4.61	4.24	3.98	2.74	2.48	2.54	2.69	2.32	2.73	3.58	3.06	2.90	4.10	4.38	4.30	4.30	4.43	2.43	4.80	4.99	5.17	5.37	5.49	5.37	5.56	5.64	5.57	5.58	5.38	4.90	4.21	3.12	2.53	1.85	1.38	1.48	1.17	1.47	1.42	1.83	2.60	2.67	2.38	1.82	2.20	2.59	3.52	3.17	3.21	3.43	3.35	2.97	3.25	2.67	2.41	2.42	2.47	2.39	2.42	2.77	3.12	3.20	3.30	3.42	3.42	3.45	3.55	3.63	3.67	3.69	3.70	3.68	3.69	3.86	4.14	4.27	4.19	4.03	3.90	3.84	3.87	3.91	3.87	3.85	3.87	3.88	3.90	3.93	3.96	3.98	3.99	4.00	4.04	4.04	4.03	4.04	4.02	4.02	4.03	4.00	3.93	3.94	3.98	4.00	4.02	3.96	3.90	3.87	3.86	3.85	3.82	3.78	3.78	3.76	3.60	3.59	3.92	4.42	4.80	4.89	5.69	6.51	6.51	
2.66	2.71	2.77	2.81	2.82	2.92	3.15	3.82	3.94	7.63	8.46	8.10	8.23	8.26	8.20	8.11	8.14	5.33	5.57	4.57	4.42	4.40	4.26	4.08	3.97	3.99	4.35	5.11	5.84	2.58	4.50	3.99	3.76	3.88	4.26	4.47	4.29	3.87	3.85	4.27	4.50	4.43	4.29	4.26	4.42	4.53	4.41	4.30	4.36	4.13	3.82	4.28	4.90	5.37	5.36	4.29	3.92	3.48	3.03	2.66	2.55	1.93	2.20	3.33	4.31	3.58	4.28	4.21	4.48	4.41	4.38	1.86	4.73	5.03	5.20	5.23	5.36	5.18	5.43	5.80	5.94	5.91	5.90	5.85	5.35	5.03	3.70	2.70	2.11	1.64	1.27	1.62	0.82	1.00	1.96	2.50	2.41	2.22	2.23	2.86	3.21	3.38	3.04	3.11	3.53	3.36	3.83	3.47	3.01	2.60	2.53	2.64	2.58	2.48	2.74	3.08	3.14	3.24	3.40	3.41	3.43	3.53	3.62	3.66	3.68	3.70	3.70	3.68	3.76	4.00	4.24	4.26	4.09	3.95	3.86	3.86	3.91	3.89	3.87	3.88	3.88	3.89	3.92	3.95	3.99	4.00	4.00	4.03	4.04	4.05	4.06	4.04	4.03	4.06	4.07	4.01	3.97	3.99	4.00	4.03	4.03	3.99	3.94	3.92	3.93	3.91	3.85	3.83	3.86	3.77	3.62	3.67	4.13	4.80	5.23	5.73	6.10	6.10	
2.61	2.66	2.71	2.76	2.77	2.86	3.08	3.94	4.11	7.74	8.85	8.24	8.23	8.31	8.51	8.46	8.94	6.37	5.45	4.42	4.38	4.39	4.35	4.21	3.97	3.94	4.30	5.37	1.90	5.37	4.34	1.09	4.02	4.09	4.44	4.63	4.58	4.32	4.09	4.24	4.46	4.47	4.37	4.35	4.43	4.57	4.64	4.61	4.70	4.69	4.23	4.09	4.73	5.34	4.92	4.54	3.98	3.46	3.11	2.54	1.80	1.70	3.22	4.07	4.18	3.94	4.71	4.55	4.72	4.70	4.59	2.87	4.80	5.19	5.52	5.33	5.22	5.29	5.52	5.89	6.02	6.10	6.05	5.85	5.26	4.32	4.03	3.07	2.50	2.02	1.50	1.36	0.86	0.90	1.74	2.30	2.21	1.99	2.46	2.83	3.13	3.11	2.83	2.68	3.10	3.19	3.65	3.47	3.20	2.79	2.57	2.62	2.63	2.57	2.78	3.09	3.14	3.19	3.35	3.41	3.42	3.49	3.59	3.65	3.67	3.69	3.71	3.69	3.70	3.84	4.14	4.32	4.20	4.00	3.89	3.86	3.90	3.91	3.91	3.91	3.91	3.90	3.91	3.93	3.97	4.01	4.02	4.04	4.04	4.03	4.04	4.03	4.03	4.05	4.07	4.05	4.02	4.01	3.99	4.01	4.05	4.03	3.99	3.98	3.98	3.97	3.94	3.91	3.92	3.91	3.81	3.69	3.85	4.41	5.06	5.72	6.08	6.08	
2.58	2.62	2.66	2.69	2.71	2.78	2.97	3.74	3.81	7.86	9.37	8.65	8.51	8.54	8.70	8.58	9.03	6.38	5.19	4.30	4.34	4.35	4.36	4.31	4.03	3.93	4.26	5.50	1.88	5.40	4.22	2.61	4.04	4.17	4.51	4.79	4.94	4.84	4.56	4.37	4.41	4.43	4.37	4.42	4.43	4.41	4.47	4.56	4.75	4.93	4.75	4.49	4.68	4.95	5.01	4.84	4.16	3.67	2.89	2.03	2.51	3.00	4.05	4.24	4.38	5.04	5.01	5.10	5.03	4.95	4.81	4.66	4.64	4.92	5.42	5.55	5.45	5.59	5.83	6.04	6.21	6.22	6.14	5.95	5.50	4.55	3.51	2.52	2.09	2.51	1.92	1.42	1.71	1.04	1.73	2.13	2.20	1.84	1.94	2.22	2.71	2.75	2.54	2.26	2.40	2.73	3.46	3.41	3.23	2.92	2.66	2.56	2.56	2.57	2.78	3.06	3.14	3.17	3.30	3.40	3.43	3.47	3.55	3.63	3.65	3.67	3.70	3.71	3.69	3.72	3.95	4.27	4.32	4.10	3.93	3.87	3.87	3.89	3.92	3.93	3.92	3.92	3.92	3.93	3.95	3.99	4.01	4.05	4.07	4.04	4.02	4.02	4.04	4.06	4.03	4.03	4.06	4.05	4.00	4.01	4.05	4.04	4.03	4.05	4.04	4.01	4.00	3.99	3.98	3.99	3.99	3.91	3.90	4.13	4.62	5.49	6.04	6.04	
2.55	2.57	2.61	2.63	2.64	2.69	2.84	3.18	3.20	7.70	10.41	9.09	9.13	9.39	9.32	9.04	9.09	6.51	4.97	4.21	4.34	4.34	4.06	4.38	4.11	3.96	4.26	5.41	2.88	5.21	1.95	4.05	3.92	3.98	4.20	4.55	4.91	5.05	4.85	4.53	4.38	4.34	4.34	4.51	4.66	3.35	4.35	4.32	4.50	4.86	4.21	4.78	4.42	4.49	4.81	4.10	3.46	3.06	3.36	3.35	3.22	3.50	4.24	4.45	5.24	5.16	5.13	5.19	5.11	4.99	4.82	4.63	4.51	4.62	5.09	5.41	5.47	5.66	6.25	6.48	6.55	6.47	6.24	5.85	5.55	4.84	4.75	3.38	2.88	1.65	2.45	1.72	1.54	0.86	1.28	1.78	2.20	1.92	1.72	1.83	2.52	2.54	2.45	2.21	2.14	2.37	3.22	3.28	3.15	2.91	2.71	2.52	2.46	2.53	2.73	2.99	3.09	3.12	3.24	3.37	3.43	3.47	3.53	3.61	3.65	3.67	3.69	3.71	3.71	3.68	3.78	4.11	4.34	4.20	4.01	3.92	3.85	3.85	3.89	3.93	3.92	3.92	3.93	3.93	3.96	3.99	4.00	4.04	4.09	4.07	4.03	4.04	4.07	4.10	4.06	4.02	4.06	4.10	4.06	4.05	4.06	4.05	4.06	4.10	4.10	4.07	4.06	4.05	4.04	4.05	4.09	4.11	4.07	4.07	4.34	5.26	5.91	5.91	
2.53	2.53	2.55	2.56	2.58	2.61	2.70	2.61	2.46	5.64	10.01	9.77	9.01	9.40	9.91	9.84	9.46	6.63	4.85	4.17	4.40	4.10	4.43	4.31	4.13	4.06	4.36	5.29	6.21	3.37	4.07	4.13	3.85	3.69	3.78	4.10	4.62	5.04	4.97	3.85	3.22	2.66	4.19	4.45	4.70	3.57	3.20	2.90	3.21	4.64	4.84	4.67	4.20	2.60	2.10	6.66	4.62	4.53	4.37	4.16	3.94	4.39	4.39	5.00	5.19	5.18	5.14	5.18	5.12	4.95	4.73	4.53	4.46	4.53	4.87	5.30	5.50	5.58	6.09	6.35	6.45	6.44	6.09	5.49	5.15	4.73	3.99	3.88	2.88	2.02	1.61	2.15	1.67	1.82	0.63	1.18	2.11	2.33	1.99	1.84	2.40	2.32	2.31	2.19	2.11	2.19	3.06	3.15	3.07	2.88	2.72	2.50	2.37	2.43	2.67	2.96	3.05	3.08	3.19	3.33	3.41	3.46	3.51	3.58	3.64	3.67	3.69	3.72	3.72	3.68	3.69	3.94	4.25	4.23	4.06	3.99	3.90	3.83	3.87	3.93	3.94	3.94	3.95	3.94	3.96	4.01	4.01	4.04	4.08	4.06	4.04	4.06	4.09	4.11	4.11	4.07	4.05	4.07	4.10	4.10	4.10	4.07	4.08	4.12	4.13	4.12	4.13	4.11	4.09	4.08	4.13	4.21	4.21	4.11	4.22	5.07	5.75	5.75	
2.53	2.52	2.50	2.49	2.50	2.53	2.57	2.44	2.57	5.01	9.59	10.16	8.77	8.69	9.56	10.46	11.29	6.57	4.80	4.07	4.36	4.63	4.62	4.33	4.06	4.03	4.36	5.14	6.46	6.07	4.62	4.24	3.90	3.50	3.45	3.72	4.32	5.00	4.91	4.18	1.74	0.54	3.95	4.37	4.74	4.13	3.35	1.90	2.90	4.26	4.99	4.77	2.55	2.15	4.16	5.36	5.68	5.71	5.39	4.91	4.95	4.61	4.44	4.82	4.94	4.83	4.85	5.04	5.10	4.97	4.76	4.51	4.39	4.44	4.65	5.01	5.38	5.85	6.10	6.32	6.31	6.17	5.83	5.39	5.02	4.63	3.87	4.72	3.34	2.97	2.80	2.38	4.14	1.93	4.48	4.68	1.39	2.00	2.10	1.82	2.38	2.17	2.08	2.13	2.11	2.96	3.01	3.09	3.03	2.84	2.69	2.53	2.35	2.30	2.55	2.89	3.02	3.04	3.15	3.28	3.39	3.46	3.50	3.56	3.63	3.66	3.69	3.72	3.74	3.69	3.65	3.80	4.13	4.25	4.09	4.01	3.95	3.85	3.85	3.90	3.94	3.96	3.96	3.92	3.93	3.99	4.00	4.03	4.08	4.07	4.04	4.06	4.09	4.09	4.10	4.11	4.10	4.07	4.08	4.11	4.12	4.11	4.10	4.12	4.12	4.14	4.17	4.17	4.15	4.13	4.15	4.23	4.28	4.18	4.18	4.92	5.56	5.56	
2.51	2.51	2.50	2.47	2.46	2.46	2.50	2.41	2.97	3.44	9.49	10.24	8.98	8.39	8.72	5.65	6.94	6.60	4.79	3.93	4.12	4.59	4.53	4.59	4.15	3.99	4.26	4.85	5.92	6.33	5.35	4.36	3.91	3.24	3.33	3.45	4.03	4.87	5.21	2.88	1.96	1.48	3.67	4.16	4.79	4.92	4.34	3.71	2.93	3.92	4.94	3.98	3.02	3.29	3.69	4.63	5.39	5.71	5.53	5.26	5.00	4.79	4.87	4.84	4.82	4.68	4.54	4.71	4.90	4.91	4.86	4.68	4.49	4.37	4.53	4.79	5.19	5.89	6.10	6.48	6.60	6.07	5.40	4.96	4.72	4.58	4.57	5.30	4.03	3.40	2.98	2.56	2.27	4.50	1.97	4.18	4.60	0.42	1.38	1.51	2.34	2.08	2.01	2.23	2.15	2.88	2.96	3.06	3.04	2.86	2.63	2.51	2.36	2.21	2.37	2.75	2.93	2.99	3.09	3.22	3.33	3.42	3.48	3.53	3.59	3.64	3.67	3.72	3.74	3.72	3.67	3.72	3.98	4.23	4.20	4.05	3.96	3.88	3.83	3.85	3.90	3.95	3.97	3.93	3.92	3.96	3.99	4.02	4.07	4.09	4.06	4.08	4.10	4.09	4.08	4.10	4.13	4.11	4.08	4.09	4.12	4.14	4.13	4.12	4.13	4.15	4.17	4.19	4.20	4.19	4.19	4.22	4.29	4.24	4.19	4.80	5.40	5.40	
2.51	2.50	2.49	2.45	2.43	2.44	2.48	2.45	3.10	3.36	9.44	8.69	9.28	4.32	8.61	5.23	6.61	6.62	4.98	3.87	3.91	4.34	4.76	4.76	4.33	4.46	4.22	4.55	5.53	7.03	5.32	3.95	4.07	3.92	3.23	3.55	4.01	4.81	4.72	3.66	3.88	3.21	3.33	4.03	5.19	4.63	5.33	2.84	2.28	4.04	4.63	6.30	4.63	4.24	4.26	4.33	4.69	4.86	5.04	4.96	4.74	4.81	4.84	4.84	4.83	4.71	4.49	4.45	4.57	4.66	4.74	4.75	4.59	4.64	4.75	4.83	5.30	5.74	5.88	6.37	6.55	5.98	4.88	4.20	3.85	4.30	6.79	5.93	4.78	3.96	3.38	2.87	2.55	2.30	4.44	1.89	4.14	4.76	0.44	1.16	2.27	1.99	1.98	2.27	2.20	2.79	2.80	2.95	3.00	2.90	2.69	2.50	2.31	2.10	2.18	2.56	2.83	2.92	3.05	3.19	3.29	3.37	3.45	3.50	3.55	3.59	3.63	3.69	3.73	3.72	3.69	3.69	3.82	4.10	4.26	4.16	4.00	3.91	3.86	3.84	3.88	3.95	3.97	3.95	3.93	3.95	3.99	4.02	4.05	4.07	4.07	4.09	4.10	4.10	4.09	4.09	4.11	4.11	4.10	4.10	4.13	4.17	4.17	4.14	4.14	4.17	4.19	4.20	4.23	4.22	4.22	4.24	4.28	4.27	4.20	4.72	5.27	5.27	
2.49	2.49	2.49	2.43	2.39	2.40	2.44	2.54	3.23	3.24	9.73	8.15	5.53	7.71	8.19	9.06	10.24	6.37	5.07	3.88	3.80	4.19	4.63	4.71	4.36	4.08	4.09	4.25	4.95	6.30	6.25	5.23	2.89	2.13	3.62	3.69	4.11	4.76	4.76	3.68	4.03	3.08	3.04	3.95	5.08	5.04	4.66	4.23	4.70	5.90	4.62	6.52	5.62	4.89	4.75	4.93	4.95	4.87	4.88	4.88	4.86	4.69	4.72	4.67	4.62	4.60	4.55	4.44	4.40	4.49	4.62	4.68	4.75	4.73	4.59	4.89	5.22	5.68	5.98	6.45	6.39	5.88	4.95	4.24	6.52	6.67	6.81	6.50	5.64	4.64	3.86	3.29	2.94	2.62	2.16	4.31	1.95	2.25	3.30	0.92	2.15	1.88	1.91	2.23	2.23	2.81	2.70	2.80	2.88	2.87	2.83	2.69	2.39	2.05	1.98	2.31	2.68	2.85	2.98	3.16	3.28	3.36	3.44	3.51	3.56	3.59	3.62	3.66	3.70	3.71	3.69	3.68	3.72	3.92	4.18	4.22	4.07	3.95	3.90	3.87	3.90	3.96	3.98	3.97	3.96	3.94	3.98	4.03	4.05	4.05	4.07	4.08	4.07	4.09	4.11	4.09	4.10	4.09	4.09	4.12	4.14	4.17	4.18	4.17	4.18	4.19	4.20	4.22	4.23	4.22	4.23	4.25	4.27	4.28	4.20	4.62	5.12	5.12	
2.49	2.47	2.47	2.43	2.37	2.35	2.40	2.54	3.23	3.40	10.17	8.44	6.40	6.79	7.31	7.41	7.88	5.95	4.86	3.88	3.81	4.09	4.55	4.66	4.38	4.05	3.89	3.96	4.50	5.82	7.58	5.05	4.42	3.44	3.20	3.42	3.81	3.92	1.28	5.23	5.12	1.56	4.55	4.28	4.43	6.29	5.99	5.75	4.64	4.46	4.66	5.28	5.37	4.99	4.84	4.84	4.89	4.77	4.79	5.02	4.84	4.66	4.64	4.62	4.48	4.51	4.63	4.61	4.54	4.57	4.63	4.64	4.67	4.24	4.40	4.84	5.13	5.57	6.00	6.87	6.68	5.88	4.42	6.72	6.30	6.21	6.48	6.65	6.32	5.50	4.45	3.72	3.38	3.07	2.51	2.00	1.92	2.03	0.63	0.95	2.04	1.78	1.82	2.13	2.18	1.91	2.74	2.73	2.78	2.84	2.93	2.97	2.76	2.26	1.93	2.10	2.53	2.79	2.92	3.09	3.24	3.33	3.41	3.47	3.55	3.62	3.63	3.64	3.68	3.70	3.68	3.67	3.70	3.82	4.05	4.19	4.11	3.98	3.92	3.90	3.91	3.94	3.97	4.00	3.99	3.95	3.96	4.02	4.06	4.06	4.08	4.09	4.06	4.07	4.10	4.11	4.11	4.09	4.09	4.12	4.15	4.17	4.17	4.18	4.20	4.21	4.22	4.24	4.26	4.24	4.25	4.28	4.26	4.26	4.22	4.53	4.91	4.91	
2.50	2.49	2.46	2.42	2.36	2.32	2.35	2.46	2.91	2.99	10.57	8.96	6.47	6.72	7.14	5.57	5.74	5.46	4.41	3.72	3.78	3.99	4.41	4.65	4.45	4.11	4.29	3.79	4.20	5.24	6.71	6.15	5.69	4.26	3.62	3.23	2.60	3.11	4.92	4.95	5.35	5.36	5.41	4.10	4.20	4.54	4.70	4.62	4.65	4.65	4.82	5.21	5.32	5.08	4.89	4.76	4.76	4.72	4.94	4.94	4.79	4.62	4.73	1.32	4.67	4.60	4.68	4.69	4.62	4.53	4.50	4.49	4.50	4.20	4.37	4.56	4.87	5.33	5.74	6.67	6.38	5.43	6.21	6.74	6.35	6.07	6.20	6.45	6.52	6.19	5.22	4.24	3.80	3.53	3.04	2.33	1.69	1.48	0.69	1.01	1.76	1.64	1.83	2.11	2.20	2.07	2.85	2.73	2.71	2.75	2.87	3.01	3.03	2.65	2.07	2.03	2.39	2.74	2.91	3.03	3.16	3.28	3.35	3.40	3.49	3.59	3.61	3.62	3.65	3.67	3.64	3.65	3.70	3.78	3.96	4.14	4.14	4.00	3.93	3.93	3.92	3.91	3.94	4.00	4.01	3.97	3.96	4.01	4.05	4.08	4.12	4.13	4.08	4.08	4.10	4.11	4.13	4.11	4.10	4.13	4.15	4.16	4.15	4.17	4.20	4.21	4.23	4.27	4.27	4.26	4.29	4.32	4.28	4.27	4.28	4.49	4.70	4.70	
2.48	2.48	2.45	2.42	2.36	2.30	2.29	2.35	2.33	2.31	10.32	11.89	7.89	7.37	7.46	5.94	5.73	4.99	4.02	3.50	3.61	3.87	4.24	4.58	4.51	4.11	3.72	3.85	4.02	4.71	5.97	6.61	5.88	4.07	3.05	1.20	3.14	3.28	3.72	3.72	3.94	4.97	4.06	4.10	4.26	4.50	4.58	4.51	4.44	4.45	4.38	4.64	4.99	4.97	4.70	4.62	4.76	4.87	4.96	5.00	4.86	4.70	0.71	4.93	4.89	4.87	4.84	4.77	4.67	4.51	4.39	4.11	3.97	4.06	4.30	4.37	4.67	5.07	6.29	6.64	6.09	4.05	6.36	5.73	4.68	6.20	6.23	6.31	6.40	6.44	5.86	4.88	4.24	3.88	3.50	2.82	1.98	1.50	1.73	3.07	1.17	1.69	1.76	1.99	2.10	2.09	2.99	2.80	2.69	2.64	2.74	2.91	3.01	2.77	2.21	2.03	2.27	2.64	2.90	3.03	3.13	3.24	3.31	3.36	3.44	3.55	3.59	3.61	3.63	3.63	3.62	3.62	3.69	3.74	3.85	4.06	4.16	4.06	3.94	3.93	3.93	3.90	3.91	3.98	4.01	3.99	3.97	4.00	4.04	4.07	4.13	4.15	4.12	4.10	4.09	4.09	4.12	4.13	4.11	4.13	4.17	4.17	4.16	4.17	4.20	4.21	4.22	4.26	4.26	4.25	4.29	4.34	4.33	4.31	4.34	4.47	4.57	4.57	
2.46	2.45	2.41	2.37	2.33	2.26	2.23	2.27	1.87	1.83	7.13	12.22	8.68	8.27	8.05	6.26	5.59	4.63	3.78	3.41	3.43	3.68	4.04	4.42	4.47	4.10	3.96	3.95	4.02	4.48	5.26	5.97	5.84	5.82	5.28	4.62	3.92	3.25	3.12	4.04	3.82	3.98	3.93	3.86	3.95	4.19	4.41	4.55	4.43	4.45	4.47	4.61	4.82	4.78	4.53	4.56	4.50	4.59	4.72	4.86	4.79	4.59	4.64	4.78	4.86	4.86	4.81	4.79	4.77	4.27	4.02	3.90	3.80	3.82	3.96	4.15	4.44	5.64	6.37	6.93	5.56	6.50	4.56	4.76	4.82	5.12	4.67	4.46	6.34	4.43	5.71	4.84	4.11	4.05	3.78	3.23	2.34	1.74	2.33	2.54	2.73	2.93	1.75	1.80	1.97	1.96	1.82	2.88	2.72	2.62	2.67	2.86	2.92	2.58	2.10	1.96	2.14	2.48	2.79	2.99	3.13	3.22	3.27	3.31	3.40	3.51	3.59	3.62	3.61	3.60	3.58	3.59	3.67	3.69	3.73	3.91	4.08	4.07	3.96	3.93	3.95	3.92	3.91	3.96	4.02	4.03	3.99	3.97	4.01	4.04	4.08	4.13	4.16	4.14	4.10	4.06	4.09	4.14	4.12	4.13	4.17	4.18	4.17	4.20	4.22	4.21	4.22	4.26	4.26	4.25	4.28	4.34	4.35	4.35	4.36	4.43	4.49	4.49	
2.46	2.43	2.38	2.33	2.29	2.22	2.18	2.20	1.96	2.28	5.01	10.49	8.26	7.46	7.22	6.32	5.49	4.36	3.66	3.48	3.44	3.51	3.80	4.21	3.65	3.74	3.93	3.91	3.97	4.25	5.32	5.32	5.02	4.84	4.78	5.16	4.80	4.05	3.53	3.75	3.76	3.86	3.75	3.76	3.83	4.05	4.31	4.42	4.44	4.50	4.54	4.55	4.74	4.93	4.80	4.55	4.39	4.42	4.44	4.52	4.54	4.50	4.57	4.69	4.78	4.82	4.78	4.69	4.56	4.45	4.12	3.90	3.85	3.81	4.05	4.57	4.98	5.69	6.59	7.73	4.42	4.96	5.05	5.58	5.26	4.96	4.82	4.60	4.61	5.97	5.63	4.98	4.46	4.05	4.02	3.63	2.71	2.00	1.96	5.01	2.57	2.40	2.54	3.36	1.78	1.86	1.78	1.68	2.72	2.60	2.63	2.88	2.95	2.44	1.76	1.66	1.97	2.33	2.60	2.84	3.04	3.18	3.22	3.24	3.28	3.39	3.53	3.63	3.60	3.53	3.51	3.54	3.63	3.66	3.68	3.83	4.00	4.04	3.97	3.92	3.95	3.95	3.92	3.95	4.02	4.07	4.03	3.99	4.00	4.01	3.99	4.04	4.15	4.20	4.13	4.05	4.08	4.13	4.11	4.13	4.17	4.17	4.17	4.20	4.24	4.23	4.23	4.25	4.27	4.27	4.28	4.32	4.35	4.37	4.38	4.40	4.42	4.42	
2.48	2.45	2.38	2.33	2.28	2.22	2.17	2.16	2.15	2.54	3.22	10.16	10.12	8.26	7.37	5.79	5.10	4.11	3.64	3.57	3.53	3.44	3.59	3.93	4.07	3.91	3.94	3.92	3.94	4.01	4.26	5.15	5.04	4.33	4.57	4.57	4.80	4.58	4.02	3.97	3.84	3.95	3.79	3.88	3.78	3.90	4.16	4.32	4.39	4.48	4.50	4.52	4.74	4.91	4.84	4.60	4.44	4.37	4.27	4.27	4.32	4.37	4.43	4.54	4.72	4.88	4.72	4.46	4.47	4.45	4.23	3.74	3.47	3.29	3.93	4.03	5.60	6.25	5.31	5.30	6.18	6.21	5.87	5.42	5.87	4.84	6.28	4.62	4.77	5.94	5.68	5.34	4.64	4.06	4.24	4.07	3.21	2.50	2.41	2.62	2.58	2.39	2.34	4.55	1.44	1.63	1.78	1.78	2.77	2.61	2.64	2.89	3.05	2.64	1.70	1.31	1.73	2.21	2.47	2.71	2.94	3.13	3.24	3.26	3.25	3.25	3.37	3.57	3.63	3.50	3.42	3.47	3.58	3.62	3.64	3.78	3.97	4.04	3.97	3.90	3.92	3.95	3.93	3.93	4.00	4.06	4.07	4.06	4.08	4.08	4.00	3.96	4.09	4.23	4.19	4.09	4.09	4.12	4.11	4.13	4.18	4.18	4.16	4.18	4.22	4.25	4.23	4.22	4.26	4.28	4.29	4.30	4.32	4.36	4.38	4.39	4.39	4.39	
2.51	2.48	2.41	2.33	2.29	2.22	2.17	2.17	2.16	2.30	2.48	9.30	12.91	11.51	9.86	6.30	5.17	3.79	3.71	3.73	3.63	2.91	3.54	3.68	4.03	3.69	3.76	3.88	3.90	3.90	3.91	4.66	5.55	4.84	4.70	4.50	4.96	4.86	4.55	4.17	4.01	4.10	4.29	4.08	3.79	3.72	3.97	4.20	4.20	4.27	4.38	4.48	4.67	4.83	4.81	4.57	4.44	4.38	4.18	4.11	4.15	4.13	4.13	4.25	4.49	4.71	4.84	4.75	4.71	4.52	4.06	3.52	2.83	2.54	2.87	4.85	4.39	4.42	4.83	5.38	6.05	5.87	6.19	5.89	5.73	4.54	6.21	4.47	4.93	6.29	6.14	5.84	5.02	4.21	4.32	4.36	3.80	3.21	2.91	2.71	2.67	2.54	4.50	2.47	1.71	1.33	1.63	1.80	1.73	2.72	2.69	2.85	3.08	2.94	2.06	1.36	1.56	2.05	2.40	2.66	2.86	3.05	3.23	3.34	3.35	3.25	3.19	3.35	3.60	3.56	3.38	3.40	3.52	3.56	3.58	3.70	3.91	4.05	4.01	3.91	3.89	3.93	3.95	3.93	4.00	4.08	4.09	4.11	4.17	4.25	4.19	4.02	4.04	4.21	4.22	4.14	4.12	4.11	4.10	4.13	4.17	4.18	4.16	4.17	4.20	4.25	4.25	4.22	4.24	4.28	4.31	4.31	4.32	4.34	4.36	4.38	4.38	4.38	
2.50	2.49	2.44	2.35	2.28	2.22	2.16	2.16	2.14	2.21	2.38	8.09	12.35	12.26	12.43	7.26	6.03	3.76	3.66	3.58	3.48	3.32	3.69	3.74	3.36	3.51	3.49	3.67	3.97	3.95	3.59	4.13	5.25	5.09	4.44	4.26	4.42	4.66	4.58	4.36	4.31	4.40	4.50	4.36	3.97	3.71	3.87	4.07	3.95	3.91	4.13	4.40	4.62	4.71	4.80	4.62	4.37	1.40	4.17	3.89	3.93	3.96	3.91	3.99	4.28	4.62	4.70	4.77	5.01	4.53	3.86	3.04	2.26	2.10	1.72	2.96	4.42	4.40	4.84	5.33	5.89	6.12	6.03	4.86	5.57	3.67	3.77	4.41	5.10	6.99	7.03	6.64	5.46	4.51	4.37	4.36	4.05	3.72	3.41	3.07	2.75	2.69	2.49	2.68	1.60	1.84	1.54	1.90	1.87	1.67	2.72	2.80	3.00	2.94	2.23	1.60	1.57	1.89	2.26	2.57	2.73	2.88	3.06	3.24	3.38	3.38	3.16	3.04	3.32	3.54	3.42	3.35	3.44	3.49	3.52	3.62	3.80	3.98	4.05	3.98	3.89	3.91	3.94	3.93	3.98	4.08	4.08	4.07	4.09	4.21	4.29	4.15	4.06	4.18	4.20	4.15	4.15	4.12	4.10	4.13	4.17	4.18	4.18	4.17	4.18	4.24	4.27	4.25	4.24	4.27	4.31	4.34	4.35	4.34	4.33	4.34	4.36	4.36	
2.51	2.49	2.45	2.37	2.27	2.21	2.16	2.16	2.16	2.22	2.28	7.65	11.55	11.46	13.02	9.08	7.62	4.33	3.56	3.86	2.92	3.86	3.22	3.80	3.67	3.48	3.44	3.74	4.09	3.85	3.24	3.53	4.77	5.03	4.63	4.21	4.20	4.27	4.21	4.13	4.21	4.43	4.62	4.59	4.28	3.97	3.87	3.86	3.91	3.72	3.94	4.28	4.54	4.56	4.72	1.46	4.39	4.29	4.14	3.78	3.70	3.74	3.70	3.75	4.25	4.57	4.76	5.11	4.91	4.35	3.38	2.26	1.53	1.27	4.29	4.06	4.16	4.45	4.74	5.21	5.71	5.93	5.93	4.48	3.48	3.59	6.05	6.44	6.83	7.00	7.41	7.20	5.98	4.95	4.42	4.40	4.03	3.83	3.63	3.37	3.08	2.56	2.59	1.04	1.84	1.84	1.47	2.03	2.16	1.93	2.80	2.79	2.87	2.73	1.99	1.44	1.49	1.75	2.08	2.43	2.61	2.74	2.93	3.10	3.27	3.47	3.33	2.90	2.88	3.25	3.40	3.40	3.41	3.40	3.42	3.54	3.68	3.82	3.95	3.98	3.91	3.89	3.91	3.91	3.95	4.02	4.03	4.02	4.01	4.06	4.21	4.19	4.13	4.19	4.18	4.12	4.13	4.14	4.13	4.15	4.19	4.21	4.21	4.21	4.19	4.23	4.26	4.26	4.25	4.27	4.29	4.31	4.35	4.37	4.36	4.33	4.32	4.32	
2.52	2.49	2.46	2.40	2.29	2.20	2.16	2.15	2.18	2.25	2.28	8.00	11.44	10.37	11.71	13.95	8.87	5.93	3.77	3.07	2.99	3.03	2.80	3.88	3.77	3.61	3.74	3.08	4.11	3.31	3.06	3.15	4.11	4.90	4.87	4.25	3.91	4.09	3.96	3.89	3.97	4.29	4.59	4.63	4.54	2.21	4.32	4.11	4.00	3.79	4.04	4.32	4.51	4.50	4.54	4.68	4.59	4.43	4.32	4.12	3.83	3.66	3.21	3.50	4.02	4.38	5.55	5.42	4.93	4.00	1.84	4.46	4.47	4.53	4.31	4.22	1.39	1.91	4.71	5.11	5.55	4.76	3.35	3.21	3.89	5.65	5.94	6.32	6.59	6.77	7.09	7.32	6.45	5.38	4.99	4.58	4.04	3.78	3.60	3.53	3.36	2.88	2.27	1.16	1.85	1.61	1.48	2.00	2.32	2.21	2.06	1.97	2.90	2.69	1.94	1.23	1.29	1.64	1.95	2.27	2.49	2.64	2.83	3.02	3.18	3.43	3.50	3.03	2.66	2.83	3.15	3.39	3.48	3.42	3.38	3.47	3.63	3.74	3.81	3.88	3.88	3.87	3.86	3.87	3.93	3.99	4.00	4.01	4.03	4.03	4.10	4.15	4.16	4.21	4.18	4.12	4.11	4.12	4.14	4.15	4.17	4.18	4.22	4.24	4.21	4.22	4.25	4.25	4.25	4.27	4.30	4.30	4.31	4.37	4.39	4.34	4.30	4.30	
2.53	2.49	2.44	2.40	2.30	2.20	2.15	2.13	2.19	2.23	2.39	7.35	10.83	10.18	9.80	11.85	13.65	7.39	5.29	3.10	2.74	2.11	4.02	3.98	2.76	4.13	4.22	2.47	2.68	2.82	2.26	3.02	3.51	4.31	4.77	4.65	2.40	3.22	2.81	3.84	3.81	4.05	4.39	4.51	4.60	2.24	1.75	4.33	4.02	3.91	3.00	4.62	4.72	4.71	4.65	4.70	4.79	4.78	4.75	4.44	4.02	3.51	3.08	3.41	4.01	5.02	4.93	4.92	4.99	2.24	2.09	2.28	2.08	2.03	2.10	2.15	1.66	1.68	1.47	2.23	4.44	2.83	4.59	4.52	5.63	5.72	5.94	6.25	4.20	6.69	6.95	7.28	7.06	6.36	5.64	4.69	4.17	3.81	3.52	3.52	3.51	3.27	2.66	5.48	1.60	4.77	1.37	2.04	2.29	2.32	2.12	3.09	2.13	2.81	2.11	1.33	1.30	1.66	1.99	2.25	2.41	2.51	2.73	2.99	3.15	3.33	3.49	3.22	2.74	2.59	2.77	3.15	3.47	3.54	3.45	3.45	3.63	3.75	3.78	3.82	3.84	3.84	3.81	3.82	3.89	3.96	3.99	4.01	4.04	4.06	4.09	4.12	4.18	4.23	4.18	4.14	4.12	4.12	4.14	4.16	4.16	4.15	4.19	4.23	4.22	4.22	4.24	4.25	4.25	4.27	4.31	4.33	4.29	4.30	4.37	4.35	4.30	4.30	
2.53	2.48	2.41	2.38	2.29	2.17	2.12	2.10	2.17	2.11	2.29	4.69	9.59	10.65	9.15	9.36	12.38	11.26	5.92	4.57	3.93	3.83	4.00	4.02	3.95	3.96	2.55	3.11	2.58	2.08	2.10	3.16	3.18	3.67	4.37	4.71	2.19	4.46	4.16	4.03	2.07	3.88	4.15	4.33	4.48	1.99	4.84	4.49	3.97	3.87	4.38	4.85	5.05	5.10	5.09	5.08	5.04	4.99	4.90	4.80	3.47	1.98	2.98	3.48	4.08	4.96	4.56	4.79	4.18	2.51	3.09	2.47	2.43	2.63	2.28	2.04	1.22	1.84	4.31	2.03	4.43	4.77	4.97	5.69	5.61	5.78	3.88	4.11	6.52	6.76	6.84	7.01	7.22	7.13	6.22	4.92	4.29	3.94	3.54	3.48	3.55	5.97	5.79	5.24	4.63	4.73	3.05	2.02	2.25	2.27	3.29	3.33	3.32	2.18	2.10	1.39	1.35	1.75	2.16	2.39	2.48	2.49	2.69	3.00	3.19	3.30	3.39	3.28	2.93	2.59	2.53	2.82	3.22	3.49	3.51	3.47	3.58	3.71	3.78	3.80	3.81	3.81	3.81	3.83	3.87	3.91	3.95	4.00	4.03	4.08	4.11	4.12	4.21	4.25	4.17	4.13	4.13	4.13	4.14	4.16	4.18	4.16	4.18	4.22	4.21	4.22	4.25	4.26	4.24	4.23	4.28	4.34	4.32	4.29	4.32	4.33	4.32	4.32	
2.53	2.48	2.41	2.37	2.29	2.17	2.09	2.07	2.10	2.02	2.35	3.26	8.66	11.20	9.42	8.50	9.65	12.45	9.91	6.70	4.14	3.59	3.84	4.02	1.01	3.02	3.17	3.32	2.65	4.12	3.72	1.20	3.26	3.38	3.89	4.58	2.26	4.90	4.54	1.43	3.96	3.81	3.96	4.21	4.44	4.70	4.81	4.48	3.93	3.77	4.16	4.66	4.98	5.11	5.17	5.25	5.24	5.33	5.28	4.36	2.93	1.42	3.12	3.37	4.98	4.82	4.70	3.06	4.22	4.59	4.67	4.58	4.58	2.34	1.93	1.31	4.42	4.02	1.91	4.62	5.26	5.66	5.96	5.88	5.69	5.77	3.75	6.17	6.42	6.70	6.81	6.91	7.22	5.90	6.61	5.22	4.40	4.08	3.76	3.59	5.68	6.11	3.23	5.50	4.85	4.10	2.62	1.76	2.37	2.14	2.36	2.66	2.81	2.56	2.18	1.42	1.33	1.68	2.18	2.45	2.55	2.58	2.69	2.95	3.22	3.33	3.28	3.22	3.05	2.65	2.48	2.66	2.96	3.26	3.44	3.48	3.53	3.63	3.72	3.77	3.79	3.80	3.82	3.85	3.88	3.89	3.92	3.98	4.00	4.05	4.10	4.11	4.19	4.25	4.18	4.13	4.14	4.15	4.12	4.14	4.17	4.18	4.20	4.22	4.20	4.21	4.25	4.28	4.24	4.21	4.24	4.31	4.34	4.33	4.31	4.31	4.31	4.31	
2.57	2.52	2.43	2.37	2.30	2.19	2.10	2.05	2.05	1.96	2.26	2.60	8.75	11.58	9.55	8.58	8.27	9.65	12.48	7.23	5.13	3.86	3.87	4.00	0.98	2.12	3.93	2.91	4.32	2.62	2.13	3.91	3.67	3.51	1.31	4.09	4.29	1.60	2.05	3.74	4.09	3.79	3.81	4.08	1.53	4.71	4.75	4.37	3.79	3.61	3.87	4.34	4.69	4.85	4.95	5.11	5.42	5.70	5.41	4.05	2.33	2.18	2.96	3.99	4.44	4.04	2.36	1.26	4.23	4.30	4.39	4.49	2.53	1.97	1.32	1.44	1.14	4.62	4.77	4.93	5.06	5.41	5.85	6.05	5.94	3.84	5.91	6.10	6.37	6.65	6.78	6.95	6.57	7.49	6.67	5.40	4.49	4.14	3.99	3.79	5.42	3.38	3.24	2.88	2.58	2.19	2.49	0.83	2.41	2.26	2.12	2.29	2.68	2.54	2.61	1.83	1.58	1.68	2.12	2.42	2.58	2.72	2.74	2.84	3.15	3.31	3.18	3.08	2.96	2.62	2.48	2.64	2.86	3.11	3.34	3.45	3.51	3.58	3.66	3.72	3.78	3.80	3.79	3.84	3.88	3.89	3.91	3.95	3.98	4.02	4.08	4.09	4.16	4.23	4.17	4.14	4.17	4.18	4.14	4.12	4.15	4.17	4.20	4.22	4.20	4.18	4.22	4.27	4.26	4.23	4.24	4.28	4.32	4.34	4.31	4.29	4.28	4.28	
2.58	2.55	2.47	2.38	2.31	2.21	2.10	2.04	2.02	1.94	2.09	2.06	9.23	11.95	9.72	8.61	7.83	8.03	10.98	7.57	5.77	5.13	4.71	4.47	4.25	1.96	4.11	1.75	4.09	4.12	4.20	1.68	0.95	1.47	3.30	3.76	4.34	4.49	4.53	4.11	4.31	3.94	1.37	4.01	4.38	4.69	4.75	4.37	3.75	3.44	3.59	4.03	4.44	4.60	4.69	4.93	5.44	6.06	5.65	3.49	2.78	2.99	3.16	3.78	4.52	2.23	1.10	1.49	4.18	4.17	4.25	4.34	2.25	1.95	4.28	4.41	4.62	4.70	4.63	4.64	4.80	5.05	5.42	5.80	5.95	5.90	5.84	5.93	6.19	6.52	6.72	7.01	6.92	6.52	6.80	5.53	4.68	4.23	5.13	3.94	3.66	3.40	3.29	3.09	2.56	2.06	2.07	2.03	2.49	1.64	2.61	2.61	2.85	2.70	2.91	2.14	1.86	1.85	2.14	2.41	2.65	2.90	2.91	2.86	3.06	3.21	3.10	2.95	2.69	2.39	2.39	2.58	2.78	3.02	3.24	3.39	3.47	3.55	3.61	3.67	3.77	3.81	3.78	3.80	3.86	3.88	3.90	3.93	3.95	4.03	4.10	4.10	4.15	4.20	4.15	4.12	4.15	4.18	4.15	4.14	4.15	4.15	4.18	4.20	4.21	4.20	4.20	4.23	4.27	4.25	4.23	4.27	4.30	4.32	4.31	4.27	4.25	4.25	
2.58	2.57	2.51	2.40	2.32	2.22	2.11	2.02	1.99	1.97	2.05	2.00	9.68	12.89	10.02	8.40	7.36	7.61	10.23	6.75	5.98	4.90	2.86	4.38	5.28	4.23	4.57	1.87	4.04	3.96	4.03	2.35	4.25	3.95	3.56	3.57	4.05	4.66	4.98	4.90	4.54	4.14	1.73	4.04	4.27	4.57	4.69	4.39	3.86	3.43	3.36	3.69	4.16	4.37	4.31	4.44	5.15	6.72	6.12	4.80	3.56	3.33	3.27	3.90	3.47	1.33	1.33	2.62	4.09	4.10	4.17	4.25	4.35	4.45	4.36	4.31	4.49	4.68	4.64	4.50	4.53	4.65	4.91	5.29	5.59	5.79	5.88	5.92	6.07	6.35	6.61	7.01	7.04	7.91	7.04	5.77	4.97	4.47	4.23	4.10	3.88	3.58	3.39	3.22	2.79	2.28	2.29	1.03	0.88	1.27	1.77	2.89	2.86	3.95	3.16	2.13	1.83	1.92	2.15	2.37	2.67	3.00	3.08	3.08	3.14	3.12	3.01	2.83	2.46	2.12	2.19	2.46	2.68	2.92	3.14	3.31	3.42	3.50	3.55	3.60	3.72	3.82	3.81	3.79	3.83	3.85	3.86	3.92	3.95	4.02	4.12	4.13	4.15	4.18	4.14	4.11	4.12	4.15	4.15	4.15	4.16	4.16	4.17	4.20	4.22	4.23	4.22	4.23	4.26	4.25	4.22	4.25	4.29	4.32	4.31	4.27	4.25	4.25	
2.57	2.59	2.56	2.44	2.33	2.25	2.12	2.03	1.97	1.95	1.85	1.76	9.75	11.02	6.53	7.57	7.33	8.14	5.19	5.67	7.37	5.02	8.18	7.33	5.05	5.36	4.43	3.01	4.15	3.97	3.96	4.15	4.30	3.95	3.60	3.49	3.79	4.30	4.69	4.81	4.64	4.25	3.98	3.98	4.14	4.41	4.56	4.33	3.93	3.64	3.45	3.60	4.08	4.30	4.03	3.81	4.29	6.45	7.52	5.36	4.31	3.70	3.29	3.16	3.64	1.55	2.63	3.81	3.99	4.07	4.16	4.27	4.31	4.33	4.33	4.26	4.31	4.54	4.62	4.56	4.53	4.46	4.55	4.91	5.22	5.50	5.79	5.95	6.10	6.31	6.59	7.04	7.13	7.05	7.13	5.94	5.14	4.69	4.44	4.29	4.08	3.76	3.49	3.29	2.92	2.38	5.17	1.32	0.99	0.94	1.37	3.81	3.90	4.08	3.00	2.57	1.97	1.96	2.14	2.34	2.69	3.01	3.13	3.27	3.37	3.17	2.86	2.66	2.40	2.03	1.99	2.28	2.57	2.81	3.04	3.21	3.35	3.45	3.51	3.54	3.63	3.76	3.83	3.84	3.84	3.83	3.83	3.88	3.93	4.01	4.10	4.13	4.18	4.19	4.15	4.12	4.11	4.13	4.15	4.16	4.16	4.17	4.18	4.21	4.23	4.23	4.24	4.25	4.26	4.26	4.25	4.26	4.25	4.27	4.29	4.27	4.25	4.25	
2.58	2.59	2.58	2.48	2.35	2.25	2.14	2.03	1.97	1.92	1.76	1.84	8.82	12.03	7.12	4.74	7.00	9.24	5.43	4.60	5.95	3.76	4.33	7.17	8.12	7.69	5.87	4.30	4.74	3.40	4.17	4.18	4.31	4.21	3.92	3.01	3.74	3.97	4.32	4.62	4.66	4.31	3.95	3.85	3.93	4.16	4.37	4.23	3.87	3.74	3.66	3.66	3.98	4.26	4.06	3.64	3.76	5.55	7.74	6.01	4.52	3.58	2.72	2.59	1.86	3.26	2.67	2.36	3.90	4.01	4.14	4.29	4.33	4.29	4.35	4.27	4.17	4.32	4.55	4.62	4.62	2.71	4.40	4.59	4.90	5.17	5.48	5.75	5.99	6.22	6.59	7.10	6.82	7.26	7.33	6.10	5.25	4.81	4.55	4.40	4.25	3.88	3.52	3.31	2.97	5.00	5.05	1.62	1.27	1.01	3.69	3.87	3.95	3.08	3.14	2.76	2.09	2.20	2.23	2.42	2.82	3.11	3.19	3.41	3.62	3.33	2.69	2.40	2.35	2.07	1.89	2.07	2.39	2.67	2.90	3.10	3.25	3.38	3.47	3.51	3.56	3.66	3.77	3.85	3.86	3.85	3.83	3.84	3.89	4.00	4.09	4.11	4.20	4.23	4.17	4.13	4.12	4.13	4.15	4.16	4.16	4.16	4.16	4.20	4.24	4.24	4.24	4.25	4.26	4.26	4.28	4.32	4.29	4.24	4.22	4.22	4.21	4.21	
2.60	2.60	2.60	2.51	2.37	2.27	2.16	2.05	1.97	1.97	1.81	1.96	6.05	11.47	7.52	4.88	6.41	5.97	5.07	3.28	3.54	6.58	5.71	6.41	5.92	6.70	8.14	4.89	6.11	5.49	5.10	4.76	4.60	4.45	1.20	0.18	0.82	3.96	4.08	4.44	4.72	4.51	4.05	3.86	3.87	4.00	4.18	4.12	3.82	3.61	3.54	3.50	3.67	3.97	3.99	3.69	3.65	4.81	7.11	6.18	2.14	3.58	2.14	3.11	2.74	3.56	3.00	2.74	3.92	3.98	4.12	4.26	4.33	4.34	4.38	4.28	4.07	4.13	4.41	4.59	4.64	2.80	4.43	4.45	4.68	4.96	5.22	5.49	5.79	6.08	6.51	6.92	6.55	7.39	7.61	6.46	5.41	4.91	4.70	4.52	4.39	4.05	3.60	3.28	5.32	5.02	4.72	0.94	0.85	2.57	1.21	1.42	1.59	3.17	3.77	3.40	2.19	1.38	1.50	2.03	2.70	2.76	2.91	3.29	3.42	2.82	2.72	2.19	2.12	2.02	1.88	1.91	2.15	2.43	2.69	2.95	3.14	3.27	3.39	3.47	3.51	3.58	3.70	3.80	3.83	3.84	3.84	3.83	3.86	3.99	4.08	4.09	4.17	4.25	4.22	4.17	4.15	4.15	4.16	4.16	4.15	4.16	4.15	4.19	4.23	4.24	4.24	4.24	4.24	4.22	4.25	4.32	4.38	4.36	4.27	4.17	4.14	4.14	
2.60	2.60	2.59	2.51	2.37	2.26	2.16	2.06	1.99	1.99	2.09	2.30	4.79	10.05	8.56	6.63	8.07	6.67	5.29	2.92	2.73	4.38	5.78	5.64	6.34	6.60	7.34	8.53	6.52	4.44	5.92	6.04	5.75	5.47	5.00	4.53	4.02	1.69	4.08	4.30	4.70	1.17	4.28	3.97	3.97	4.03	4.13	4.13	3.98	3.75	3.55	3.43	3.51	3.72	3.79	3.60	3.74	4.01	6.52	2.73	4.60	4.29	5.11	3.92	3.50	3.98	4.04	3.92	3.94	4.00	4.12	4.22	4.36	4.47	4.46	4.21	3.85	3.90	4.20	4.42	1.52	4.59	4.44	4.41	4.56	4.85	5.08	5.28	5.57	5.96	6.46	6.94	6.28	7.45	7.72	6.91	5.61	5.01	4.84	4.68	4.48	4.26	3.81	4.95	4.96	2.62	4.71	4.39	1.69	2.00	0.88	1.07	1.45	1.85	2.85	2.52	1.91	1.75	1.72	1.99	2.63	2.91	3.19	3.39	3.31	2.97	3.02	2.35	1.97	1.90	1.94	1.92	2.03	2.20	2.42	2.73	3.02	3.17	3.30	3.42	3.47	3.53	3.66	3.77	3.79	3.80	3.83	3.82	3.83	3.95	4.07	4.07	4.11	4.21	4.23	4.21	4.17	4.17	4.18	4.15	4.15	4.17	4.17	4.20	4.24	4.24	4.21	4.21	4.21	4.17	4.14	4.17	4.29	4.43	4.44	4.27	4.14	4.14	
2.62	2.60	2.58	2.52	2.40	2.26	2.17	2.06	2.00	1.99	2.35	2.53	3.54	9.65	8.42	7.92	10.58	9.51	6.26	4.85	3.02	4.21	5.28	5.92	5.96	3.97	4.48	7.60	8.24	7.53	7.78	6.28	6.35	4.34	5.29	5.10	5.61	4.72	4.53	4.38	4.56	4.66	4.35	4.06	4.08	4.14	4.20	4.22	4.18	4.06	3.84	3.69	3.70	3.76	3.84	3.72	3.51	3.56	6.04	2.88	4.25	4.59	4.84	5.12	4.81	4.56	4.15	3.89	3.82	3.89	4.04	4.16	4.31	4.54	4.60	4.21	3.69	3.66	0.83	4.16	4.41	4.57	4.50	4.44	4.51	4.74	4.96	5.08	5.28	5.74	6.31	6.89	6.19	7.63	7.81	5.39	6.27	5.33	4.97	4.85	4.63	4.41	4.03	3.53	3.17	4.94	4.92	4.62	4.40	1.45	1.99	1.21	1.36	1.65	2.71	2.32	1.98	2.08	1.90	1.86	2.33	3.05	3.58	3.35	3.12	3.06	2.57	2.86	2.19	1.93	2.03	2.08	2.13	2.14	2.20	2.49	2.85	3.07	3.23	3.37	3.44	3.49	3.61	3.74	3.79	3.79	3.83	3.85	3.83	3.89	4.05	4.11	4.08	4.12	4.18	4.19	4.19	4.20	4.21	4.17	4.16	4.17	4.18	4.22	4.28	4.31	4.27	4.28	4.29	4.26	4.16	4.04	4.08	4.25	4.42	4.36	4.25	4.25	
2.67	2.63	2.59	2.53	2.44	2.31	2.21	2.10	2.02	2.01	2.19	1.97	3.30	9.31	12.59	10.52	9.72	8.67	8.73	5.94	4.30	3.31	3.94	5.69	5.49	6.36	4.33	4.82	7.95	7.36	7.55	7.46	8.01	7.31	7.81	7.06	7.16	6.85	6.09	5.42	5.12	4.76	4.27	4.13	3.16	4.25	2.73	4.21	4.21	4.14	3.96	3.89	3.94	3.82	3.90	3.82	3.55	5.15	5.73	3.20	4.28	4.54	4.69	4.97	5.02	4.79	4.41	4.04	3.83	3.77	3.97	4.21	4.34	4.56	2.04	4.34	1.25	3.59	3.70	3.84	4.03	4.35	4.57	4.62	4.62	4.73	4.93	5.00	5.08	5.50	6.07	6.63	5.75	7.70	5.07	7.51	6.75	5.93	5.33	5.02	4.87	4.60	4.24	3.87	3.51	5.15	5.08	4.67	1.65	4.32	1.46	2.20	1.78	2.57	2.35	2.67	2.44	2.29	2.14	1.98	2.06	2.65	3.55	2.97	2.91	2.86	2.71	2.53	2.68	2.24	2.16	2.19	2.24	2.18	2.09	2.29	2.67	2.96	3.17	3.33	3.42	3.47	3.57	3.70	3.78	3.79	3.83	3.87	3.85	3.84	3.98	4.16	4.15	4.10	4.12	4.15	4.17	4.19	4.20	4.18	4.16	4.16	4.16	4.20	4.30	4.37	4.38	4.41	4.45	4.48	4.39	4.12	4.00	4.10	4.26	4.32	4.30	4.30	
2.72	2.69	2.62	2.54	2.46	2.33	2.23	2.11	2.04	2.01	1.90	1.84	3.30	9.26	11.56	9.95	8.31	7.93	7.56	7.30	5.66	4.59	3.83	3.72	4.88	5.65	6.38	6.47	6.75	7.01	6.71	5.79	6.74	8.05	8.62	9.52	6.71	9.79	7.35	7.17	6.78	5.83	4.31	4.09	4.28	4.36	4.28	4.23	4.20	4.02	2.88	3.77	4.06	3.89	3.71	3.69	4.82	5.20	7.89	4.80	4.20	4.51	4.52	4.81	5.00	5.00	4.77	4.38	1.79	4.01	4.13	4.44	4.64	4.72	4.78	4.60	4.15	3.86	3.77	3.72	3.70	3.96	4.40	4.66	4.72	4.76	4.92	4.84	5.05	5.39	5.96	6.46	7.04	4.47	7.61	7.62	7.12	6.57	5.94	5.28	5.02	4.86	4.50	4.22	3.92	3.63	3.34	2.88	4.66	1.80	1.71	1.91	1.69	2.59	2.40	2.16	2.02	1.70	2.40	2.48	2.47	2.42	2.78	3.01	2.78	2.58	2.60	2.70	3.19	2.79	2.50	2.30	2.27	2.21	2.07	2.15	2.50	2.83	3.07	3.28	3.39	3.45	3.54	3.64	3.73	3.76	3.80	3.85	3.87	3.84	3.89	4.07	4.18	4.15	4.11	4.13	4.14	4.15	4.17	4.17	4.17	4.18	4.16	4.15	4.23	4.29	4.30	4.33	4.40	4.54	4.58	4.31	4.06	4.10	4.21	4.26	4.26	4.26	
2.71	2.72	2.67	2.56	2.48	2.37	2.24	2.12	2.05	2.00	1.92	2.15	2.90	9.45	11.39	10.10	8.61	8.19	7.59	7.69	7.41	5.16	5.19	4.55	3.77	4.43	4.84	5.80	6.48	6.73	6.83	4.31	4.29	7.50	7.71	8.20	8.81	9.58	6.86	7.29	7.55	5.46	5.33	4.10	4.14	3.09	4.40	4.36	4.25	3.02	2.60	3.54	4.03	4.24	3.90	3.53	4.85	5.17	4.82	4.96	4.63	4.48	4.39	4.63	4.83	4.95	4.91	4.65	2.19	4.38	4.37	4.55	1.35	1.51	4.87	4.81	4.48	4.19	4.12	4.03	3.79	3.78	4.16	4.53	4.68	4.76	4.87	5.00	5.05	5.33	5.87	5.05	3.95	7.33	7.50	7.22	7.36	7.14	6.65	5.83	5.25	5.02	4.72	4.48	4.28	3.99	3.58	3.20	2.86	2.54	2.23	2.11	2.53	1.62	1.98	2.08	1.98	1.72	1.86	2.55	2.77	2.54	2.64	2.82	2.66	2.33	2.29	2.46	2.28	3.28	3.02	2.61	2.32	2.27	2.13	2.02	2.29	2.68	2.95	3.18	3.33	3.43	3.51	3.61	3.70	3.75	3.79	3.82	3.86	3.88	3.88	3.95	4.08	4.15	4.14	4.14	4.15	4.15	4.17	4.16	4.15	4.19	4.18	4.12	4.14	4.17	4.18	4.20	4.25	4.44	4.59	4.40	4.14	4.15	4.24	4.24	4.23	4.23	
2.73	2.74	2.71	2.59	2.50	2.40	2.28	2.15	2.08	2.05	2.05	2.37	2.78	9.71	11.33	10.09	9.59	8.42	7.36	6.52	5.05	5.40	7.15	5.19	4.32	4.52	4.98	5.27	5.69	6.55	6.13	4.35	3.89	7.15	7.28	7.51	5.95	6.10	6.21	6.30	7.22	7.65	6.12	4.31	4.05	4.22	4.48	4.62	4.02	2.03	3.11	3.64	4.08	4.48	4.70	4.35	4.90	4.59	4.93	4.51	4.40	4.26	4.30	4.52	4.60	4.62	4.66	4.57	4.47	4.50	4.56	4.62	4.75	4.83	4.85	4.81	4.57	4.22	4.10	3.74	1.80	3.79	3.97	4.38	4.61	4.73	4.80	4.90	5.02	5.27	5.73	6.25	6.67	7.13	7.35	7.46	6.77	6.62	7.30	6.67	5.85	5.26	4.92	4.70	4.57	4.32	3.86	3.40	3.08	2.96	2.85	2.70	2.76	1.29	1.95	2.21	2.42	2.05	1.91	3.06	3.34	2.89	2.37	2.14	2.00	2.35	2.41	2.20	2.08	2.12	3.48	3.12	2.62	2.45	2.35	2.04	2.10	2.48	2.83	3.08	3.27	3.40	3.48	3.57	3.68	3.76	3.80	3.80	3.84	3.90	3.93	3.95	3.99	4.07	4.12	4.13	4.16	4.16	4.17	4.16	4.10	4.13	4.17	4.15	4.14	4.15	4.17	4.19	4.23	4.41	4.55	4.40	4.19	4.21	4.27	4.25	4.22	4.22	
2.75	2.76	2.74	2.62	2.50	2.41	2.27	2.15	2.08	2.06	2.13	2.42	2.78	8.90	11.82	10.99	10.18	7.79	6.65	5.56	6.98	4.91	5.41	6.99	5.26	5.01	5.09	4.03	5.47	5.90	6.23	4.18	4.00	3.72	7.16	5.74	5.92	6.08	6.11	6.09	6.90	10.52	6.80	4.56	0.94	3.97	4.36	4.72	2.43	4.14	3.94	4.04	4.29	5.23	4.84	3.68	5.69	4.53	4.55	4.25	4.04	3.89	4.15	4.50	4.52	4.31	4.14	4.12	4.20	4.36	4.58	4.71	4.69	4.69	4.76	4.78	4.64	4.37	1.92	4.00	3.75	3.83	3.81	4.15	4.47	4.64	4.80	4.92	5.03	5.30	5.07	6.23	6.41	4.78	4.86	6.94	7.20	7.37	7.56	7.37	6.75	5.97	5.37	5.06	4.85	4.57	4.19	3.74	3.28	3.13	3.19	3.19	2.02	1.19	1.91	2.16	2.30	2.38	2.09	3.13	3.65	3.37	3.71	3.41	2.44	2.99	2.22	2.33	1.88	2.08	2.29	3.53	3.07	2.78	2.69	2.35	2.09	2.30	2.70	3.01	3.22	3.37	3.47	3.54	3.65	3.75	3.80	3.81	3.85	3.91	3.96	3.97	3.98	4.02	4.07	4.07	4.10	4.15	4.17	4.16	4.11	4.09	4.15	4.18	4.18	4.16	4.16	4.16	4.22	4.42	4.53	4.35	4.20	4.23	4.28	4.26	4.22	4.22	
2.75	2.75	2.74	2.63	2.49	2.39	2.27	2.13	2.04	2.02	2.14	2.17	2.30	5.64	11.24	11.99	10.42	7.62	6.28	5.35	6.33	4.03	4.24	6.77	6.26	5.35	4.41	4.07	4.02	5.62	6.56	4.12	4.18	3.94	3.69	6.05	3.84	4.29	4.77	5.40	6.61	8.09	6.17	5.41	3.84	3.80	4.25	4.54	4.43	1.83	4.04	4.25	4.51	5.43	5.35	4.37	3.76	4.28	4.40	4.14	3.81	3.61	3.91	0.84	4.60	4.25	3.66	3.49	3.82	4.18	4.50	4.71	4.72	4.64	4.65	4.75	2.10	1.66	1.52	4.15	2.23	2.18	3.90	4.06	4.37	4.54	4.61	4.70	4.83	5.17	5.79	3.98	4.00	3.92	5.00	4.96	6.58	6.35	6.48	7.51	7.25	6.77	6.08	5.59	5.22	4.72	4.46	4.28	3.77	3.42	3.42	3.40	1.78	1.50	1.94	2.16	2.15	2.06	2.16	2.62	3.49	3.21	3.38	3.17	2.61	2.74	3.20	2.66	1.93	2.11	2.43	3.53	3.31	3.07	3.01	2.76	2.33	2.27	2.60	2.96	3.19	3.35	3.46	3.53	3.63	3.74	3.80	3.82	3.87	3.92	3.96	3.97	3.98	4.02	4.05	4.04	4.06	4.13	4.18	4.18	4.14	4.10	4.13	4.16	4.17	4.17	4.15	4.11	4.16	4.39	4.50	4.33	4.22	4.24	4.26	4.25	4.23	4.23	
2.78	2.76	2.72	2.65	2.51	2.39	2.27	2.12	2.01	1.98	2.06	1.95	2.14	4.01	9.75	12.47	10.53	6.27	5.43	5.16	5.27	5.81	3.96	4.38	7.42	6.13	4.63	4.45	4.00	3.63	6.33	6.36	4.07	4.05	3.80	3.66	3.78	4.13	4.58	5.09	6.22	7.58	8.46	7.11	4.86	4.24	4.40	2.32	4.20	3.90	3.94	4.03	4.29	5.38	5.80	4.69	3.79	4.31	4.48	4.16	2.90	3.58	3.78	4.33	4.69	2.09	3.42	2.87	3.23	3.93	4.44	4.67	4.77	4.76	4.64	1.54	2.28	2.02	1.46	4.32	1.92	4.20	4.10	4.18	4.40	4.54	4.56	4.57	3.80	2.62	4.97	4.08	3.88	4.36	5.17	5.85	5.01	4.43	4.14	4.57	5.15	4.46	6.65	6.14	5.79	5.08	4.70	4.68	4.26	3.80	3.74	2.19	1.67	1.86	2.01	2.22	2.42	2.28	2.00	1.38	1.42	2.02	3.34	3.41	3.46	3.67	3.35	3.11	2.51	2.47	2.64	3.44	3.40	3.29	3.29	3.13	2.68	2.41	2.57	2.91	3.16	3.33	3.45	3.54	3.62	3.72	3.79	3.82	3.88	3.94	3.97	3.97	3.98	4.01	4.06	4.07	4.06	4.11	4.19	4.22	4.16	4.11	4.11	4.14	4.16	4.17	4.16	4.11	4.14	4.31	4.41	4.34	4.27	4.26	4.26	4.26	4.24	4.24	
2.83	2.78	2.72	2.68	2.55	2.41	2.29	2.14	2.01	1.94	1.97	1.93	2.41	2.74	8.85	12.54	8.54	6.53	5.03	4.54	4.50	4.88	3.43	3.98	4.37	4.87	6.84	4.87	4.38	3.97	3.72	3.70	5.71	4.02	3.75	3.57	3.67	3.96	4.37	4.78	5.74	6.39	9.27	7.49	5.77	4.82	3.53	4.51	1.62	3.85	3.91	3.82	4.01	5.27	5.14	4.71	4.25	2.74	2.03	4.58	4.20	3.97	4.08	4.56	4.99	4.77	3.81	2.94	2.96	3.62	4.31	4.60	4.71	4.80	1.58	2.57	1.17	1.61	4.42	4.39	2.57	4.19	4.12	4.19	4.35	4.51	4.58	3.02	1.56	2.22	4.75	5.29	5.40	5.19	5.22	5.46	4.66	4.16	3.72	4.18	4.65	3.81	3.78	3.81	3.97	4.32	5.15	3.94	3.88	4.31	4.15	1.92	1.59	1.93	2.00	2.08	2.40	2.38	2.15	2.00	1.37	3.47	4.24	3.90	3.73	3.88	4.01	3.64	3.18	3.04	3.08	3.53	3.50	3.46	3.47	3.35	2.96	2.60	2.59	2.86	3.12	3.30	3.42	3.53	3.62	3.71	3.78	3.83	3.89	3.96	3.98	3.97	3.97	3.98	4.03	4.09	4.07	4.08	4.17	4.25	4.21	4.14	4.10	4.12	4.17	4.19	4.17	4.16	4.18	4.24	4.29	4.32	4.29	4.26	4.26	4.27	4.26	4.26	
2.91	2.83	2.74	2.69	2.59	2.43	2.29	2.14	2.00	1.91	1.92	1.91	2.35	2.51	8.46	12.23	11.05	8.20	5.85	4.62	4.07	3.63	4.80	3.31	3.84	4.04	4.14	5.61	5.01	4.08	3.74	3.58	6.66	3.99	3.80	3.52	3.53	3.80	4.19	4.50	5.45	5.38	8.47	8.36	7.66	5.73	4.79	5.09	2.95	3.79	4.19	4.31	4.59	9.64	5.54	4.70	4.57	4.85	2.93	1.75	2.11	0.97	4.37	4.77	5.27	4.79	4.66	4.02	3.68	3.81	4.33	4.66	4.72	3.66	1.81	1.56	1.21	4.35	4.51	4.57	4.51	4.38	4.28	4.33	4.49	3.88	2.77	1.48	2.93	2.63	3.88	4.80	4.99	4.86	4.90	4.99	3.65	3.61	3.56	3.83	3.71	3.22	3.87	3.83	3.86	4.19	4.74	4.40	4.20	5.13	4.09	2.05	1.35	1.76	1.89	1.79	2.11	2.18	2.33	2.60	2.29	3.09	4.28	3.87	3.61	3.44	3.65	3.58	3.52	3.53	3.42	3.69	3.56	3.54	3.54	3.44	3.14	2.76	2.62	2.82	3.08	3.27	3.40	3.51	3.62	3.71	3.76	3.82	3.90	3.97	3.99	3.98	3.97	3.96	3.99	4.05	4.07	4.07	4.12	4.21	4.24	4.18	4.12	4.11	4.16	4.20	4.21	4.22	4.21	4.20	4.23	4.27	4.27	4.23	4.24	4.27	4.28	4.28	
2.94	2.87	2.76	2.69	2.61	2.44	2.29	2.12	1.97	1.86	1.84	1.93	2.44	2.16	8.32	11.88	11.46	8.92	6.68	4.68	4.11	3.03	3.07	5.45	3.12	3.44	3.68	3.88	6.14	3.97	3.62	3.43	6.16	3.78	3.54	3.32	3.32	3.62	4.05	4.35	5.33	8.02	7.88	9.87	10.75	11.44	7.28	7.02	3.86	5.09	5.18	5.31	5.60	5.75	5.01	4.49	4.52	4.76	5.04	4.91	4.38	4.03	4.06	4.41	4.83	4.94	4.65	4.38	0.94	4.15	4.42	4.82	4.17	1.94	1.54	1.51	1.29	4.26	4.53	4.78	4.86	4.83	4.82	4.23	4.36	3.02	1.64	2.39	2.53	3.18	3.55	3.82	4.40	4.59	5.14	6.04	4.05	3.62	3.58	3.75	3.56	3.13	3.40	4.02	3.92	3.77	4.36	4.44	4.47	4.80	4.26	2.60	1.49	1.88	2.07	1.77	1.53	2.16	2.89	3.25	3.14	3.14	3.94	4.10	3.78	3.53	3.62	3.47	3.47	3.63	3.59	3.85	3.68	3.68	3.63	3.49	3.27	2.89	2.63	2.75	3.02	3.23	3.38	3.50	3.62	3.72	3.76	3.80	3.89	3.97	4.01	4.00	3.98	3.97	3.98	4.01	4.06	4.08	4.10	4.16	4.21	4.18	4.14	4.12	4.15	4.19	4.23	4.26	4.22	4.20	4.25	4.27	4.24	4.22	4.23	4.24	4.25	4.25	
2.97	2.91	2.80	2.72	2.64	2.49	2.33	2.14	1.96	1.81	1.78	1.93	2.65	2.61	8.21	11.46	11.51	8.51	7.36	7.16	5.22	4.21	3.62	3.15	2.98	4.70	5.80	3.30	5.80	3.71	3.46	3.21	6.24	6.43	6.56	3.03	3.09	3.38	3.80	4.17	5.41	7.82	8.07	9.24	9.59	8.99	9.25	7.39	7.17	9.75	8.64	9.69	6.36	5.96	4.63	4.27	4.33	4.62	1.72	4.83	4.25	3.88	3.86	4.16	4.37	4.14	3.86	3.84	3.88	3.95	4.20	4.68	1.71	1.39	1.52	1.52	3.36	4.51	4.63	3.95	4.85	4.40	4.57	4.60	4.34	4.19	5.15	4.50	4.05	4.31	4.05	4.07	4.53	5.07	5.33	5.26	4.41	4.03	3.65	3.72	3.44	3.07	3.27	3.50	3.89	3.94	4.61	4.13	4.78	4.94	4.37	3.19	2.07	1.47	1.92	2.77	3.88	4.77	4.23	4.05	3.73	3.57	4.13	4.30	4.03	3.78	3.71	3.61	3.52	3.47	3.51	3.85	3.80	3.88	3.83	3.63	3.45	3.10	2.74	2.70	2.94	3.20	3.37	3.49	3.62	3.73	3.77	3.80	3.88	3.97	4.02	4.01	3.99	4.01	4.01	4.02	4.06	4.09	4.11	4.16	4.19	4.17	4.14	4.13	4.15	4.20	4.25	4.26	4.23	4.23	4.26	4.27	4.24	4.23	4.25	4.24	4.23	4.23	
3.00	2.96	2.85	2.76	2.67	2.53	2.36	2.16	1.98	1.80	1.72	1.84	2.64	2.55	8.11	10.81	10.58	11.58	11.77	8.42	6.53	4.92	4.15	3.65	3.34	3.08	2.84	3.00	3.27	5.07	3.27	3.39	5.83	4.12	3.24	3.08	3.01	3.15	3.48	3.87	5.50	7.88	8.49	9.02	7.37	7.25	7.22	7.33	7.27	10.16	9.34	10.74	6.99	5.69	4.27	4.08	4.22	4.56	4.85	4.62	4.15	4.01	4.08	4.34	4.21	3.68	3.08	3.24	3.45	3.64	3.95	4.39	1.75	1.43	1.24	1.54	3.64	1.18	2.04	6.89	4.16	4.21	4.35	5.34	5.43	6.94	5.05	5.32	5.64	5.74	5.98	4.71	4.46	4.35	5.24	3.58	4.86	5.46	4.73	3.89	3.00	2.40	4.84	3.15	3.77	3.88	3.83	4.17	4.05	4.60	4.33	3.88	3.88	4.95	4.68	3.77	4.42	5.89	5.44	4.82	4.19	3.71	4.36	4.80	4.31	3.89	3.72	3.71	3.48	3.25	3.22	3.78	3.80	3.98	4.03	3.88	3.71	3.43	3.07	2.81	2.89	3.17	3.37	3.49	3.62	3.73	3.79	3.81	3.87	3.96	4.02	4.02	4.00	4.03	4.04	4.03	4.07	4.10	4.13	4.18	4.22	4.20	4.16	4.12	4.15	4.24	4.27	4.23	4.22	4.25	4.25	4.25	4.25	4.25	4.28	4.27	4.24	4.24	
3.02	2.99	2.89	2.78	2.67	2.53	2.36	2.16	1.97	1.77	1.65	1.72	2.32	2.24	7.52	10.42	10.19	10.60	11.88	8.73	7.58	6.03	4.75	4.11	3.75	3.49	3.21	3.04	3.03	2.92	2.72	2.74	4.10	3.26	3.38	3.27	3.14	3.17	3.28	3.53	5.72	7.80	8.25	7.67	5.02	5.03	5.12	5.32	7.86	9.22	9.87	11.07	7.66	5.90	4.11	3.92	4.18	4.69	4.89	4.26	3.78	3.96	4.35	4.71	4.74	3.69	2.66	2.68	3.05	3.44	3.87	4.01	1.33	1.18	0.90	4.16	3.87	5.17	5.28	6.95	3.63	3.66	3.79	7.15	6.77	6.67	7.04	7.55	5.17	5.50	5.91	6.13	4.22	3.46	2.38	4.36	4.94	6.05	5.24	3.23	3.39	5.07	5.14	3.01	3.37	3.34	3.16	3.16	3.19	3.51	3.62	2.89	3.31	4.57	5.06	4.31	4.43	5.34	5.41	5.47	4.84	4.04	4.24	4.99	4.58	3.89	3.62	3.55	3.54	3.38	3.27	3.77	3.74	3.90	4.05	4.02	3.90	3.69	3.44	3.12	2.98	3.17	3.40	3.51	3.63	3.75	3.81	3.83	3.87	3.94	4.00	4.01	4.00	4.03	4.04	4.03	4.05	4.09	4.13	4.17	4.22	4.23	4.19	4.11	4.12	4.23	4.25	4.21	4.23	4.26	4.23	4.23	4.25	4.25	4.27	4.27	4.25	4.25	
3.03	3.00	2.91	2.80	2.69	2.56	2.39	2.20	1.99	1.76	1.59	1.62	1.82	1.56	5.37	10.24	10.31	10.21	11.01	8.16	7.87	6.43	4.63	4.54	4.00	3.66	3.46	3.34	3.24	3.07	2.73	2.57	2.72	3.00	3.25	3.31	3.32	3.39	3.34	6.06	6.00	7.59	5.65	5.57	5.50	5.46	5.39	5.46	8.77	9.56	9.65	10.80	8.30	6.96	4.54	3.92	4.21	4.93	5.48	4.74	3.80	3.91	4.53	5.20	5.27	4.13	2.87	2.50	2.76	3.31	3.80	1.90	3.86	1.27	4.02	3.37	5.20	5.95	6.26	3.77	3.54	3.59	3.83	6.80	6.37	6.28	6.65	7.01	6.81	7.47	8.10	5.65	5.90	4.30	4.12	4.41	4.43	4.42	3.77	2.07	5.42	5.44	5.44	3.22	3.20	3.01	3.26	3.02	3.34	2.72	2.11	1.99	2.96	3.84	4.62	4.23	4.23	4.67	4.81	5.39	5.63	4.80	4.37	4.74	4.72	4.27	3.89	3.60	3.58	3.47	3.80	3.74	3.69	3.75	3.87	3.94	3.95	3.78	3.57	3.35	3.17	3.26	3.45	3.55	3.66	3.76	3.83	3.85	3.87	3.92	3.99	4.02	4.01	4.03	4.04	4.04	4.04	4.07	4.11	4.13	4.16	4.20	4.21	4.15	4.16	4.21	4.21	4.22	4.26	4.26	4.22	4.21	4.24	4.26	4.26	4.27	4.26	4.26	
3.07	3.02	2.93	2.84	2.73	2.61	2.44	2.25	2.03	1.80	1.60	1.54	1.53	1.48	4.95	9.57	10.20	10.02	10.37	7.38	8.23	7.05	5.19	4.90	4.25	3.82	3.54	3.41	3.29	3.17	2.92	2.66	4.22	2.84	3.17	3.32	3.39	3.53	3.55	6.66	6.82	5.83	5.85	4.33	4.53	4.60	8.81	6.08	8.94	8.88	9.11	10.11	8.13	8.12	6.16	4.65	4.43	4.89	4.48	5.86	3.25	4.56	4.93	5.74	6.22	5.56	4.52	3.84	3.56	3.70	2.31	3.85	3.72	3.29	3.71	3.63	3.87	5.64	6.31	3.37	3.38	3.64	3.90	4.13	6.84	6.52	6.22	6.21	6.35	7.19	7.80	4.99	5.51	5.98	6.25	6.27	6.32	3.73	2.86	5.26	5.56	6.83	4.55	3.79	3.96	3.99	3.37	2.96	3.17	2.45	1.89	2.89	3.39	3.56	4.08	4.01	3.76	3.95	4.27	4.88	5.32	4.93	4.57	4.69	4.64	4.26	4.22	3.92	3.60	3.30	3.79	3.73	3.69	3.73	3.78	3.83	3.98	3.94	3.62	3.34	3.25	3.36	3.50	3.59	3.68	3.77	3.84	3.86	3.86	3.88	3.95	4.03	4.05	4.04	4.06	4.07	4.06	4.07	4.10	4.11	4.13	4.16	4.17	4.20	4.24	4.20	4.18	4.24	4.28	4.27	4.22	4.20	4.23	4.27	4.27	4.25	4.24	4.24	
3.13	3.06	2.96	2.89	2.78	2.65	2.49	2.30	2.07	1.84	1.63	1.56	1.42	1.74	3.25	8.99	10.27	9.76	10.02	10.86	11.53	7.20	5.68	5.25	4.53	4.05	3.65	3.38	3.19	3.03	2.86	2.68	2.60	2.73	3.06	3.28	3.38	3.94	7.04	3.73	3.55	3.53	3.74	4.04	4.29	4.56	6.79	8.59	5.65	8.09	7.40	9.12	10.12	7.80	7.38	6.00	4.52	4.38	6.59	5.90	5.13	4.93	5.07	5.69	6.39	6.68	5.90	5.32	5.34	2.28	4.21	2.40	2.99	4.51	3.61	3.41	5.07	5.34	5.78	3.00	3.19	3.65	3.74	3.95	6.88	7.19	7.15	6.57	6.83	7.29	7.69	7.73	7.81	5.48	6.04	6.22	6.27	6.66	2.00	6.56	6.64	7.04	6.77	4.44	5.10	4.25	3.92	3.46	3.29	2.39	2.50	3.12	3.48	3.19	3.44	3.69	3.57	3.62	3.90	4.47	4.85	4.66	4.36	4.34	3.96	3.86	3.93	3.94	3.67	3.30	3.85	3.75	3.70	3.73	3.77	3.76	3.96	4.16	3.92	3.47	3.30	3.42	3.56	3.63	3.71	3.79	3.84	3.88	3.88	3.86	3.91	4.02	4.07	4.06	4.05	4.07	4.09	4.09	4.10	4.11	4.13	4.14	4.14	4.18	4.24	4.20	4.16	4.20	4.26	4.26	4.23	4.22	4.22	4.26	4.30	4.27	4.24	4.24	
3.19	3.12	3.02	2.94	2.84	2.70	2.55	2.38	2.13	1.89	1.66	1.55	1.49	2.16	2.09	8.64	10.30	9.39	9.76	6.38	11.50	6.19	6.30	5.81	4.84	4.33	3.81	3.47	3.18	2.95	2.73	2.57	2.49	2.56	2.84	3.13	3.33	4.29	4.09	3.62	3.42	3.47	4.08	3.98	4.18	7.81	7.34	6.36	5.69	7.87	7.37	8.59	9.19	9.66	10.01	6.98	4.11	4.12	5.37	6.16	7.04	8.39	4.45	4.76	5.69	8.59	9.12	8.63	5.74	4.14	3.59	2.91	2.86	3.21	3.44	3.30	3.57	5.47	5.37	2.82	3.03	5.47	3.28	3.65	6.72	3.95	4.03	7.18	6.85	6.99	7.70	4.77	8.03	8.62	9.28	5.86	6.25	1.83	6.65	6.62	6.71	7.23	5.64	4.78	5.17	3.56	3.55	3.88	3.47	2.89	2.96	3.00	3.35	3.19	3.20	3.37	3.49	3.56	3.63	3.98	4.47	4.58	4.20	4.00	3.82	3.63	3.49	3.49	3.62	3.42	3.97	3.78	3.74	3.70	3.67	3.58	3.78	4.18	4.25	3.96	3.60	3.52	3.61	3.68	3.76	3.83	3.86	3.90	3.92	3.86	3.89	4.00	4.07	4.06	4.03	4.04	4.09	4.12	4.12	4.12	4.12	4.13	4.15	4.19	4.20	4.19	4.20	4.19	4.22	4.23	4.23	4.25	4.26	4.25	4.31	4.33	4.30	4.30	
3.20	3.17	3.07	2.98	2.88	2.74	2.59	2.42	2.17	1.94	1.69	1.51	1.64	2.79	2.50	8.62	6.92	8.82	5.07	10.05	6.82	10.66	6.72	5.44	5.36	4.61	4.02	3.31	3.12	2.89	2.61	2.39	2.30	2.36	2.63	2.97	3.25	4.70	3.87	3.58	3.23	3.23	3.57	3.93	7.74	7.56	4.41	4.47	5.47	4.93	7.24	8.23	8.62	8.95	10.58	7.42	4.45	3.12	4.43	5.75	6.12	4.58	4.73	5.00	5.23	5.46	8.80	8.41	7.60	5.44	4.04	3.38	3.85	3.35	3.79	3.45	3.57	3.87	3.58	3.11	4.34	4.17	5.09	3.14	6.41	3.56	3.82	7.08	6.44	6.82	4.20	4.39	8.58	5.71	5.10	6.62	6.19	6.63	6.74	6.74	6.76	7.32	4.12	4.65	3.96	3.40	3.42	3.44	3.13	2.74	2.72	2.80	3.21	3.37	3.46	3.51	3.51	3.56	3.53	3.41	3.65	4.14	4.38	4.12	4.02	3.87	3.68	3.49	3.47	3.48	3.20	3.86	3.79	3.75	3.64	3.40	3.50	3.92	4.14	4.10	3.86	3.66	3.65	3.72	3.81	3.87	3.89	3.91	3.94	3.90	3.90	4.00	4.07	4.07	4.05	4.04	4.07	4.14	4.16	4.14	4.13	4.11	4.17	4.22	4.17	4.17	4.23	4.22	4.21	4.22	4.20	4.23	4.28	4.26	4.29	4.36	4.37	4.37	
3.20	3.20	3.12	3.01	2.90	2.77	2.62	2.45	2.20	1.97	1.69	1.51	1.62	3.05	3.20	8.75	7.20	7.39	4.52	8.90	6.16	10.80	9.00	6.07	4.63	4.92	4.14	3.30	3.03	2.78	2.49	2.23	2.11	2.17	2.44	2.83	3.15	4.92	3.91	3.74	3.34	3.17	4.98	4.93	4.63	4.16	4.36	4.43	5.40	7.67	7.19	8.12	8.43	8.82	10.54	7.13	6.59	5.12	4.46	4.14	3.71	6.50	7.33	4.78	5.33	5.74	5.93	8.62	7.19	5.50	4.45	3.73	4.11	4.49	4.20	3.82	3.67	3.84	3.86	3.71	3.76	3.51	2.98	4.93	5.59	2.95	3.42	6.61	6.86	7.75	4.27	4.65	4.99	6.16	5.24	5.73	6.29	6.71	7.04	7.22	7.14	6.06	4.14	4.43	3.73	3.14	3.22	3.06	2.46	2.19	2.19	2.47	2.83	3.17	3.68	3.84	3.60	3.56	3.67	3.34	3.18	3.62	4.23	3.94	4.07	4.03	3.98	3.80	3.55	3.55	3.38	3.99	3.85	3.79	3.67	3.32	3.25	3.57	3.80	3.87	3.84	3.76	3.70	3.74	3.83	3.88	3.90	3.90	3.92	3.92	3.92	3.98	4.06	4.09	4.07	4.05	4.05	4.12	4.17	4.16	4.13	4.11	4.18	4.25	4.17	4.16	4.23	4.22	4.19	4.19	4.18	4.19	4.23	4.24	4.28	4.35	4.37	4.37	
3.22	3.22	3.17	3.04	2.94	2.82	2.68	2.51	2.28	2.04	1.72	1.44	1.43	2.48	2.65	8.46	7.71	5.77	7.91	8.38	9.35	10.48	10.25	6.44	5.06	3.87	4.32	3.40	3.07	2.75	2.47	2.19	1.99	1.95	2.23	2.70	4.84	5.10	3.83	3.84	3.58	3.44	3.44	3.48	3.68	4.08	4.33	5.70	5.25	7.73	7.21	8.27	8.68	9.32	10.70	7.12	6.88	6.11	5.27	4.73	4.27	3.82	6.15	3.53	3.90	6.00	6.24	9.12	8.29	5.77	4.63	5.03	4.46	4.78	4.56	4.19	3.83	3.81	3.99	4.02	4.05	3.94	3.59	3.29	2.99	4.87	5.15	5.74	3.77	3.91	4.13	4.53	4.95	5.11	5.18	5.60	6.24	6.67	7.04	7.51	7.86	3.81	4.67	4.62	4.68	3.04	3.06	2.69	1.93	2.03	2.00	2.26	2.73	2.98	3.57	3.99	3.53	3.18	3.21	3.26	3.20	3.60	3.66	3.94	4.15	4.12	4.05	3.93	3.67	3.58	4.18	4.04	3.93	3.80	3.60	3.27	3.16	3.39	3.63	3.73	3.78	3.78	3.73	3.75	3.83	3.89	3.91	3.91	3.91	3.93	3.95	3.96	4.03	4.08	4.09	4.06	4.05	4.10	4.16	4.15	4.12	4.10	4.17	4.25	4.16	4.15	4.21	4.21	4.20	4.18	4.16	4.17	4.18	4.20	4.30	4.34	4.31	4.31	
3.24	3.24	3.21	3.09	2.98	2.88	2.75	2.56	2.37	2.12	1.81	1.47	1.25	1.36	1.41	4.46	10.84	6.74	8.10	4.90	9.44	10.29	10.68	6.59	5.17	3.95	4.37	3.48	3.23	2.80	2.50	2.27	2.00	1.85	2.08	2.67	3.05	5.34	3.61	3.73	3.64	3.64	3.64	3.55	3.62	3.97	4.26	5.76	7.76	8.07	8.33	8.70	9.35	9.92	10.61	6.31	6.70	7.49	5.77	5.49	5.20	4.56	3.90	6.50	3.50	3.95	4.36	9.08	8.95	7.56	4.69	6.18	5.71	5.12	4.75	4.44	4.01	3.84	3.97	4.04	3.95	4.14	3.94	3.68	3.48	3.23	3.10	4.94	6.53	3.28	3.67	4.09	4.56	4.90	5.05	5.39	5.99	6.56	6.93	7.60	3.69	6.59	7.46	5.95	4.83	3.12	3.17	2.61	1.58	1.61	1.68	1.58	1.86	2.04	2.55	3.44	3.42	3.14	2.79	2.72	2.79	2.93	3.38	3.52	3.72	4.04	4.27	4.11	3.93	3.84	4.17	4.02	3.94	3.82	3.53	3.28	3.23	3.39	3.58	3.65	3.72	3.76	3.74	3.75	3.81	3.88	3.92	3.92	3.91	3.95	3.99	3.98	4.01	4.06	4.08	4.09	4.07	4.12	4.19	4.18	4.12	4.10	4.18	4.24	4.17	4.15	4.19	4.21	4.23	4.21	4.19	4.18	4.16	4.17	4.31	4.37	4.30	4.30	
3.29	3.27	3.24	3.14	3.02	2.93	2.81	2.62	2.42	2.17	1.87	1.52	1.19	0.81	1.15	1.44	9.80	7.20	8.73	5.15	9.44	6.06	10.52	7.05	5.17	3.89	4.47	3.66	3.52	3.00	2.66	2.47	2.19	1.99	2.10	2.68	3.24	3.44	3.58	3.60	3.59	3.69	3.78	3.78	3.81	4.03	6.08	7.67	8.07	8.45	8.82	9.19	9.74	9.48	10.07	5.91	5.53	5.45	5.70	5.80	6.29	5.16	4.31	5.00	7.65	3.69	4.33	8.90	8.83	9.15	8.76	6.60	6.99	6.23	5.30	4.79	4.35	4.03	3.94	3.95	3.91	4.06	4.16	3.86	3.75	3.44	3.18	3.05	5.63	2.61	3.01	3.58	4.14	4.54	4.82	5.20	5.74	6.37	6.79	7.62	9.11	9.43	7.85	6.64	5.13	4.21	3.59	3.09	2.83	2.96	1.05	1.25	1.06	2.40	2.23	1.11	2.02	2.75	2.98	2.73	2.59	2.75	2.89	3.15	3.36	3.64	4.09	4.08	4.11	4.11	4.11	3.94	3.87	3.78	3.49	3.30	3.28	3.39	3.54	3.59	3.66	3.74	3.76	3.77	3.80	3.85	3.89	3.92	3.92	3.94	3.99	4.02	4.04	4.06	4.08	4.08	4.08	4.12	4.22	4.23	4.15	4.12	4.20	4.24	4.18	4.17	4.18	4.18	4.20	4.21	4.20	4.20	4.17	4.15	4.27	4.36	4.34	4.34	
3.34	3.32	3.28	3.19	3.07	2.99	2.87	2.69	2.51	2.26	1.98	1.60	1.26	1.13	1.68	1.34	9.27	7.34	5.50	5.31	9.52	6.07	10.58	6.85	5.03	3.83	4.51	3.86	3.26	3.25	2.90	2.68	2.41	2.16	2.41	2.65	3.37	3.77	3.92	3.86	3.79	3.87	4.06	4.21	4.32	6.40	6.72	8.22	8.51	8.76	9.05	9.31	9.74	9.05	9.63	5.69	4.93	4.54	4.53	4.76	5.24	6.77	4.78	4.03	6.39	3.51	8.20	8.51	9.05	5.17	5.35	10.86	7.44	7.17	6.04	4.82	3.85	4.47	4.08	3.88	3.75	3.94	3.99	4.10	3.97	3.58	3.14	2.94	2.60	5.42	2.17	2.81	3.55	4.03	4.35	4.75	6.10	6.35	10.01	11.11	10.25	10.03	6.80	7.93	6.20	5.05	4.51	4.20	3.63	3.28	2.17	3.04	2.60	2.42	2.19	2.19	2.43	1.78	2.61	2.50	2.29	2.60	2.74	2.68	2.88	3.22	3.36	3.51	3.71	3.92	4.03	3.82	3.69	3.65	3.42	3.23	3.22	3.36	3.51	3.57	3.63	3.71	3.77	3.79	3.82	3.84	3.87	3.91	3.92	3.93	3.96	4.00	4.04	4.06	4.07	4.08	4.07	4.09	4.18	4.23	4.15	4.13	4.20	4.20	4.17	4.19	4.20	4.17	4.16	4.17	4.19	4.20	4.19	4.18	4.23	4.31	4.33	4.33	
3.38	3.35	3.31	3.23	3.12	3.04	2.94	2.77	2.59	2.35	2.09	1.76	1.41	1.27	1.98	1.77	8.87	7.28	9.30	5.50	9.61	9.95	10.54	6.79	5.05	3.97	4.45	3.87	3.37	3.28	2.95	2.71	2.46	2.21	6.11	2.67	3.36	3.86	4.16	4.25	4.21	4.20	4.72	7.16	7.93	8.32	8.42	8.64	8.70	8.92	9.02	9.46	9.90	10.45	8.97	5.58	4.70	4.35	4.22	4.37	4.85	6.96	5.03	4.41	3.86	7.56	7.32	8.32	4.34	5.18	9.63	9.54	10.01	8.67	6.01	4.91	4.40	3.70	4.45	4.00	3.65	3.89	3.79	3.66	4.23	3.90	3.36	2.99	2.63	2.07	5.73	2.03	2.80	3.39	3.77	4.13	5.81	8.70	9.59	10.55	12.23	9.50	8.37	9.47	8.63	6.90	5.92	4.76	5.17	4.49	4.13	3.54	2.77	2.58	2.50	2.30	2.24	2.61	2.08	2.24	2.24	2.44	2.52	2.77	2.79	3.00	3.13	3.11	3.46	3.79	4.06	3.80	3.48	3.39	3.30	3.18	3.18	3.31	3.48	3.56	3.60	3.67	3.74	3.79	3.83	3.85	3.87	3.89	3.93	3.94	3.95	3.99	4.01	4.03	4.06	4.07	4.06	4.07	4.14	4.19	4.14	4.16	4.22	4.17	4.13	4.17	4.21	4.21	4.18	4.15	4.17	4.19	4.19	4.21	4.25	4.25	4.26	4.26	
3.42	3.40	3.35	3.27	3.18	3.08	2.98	2.83	2.66	2.43	2.18	1.86	1.54	1.30	1.94	1.81	8.40	10.01	9.37	9.21	9.64	9.98	10.14	7.11	5.19	4.21	3.43	3.66	3.13	2.71	2.75	2.54	2.35	2.20	2.99	2.72	3.23	3.66	3.95	4.11	5.76	5.56	7.63	8.00	8.11	8.25	8.37	8.58	8.77	8.86	9.26	9.70	10.18	10.85	6.47	5.49	4.57	4.30	4.08	4.14	4.48	4.85	6.37	4.48	5.07	6.46	7.20	3.78	4.18	4.52	9.13	8.93	9.30	9.17	7.40	5.62	4.47	3.99	3.41	4.39	3.82	3.55	3.69	3.70	3.69	4.10	3.66	3.33	2.90	2.30	1.80	1.77	2.21	2.83	3.33	3.73	5.83	7.93	8.89	9.97	11.32	10.52	11.13	11.43	9.62	8.20	7.17	5.93	5.54	4.61	3.85	3.87	3.79	3.18	3.03	2.78	2.44	2.50	1.64	2.17	2.34	2.68	2.31	2.42	2.53	2.71	2.89	3.37	3.27	3.59	4.01	3.88	3.40	3.15	3.11	3.12	3.18	3.27	3.41	3.52	3.59	3.66	3.72	3.77	3.82	3.85	3.87	3.88	3.93	3.96	3.97	4.00	4.00	4.01	4.05	4.07	4.08	4.11	4.17	4.18	4.12	4.17	4.27	4.20	4.12	4.16	4.20	4.22	4.22	4.20	4.17	4.18	4.17	4.22	4.30	4.27	4.23	4.23	
3.45	3.43	3.39	3.31	3.22	3.13	3.03	2.89	2.72	2.51	2.27	1.96	1.60	1.29	1.48	1.38	8.00	10.80	9.61	9.48	9.85	10.09	9.48	6.89	5.68	4.32	3.45	3.48	2.86	2.39	2.45	2.22	2.09	2.08	2.30	2.54	2.94	3.33	3.57	5.99	5.84	5.67	7.66	7.78	7.94	7.93	8.09	8.43	8.80	9.08	9.41	9.85	10.16	11.15	5.46	4.42	4.10	4.61	4.00	3.88	3.98	4.17	4.27	5.65	5.85	6.21	7.05	3.42	3.81	4.40	9.02	8.98	9.08	9.12	8.28	6.77	5.09	4.36	3.77	3.43	4.15	3.70	4.13	4.24	3.64	4.16	3.77	3.58	3.23	2.58	1.88	4.66	1.64	2.26	2.92	3.46	6.01	6.40	6.75	9.47	9.95	9.55	9.58	10.16	10.50	9.59	8.00	6.75	5.91	5.31	5.08	5.61	4.08	4.06	2.82	2.57	2.87	2.71	1.83	1.76	2.28	2.91	2.47	2.22	2.32	2.37	2.45	3.37	3.21	3.39	3.78	3.81	3.40	3.01	2.86	2.95	3.12	3.25	3.36	3.48	3.57	3.65	3.73	3.77	3.82	3.86	3.88	3.88	3.91	3.96	4.00	4.01	4.00	4.02	4.05	4.07	4.09	4.14	4.22	4.20	4.11	4.14	4.27	4.26	4.15	4.16	4.19	4.19	4.22	4.24	4.21	4.18	4.15	4.20	4.30	4.30	4.25	4.25	
3.49	3.47	3.42	3.36	3.27	3.18	3.08	2.96	2.80	2.60	2.37	2.07	1.71	1.33	1.01	0.86	5.71	10.13	9.84	9.82	10.18	10.40	6.90	6.22	4.94	3.99	3.14	3.20	2.46	2.75	2.24	1.83	1.58	1.71	2.03	2.29	2.64	3.08	3.32	6.10	5.94	6.82	6.98	7.32	7.35	7.47	8.32	8.75	8.84	8.98	9.29	9.61	9.86	11.24	5.86	6.12	3.74	3.97	4.22	3.82	3.72	3.83	3.96	5.66	6.03	5.97	6.33	7.50	3.21	8.45	8.50	8.68	8.86	9.13	8.99	7.93	6.39	4.88	4.21	3.54	4.28	4.50	4.40	3.71	3.75	3.51	3.89	3.67	3.44	2.94	2.24	1.55	5.69	1.79	2.55	3.15	6.05	6.52	6.92	9.69	9.35	9.19	8.89	8.80	9.36	9.64	8.43	6.99	5.94	5.79	5.96	5.75	4.67	4.01	3.26	2.89	2.79	3.08	2.22	2.14	2.42	3.01	2.66	2.45	2.48	2.40	2.29	3.49	3.34	3.43	3.67	3.71	3.41	2.97	2.64	2.68	2.96	3.20	3.34	3.45	3.54	3.63	3.72	3.77	3.81	3.86	3.89	3.88	3.89	3.95	4.02	4.02	4.00	4.01	4.04	4.06	4.06	4.12	4.22	4.21	4.11	4.09	4.23	4.29	4.17	4.16	4.22	4.18	4.20	4.24	4.25	4.22	4.16	4.16	4.26	4.30	4.27	4.27	
3.50	3.49	3.46	3.40	3.32	3.22	3.12	3.02	2.88	2.71	2.46	2.18	1.84	1.45	1.10	1.16	4.85	9.05	9.94	10.19	10.41	10.48	7.51	4.66	3.70	3.03	3.98	3.20	2.45	2.89	2.32	1.66	1.09	1.35	1.74	2.00	2.30	2.74	3.13	6.10	6.29	6.71	6.32	5.96	5.14	7.14	4.42	4.43	8.65	8.79	9.02	9.33	9.79	11.16	7.55	6.94	5.40	4.36	3.97	3.99	3.58	3.66	3.73	5.43	4.36	5.74	5.98	7.19	3.10	8.35	8.30	8.36	8.74	9.19	9.40	8.88	7.41	5.88	4.60	5.26	4.76	4.36	4.10	3.85	3.69	3.51	4.14	3.86	3.49	3.10	2.69	2.14	1.67	1.69	2.30	3.04	3.40	3.93	7.11	8.97	8.85	9.15	9.02	8.73	9.18	9.39	8.22	7.16	6.39	6.17	6.21	6.19	5.00	5.32	3.79	3.02	3.63	3.05	2.65	2.54	2.48	3.01	2.79	2.63	2.51	3.78	3.84	3.73	3.56	3.59	3.80	3.85	3.59	3.15	2.62	2.50	2.78	3.10	3.30	3.44	3.52	3.60	3.69	3.76	3.81	3.87	3.90	3.90	3.88	3.93	3.99	4.02	4.00	4.00	4.04	4.05	4.04	4.11	4.20	4.20	4.13	4.07	4.17	4.28	4.17	4.15	4.24	4.21	4.18	4.22	4.27	4.26	4.21	4.18	4.22	4.28	4.28	4.28	
3.51	3.50	3.48	3.44	3.36	3.26	3.17	3.07	2.94	2.78	2.55	2.30	1.97	1.61	1.27	1.43	2.83	6.59	9.66	10.05	10.57	10.52	7.90	7.91	6.63	5.11	4.14	3.27	2.63	3.19	2.67	1.95	1.08	1.26	1.59	1.73	1.95	2.36	3.13	6.33	3.76	3.81	3.79	3.45	5.39	6.80	7.48	8.03	8.42	8.50	8.69	9.14	9.78	10.87	10.06	6.05	6.55	5.25	3.91	3.38	3.11	4.84	3.49	4.18	5.46	4.12	5.78	6.72	3.01	3.95	4.36	8.90	9.32	7.28	9.62	9.19	8.05	6.61	5.07	4.17	3.29	4.76	4.26	3.86	3.54	3.33	3.13	4.10	3.61	2.98	2.66	2.30	1.68	5.58	1.96	2.73	3.58	3.94	8.54	8.46	8.41	8.74	8.61	8.71	9.53	9.57	8.31	7.70	7.10	6.54	6.35	6.41	5.68	5.81	4.98	3.78	4.18	3.57	3.32	3.06	2.34	2.24	3.01	2.73	3.81	3.86	2.67	2.72	3.83	3.67	3.83	4.04	3.94	3.57	2.93	2.55	2.71	3.05	3.30	3.45	3.55	3.60	3.66	3.73	3.79	3.87	3.93	3.93	3.92	3.94	3.98	4.00	3.98	3.98	4.05	4.08	4.05	4.11	4.19	4.18	4.15	4.09	4.15	4.27	4.18	4.13	4.23	4.24	4.20	4.20	4.25	4.27	4.25	4.22	4.24	4.25	4.24	4.24	
3.54	3.53	3.52	3.48	3.40	3.30	3.21	3.12	2.99	2.84	2.63	2.39	2.08	1.74	1.42	1.38	1.64	6.26	7.36	9.57	10.33	10.72	10.70	8.35	5.79	4.32	3.29	3.59	2.86	2.40	3.14	2.52	1.57	1.28	1.47	1.55	1.77	2.22	3.53	3.92	4.03	4.04	4.15	4.06	3.64	5.26	7.07	7.41	7.82	8.07	8.40	9.09	9.87	10.56	10.63	8.97	7.54	6.72	5.32	4.32	3.93	3.82	3.58	3.49	3.38	3.21	5.05	6.05	7.21	3.39	4.36	9.26	4.58	9.59	9.54	9.11	8.52	6.91	5.45	5.24	4.21	5.31	4.82	4.39	3.98	3.40	4.23	2.98	2.86	2.95	2.51	2.05	1.56	4.56	1.67	2.39	3.63	6.95	7.99	8.20	8.50	8.43	8.22	8.91	9.86	9.61	8.73	8.49	7.93	7.07	6.80	7.87	6.78	6.12	5.38	4.87	5.16	4.17	3.67	3.44	2.85	2.76	3.45	3.17	4.01	2.73	2.70	2.81	2.82	3.84	3.71	3.96	4.16	4.03	3.44	2.81	2.77	3.06	3.31	3.46	3.58	3.65	3.69	3.73	3.77	3.83	3.91	3.93	3.94	3.96	3.98	3.98	3.96	3.95	4.03	4.09	4.08	4.12	4.15	4.13	4.13	4.10	4.12	4.23	4.19	4.12	4.18	4.24	4.23	4.20	4.23	4.26	4.24	4.22	4.27	4.28	4.25	4.25	
3.57	3.56	3.55	3.53	3.44	3.34	3.27	3.19	3.05	2.91	2.72	2.48	2.18	1.85	1.57	1.37	1.41	6.01	7.36	9.14	9.77	10.40	11.17	8.45	5.43	4.57	3.31	3.13	3.41	2.71	3.59	3.12	2.30	1.55	1.53	1.58	1.63	2.14	2.73	3.21	3.87	3.96	4.26	4.51	4.36	3.85	3.38	6.59	7.18	7.83	8.44	9.35	9.85	9.68	10.13	11.12	11.37	7.77	7.20	5.69	4.71	4.26	3.91	3.65	3.44	3.31	3.20	2.81	6.65	7.36	3.63	8.86	9.24	9.48	9.52	9.60	9.39	6.85	5.23	4.10	5.88	3.74	5.58	5.29	4.80	4.11	3.51	3.27	3.20	3.12	2.55	2.03	1.67	1.48	1.60	2.04	3.71	7.55	7.90	8.16	8.25	8.17	8.09	8.81	9.57	9.57	9.21	9.15	8.46	7.45	7.34	8.58	7.90	6.78	6.50	6.29	5.64	4.87	4.22	3.90	3.64	3.40	3.93	3.87	3.49	3.15	2.83	2.81	2.92	2.91	3.75	3.75	4.07	4.26	3.87	3.15	2.89	3.06	3.32	3.46	3.57	3.67	3.71	3.74	3.76	3.81	3.90	3.92	3.94	3.98	4.00	3.98	3.95	3.93	4.00	4.09	4.12	4.17	4.17	4.10	4.09	4.09	4.10	4.17	4.19	4.13	4.14	4.20	4.23	4.20	4.21	4.25	4.26	4.21	4.25	4.32	4.34	4.34	
3.61	3.59	3.58	3.56	3.48	3.39	3.33	3.24	3.10	2.95	2.77	2.57	2.28	1.97	1.64	1.43	1.51	5.86	7.19	8.73	9.23	10.07	11.13	12.01	5.79	4.72	3.57	3.32	3.13	3.19	3.15	3.60	3.04	2.41	2.06	1.81	1.69	2.00	2.61	3.08	3.73	3.87	6.30	6.28	5.67	4.46	3.88	6.31	7.15	7.90	8.78	9.24	8.64	8.89	9.64	10.49	11.48	12.04	7.87	7.64	6.80	5.74	4.84	4.23	3.83	3.60	3.35	3.23	6.03	7.22	3.02	8.62	5.17	5.34	10.01	8.44	10.13	7.79	5.82	4.97	6.27	4.95	4.49	4.11	3.88	4.89	4.29	4.03	3.61	2.91	2.74	2.07	1.62	1.23	5.09	1.67	2.67	4.56	8.13	8.38	8.13	7.71	7.47	7.89	8.46	8.76	8.97	9.38	8.98	7.82	7.75	8.84	8.32	7.18	6.96	6.67	6.27	5.40	4.63	4.22	4.16	4.15	3.28	4.11	3.89	3.53	3.07	2.77	2.95	3.13	3.89	3.65	3.85	4.19	4.10	3.53	3.09	3.13	3.34	3.48	3.57	3.65	3.71	3.74	3.75	3.79	3.88	3.93	3.95	4.00	4.03	4.01	3.97	3.94	3.99	4.07	4.13	4.22	4.24	4.14	4.08	4.11	4.11	4.13	4.17	4.16	4.14	4.17	4.21	4.22	4.22	4.25	4.27	4.24	4.21	4.28	4.35	4.35	
3.65	3.62	3.60	3.58	3.52	3.43	3.37	3.29	3.17	3.03	2.84	2.64	2.37	2.05	1.69	1.40	1.45	5.82	7.07	6.63	8.76	9.72	11.00	11.46	6.37	5.06	3.95	3.61	3.62	3.63	3.63	3.60	3.39	3.01	2.53	2.18	2.09	2.19	2.58	2.96	3.64	3.82	6.25	6.14	5.98	5.58	4.96	6.48	7.13	8.16	8.98	7.77	7.60	8.34	9.09	9.81	10.63	11.33	11.47	11.10	6.81	6.89	5.80	5.36	4.63	4.11	3.58	3.40	3.24	7.11	7.45	7.95	4.04	4.94	5.70	5.43	10.13	9.20	8.05	7.21	8.20	8.04	6.65	6.38	5.35	4.82	4.51	4.38	4.48	3.71	3.46	2.48	1.76	1.16	3.79	1.20	1.96	6.36	7.33	8.09	7.90	7.54	6.96	7.17	7.61	8.03	8.39	8.80	8.86	8.00	8.26	9.05	8.10	7.38	7.17	6.68	6.27	6.03	5.22	4.58	4.33	4.46	4.22	2.51	4.33	3.92	3.31	2.87	3.09	3.31	3.95	3.65	3.70	3.97	4.05	3.74	3.33	3.28	3.42	3.54	3.61	3.66	3.72	3.75	3.76	3.78	3.85	3.90	3.94	3.99	4.03	4.03	3.99	3.97	3.98	4.03	4.10	4.21	4.28	4.18	4.11	4.15	4.15	4.12	4.15	4.17	4.15	4.16	4.20	4.22	4.24	4.25	4.23	4.23	4.22	4.25	4.30	4.30	
3.69	3.66	3.63	3.61	3.57	3.48	3.41	3.33	3.22	3.09	2.92	2.72	2.45	2.15	1.76	1.37	1.38	3.90	7.15	6.71	8.45	9.37	10.76	11.22	6.43	5.02	3.85	3.14	2.97	3.16	3.48	3.01	2.83	2.76	2.36	2.30	2.45	2.57	2.79	3.56	3.61	3.77	6.15	6.22	7.78	7.58	5.29	6.49	7.31	8.94	7.78	6.77	7.53	8.36	8.87	9.37	10.03	10.48	10.39	10.47	10.43	9.41	7.13	5.84	5.35	4.61	3.93	3.54	5.45	7.25	7.59	7.67	8.12	4.03	5.44	9.96	9.58	9.05	9.06	8.28	8.49	8.84	8.42	7.67	7.00	6.79	6.79	5.67	5.17	4.64	3.79	3.66	2.77	1.88	1.32	4.37	4.79	5.49	6.40	7.28	7.96	7.68	6.89	6.69	7.35	8.04	8.30	8.46	8.58	8.14	8.30	8.67	7.61	7.22	7.42	6.94	6.50	6.46	6.09	5.71	5.22	4.38	5.39	5.81	3.27	4.57	3.85	3.31	3.37	3.45	3.99	3.72	3.66	3.75	3.85	3.75	3.48	3.40	3.49	3.59	3.66	3.71	3.75	3.78	3.77	3.78	3.83	3.88	3.92	3.95	3.99	4.01	4.00	4.01	4.01	4.02	4.06	4.16	4.25	4.18	4.10	4.15	4.17	4.13	4.14	4.16	4.16	4.15	4.17	4.19	4.20	4.22	4.21	4.21	4.24	4.25	4.27	4.27	
3.71	3.69	3.65	3.64	3.60	3.53	3.45	3.37	3.26	3.13	2.98	2.79	2.54	2.26	1.86	1.43	1.51	3.70	4.56	6.71	6.57	9.19	10.88	11.13	6.45	5.02	3.77	3.07	2.71	2.90	2.37	2.04	1.89	1.67	1.58	1.86	2.29	2.55	2.78	3.68	3.56	6.10	6.31	7.91	8.68	8.87	8.70	8.70	9.27	8.60	6.75	6.39	7.31	8.18	8.71	9.21	9.72	9.84	9.62	9.66	10.02	9.71	8.05	6.57	5.54	4.86	4.12	3.67	3.50	7.88	8.18	8.09	3.29	8.30	8.72	9.31	8.97	8.21	8.53	8.36	8.56	9.02	8.92	8.05	7.18	7.05	7.02	6.06	5.72	6.03	5.42	4.85	3.90	2.68	1.99	1.46	4.87	5.30	2.63	6.91	7.68	7.46	6.83	6.55	7.08	7.55	7.74	7.93	8.22	8.65	8.63	8.13	7.02	6.75	7.24	6.99	6.74	6.79	6.47	5.86	5.25	5.07	5.32	5.84	3.73	5.19	4.59	4.02	3.75	3.54	3.99	3.81	3.70	3.59	3.58	3.60	3.49	3.42	3.48	3.58	3.65	3.72	3.77	3.78	3.77	3.78	3.82	3.89	3.93	3.93	3.96	3.97	3.97	4.00	3.99	4.02	4.05	4.10	4.20	4.17	4.07	4.10	4.13	4.14	4.15	4.16	4.16	4.14	4.16	4.20	4.19	4.19	4.20	4.21	4.24	4.26	4.27	4.27	
3.73	3.71	3.68	3.66	3.63	3.56	3.48	3.40	3.30	3.18	3.03	2.85	2.62	2.34	1.97	1.53	1.63	3.47	4.37	6.74	6.61	9.28	10.86	11.73	6.25	4.69	3.78	3.11	2.80	2.98	2.00	1.23	1.14	0.96	1.04	1.53	1.89	2.11	2.34	2.68	3.44	6.31	6.36	7.65	8.21	8.59	8.79	9.37	8.86	7.76	6.68	5.99	7.06	8.13	8.40	8.94	8.79	9.01	8.88	9.04	10.13	10.42	8.68	6.90	6.07	5.17	4.43	3.82	3.47	7.58	7.97	8.01	8.20	8.49	3.92	9.28	8.79	7.42	7.48	7.33	7.76	8.42	8.53	8.04	7.03	6.71	6.82	6.05	5.47	5.52	5.02	4.63	4.03	3.52	3.27	2.03	4.02	4.66	2.22	6.45	7.37	7.18	6.66	6.48	6.63	6.82	6.96	7.17	7.50	8.12	8.45	8.10	7.50	7.03	7.07	7.10	7.09	7.13	6.75	5.47	5.41	4.98	6.11	8.32	6.41	5.94	5.45	4.81	4.29	3.77	4.11	3.96	3.78	3.51	3.32	3.33	3.39	3.44	3.48	3.54	3.61	3.67	3.76	3.79	3.78	3.77	3.79	3.87	3.93	3.94	3.96	3.95	3.94	3.99	3.99	4.00	4.04	4.07	4.16	4.19	4.11	4.07	4.08	4.11	4.13	4.14	4.16	4.15	4.17	4.23	4.23	4.19	4.18	4.20	4.22	4.27	4.29	4.29	
3.75	3.74	3.71	3.68	3.66	3.59	3.51	3.44	3.34	3.22	3.08	2.91	2.69	2.42	2.08	1.68	1.74	3.28	4.20	6.72	6.72	9.26	10.62	12.36	6.07	5.04	3.53	3.71	3.01	3.46	2.19	1.34	1.02	0.97	1.27	1.62	1.73	1.72	1.90	2.20	3.38	6.05	6.54	7.01	7.49	7.93	8.46	9.04	8.03	7.59	7.14	5.95	7.28	8.34	8.39	8.44	7.63	8.07	8.10	8.29	9.56	10.86	9.46	7.52	6.51	5.56	4.92	4.17	3.59	6.73	7.32	7.66	8.17	8.53	8.82	9.08	8.46	7.20	6.69	6.66	7.27	8.05	8.51	8.17	6.83	6.05	6.25	6.34	5.70	5.01	4.36	3.98	3.62	3.50	3.70	3.37	3.12	4.55	1.88	2.83	6.70	6.32	6.40	6.23	6.36	6.55	6.69	6.92	7.19	7.39	7.47	7.54	7.70	7.49	7.03	7.21	7.76	8.13	8.06	6.77	5.42	4.87	5.68	5.92	5.85	6.28	6.40	5.66	4.95	4.22	4.47	4.28	3.99	3.58	3.24	3.17	3.30	3.45	3.52	3.57	3.61	3.65	3.73	3.79	3.80	3.79	3.78	3.84	3.90	3.93	3.97	3.96	3.94	4.00	4.04	4.04	4.05	4.08	4.15	4.21	4.17	4.09	4.07	4.09	4.10	4.12	4.15	4.16	4.17	4.22	4.25	4.24	4.20	4.20	4.21	4.25	4.28	4.28	
3.76	3.76	3.75	3.71	3.68	3.63	3.55	3.47	3.37	3.25	3.13	2.97	2.76	2.50	2.17	1.81	1.85	2.95	4.12	6.77	6.84	9.09	10.17	12.19	6.26	5.77	4.90	3.18	3.56	4.31	3.12	2.13	1.49	1.25	1.44	1.59	1.60	1.52	1.56	1.80	3.42	3.53	6.29	6.99	7.45	7.75	8.40	8.53	7.39	7.42	7.46	6.26	7.32	8.03	8.15	7.86	7.12	7.66	7.76	8.39	9.20	10.73	9.81	8.21	6.81	5.78	5.28	4.67	4.12	3.74	7.17	7.82	8.21	8.43	8.53	8.76	8.06	7.05	6.41	6.18	6.74	7.81	8.96	8.61	6.56	5.57	5.27	5.83	5.74	4.81	4.16	3.90	3.62	3.48	3.60	3.47	2.79	4.05	5.08	5.64	6.26	6.31	6.15	5.84	5.99	6.22	6.49	6.66	6.73	6.73	6.75	6.77	7.00	6.81	6.22	6.19	7.00	7.53	7.80	7.64	5.97	5.36	5.40	5.57	5.65	6.13	6.61	6.19	5.48	5.35	4.90	4.65	4.32	3.81	3.34	3.16	3.26	3.42	3.51	3.58	3.62	3.65	3.69	3.74	3.80	3.82	3.80	3.83	3.87	3.91	3.96	3.97	3.94	3.99	4.08	4.08	4.06	4.08	4.14	4.19	4.17	4.12	4.10	4.12	4.10	4.12	4.15	4.15	4.17	4.20	4.25	4.25	4.22	4.21	4.23	4.25	4.27	4.27	
3.78	3.78	3.78	3.74	3.70	3.66	3.60	3.52	3.41	3.30	3.18	3.02	2.81	2.54	2.24	1.86	1.84	2.72	4.07	6.87	6.82	8.93	9.78	11.67	6.46	6.23	5.00	3.68	4.04	3.61	3.58	2.77	2.15	1.41	1.18	1.18	1.22	1.13	1.18	1.38	3.51	3.79	3.76	6.57	7.07	7.77	8.28	8.24	7.15	7.38	7.50	6.17	7.13	7.63	7.69	7.67	6.83	7.19	7.62	8.46	8.22	10.64	9.86	8.02	6.32	5.78	5.41	5.00	4.54	4.31	6.77	8.02	8.33	3.93	8.87	8.81	7.62	6.81	5.83	5.19	5.88	7.21	8.66	8.98	7.49	6.44	5.23	5.09	5.44	5.11	4.42	3.89	3.57	3.21	3.22	3.46	3.30	3.50	4.57	5.05	3.36	6.45	6.13	5.61	5.53	5.85	6.21	6.11	5.99	6.02	6.25	6.29	6.32	6.25	5.08	4.82	4.98	5.29	5.59	5.88	5.86	5.47	5.24	5.28	5.49	5.90	6.28	6.47	5.97	5.75	5.30	4.97	4.63	4.10	3.50	3.25	3.29	3.41	3.49	3.56	3.60	3.65	3.68	3.69	3.75	3.80	3.80	3.82	3.86	3.89	3.94	3.95	3.91	3.96	4.06	4.08	4.06	4.08	4.13	4.18	4.16	4.11	4.12	4.14	4.12	4.14	4.17	4.16	4.15	4.19	4.23	4.25	4.22	4.21	4.23	4.25	4.26	4.26	
3.81	3.80	3.81	3.77	3.71	3.69	3.66	3.57	3.44	3.34	3.23	3.06	2.86	2.58	2.28	1.90	1.73	2.16	4.03	6.90	6.82	8.85	9.53	11.05	8.60	6.10	5.04	4.18	4.46	4.18	4.05	3.40	2.62	1.85	1.15	1.00	1.00	3.76	0.85	1.13	1.69	3.78	3.82	6.16	7.03	7.42	7.53	7.30	6.81	6.98	7.37	6.66	7.24	7.66	7.64	7.31	6.28	6.71	7.25	7.96	6.74	10.61	9.82	8.67	6.68	5.91	5.51	5.07	4.73	6.16	7.40	8.74	4.03	4.20	7.34	8.48	7.50	6.99	5.56	4.39	5.16	7.21	4.23	9.04	7.76	7.24	6.29	5.59	5.40	5.48	4.94	4.26	3.76	3.50	3.30	3.48	3.84	3.20	2.13	2.55	2.84	3.95	5.77	5.65	5.60	5.84	6.08	5.80	4.52	4.56	4.81	4.96	4.96	4.86	4.79	4.74	4.75	4.88	5.06	5.35	5.47	5.32	4.63	4.52	4.49	4.55	4.83	5.33	5.75	5.80	5.56	5.19	4.79	4.29	3.67	3.36	3.36	3.43	3.49	3.55	3.58	3.62	3.69	3.71	3.72	3.77	3.78	3.79	3.83	3.89	3.94	3.93	3.89	3.92	4.02	4.07	4.06	4.09	4.12	4.15	4.16	4.10	4.09	4.12	4.11	4.14	4.19	4.18	4.16	4.17	4.20	4.23	4.23	4.22	4.23	4.26	4.27	4.27	
3.86	3.84	3.82	3.80	3.73	3.72	3.71	3.61	3.46	3.35	3.26	3.10	2.88	2.60	2.29	1.91	1.66	1.94	3.87	6.81	6.79	8.82	9.42	10.58	9.43	6.22	5.35	4.85	4.72	4.29	3.70	3.06	2.70	2.33	1.67	1.13	1.05	0.86	0.79	0.93	1.38	1.94	3.76	6.08	6.92	7.25	6.90	6.50	6.26	6.40	6.79	6.76	6.84	7.05	7.18	6.95	6.15	6.68	7.39	7.64	6.68	10.41	9.31	8.97	9.05	7.56	5.88	4.91	4.67	4.81	9.02	4.71	4.51	4.45	8.89	8.02	7.15	6.78	5.82	4.54	4.86	6.85	7.87	9.20	8.04	7.40	6.68	5.65	5.07	4.99	4.74	4.56	4.73	4.56	4.14	3.88	4.17	3.35	2.04	2.51	2.62	3.84	4.18	4.44	4.49	4.51	4.66	4.70	4.56	4.54	4.77	4.83	4.71	4.46	4.38	4.50	4.55	4.01	3.99	4.27	4.58	4.54	4.41	4.45	4.52	4.55	4.60	4.72	5.03	5.42	5.56	5.36	4.93	4.37	3.79	3.49	3.47	3.49	3.49	3.52	3.55	3.58	3.65	3.71	3.73	3.76	3.78	3.77	3.78	3.85	3.92	3.93	3.89	3.88	3.96	4.04	4.04	4.06	4.09	4.09	4.13	4.11	4.08	4.08	4.08	4.11	4.16	4.18	4.17	4.17	4.19	4.20	4.23	4.23	4.23	4.27	4.30	4.30	
3.92	3.88	3.84	3.82	3.76	3.75	3.76	3.66	3.49	3.38	3.30	3.14	2.93	2.64	2.31	1.87	1.52	1.67	3.65	6.71	6.73	8.88	9.51	10.31	9.45	6.96	6.12	6.43	5.53	5.08	4.28	3.83	3.56	2.81	2.29	1.69	1.31	1.06	0.94	0.93	1.02	1.54	3.89	4.26	6.62	6.88	6.71	6.42	6.19	6.32	6.50	6.43	6.01	6.15	6.49	6.38	5.97	6.56	7.29	3.82	6.93	9.98	8.72	8.66	9.57	8.05	5.76	4.62	4.15	7.18	8.63	8.98	9.11	9.17	8.59	7.31	6.60	6.38	5.94	4.50	4.21	6.25	6.87	8.37	8.63	7.71	6.97	5.92	5.30	4.89	4.35	4.03	4.28	4.29	4.07	4.22	3.39	3.26	2.75	2.22	2.38	3.22	4.20	4.34	4.41	4.57	4.66	4.66	4.58	4.57	4.81	4.84	4.71	4.51	4.23	4.18	4.15	3.95	3.79	3.98	4.29	4.28	4.03	4.13	4.41	4.56	4.60	4.52	4.55	4.87	5.20	5.35	5.17	4.62	4.00	3.67	3.63	3.63	3.55	3.48	3.51	3.56	3.61	3.67	3.72	3.74	3.77	3.79	3.76	3.79	3.89	3.92	3.89	3.86	3.94	4.06	4.05	4.03	4.06	4.08	4.10	4.11	4.09	4.08	4.07	4.09	4.12	4.16	4.18	4.18	4.19	4.21	4.24	4.22	4.21	4.30	4.35	4.35	
3.96	3.92	3.86	3.84	3.79	3.77	3.79	3.71	3.53	3.41	3.35	3.19	2.99	2.69	2.33	1.83	1.25	1.30	3.50	6.75	6.57	8.61	9.15	9.81	9.48	7.95	7.26	7.11	6.70	6.13	5.87	5.33	4.94	3.75	2.94	2.29	1.56	1.17	1.07	1.05	0.94	1.32	4.12	4.81	7.08	6.61	6.38	6.38	6.13	6.27	6.52	6.62	5.66	5.77	6.13	5.75	5.41	6.32	6.84	3.82	7.54	8.51	8.08	8.54	9.99	8.97	6.20	4.71	3.84	7.13	8.39	8.79	9.03	8.94	7.85	6.90	6.42	6.21	6.32	4.98	3.90	6.13	6.58	7.60	8.53	7.83	7.43	6.90	6.59	6.07	5.05	4.15	3.87	3.83	3.77	3.40	3.54	3.48	3.29	2.06	2.68	2.71	4.29	4.46	4.27	4.60	4.64	4.51	4.46	4.50	4.68	4.48	4.52	4.41	4.32	4.32	4.22	3.92	3.67	3.80	4.12	4.14	3.81	3.77	4.10	4.33	4.49	4.44	4.33	4.44	4.61	4.84	5.06	4.85	4.25	3.79	3.68	3.71	3.65	3.51	3.44	3.50	3.56	3.61	3.67	3.70	3.72	3.79	3.79	3.77	3.85	3.92	3.88	3.85	3.93	4.08	4.09	4.03	4.02	4.06	4.10	4.10	4.09	4.09	4.09	4.10	4.11	4.16	4.17	4.16	4.17	4.20	4.24	4.20	4.17	4.27	4.36	4.36	
3.99	3.95	3.89	3.86	3.83	3.81	3.83	3.76	3.59	3.47	3.39	3.25	3.07	2.78	2.39	1.86	1.02	0.95	3.24	4.08	6.38	6.47	8.46	9.05	9.08	8.06	7.31	7.22	7.19	7.01	6.98	6.86	5.71	4.79	3.91	2.67	1.59	1.01	0.90	0.81	0.76	1.19	1.99	5.01	5.82	5.88	5.80	6.04	6.11	6.37	6.65	6.89	5.47	5.03	5.60	5.58	5.32	6.43	2.65	4.24	7.63	7.17	7.12	8.09	9.46	9.83	6.73	5.28	4.28	7.87	4.33	4.78	5.36	8.22	6.79	6.18	5.85	5.57	5.89	5.58	4.21	5.39	6.24	7.33	8.24	7.60	7.33	7.07	6.94	6.53	5.59	4.61	4.06	4.08	3.60	3.61	3.67	3.69	3.36	3.30	2.51	2.24	2.92	4.64	4.00	4.55	4.71	4.38	4.24	4.20	4.27	4.38	4.40	4.36	4.41	4.50	4.30	3.82	3.56	3.72	4.01	4.02	3.76	3.67	3.86	4.01	4.11	4.18	4.18	4.19	4.11	4.10	4.39	4.50	4.18	3.80	3.62	3.62	3.66	3.58	3.45	3.45	3.49	3.55	3.63	3.66	3.68	3.74	3.80	3.79	3.83	3.91	3.88	3.84	3.92	4.06	4.12	4.06	4.00	4.02	4.09	4.11	4.08	4.06	4.09	4.09	4.09	4.13	4.16	4.14	4.15	4.18	4.21	4.21	4.17	4.23	4.30	4.30	
4.00	3.97	3.92	3.89	3.87	3.85	3.87	3.81	3.65	3.55	3.46	3.32	3.16	2.92	2.54	2.01	1.22	1.04	2.60	3.82	6.12	6.51	7.03	8.57	8.39	7.65	6.99	6.78	6.60	6.54	6.41	6.38	6.40	5.99	4.57	3.66	2.26	1.06	0.56	1.00	0.56	1.03	1.61	2.53	5.94	4.91	4.99	5.72	6.28	6.74	6.93	7.08	5.03	2.98	4.87	5.28	5.46	6.10	4.10	7.17	6.74	6.64	6.88	7.67	8.83	9.01	7.05	5.23	4.31	7.98	4.18	5.60	8.50	6.91	6.54	5.74	5.34	5.13	5.35	5.55	4.15	4.42	5.76	6.66	7.59	7.21	7.14	6.99	6.96	6.65	5.82	4.87	4.24	3.93	3.79	3.73	3.79	4.03	4.04	3.44	3.37	2.49	2.57	3.53	3.99	3.94	4.15	4.34	4.29	4.20	4.22	4.29	4.23	4.25	4.47	4.71	4.51	3.87	3.60	3.81	3.95	3.87	3.79	3.84	4.01	4.01	3.79	3.74	3.89	3.97	3.84	3.73	3.82	3.83	3.69	3.60	3.52	3.48	3.54	3.54	3.49	3.46	3.45	3.51	3.59	3.63	3.65	3.69	3.75	3.78	3.81	3.86	3.86	3.84	3.92	4.06	4.15	4.12	4.02	3.98	4.05	4.10	4.08	4.05	4.07	4.09	4.09	4.10	4.14	4.13	4.16	4.18	4.17	4.21	4.23	4.24	4.25	4.25	
4.02	3.99	3.96	3.94	3.90	3.87	3.90	3.86	3.71	3.61	3.54	3.40	3.24	3.05	2.72	2.28	1.67	1.40	2.27	3.57	3.80	4.06	7.25	8.37	7.97	7.41	6.94	6.60	6.07	5.84	5.56	5.27	5.45	5.92	6.16	4.50	3.66	2.07	0.80	0.44	0.50	0.90	1.50	2.30	6.08	4.96	4.14	4.92	5.44	6.70	6.96	7.02	5.01	3.30	4.04	4.68	5.17	5.31	6.19	6.60	5.96	6.17	6.67	7.22	8.39	8.23	6.44	5.40	5.55	7.27	3.61	5.98	7.44	6.41	6.69	6.11	5.53	5.13	5.20	5.61	4.48	4.12	5.60	6.14	7.21	6.91	7.10	6.96	6.81	6.89	6.19	5.15	4.46	4.03	3.89	3.69	3.66	4.00	4.30	4.32	3.63	3.34	2.72	3.28	3.94	3.92	3.98	4.20	4.28	4.24	4.24	4.21	4.03	4.03	4.32	4.71	4.69	4.13	3.89	4.04	3.98	3.75	3.76	4.05	4.35	4.17	3.66	3.43	3.50	3.64	3.73	3.74	3.65	3.42	3.19	3.16	3.27	3.34	3.41	3.43	3.41	3.43	3.44	3.48	3.53	3.56	3.60	3.65	3.69	3.74	3.78	3.81	3.81	3.81	3.88	4.03	4.16	4.17	4.05	3.97	4.01	4.08	4.08	4.06	4.07	4.10	4.10	4.09	4.10	4.11	4.15	4.18	4.16	4.19	4.26	4.28	4.25	4.25	
4.04	4.03	3.99	3.98	3.93	3.89	3.94	3.91	3.77	3.67	3.61	3.50	3.35	3.17	2.92	2.61	2.14	1.79	2.12	2.80	3.11	4.01	4.98	8.39	7.63	7.37	7.14	6.70	6.10	5.74	5.20	4.64	4.53	4.56	5.53	5.96	4.52	3.33	1.74	0.72	0.49	0.73	1.36	2.45	6.03	4.84	4.07	5.00	5.62	5.85	5.86	5.88	5.52	3.68	3.88	5.07	5.69	5.65	6.49	6.33	5.60	5.99	6.55	6.86	7.91	8.02	6.09	4.89	5.05	6.16	3.22	8.80	7.34	6.35	6.48	6.21	5.77	5.22	5.06	5.29	4.97	4.10	5.16	6.13	6.74	6.97	7.33	6.96	6.68	6.56	5.86	5.13	4.53	4.19	3.99	3.72	3.54	3.46	3.69	4.04	4.34	4.05	3.27	3.26	3.83	3.92	3.89	4.01	4.18	4.30	4.29	4.20	4.00	3.90	4.07	4.44	4.60	4.34	4.22	4.28	4.08	3.79	3.77	4.21	4.57	4.30	3.68	3.30	3.19	3.26	3.58	3.85	3.71	3.33	2.98	2.75	2.81	3.06	3.24	3.33	3.32	3.30	3.40	3.50	3.53	3.54	3.58	3.62	3.67	3.72	3.77	3.78	3.76	3.76	3.81	3.95	4.12	4.19	4.10	3.99	4.00	4.07	4.08	4.08	4.09	4.12	4.11	4.10	4.11	4.11	4.13	4.16	4.16	4.14	4.22	4.28	4.28	4.28	
4.08	4.06	4.02	4.01	3.96	3.92	3.97	3.97	3.83	3.73	3.70	3.62	3.50	3.33	3.13	2.93	2.66	2.28	1.99	2.11	2.54	3.22	5.02	8.17	7.22	6.98	6.94	6.43	5.86	5.68	5.37	4.86	4.13	4.05	4.90	5.84	5.47	4.07	2.73	1.42	0.73	0.66	1.42	2.63	5.37	5.09	4.44	5.01	5.78	5.82	5.53	5.64	5.28	4.14	3.94	2.67	5.86	5.84	5.44	5.25	5.27	5.79	6.06	7.06	7.73	8.21	6.01	4.14	3.98	4.84	5.95	8.18	7.51	6.51	6.21	6.02	5.83	5.18	4.97	5.09	4.85	3.81	2.66	5.13	6.01	6.77	7.26	7.37	7.43	6.53	5.35	4.94	4.50	4.27	4.06	3.83	3.71	3.53	3.58	3.81	4.18	4.36	3.90	3.54	3.82	3.97	3.91	3.93	4.08	4.21	4.19	4.20	4.17	4.03	3.93	4.08	4.30	4.32	4.32	4.33	4.18	3.99	3.96	4.32	4.63	4.36	3.81	3.39	3.16	3.14	3.40	3.79	3.84	3.48	3.06	2.65	2.44	2.60	2.90	3.14	3.21	3.16	3.25	3.44	3.53	3.55	3.58	3.61	3.66	3.73	3.78	3.79	3.75	3.73	3.79	3.91	4.05	4.18	4.17	4.02	3.98	4.05	4.07	4.07	4.10	4.14	4.11	4.10	4.13	4.14	4.12	4.14	4.16	4.13	4.16	4.24	4.27	4.27	
4.14	4.11	4.05	4.03	4.00	3.95	3.99	4.01	3.89	3.79	3.79	3.74	3.65	3.52	3.36	3.25	3.16	2.84	1.96	1.34	1.95	2.89	4.91	5.94	7.24	7.14	6.91	6.13	5.64	5.22	5.07	4.69	4.30	4.06	3.17	3.41	4.09	4.07	3.25	2.17	1.20	1.01	1.80	2.86	3.28	3.48	3.27	2.84	2.94	5.68	3.61	5.23	5.32	4.21	2.86	2.89	2.95	6.05	4.87	4.84	5.31	5.69	5.84	6.14	7.42	7.99	6.38	4.41	3.58	5.27	5.37	7.49	7.45	6.58	5.87	5.63	5.75	5.40	5.32	5.12	4.61	3.36	2.76	3.08	3.67	4.37	4.82	5.27	6.03	7.43	5.92	5.24	4.77	4.50	4.36	4.26	3.96	3.75	3.66	3.70	3.94	4.29	4.24	3.95	3.93	4.02	4.03	4.05	4.12	4.01	3.88	4.04	4.30	4.28	4.03	3.97	4.12	4.24	4.25	4.18	4.13	4.07	4.05	4.23	4.50	4.36	3.88	3.55	3.40	3.36	3.41	3.64	3.84	3.65	3.27	2.89	2.44	2.27	2.46	2.78	2.98	3.00	3.07	3.26	3.42	3.50	3.54	3.57	3.64	3.72	3.77	3.79	3.77	3.74	3.78	3.89	3.97	4.10	4.19	4.06	3.97	4.01	4.04	4.04	4.08	4.13	4.11	4.08	4.11	4.13	4.13	4.15	4.16	4.13	4.14	4.21	4.25	4.25	
4.16	4.14	4.09	4.05	4.03	3.99	4.02	4.05	3.94	3.87	3.88	3.86	3.79	3.70	3.61	3.57	3.61	3.46	2.22	0.87	1.35	2.63	3.85	5.65	6.97	7.42	7.09	6.17	5.79	4.87	4.33	4.53	4.35	3.79	3.22	3.28	3.81	3.83	3.29	2.48	1.71	1.60	2.28	2.76	2.88	3.04	2.96	2.68	2.87	3.51	3.67	3.47	3.58	3.40	2.84	2.92	3.26	3.81	3.55	2.92	2.93	3.15	5.56	5.97	6.46	6.91	6.42	4.65	3.48	5.15	5.73	6.90	7.06	6.42	5.54	5.37	5.52	5.20	5.19	4.37	4.29	3.85	3.20	3.22	3.38	3.76	4.26	4.78	5.61	6.17	5.96	5.51	5.16	4.84	4.51	4.35	4.16	4.04	3.93	3.81	3.89	4.13	4.28	4.26	4.12	4.05	4.08	4.18	4.23	3.89	3.55	3.81	4.28	4.40	4.29	4.20	4.20	4.31	4.27	4.13	4.10	4.09	4.04	4.00	4.13	4.15	3.81	3.56	3.59	3.67	3.68	3.73	3.79	3.66	3.44	3.25	2.81	2.30	2.18	2.37	2.66	2.81	2.91	3.10	3.28	3.41	3.50	3.57	3.64	3.69	3.72	3.75	3.75	3.74	3.78	3.87	3.91	4.01	4.17	4.11	3.98	3.99	4.02	4.03	4.05	4.10	4.10	4.08	4.10	4.11	4.11	4.16	4.19	4.15	4.15	4.19	4.22	4.22	
4.19	4.17	4.12	4.09	4.07	4.03	4.05	4.09	4.00	3.94	3.99	3.98	3.91	3.88	3.90	3.86	4.03	4.17	2.84	0.96	0.84	2.27	3.46	4.41	5.82	7.27	6.97	6.20	5.62	4.75	4.20	4.43	4.06	3.85	3.32	3.13	3.64	3.75	3.26	2.64	2.14	2.26	2.73	2.81	2.65	2.54	2.67	2.59	2.52	3.33	3.63	3.37	3.07	2.83	2.42	3.04	3.43	3.88	3.70	2.93	2.71	3.05	3.41	3.76	6.11	6.53	6.50	5.12	3.55	2.53	5.42	6.99	7.07	6.51	5.71	5.15	4.43	4.34	4.14	4.13	4.29	4.26	3.81	3.36	3.01	2.94	3.93	4.55	5.23	5.75	5.66	5.17	4.93	4.63	4.30	4.19	4.16	4.19	4.18	4.02	3.98	4.10	4.24	4.38	4.39	4.18	4.06	4.17	4.31	4.00	3.50	3.64	4.13	4.37	4.43	4.37	4.33	4.38	4.38	4.35	4.34	4.13	3.84	3.55	3.37	3.13	3.60	3.39	3.46	3.67	3.90	4.01	3.88	3.64	3.53	3.50	3.27	2.74	2.25	2.16	2.32	2.54	2.73	2.94	3.14	3.29	3.41	3.55	3.65	3.70	3.70	3.70	3.70	3.71	3.77	3.85	3.88	3.94	4.12	4.17	4.05	3.98	4.01	4.03	4.05	4.09	4.09	4.09	4.11	4.11	4.09	4.13	4.18	4.16	4.14	4.17	4.19	4.19	
4.22	4.20	4.15	4.12	4.12	4.07	4.08	4.12	4.06	4.01	4.08	4.12	4.02	4.03	4.16	4.17	4.37	4.83	3.68	1.12	0.88	1.67	2.94	3.76	4.34	6.24	6.55	6.13	5.92	5.04	4.20	3.67	3.72	3.70	3.27	3.29	3.74	3.78	3.43	2.92	2.61	2.85	3.08	2.93	2.57	2.40	2.64	2.74	2.56	2.78	3.26	3.18	2.82	2.55	2.43	2.77	3.45	3.66	3.69	3.16	2.74	2.93	3.40	3.79	4.21	4.56	4.93	4.94	3.78	2.89	3.32	4.70	6.75	5.66	5.32	4.77	4.37	4.24	4.07	4.01	3.91	4.18	4.24	3.81	3.15	2.73	2.99	3.75	4.47	4.98	5.13	5.04	4.86	4.55	4.21	4.08	4.11	4.23	4.26	4.10	4.04	4.15	4.29	4.45	4.52	4.35	4.09	4.07	4.24	4.09	3.64	3.58	3.95	4.37	4.61	4.48	4.40	4.35	4.44	4.61	4.56	4.08	3.52	3.24	3.18	2.88	2.47	2.27	2.02	3.38	3.82	4.24	4.13	3.78	3.67	3.65	3.49	3.10	2.67	2.35	2.20	2.28	2.52	2.79	3.01	3.16	3.29	3.45	3.61	3.68	3.71	3.71	3.68	3.70	3.78	3.83	3.83	3.87	4.03	4.19	4.16	4.04	4.01	4.02	4.05	4.09	4.10	4.10	4.12	4.12	4.10	4.09	4.15	4.17	4.15	4.16	4.16	4.16	
4.24	4.24	4.20	4.16	4.16	4.11	4.10	4.16	4.12	4.07	4.16	4.23	4.15	4.17	4.35	4.44	4.70	5.27	4.24	1.17	1.14	1.03	2.21	3.17	3.72	4.41	6.44	6.24	6.15	5.42	4.58	3.69	3.59	3.46	3.28	3.49	3.89	3.86	3.62	3.34	3.17	3.29	3.30	3.07	2.70	2.51	2.65	2.79	2.67	2.65	2.92	2.94	2.71	2.56	2.60	3.00	3.29	3.32	3.40	3.23	2.84	2.74	3.13	3.55	4.04	4.18	4.44	4.74	4.19	3.49	3.78	4.65	5.30	5.34	5.27	4.81	4.22	3.97	3.85	3.76	3.83	4.14	4.40	4.20	3.50	2.89	2.95	3.56	4.22	4.50	4.66	4.83	4.72	4.52	4.32	4.14	4.17	4.32	4.28	4.04	3.93	4.05	4.37	4.63	4.59	4.43	4.23	4.10	4.15	4.03	3.67	3.49	3.71	4.48	4.86	4.81	4.64	4.53	4.57	4.74	4.69	4.07	3.28	2.87	3.03	2.71	2.26	2.02	1.76	1.54	3.39	2.75	3.02	4.14	3.99	3.85	3.54	3.17	2.95	2.73	2.40	2.20	2.33	2.67	2.92	3.08	3.22	3.37	3.53	3.63	3.69	3.73	3.70	3.70	3.79	3.85	3.82	3.82	3.91	4.08	4.21	4.16	4.04	4.00	4.04	4.08	4.09	4.11	4.13	4.13	4.11	4.10	4.14	4.18	4.19	4.17	4.16	4.16	
4.26	4.27	4.24	4.20	4.20	4.14	4.12	4.19	4.18	4.13	4.20	4.29	4.27	4.30	4.48	4.65	5.01	5.62	4.68	1.45	1.13	1.00	1.38	2.62	3.39	4.05	4.87	5.26	5.41	5.30	4.60	4.09	3.80	3.60	3.50	3.68	3.99	3.99	3.86	3.76	3.66	3.65	3.52	3.30	3.02	2.72	2.69	2.76	2.81	2.78	2.75	2.74	2.69	2.71	2.75	2.95	3.22	3.27	3.29	3.29	3.13	2.98	3.19	3.49	3.57	3.65	3.72	3.95	4.05	3.72	4.04	4.48	4.89	5.01	5.23	5.09	4.50	3.94	3.68	3.67	3.84	4.05	4.34	4.37	3.96	3.51	3.31	3.45	3.88	4.12	4.27	4.47	4.32	4.24	4.31	4.25	4.34	4.54	4.46	4.08	3.73	3.73	4.24	4.74	4.74	4.26	4.40	4.19	4.21	3.91	3.35	3.03	3.39	4.16	4.92	5.15	4.98	4.87	5.25	5.50	5.03	4.18	3.18	2.77	3.44	3.29	2.58	2.02	1.72	1.44	2.84	3.34	3.21	3.55	3.69	3.36	3.67	3.13	2.99	2.96	2.71	2.30	2.20	2.49	2.81	3.01	3.17	3.32	3.46	3.58	3.65	3.69	3.70	3.71	3.78	3.85	3.83	3.82	3.86	3.94	4.11	4.21	4.11	4.01	4.04	4.08	4.07	4.09	4.15	4.14	4.10	4.10	4.14	4.18	4.19	4.18	4.17	4.17	
4.28	4.30	4.27	4.23	4.22	4.16	4.14	4.23	4.25	4.21	4.26	4.36	4.37	4.42	4.58	4.82	5.26	5.89	5.25	2.28	0.81	1.17	1.06	1.80	3.04	3.94	4.65	4.96	4.96	4.68	4.38	4.12	3.95	3.95	3.95	4.03	4.19	4.15	4.15	4.17	4.06	3.98	3.85	3.71	3.52	3.07	2.77	2.74	2.94	2.99	2.76	2.56	2.63	2.85	2.90	2.87	3.01	3.27	3.39	3.43	3.36	3.26	3.32	3.41	3.46	3.50	3.43	3.50	3.78	3.88	3.99	4.20	4.35	4.46	4.80	5.09	4.75	4.21	3.90	3.86	3.98	4.00	4.11	4.20	4.15	4.20	3.86	3.41	3.54	3.78	3.97	4.16	3.90	3.77	4.06	4.24	4.40	4.72	4.79	4.37	3.74	3.50	3.97	4.72	4.67	4.41	4.21	4.41	4.53	4.11	3.33	2.68	3.09	3.91	4.72	5.72	5.49	5.34	5.71	6.04	4.99	4.15	2.80	2.64	3.91	3.91	3.07	2.25	1.73	2.32	1.59	2.61	3.01	3.76	4.08	3.45	3.29	3.21	3.00	3.02	2.90	2.46	2.13	2.31	2.66	2.92	3.12	3.27	3.39	3.51	3.63	3.66	3.67	3.71	3.76	3.83	3.84	3.83	3.88	3.92	4.02	4.17	4.13	4.03	4.06	4.09	4.07	4.08	4.12	4.13	4.08	4.07	4.11	4.15	4.16	4.16	4.17	4.17	
4.32	4.32	4.30	4.27	4.24	4.19	4.17	4.26	4.32	4.28	4.32	4.43	4.48	4.53	4.66	4.94	5.39	6.01	5.76	3.60	0.84	0.70	1.00	1.18	2.36	3.52	4.46	4.84	4.68	4.39	4.17	3.99	3.97	4.18	4.41	4.63	4.69	4.51	4.49	4.59	4.37	4.23	4.22	4.15	3.95	3.39	2.82	2.66	2.91	3.03	2.77	2.45	2.46	2.83	2.99	2.79	2.82	3.24	3.50	3.40	3.40	3.50	3.48	3.38	3.45	3.50	3.30	3.26	3.53	3.86	4.13	4.18	4.06	4.06	4.36	4.74	4.67	4.39	4.24	4.20	4.25	4.13	3.93	3.89	4.11	4.45	4.26	3.58	3.34	3.46	3.69	3.92	3.65	3.41	3.79	4.11	4.27	4.67	4.97	4.34	3.57	3.38	3.99	4.58	4.78	4.63	4.41	4.57	4.82	4.44	3.54	2.53	2.50	3.54	5.56	6.15	6.07	5.82	6.10	6.04	5.39	3.96	2.82	2.79	4.94	4.05	3.43	2.21	1.76	1.37	2.33	1.22	2.30	2.94	3.95	3.27	3.51	3.60	3.09	3.06	3.00	2.62	2.20	2.23	2.55	2.84	3.08	3.24	3.34	3.45	3.59	3.64	3.65	3.71	3.75	3.80	3.84	3.82	3.84	3.91	4.02	4.13	4.09	4.02	4.05	4.07	4.09	4.09	4.10	4.11	4.08	4.06	4.08	4.12	4.15	4.15	4.14	4.14	
4.35	4.35	4.33	4.29	4.26	4.22	4.20	4.29	4.38	4.34	4.35	4.44	4.54	4.61	4.75	5.04	5.41	5.99	6.16	4.34	1.34	0.64	0.55	1.41	1.80	2.86	3.86	4.65	4.59	4.25	4.13	4.01	3.96	4.15	4.53	4.92	5.06	4.93	4.93	4.97	4.61	4.44	4.60	4.59	4.37	3.86	2.93	2.38	2.76	3.04	2.87	2.50	2.35	2.55	2.78	2.67	2.70	3.09	3.24	3.17	3.41	3.75	3.71	3.46	3.45	3.53	3.30	3.08	3.19	3.64	4.12	4.17	3.92	3.89	4.09	4.31	4.38	4.27	4.23	4.46	4.67	4.42	3.97	3.83	4.09	4.43	4.31	3.76	3.41	3.38	3.47	3.68	3.54	3.30	3.67	4.10	4.21	4.78	4.98	4.44	3.73	3.41	3.75	4.33	4.70	4.79	4.80	5.19	5.49	4.85	3.96	2.76	2.19	2.78	5.61	6.65	6.78	6.64	6.90	5.95	5.01	3.53	2.92	3.15	5.31	4.38	3.83	2.48	1.78	1.70	1.40	1.94	1.82	2.30	3.26	4.29	3.38	3.17	3.31	3.13	3.09	2.76	2.33	2.24	2.48	2.78	3.04	3.22	3.32	3.41	3.54	3.63	3.65	3.69	3.72	3.76	3.81	3.78	3.76	3.82	3.99	4.10	4.07	4.04	4.04	4.05	4.09	4.11	4.09	4.08	4.09	4.08	4.08	4.11	4.14	4.15	4.14	4.14	
4.38	4.38	4.36	4.31	4.28	4.26	4.24	4.32	4.42	4.40	4.40	4.46	4.57	4.67	4.84	5.12	5.40	5.98	6.45	4.96	1.54	0.94	1.05	1.46	1.66	2.44	3.27	4.16	4.28	4.03	3.98	4.04	4.04	4.15	4.52	5.00	5.36	5.36	5.28	5.19	4.83	4.60	4.85	5.04	4.92	4.32	3.06	2.19	2.63	3.21	3.01	2.54	2.19	2.13	2.28	2.38	2.55	2.73	2.80	3.05	3.59	3.98	3.90	3.56	3.47	3.62	3.48	3.07	2.92	3.28	3.86	4.08	3.93	3.85	3.88	3.97	4.14	3.98	3.82	4.42	4.98	4.70	4.17	3.97	4.11	4.35	4.23	3.80	3.56	3.48	3.37	3.38	3.30	3.13	3.53	4.31	4.32	4.73	4.98	4.51	3.89	3.55	3.62	3.94	4.23	5.48	5.61	6.00	6.40	5.58	4.38	2.90	2.08	2.82	5.02	6.19	6.48	6.76	6.96	5.11	4.75	3.34	2.98	3.75	5.47	4.60	4.12	2.86	2.16	2.63	2.88	2.90	2.84	1.71	2.57	3.56	3.77	3.23	3.61	3.17	3.10	2.88	2.47	2.26	2.38	2.68	2.96	3.18	3.31	3.39	3.49	3.59	3.64	3.69	3.73	3.76	3.81	3.81	3.78	3.80	3.94	4.03	4.05	4.09	4.07	4.05	4.09	4.12	4.11	4.09	4.09	4.09	4.09	4.09	4.12	4.14	4.14	4.14	
4.40	4.40	4.38	4.33	4.30	4.29	4.27	4.34	4.45	4.45	4.46	4.51	4.60	4.72	4.93	5.19	5.44	6.03	6.76	5.42	1.11	0.65	1.20	1.41	1.87	2.48	3.08	3.69	3.88	3.85	3.79	3.86	4.08	4.36	4.78	5.23	5.74	6.04	5.80	5.33	4.72	4.59	5.06	5.49	5.48	4.58	3.02	2.32	2.90	3.44	3.16	2.47	1.90	1.78	1.86	1.97	1.78	2.34	2.61	3.24	3.92	4.10	3.92	3.67	3.57	3.76	3.77	3.18	2.67	2.84	3.35	3.79	3.89	3.84	3.75	3.77	4.01	3.68	3.31	4.17	5.14	4.93	4.38	4.03	4.03	4.04	4.16	3.57	3.52	3.42	3.15	3.29	3.06	2.81	3.51	4.31	4.49	4.72	4.88	4.51	4.08	3.82	3.70	3.76	4.69	5.04	5.50	6.12	6.68	6.00	4.32	3.23	2.18	1.90	2.76	6.09	6.88	7.34	6.36	5.82	4.39	3.41	1.59	3.98	5.50	4.60	4.34	3.20	2.62	2.85	2.74	2.68	2.58	2.99	1.96	2.79	3.77	3.20	3.86	3.29	3.11	2.94	2.60	2.33	2.36	2.60	2.89	3.12	3.26	3.36	3.47	3.57	3.64	3.72	3.78	3.81	3.85	3.86	3.88	3.91	3.96	3.96	3.98	4.07	4.11	4.09	4.10	4.11	4.13	4.12	4.10	4.08	4.09	4.09	4.10	4.13	4.14	4.14	
4.42	4.42	4.40	4.35	4.32	4.33	4.31	4.36	4.49	4.52	4.52	4.56	4.63	4.75	5.01	5.28	5.52	6.13	7.03	5.82	0.94	0.52	0.97	1.41	2.00	2.75	3.33	3.61	3.60	3.72	3.74	3.71	3.96	4.46	4.80	5.20	6.81	6.98	6.48	5.63	4.81	4.57	4.89	5.41	5.62	4.70	2.99	2.47	3.72	3.63	3.28	2.58	1.87	1.66	1.62	1.49	1.61	2.13	2.78	3.63	4.19	4.03	3.75	3.78	3.70	3.90	4.00	3.28	2.45	2.37	2.86	3.39	3.69	3.80	3.74	3.72	3.90	3.41	2.87	3.89	5.31	5.13	4.55	4.17	3.99	3.91	3.80	3.67	3.59	3.39	3.14	3.00	2.55	2.14	3.30	4.40	4.78	5.07	4.89	4.24	4.05	4.01	3.72	3.98	4.68	5.11	5.70	6.42	7.01	6.39	5.61	3.78	2.51	2.05	3.46	3.31	5.08	8.15	5.47	5.31	3.93	3.38	3.52	4.27	5.13	4.71	4.52	3.45	2.94	2.59	2.87	2.72	2.58	1.24	1.64	2.26	3.11	3.25	3.94	3.48	3.24	3.08	2.80	2.49	2.43	2.61	2.87	3.09	3.23	3.32	3.45	3.55	3.61	3.68	3.74	3.80	3.82	3.80	3.84	3.93	3.99	3.97	3.94	4.01	4.09	4.12	4.12	4.10	4.10	4.11	4.11	4.09	4.09	4.09	4.10	4.12	4.13	4.13	
4.41	4.43	4.42	4.37	4.35	4.36	4.34	4.38	4.51	4.56	4.57	4.61	4.65	4.78	5.05	5.34	5.60	6.23	7.21	6.06	1.53	0.53	0.79	1.17	1.73	2.66	3.42	3.64	3.50	3.56	3.67	3.71	3.83	4.21	4.50	4.89	6.68	7.16	7.07	5.97	4.94	4.77	5.00	5.46	5.80	4.78	3.10	2.84	3.69	3.81	3.21	2.53	1.93	1.04	1.70	1.34	1.40	2.11	3.21	4.23	4.44	4.11	3.80	3.67	3.64	3.81	3.85	3.35	2.58	2.38	2.65	3.10	3.47	3.70	3.72	3.78	3.73	2.94	2.51	3.86	5.30	5.43	4.90	4.44	4.17	3.91	3.79	3.76	3.65	3.46	3.22	2.91	2.20	1.57	2.94	4.33	5.74	5.03	4.73	4.40	4.32	4.26	3.66	3.36	4.04	5.09	6.00	7.07	7.83	7.35	6.40	4.69	3.32	2.56	2.35	2.81	4.74	8.11	6.47	4.86	3.60	2.35	3.57	4.43	4.96	4.39	4.62	3.72	3.16	2.83	3.02	2.79	2.70	1.47	1.69	0.85	1.25	2.72	3.80	3.58	3.29	3.14	2.95	2.63	2.49	2.64	2.87	3.08	3.23	3.31	3.41	3.54	3.60	3.61	3.65	3.73	3.75	3.74	3.77	3.83	3.94	3.98	3.96	3.97	4.04	4.09	4.11	4.11	4.08	4.07	4.08	4.10	4.11	4.10	4.10	4.11	4.11	4.11	
4.41	4.43	4.43	4.39	4.37	4.39	4.37	4.39	4.52	4.60	4.60	4.63	4.69	4.80	5.06	5.37	5.67	6.32	7.39	6.35	1.42	0.31	0.60	0.88	1.52	2.21	3.05	3.33	3.26	3.32	3.45	3.60	3.84	3.91	4.02	5.82	6.38	7.50	7.68	6.36	5.20	5.06	5.04	5.51	6.01	4.84	3.20	3.36	4.30	3.91	3.11	2.40	2.02	1.86	1.83	1.64	1.60	2.09	3.32	4.72	4.92	4.14	3.72	3.72	3.66	3.70	3.70	3.45	3.13	2.41	2.50	2.94	3.32	3.56	3.65	3.79	3.68	3.01	2.14	3.28	4.90	5.60	5.26	4.80	4.15	4.02	3.80	3.83	3.80	3.65	3.57	3.05	2.20	1.56	2.17	3.84	6.24	5.38	4.94	4.72	4.61	4.44	3.80	3.38	3.55	4.19	5.23	6.56	7.64	7.88	6.07	5.44	4.12	2.79	2.37	3.58	5.57	7.58	6.22	4.49	3.38	1.93	3.66	4.51	4.84	5.14	4.55	3.86	3.37	3.07	2.80	2.90	1.73	2.43	1.09	1.01	1.17	1.71	3.52	3.54	3.26	3.04	2.88	2.64	2.53	2.65	2.85	3.02	3.18	3.27	3.36	3.51	3.62	3.60	3.61	3.69	3.73	3.75	3.77	3.77	3.83	3.92	3.95	3.97	4.00	4.05	4.09	4.11	4.09	4.06	4.03	4.06	4.11	4.09	4.10	4.11	4.09	4.09	
4.42	4.43	4.44	4.41	4.39	4.40	4.39	4.41	4.54	4.65	4.64	4.66	4.74	4.85	5.05	5.37	5.71	6.38	7.56	6.66	2.31	0.31	0.71	1.01	1.60	1.88	2.67	2.97	3.00	3.14	3.30	3.59	3.83	3.82	3.72	5.31	6.05	7.71	8.17	6.91	5.64	5.42	5.22	5.54	5.80	4.73	3.17	3.70	4.71	3.92	3.11	2.32	2.08	1.99	1.97	1.97	1.91	2.20	3.30	5.04	5.27	4.08	3.04	3.78	3.71	3.66	3.68	3.53	3.18	2.71	2.63	2.93	3.22	3.41	3.54	3.69	3.56	2.96	2.19	2.97	4.52	6.31	5.32	4.93	4.42	3.85	3.62	3.71	3.82	4.08	4.23	3.16	2.08	1.17	1.58	4.94	6.38	5.84	5.24	4.94	4.67	4.39	3.88	3.53	3.76	3.78	4.53	6.02	7.35	7.78	6.65	5.59	4.39	4.05	3.15	4.27	4.58	7.00	5.46	4.29	3.22	1.76	3.79	4.94	4.71	4.04	4.31	3.67	3.43	3.32	3.08	2.65	2.05	2.48	2.69	3.24	1.09	1.69	3.20	3.31	3.20	3.01	2.80	2.56	2.51	2.67	2.85	2.97	3.09	3.21	3.32	3.48	3.61	3.62	3.61	3.66	3.73	3.78	3.80	3.79	3.80	3.86	3.92	3.94	3.97	4.01	4.07	4.10	4.09	4.08	4.03	4.02	4.06	4.05	4.07	4.10	4.08	4.08	
4.43	4.44	4.44	4.43	4.40	4.40	4.41	4.42	4.54	4.67	4.66	4.66	4.78	4.90	5.06	5.35	5.72	6.39	7.63	7.13	3.54	0.87	0.88	3.26	0.95	1.80	2.52	2.87	2.96	3.18	3.32	3.58	3.97	4.52	4.54	4.83	6.21	7.44	8.19	7.49	6.22	5.86	5.82	6.13	5.78	4.65	3.27	3.95	4.73	4.32	3.12	2.47	2.18	2.08	2.09	2.09	1.61	2.42	3.51	5.34	5.49	4.24	2.96	3.10	3.06	3.30	3.31	2.90	3.39	3.13	3.00	3.14	3.31	3.39	3.43	3.50	2.67	3.22	2.22	2.70	3.73	7.11	6.20	5.38	4.63	4.09	3.81	3.85	3.97	4.23	4.45	3.31	2.04	1.24	1.91	2.45	4.11	6.56	5.82	5.33	4.63	4.29	4.06	3.75	3.85	3.57	3.54	5.48	6.76	7.71	7.22	5.97	5.36	4.85	4.12	3.77	5.69	6.09	5.09	4.05	3.15	3.20	3.81	4.60	4.64	5.03	4.13	3.42	3.25	3.38	3.30	2.96	2.46	1.90	2.53	1.48	0.81	1.43	2.95	3.03	3.08	3.01	2.81	2.51	2.46	2.64	2.86	2.97	3.04	3.15	3.30	3.47	3.58	3.60	3.60	3.63	3.72	3.79	3.82	3.83	3.83	3.89	3.94	3.93	3.94	3.97	4.03	4.07	4.05	4.08	4.08	4.03	4.04	4.03	4.04	4.07	4.08	4.08	
4.44	4.45	4.44	4.43	4.41	4.40	4.42	4.44	4.54	4.68	4.67	4.66	4.80	4.94	5.07	5.33	5.72	6.34	7.57	7.74	4.96	0.27	1.49	1.02	1.41	2.05	2.73	3.10	3.16	3.40	3.40	3.39	4.94	4.84	4.74	5.35	5.90	6.96	7.90	7.81	6.70	5.97	6.18	6.54	5.41	4.68	3.67	4.25	3.27	4.31	3.58	2.97	2.60	2.22	2.11	2.16	2.18	2.43	3.32	5.14	5.97	4.06	3.46	3.09	3.12	3.33	3.32	3.74	3.56	2.97	3.19	3.39	3.45	3.37	3.01	2.62	2.47	2.14	1.67	2.45	3.30	6.61	6.94	5.76	4.81	4.43	4.25	4.15	4.21	4.53	4.45	3.70	2.03	1.43	1.32	3.93	3.36	6.66	6.56	5.99	4.89	4.55	4.38	3.89	3.81	3.57	2.98	4.06	5.74	7.28	7.88	6.72	5.86	5.35	4.47	3.96	5.11	5.32	4.94	3.76	3.23	2.91	4.50	4.61	4.62	4.91	4.01	3.24	3.06	3.22	3.37	3.27	2.89	2.36	1.87	1.56	1.86	1.28	2.77	2.83	2.95	2.97	2.80	2.49	2.39	2.59	2.85	2.97	3.03	3.12	3.27	3.46	3.60	3.65	3.63	3.63	3.69	3.76	3.78	3.79	3.81	3.89	3.99	4.02	4.01	3.98	4.00	4.03	4.01	4.05	4.10	4.07	4.07	4.07	4.04	4.05	4.07	4.07	
4.44	4.45	4.44	4.43	4.42	4.40	4.43	4.46	4.54	4.67	4.69	4.68	4.82	4.98	5.09	5.33	5.71	6.27	7.41	7.23	6.51	2.21	2.43	1.69	1.92	2.39	3.06	3.51	3.73	3.85	3.73	3.66	4.24	4.60	4.76	5.65	6.06	6.56	7.27	8.08	7.33	6.30	6.39	6.29	5.57	4.87	3.23	2.42	2.69	3.15	3.29	3.12	3.19	2.70	2.40	2.34	2.34	2.76	3.50	4.80	6.32	4.44	3.19	2.78	2.97	3.23	3.26	3.18	3.14	3.14	3.17	3.36	3.39	3.16	2.61	2.08	2.46	2.46	1.76	2.56	3.10	5.79	6.68	6.18	5.42	5.00	4.66	4.30	4.43	4.99	4.28	3.69	2.20	1.66	0.85	2.99	4.31	5.70	6.43	6.27	5.27	4.93	4.77	4.11	3.91	3.81	3.26	3.18	4.83	6.52	7.99	7.40	6.49	5.83	4.87	4.52	5.31	4.85	4.56	3.47	1.77	3.77	4.45	4.53	4.61	4.02	3.22	3.03	2.80	2.94	3.16	3.31	3.26	2.88	2.33	1.88	1.55	1.52	2.70	2.72	2.83	2.89	2.75	2.46	2.32	2.51	2.80	2.94	3.01	3.09	3.23	3.39	3.56	3.69	3.69	3.67	3.70	3.75	3.77	3.76	3.77	3.85	3.97	4.07	4.12	4.11	4.05	4.02	4.00	4.03	4.08	4.07	4.07	4.11	4.07	4.03	4.04	4.04	
4.44	4.45	4.44	4.42	4.42	4.40	4.43	4.48	4.54	4.65	4.70	4.71	4.83	4.99	5.11	5.34	5.69	6.18	7.19	7.21	7.12	2.77	3.63	2.33	2.32	2.57	3.12	3.66	4.02	4.42	4.13	3.67	3.82	4.28	5.06	5.39	5.89	5.95	6.41	7.69	8.02	6.66	6.81	5.99	6.34	3.95	2.82	2.66	2.71	2.94	2.54	3.04	3.32	3.24	2.94	2.42	2.71	3.41	4.24	5.36	6.05	5.30	4.17	3.11	2.77	2.75	2.98	2.98	3.16	3.36	3.36	3.28	3.05	2.78	2.46	2.11	2.35	2.50	3.13	1.80	4.57	5.51	7.08	6.93	6.08	5.54	5.07	4.61	4.46	4.74	4.47	3.56	2.31	1.70	0.88	2.87	4.53	5.49	5.35	6.49	5.65	5.20	5.02	4.44	4.16	3.91	3.37	2.83	4.14	5.76	7.15	8.04	7.00	5.94	5.07	5.12	5.56	4.62	4.32	3.22	2.96	4.09	4.80	4.97	4.65	3.93	3.00	2.84	2.59	2.66	2.81	3.05	3.25	3.18	2.70	2.11	2.11	1.75	1.98	2.74	2.80	2.83	2.71	2.43	2.27	2.44	2.74	2.90	2.98	3.08	3.21	3.30	3.44	3.60	3.67	3.69	3.72	3.78	3.82	3.79	3.77	3.81	3.90	3.97	4.06	4.17	4.16	4.07	4.00	4.00	4.06	4.04	4.02	4.09	4.10	4.04	4.01	4.01	
4.43	4.44	4.43	4.42	4.42	4.41	4.44	4.49	4.55	4.63	4.70	4.73	4.84	4.97	5.09	5.31	5.63	6.07	6.91	8.30	7.28	3.41	3.86	3.12	2.97	3.03	3.27	3.62	4.03	4.61	4.54	4.01	4.24	4.88	5.38	5.57	5.91	5.99	6.04	7.01	7.81	6.64	6.62	5.12	6.47	3.16	3.36	4.60	3.58	2.96	2.54	2.52	2.93	3.33	3.28	2.94	3.01	3.82	5.17	5.42	6.32	5.96	4.60	3.32	2.50	2.71	2.80	3.05	3.30	3.50	3.46	2.94	2.39	2.15	2.04	2.02	2.19	2.19	3.10	1.49	3.96	4.83	6.50	7.54	6.95	6.21	5.58	5.05	4.95	4.44	4.06	3.29	2.35	1.65	1.48	2.04	2.60	3.86	5.07	6.47	6.28	5.79	5.41	4.72	4.56	4.27	3.49	2.64	3.21	4.80	6.27	8.02	7.62	5.90	5.32	5.61	5.74	5.74	4.25	2.33	3.56	4.55	4.65	5.26	4.83	4.18	3.28	2.76	2.42	2.39	2.55	2.81	3.04	3.16	2.91	2.36	2.27	1.95	2.15	2.83	2.84	2.84	2.68	2.39	2.21	2.36	2.65	2.85	2.94	3.05	3.20	3.27	3.37	3.49	3.58	3.64	3.69	3.75	3.80	3.78	3.75	3.77	3.83	3.89	3.93	4.06	4.16	4.13	4.02	3.96	4.01	4.01	3.98	4.04	4.09	4.04	4.01	4.01	
4.41	4.43	4.43	4.41	4.42	4.42	4.44	4.50	4.55	4.61	4.68	4.73	4.84	4.93	5.05	5.27	5.56	5.94	6.68	7.99	7.14	3.83	4.47	3.45	3.42	3.57	3.58	3.74	4.24	4.68	4.91	4.50	4.13	4.72	5.55	6.06	6.17	6.34	6.47	7.02	7.04	5.74	6.34	6.37	3.35	3.67	4.22	4.13	3.81	3.59	2.94	2.54	2.77	3.25	3.47	3.39	3.57	4.14	5.31	5.75	6.55	6.63	5.27	3.95	2.38	2.04	2.24	2.94	3.54	3.60	3.24	2.72	2.30	1.90	1.75	1.56	3.45	1.72	3.17	1.48	2.76	5.03	6.05	7.12	7.23	6.84	6.17	5.67	5.50	4.06	3.81	3.12	2.45	1.72	1.52	1.31	2.26	3.67	5.36	5.52	6.01	6.16	5.90	4.98	4.95	5.06	3.92	3.47	2.34	4.18	5.66	7.40	7.40	6.13	5.48	5.88	5.62	4.26	4.25	1.98	4.38	5.13	5.33	5.14	4.69	4.19	3.25	2.72	2.34	2.27	2.47	2.74	2.95	3.05	2.84	2.43	2.15	2.21	2.31	2.91	2.87	2.86	2.71	2.37	2.11	2.19	2.48	2.72	2.85	2.98	3.15	3.24	3.34	3.46	3.53	3.57	3.63	3.69	3.74	3.74	3.73	3.76	3.80	3.86	3.92	3.98	4.09	4.17	4.10	3.98	3.99	4.01	3.99	4.03	4.06	4.03	4.01	4.01	
4.39	4.41	4.41	4.40	4.41	4.42	4.44	4.49	4.54	4.59	4.66	4.72	4.82	4.91	5.02	5.23	5.50	5.85	6.52	7.66	7.15	4.51	4.41	3.66	3.59	3.73	3.68	3.70	4.23	4.73	5.23	5.33	4.39	4.31	4.94	5.66	5.84	5.90	6.38	6.89	5.31	4.18	5.37	3.00	3.58	3.91	4.26	4.18	4.50	3.93	3.47	3.06	3.07	3.36	3.57	3.74	4.15	4.73	5.36	6.41	6.79	6.98	6.00	4.68	2.70	1.88	2.17	2.98	3.90	3.80	3.06	3.15	2.16	2.42	2.27	3.40	3.34	1.87	1.53	1.62	2.44	2.94	4.12	5.96	7.99	7.79	7.01	6.49	5.72	4.90	3.61	3.03	2.63	1.89	1.54	0.92	2.12	3.48	6.01	5.52	5.54	5.62	6.03	5.36	5.05	5.57	4.31	2.94	1.71	3.99	5.59	7.16	7.24	6.01	5.63	6.03	5.58	5.47	4.03	3.84	4.99	5.53	5.29	5.14	4.03	4.48	3.49	2.85	2.50	2.31	2.38	2.62	2.91	3.01	2.70	2.26	2.34	2.34	2.41	3.04	2.95	2.93	2.83	2.49	2.13	2.09	2.32	2.60	2.78	2.90	3.08	3.20	3.30	3.43	3.52	3.57	3.63	3.69	3.72	3.73	3.75	3.78	3.81	3.85	3.93	3.98	4.02	4.15	4.18	4.04	3.99	4.01	4.01	4.02	4.04	4.03	4.01	4.01	
4.38	4.40	4.40	4.39	4.40	4.41	4.44	4.48	4.52	4.58	4.64	4.70	4.79	4.90	5.02	5.18	5.44	5.76	6.35	7.38	7.29	5.42	4.84	4.33	4.28	4.30	3.98	3.47	3.98	4.39	5.01	6.19	5.14	4.60	5.03	5.53	5.87	6.13	6.45	6.09	4.54	4.25	4.29	2.83	3.45	3.83	4.03	3.95	4.53	4.14	4.02	3.47	3.30	3.41	3.49	3.71	4.32	4.94	5.46	6.11	7.29	7.54	6.69	5.27	3.63	2.33	2.04	2.77	3.93	3.52	2.14	2.42	2.18	2.23	2.14	3.37	3.28	1.87	2.19	1.95	2.60	2.28	3.16	4.47	6.23	9.33	8.65	7.70	6.34	5.27	3.62	2.93	2.79	2.34	1.71	1.50	1.78	2.92	4.45	6.54	6.05	5.32	5.94	6.01	5.57	5.59	4.47	3.51	2.59	2.78	5.25	7.22	7.27	6.29	6.14	6.33	5.54	5.66	4.25	4.16	5.26	4.99	6.13	5.06	3.97	3.62	3.94	3.30	3.05	2.78	2.50	2.53	2.77	2.87	2.67	2.29	2.31	2.34	2.42	2.40	3.06	3.04	2.99	2.74	2.39	2.20	2.27	2.51	2.75	2.87	2.99	3.14	3.25	3.36	3.46	3.54	3.62	3.68	3.72	3.73	3.75	3.77	3.81	3.84	3.90	3.95	3.95	4.06	4.20	4.10	3.98	4.01	4.02	4.00	4.01	4.03	4.02	4.02	
4.36	4.38	4.39	4.38	4.39	4.40	4.43	4.46	4.51	4.56	4.62	4.68	4.76	4.87	5.00	5.14	5.36	5.65	6.17	7.03	7.27	5.93	5.05	4.81	5.05	5.14	4.27	3.73	3.99	4.30	5.39	6.33	5.64	4.84	5.23	5.72	6.13	6.76	7.23	5.65	5.43	3.47	2.88	3.03	3.38	3.98	4.28	4.19	4.72	4.34	4.19	3.66	3.38	3.35	3.48	3.90	4.58	5.11	5.67	6.93	7.41	7.87	7.19	5.56	3.94	3.22	2.44	2.88	3.97	3.18	2.79	2.31	2.17	2.19	3.17	3.24	3.19	2.13	2.91	2.62	1.54	3.42	2.59	3.62	5.26	8.33	10.01	9.10	6.66	6.15	4.08	2.93	2.68	2.62	2.30	1.94	1.79	2.44	3.56	4.72	6.93	5.69	5.80	6.70	6.71	6.23	4.94	3.80	2.71	2.08	4.28	6.30	6.65	6.24	6.30	6.13	5.28	4.35	3.59	2.38	3.33	4.33	6.79	5.79	5.20	5.02	4.55	4.13	3.93	3.69	3.27	2.98	2.89	2.83	2.77	2.46	2.36	2.31	2.39	2.50	3.16	3.12	3.11	2.92	2.62	2.39	2.30	2.42	2.69	2.87	2.96	3.08	3.21	3.31	3.40	3.47	3.57	3.65	3.70	3.73	3.73	3.74	3.78	3.84	3.90	3.97	3.94	3.96	4.12	4.11	3.97	3.99	4.04	4.01	3.99	4.01	4.02	4.02	
4.35	4.36	4.37	4.37	4.38	4.39	4.41	4.45	4.49	4.54	4.58	4.64	4.71	4.82	4.96	5.08	5.26	5.53	5.95	6.61	7.05	5.94	4.74	4.71	5.16	5.43	5.07	4.33	4.00	4.91	5.53	6.32	6.01	5.18	5.15	5.43	5.84	6.61	7.17	4.44	3.14	2.49	4.33	2.65	3.64	4.56	4.55	4.49	4.99	4.68	4.51	4.01	3.55	3.19	3.11	3.53	4.63	5.23	5.86	7.49	7.79	7.95	7.54	6.53	5.05	3.97	2.86	3.23	4.11	3.81	2.42	2.70	1.80	2.31	2.19	2.15	1.67	2.88	3.28	2.88	2.65	2.24	2.42	3.32	4.63	7.67	8.75	9.63	7.73	6.54	4.79	3.22	2.69	2.61	2.48	2.42	1.66	2.41	3.05	3.96	6.07	6.30	5.57	5.90	7.09	7.05	5.45	3.61	3.10	1.94	3.79	5.50	6.01	6.03	5.80	5.18	4.91	3.95	2.96	5.07	2.75	4.18	4.75	4.38	4.64	4.36	4.16	3.94	3.74	3.50	3.18	2.86	2.67	3.12	2.96	2.67	2.42	2.28	2.36	2.54	3.25	3.16	3.18	3.04	2.75	2.56	2.40	2.34	2.56	2.82	2.95	3.04	3.17	3.28	3.35	3.42	3.52	3.61	3.68	3.72	3.71	3.70	3.74	3.81	3.89	3.98	3.99	3.96	4.05	4.08	3.99	3.97	4.02	4.03	4.01	4.01	4.00	4.00	
4.33	4.34	4.35	4.35	4.36	4.38	4.39	4.43	4.47	4.51	4.55	4.60	4.67	4.76	4.89	5.02	5.16	5.39	5.72	6.23	6.83	6.04	4.46	4.30	4.87	5.39	5.72	5.21	4.39	4.64	5.38	6.26	6.39	5.83	5.66	5.88	6.20	6.39	5.70	3.11	2.55	2.22	2.81	3.70	4.71	4.78	4.79	5.38	5.21	5.20	4.83	4.32	3.72	3.06	2.51	2.45	3.10	4.52	5.19	7.97	8.38	8.90	8.34	7.70	6.36	5.00	3.33	3.35	4.15	3.89	2.54	2.49	2.61	2.06	2.06	2.28	1.88	2.93	3.32	2.37	2.72	1.65	2.54	3.16	4.20	7.07	7.94	9.51	8.67	6.78	5.79	3.83	3.05	2.78	2.53	5.18	2.36	2.56	2.90	3.22	5.24	6.54	6.21	5.52	6.28	6.91	5.99	4.50	3.80	1.79	3.48	5.61	6.27	6.06	4.95	4.26	3.67	3.37	3.04	3.03	4.29	5.75	6.65	7.19	7.06	5.08	4.48	3.75	3.34	3.64	3.61	3.68	3.54	3.10	2.37	2.18	2.30	2.19	2.33	2.62	3.32	3.23	3.22	3.15	2.95	2.75	2.61	2.41	2.43	2.67	2.87	2.99	3.10	3.24	3.32	3.38	3.48	3.56	3.64	3.72	3.71	3.67	3.71	3.77	3.83	3.92	4.00	4.03	4.06	4.06	4.01	3.98	3.99	4.00	4.01	4.00	3.97	3.97	
4.30	4.32	4.33	4.33	4.34	4.36	4.38	4.41	4.45	4.49	4.52	4.56	4.62	4.70	4.81	4.93	5.07	5.25	5.51	5.93	6.62	6.30	4.62	3.99	4.42	5.14	5.84	6.01	5.46	4.92	5.24	5.98	6.57	6.32	6.01	6.25	6.52	5.53	3.16	2.53	2.63	2.79	3.82	4.12	4.55	4.81	5.30	5.26	5.31	5.19	4.79	4.28	3.80	3.28	2.67	2.07	2.06	2.85	4.05	4.88	7.76	8.43	9.77	9.36	7.58	6.60	4.44	4.09	4.42	3.90	3.03	2.64	2.02	1.62	1.90	1.37	2.15	2.97	3.55	2.83	2.76	2.05	3.01	3.44	4.09	6.42	8.08	8.37	9.24	7.27	6.70	4.39	3.30	2.96	2.84	3.02	2.66	3.11	3.67	3.85	3.25	5.04	7.15	6.52	6.13	6.69	6.18	4.15	2.89	1.25	2.48	3.60	6.55	5.49	3.77	2.71	2.65	3.41	3.12	4.02	3.78	5.16	5.58	6.66	6.78	7.05	5.44	4.16	3.57	3.28	3.24	3.36	3.26	3.20	3.30	4.79	4.49	1.85	2.20	2.58	3.33	3.28	3.25	3.15	3.04	2.92	2.83	2.64	2.46	2.53	2.74	2.90	3.04	3.17	3.26	3.34	3.43	3.52	3.60	3.69	3.71	3.67	3.69	3.75	3.79	3.86	3.93	4.00	4.05	4.03	4.00	4.00	4.00	3.99	3.99	3.99	3.96	3.96	
4.29	4.30	4.31	4.32	4.32	4.34	4.36	4.38	4.42	4.46	4.47	4.51	4.56	4.64	4.73	4.82	4.95	5.11	5.32	5.61	6.21	6.46	5.51	4.37	4.17	4.62	5.38	5.87	6.50	5.70	5.20	5.86	6.66	6.88	6.60	6.27	5.89	4.14	2.63	2.37	2.78	2.83	3.41	3.48	4.33	4.70	4.99	5.01	5.02	5.00	4.57	4.09	3.80	3.57	3.18	2.34	1.76	1.97	3.06	3.87	4.85	7.57	9.75	10.52	9.11	6.49	4.78	4.02	4.29	3.80	3.37	2.98	2.40	1.90	1.78	1.48	2.11	2.77	3.01	2.87	2.58	3.01	3.26	5.05	5.84	6.12	7.88	8.31	8.90	8.23	7.40	4.93	3.46	2.96	2.86	2.89	3.02	3.54	4.09	4.31	4.82	4.20	4.87	7.38	6.90	6.46	5.19	3.09	2.39	1.77	2.33	3.58	4.11	3.98	2.56	2.31	2.46	4.02	3.96	4.39	3.84	3.28	4.79	5.11	6.45	7.39	7.07	5.89	4.75	3.91	3.56	3.43	3.29	3.17	3.08	2.75	2.84	1.95	1.88	2.37	2.35	3.27	3.30	3.17	3.04	3.01	2.98	2.86	2.65	2.55	2.63	2.75	2.89	3.07	3.19	3.28	3.37	3.47	3.55	3.64	3.68	3.68	3.70	3.73	3.77	3.83	3.89	3.96	4.00	3.98	3.95	3.97	4.02	4.01	3.99	3.97	3.96	3.96	
4.27	4.28	4.29	4.30	4.30	4.31	4.33	4.35	4.40	4.43	4.43	4.46	4.51	4.57	4.64	4.72	4.83	4.96	5.12	5.33	5.72	6.24	6.18	5.36	4.61	4.50	4.88	5.36	6.48	6.40	5.47	5.84	6.56	7.15	7.77	7.12	4.73	3.27	2.71	2.43	2.91	2.89	3.46	3.37	3.98	4.27	4.61	4.72	4.69	4.74	4.46	4.02	3.81	3.81	3.47	2.95	2.00	1.82	2.04	2.88	3.86	4.89	7.22	10.28	10.39	8.04	7.52	5.61	4.46	3.81	3.58	3.26	2.65	2.32	1.78	1.52	2.26	2.51	2.95	2.66	2.34	2.36	2.88	3.61	4.21	5.80	6.44	8.37	9.18	9.36	7.97	5.48	3.71	3.01	2.79	2.78	2.90	3.36	4.07	4.45	4.59	5.27	5.54	6.48	7.41	6.92	4.78	5.36	2.40	1.94	2.81	4.83	5.55	5.06	1.92	2.07	3.27	3.65	3.68	3.38	3.01	2.93	3.24	4.06	4.68	6.13	7.72	6.02	6.42	5.53	4.78	4.28	3.87	3.56	3.30	3.07	2.65	2.10	2.29	1.99	2.24	3.34	3.35	3.26	3.11	3.09	3.13	3.06	2.89	2.78	2.76	2.72	2.72	2.90	3.10	3.22	3.31	3.40	3.50	3.60	3.65	3.66	3.70	3.73	3.76	3.79	3.85	3.96	3.98	3.93	3.90	3.91	3.97	3.99	3.97	3.97	3.96	3.96	
4.25	4.26	4.26	4.28	4.28	4.29	4.31	4.32	4.37	4.40	4.39	4.40	4.45	4.50	4.55	4.62	4.70	4.79	4.92	5.08	5.30	5.74	6.19	5.97	5.20	4.77	4.74	5.84	6.27	7.10	6.28	6.05	6.39	7.14	8.25	7.47	3.33	3.24	2.88	2.96	2.77	3.40	3.09	3.57	3.76	4.00	4.24	4.42	4.48	4.53	2.26	4.07	3.92	4.09	4.14	3.66	2.72	1.98	1.91	2.31	3.08	3.96	5.08	7.18	10.89	9.96	7.53	7.09	5.12	4.12	3.86	3.54	2.84	2.40	1.06	1.74	2.48	2.24	3.05	2.72	2.36	2.08	2.38	3.13	3.86	5.50	6.12	7.74	8.67	9.91	6.99	6.35	4.11	3.09	2.78	2.79	2.83	3.12	3.72	4.45	5.11	4.72	5.33	5.86	7.11	7.38	5.51	4.98	1.36	2.94	4.56	4.29	3.64	2.17	2.24	3.08	3.15	3.34	3.19	2.88	2.77	2.88	2.74	2.52	3.34	4.07	5.22	6.14	7.17	5.59	4.93	4.97	4.84	4.27	3.67	3.32	3.09	2.59	2.43	1.92	2.18	3.38	3.36	3.29	3.18	3.16	3.23	3.25	3.13	3.06	3.10	2.97	2.73	2.78	3.01	3.19	3.28	3.35	3.45	3.55	3.60	3.62	3.65	3.72	3.78	3.78	3.80	3.94	4.01	3.94	3.88	3.88	3.90	3.93	3.95	3.97	3.98	3.98	
4.24	4.24	4.24	4.26	4.26	4.26	4.28	4.30	4.34	4.37	4.34	4.34	4.39	4.43	4.46	4.51	4.57	4.64	4.72	4.82	4.92	5.22	5.85	6.20	5.63	4.96	4.65	5.49	5.76	7.23	7.30	7.07	7.07	7.46	8.17	5.96	3.76	3.17	2.88	3.18	2.77	3.16	2.60	2.93	3.32	3.73	3.94	4.14	4.36	4.47	4.37	4.10	4.00	4.20	4.47	3.40	3.42	2.68	2.69	2.22	2.56	3.22	4.21	6.07	9.61	11.33	9.23	8.63	6.17	4.64	4.24	3.99	3.39	2.76	2.57	1.67	2.28	3.56	3.30	3.01	2.72	2.17	2.07	2.31	2.91	3.77	4.79	6.19	8.79	9.97	8.04	7.31	4.77	3.25	2.64	2.48	2.57	2.91	3.51	4.32	5.50	5.32	5.19	5.46	6.54	5.03	5.31	4.69	1.87	4.52	4.45	3.43	2.29	2.33	3.35	3.41	3.60	3.89	3.87	3.60	3.04	2.59	2.47	2.75	1.36	2.88	3.37	4.26	5.06	5.64	5.64	5.14	4.82	4.04	3.99	3.45	2.45	2.80	2.48	1.92	2.07	2.22	3.26	3.21	3.15	3.14	3.23	3.34	3.27	3.25	3.40	3.32	2.94	2.76	2.92	3.14	3.27	3.35	3.42	3.50	3.58	3.60	3.61	3.68	3.79	3.81	3.76	3.84	3.99	4.01	3.97	3.94	3.90	3.89	3.92	3.95	3.97	3.97	
4.21	4.22	4.22	4.23	4.24	4.24	4.26	4.27	4.30	4.33	4.30	4.29	4.33	4.37	4.37	4.40	4.45	4.49	4.54	4.60	4.63	4.83	5.46	6.25	6.07	5.32	5.35	5.26	5.22	6.84	7.49	8.00	8.38	8.61	8.64	5.13	4.59	3.17	2.54	2.98	3.31	3.06	3.08	2.50	2.77	3.38	3.78	4.04	4.35	4.66	4.66	4.32	4.13	4.26	4.53	3.76	3.76	3.03	2.52	3.51	2.26	2.64	3.40	5.09	5.97	9.35	11.31	9.41	7.45	5.25	4.66	4.63	3.25	3.12	2.18	1.81	3.65	3.71	3.48	3.31	2.32	1.55	2.55	1.92	1.91	2.53	3.61	4.76	5.99	9.38	10.70	7.88	5.54	3.68	2.89	2.34	2.19	2.35	2.80	3.76	4.59	5.53	6.01	5.97	5.63	3.36	5.07	1.78	3.13	4.21	3.89	1.81	2.83	3.57	3.94	3.52	3.88	4.05	4.39	4.60	5.18	4.70	4.32	3.79	3.27	2.78	2.76	1.71	3.94	3.97	3.85	3.46	3.54	3.37	2.90	2.40	2.28	2.88	2.67	1.95	1.80	2.04	3.11	3.07	3.06	3.04	3.13	3.30	3.28	3.26	3.47	3.53	3.20	2.89	2.88	3.05	3.22	3.33	3.41	3.46	3.54	3.59	3.60	3.63	3.74	3.84	3.82	3.79	3.87	3.95	4.01	4.04	3.97	3.88	3.89	3.92	3.92	3.92	
4.20	4.20	4.21	4.21	4.21	4.21	4.23	4.25	4.26	4.28	4.24	4.23	4.27	4.30	4.29	4.30	4.33	4.36	4.38	4.41	4.42	4.55	5.02	6.05	6.14	6.25	5.62	5.24	6.36	6.84	7.37	7.92	8.65	9.18	8.64	5.00	5.37	4.80	2.60	2.88	3.49	4.14	3.35	2.73	2.46	2.98	3.60	1.14	4.37	4.73	4.91	4.76	4.49	4.38	4.69	4.04	3.99	3.22	2.71	2.81	3.37	3.82	2.68	3.58	5.07	8.48	10.87	9.13	7.23	6.36	5.33	5.22	2.45	4.32	3.80	3.88	3.70	3.61	3.45	2.39	3.60	2.48	2.86	2.28	3.84	2.00	2.75	3.90	5.40	6.27	9.65	7.98	6.11	4.28	3.54	2.87	2.54	1.99	2.18	2.87	3.91	5.20	6.47	6.64	5.09	4.43	5.17	2.40	3.06	3.51	2.72	4.11	4.43	4.49	4.39	4.40	4.47	4.76	5.11	6.41	5.97	5.25	4.64	4.79	4.15	3.42	2.91	3.13	2.82	2.82	2.06	3.60	3.87	2.66	3.09	3.00	3.18	3.24	2.89	2.68	2.42	2.22	3.12	3.00	2.95	2.94	3.01	3.22	3.26	3.22	3.39	3.53	3.36	3.10	2.97	3.02	3.15	3.26	3.37	3.43	3.49	3.55	3.58	3.59	3.66	3.77	3.87	3.89	3.86	3.82	3.85	3.97	3.99	3.93	3.93	3.93	3.91	3.91	
4.17	4.18	4.19	4.19	4.19	4.19	4.21	4.22	4.23	4.24	4.21	4.18	4.21	4.22	4.21	4.22	4.21	4.22	4.23	4.24	4.23	4.32	4.73	6.00	6.18	6.59	6.02	5.16	6.23	6.68	7.31	7.99	8.92	9.82	7.87	5.00	5.20	4.15	3.04	3.83	4.01	4.23	3.88	3.45	2.71	2.78	3.31	3.81	4.29	4.73	4.99	4.99	4.44	4.60	4.97	4.58	3.87	3.40	2.98	2.83	3.03	3.96	4.75	3.00	4.27	5.48	8.17	10.98	5.82	5.64	5.97	3.63	4.98	4.42	4.30	4.00	3.74	3.53	3.27	2.45	3.47	3.86	2.49	2.68	2.13	3.95	2.29	3.25	4.91	8.24	9.33	7.90	6.15	4.55	3.91	3.33	3.04	1.47	2.20	2.54	3.36	4.49	6.06	7.04	3.60	3.69	3.15	1.76	2.23	5.43	4.87	4.90	5.14	5.11	4.86	4.91	5.19	5.64	6.15	6.22	5.92	5.45	6.79	6.16	5.46	4.69	4.02	3.72	3.92	3.89	4.25	3.92	4.08	3.32	3.56	4.16	3.72	3.11	3.06	2.92	2.85	2.63	2.38	3.17	2.98	2.91	2.98	3.18	3.36	3.36	3.38	3.45	3.39	3.23	3.12	3.11	3.16	3.20	3.30	3.41	3.49	3.57	3.61	3.58	3.56	3.64	3.78	3.92	3.99	3.94	3.81	3.84	3.91	3.91	3.93	3.92	3.90	3.90	
4.16	4.16	4.17	4.17	4.17	4.17	4.19	4.18	4.19	4.20	4.17	4.14	4.15	4.15	4.12	4.11	4.10	4.09	4.08	4.07	4.06	4.10	4.44	6.03	7.54	6.64	6.04	6.26	5.94	6.47	7.18	7.81	8.59	10.23	3.94	5.52	5.22	4.50	3.68	3.97	3.77	4.15	4.22	4.25	3.51	3.09	3.15	3.49	4.00	4.58	5.05	5.20	4.81	4.79	5.41	5.18	4.34	3.39	3.04	3.13	2.96	3.79	4.39	5.30	3.71	4.88	8.92	9.82	6.42	6.51	5.72	5.32	4.97	4.63	4.36	4.11	2.94	3.75	2.36	1.81	3.35	3.98	3.34	3.21	2.35	1.92	2.01	2.82	4.31	5.61	8.88	7.66	5.98	4.57	4.15	3.65	2.54	2.72	1.77	2.31	3.42	3.93	5.89	4.47	7.78	6.71	5.75	6.12	6.28	6.33	6.31	5.76	5.51	5.41	5.30	5.41	5.46	5.70	6.45	6.85	6.55	6.32	5.84	5.09	4.74	4.55	3.84	3.64	3.57	3.29	3.51	3.65	3.66	4.02	4.37	4.27	3.80	3.04	2.78	2.81	2.84	2.69	3.70	3.51	3.22	3.05	3.05	3.15	3.38	3.50	3.42	3.40	3.34	3.23	3.18	3.22	3.27	3.24	3.28	3.37	3.45	3.57	3.73	3.69	3.52	3.55	3.67	3.78	3.96	4.07	3.97	3.84	3.83	3.85	3.89	3.90	3.89	3.89	
4.15	4.15	4.15	4.15	4.15	4.15	4.16	4.16	4.14	4.16	4.13	4.08	4.08	4.07	4.04	4.01	3.98	3.96	3.93	3.91	3.90	3.90	4.08	5.48	7.60	6.91	7.16	6.44	6.17	6.15	6.44	7.02	8.08	10.03	6.15	6.05	5.48	5.23	4.69	4.73	3.99	4.09	4.26	4.58	4.13	3.58	3.20	3.23	3.59	4.15	4.80	5.30	5.37	5.46	5.71	5.85	4.24	3.39	2.85	3.06	3.56	4.70	4.92	4.85	6.01	7.12	8.39	6.31	5.35	5.61	5.27	5.20	4.95	4.45	4.04	3.64	3.13	2.88	2.66	1.88	3.51	4.02	4.06	3.72	2.74	2.14	2.29	2.78	4.13	5.33	8.27	7.47	6.03	4.71	4.52	4.40	2.76	2.63	1.23	2.17	3.05	3.52	3.85	6.06	6.47	6.87	5.92	5.58	5.82	6.28	6.78	6.78	6.63	6.34	5.79	5.45	5.13	5.13	5.71	6.42	6.53	6.32	6.42	6.02	5.57	5.29	5.24	4.85	4.41	4.45	4.19	3.81	3.92	4.41	4.85	4.49	3.65	2.81	2.53	2.25	2.32	2.68	2.85	2.80	3.42	3.23	3.17	3.16	3.33	3.50	3.42	3.39	3.32	3.18	3.13	3.18	3.28	3.29	3.31	3.35	3.37	3.47	3.74	3.85	3.63	3.56	3.63	3.65	3.78	3.99	4.05	3.91	3.82	3.84	3.86	3.87	3.88	3.88	
4.13	4.13	4.13	4.14	4.13	4.13	4.13	4.12	4.10	4.11	4.09	4.03	4.01	3.99	3.95	3.91	3.87	3.83	3.79	3.76	3.74	3.77	4.03	5.29	7.12	8.12	7.95	6.88	6.33	6.20	6.33	6.97	8.21	10.29	6.06	6.12	5.97	6.64	6.09	5.09	4.57	4.16	4.51	4.44	4.13	3.76	0.88	3.04	3.20	3.68	4.29	4.89	5.57	6.42	6.40	6.63	4.75	3.52	2.66	2.91	3.96	5.00	4.74	4.13	5.03	6.35	7.88	4.04	5.07	4.07	5.11	3.24	3.03	2.99	4.56	3.95	1.98	1.81	2.82	2.32	3.54	4.02	4.36	4.05	3.22	2.59	2.21	2.87	4.04	5.14	8.63	7.23	6.42	5.02	4.63	4.79	3.19	3.52	1.41	2.74	3.14	3.32	5.67	5.92	6.45	6.85	6.41	5.54	5.44	5.84	6.33	6.62	6.88	7.02	6.67	6.21	5.67	5.22	5.20	5.51	5.79	5.74	6.03	5.78	4.96	4.45	4.63	4.46	4.13	4.29	3.70	3.15	3.24	3.26	3.52	3.27	2.61	2.04	2.46	2.25	2.11	2.45	2.66	2.80	3.47	3.37	3.29	3.25	3.39	3.52	3.42	3.41	3.40	3.24	3.15	3.15	3.15	3.20	3.29	3.33	3.32	3.33	3.56	3.81	3.73	3.64	3.65	3.64	3.67	3.81	3.99	3.98	3.86	3.84	3.83	3.83	3.86	3.86	
4.12	4.12	4.11	4.12	4.11	4.10	4.10	4.09	4.06	4.07	4.05	3.98	3.94	3.92	3.88	3.82	3.78	3.73	3.68	3.63	3.63	3.66	4.01	4.96	6.77	8.01	8.11	7.61	6.57	6.17	6.57	7.62	9.23	6.04	6.52	6.60	6.35	6.37	6.31	6.14	5.18	4.45	4.46	4.32	4.01	1.72	3.35	2.98	2.91	3.23	3.77	4.35	5.14	6.84	6.79	7.07	5.37	3.72	2.47	2.23	4.19	5.14	4.68	3.99	4.37	5.32	6.45	5.00	4.40	3.93	3.41	3.03	2.94	5.43	5.06	4.52	4.07	3.69	3.19	2.06	3.54	4.11	5.06	4.23	3.55	2.97	2.29	2.85	3.82	4.82	6.68	8.63	6.90	5.68	4.93	5.06	3.38	4.34	3.55	5.07	3.35	3.52	3.83	4.30	4.75	5.27	6.69	6.07	5.47	5.19	5.74	6.26	6.66	6.80	6.83	6.69	6.28	5.90	5.49	5.22	5.14	5.09	5.20	4.75	4.34	2.94	2.05	3.19	2.23	2.18	3.56	1.86	2.85	2.68	1.39	1.91	2.14	2.19	2.08	2.54	2.25	2.30	2.57	2.89	3.38	3.39	3.40	3.40	3.54	3.61	3.45	3.41	3.48	3.38	3.32	3.30	3.18	3.14	3.25	3.30	3.28	3.29	3.42	3.61	3.67	3.67	3.69	3.70	3.67	3.69	3.85	3.97	3.93	3.85	3.80	3.80	3.82	3.82	
4.11	4.10	4.11	4.11	4.10	4.08	4.07	4.06	4.03	4.03	4.01	3.94	3.88	3.86	3.81	3.74	3.67	3.62	3.56	3.52	3.53	3.62	3.94	4.23	6.32	8.02	8.02	8.52	7.99	7.36	7.11	7.69	5.27	5.74	6.07	6.06	6.10	6.17	6.32	6.09	5.46	4.84	4.51	4.35	2.48	3.70	1.31	0.31	2.81	2.90	3.26	3.72	4.46	6.63	6.92	7.71	6.48	4.24	2.64	2.46	3.81	5.17	4.89	4.20	4.37	5.12	6.52	4.36	5.68	5.28	3.34	4.68	5.09	5.27	5.17	2.09	3.15	2.67	2.27	1.82	3.73	4.34	4.39	4.40	3.86	3.48	3.10	3.08	3.60	4.33	5.80	8.06	7.73	6.22	4.57	4.97	5.09	5.06	4.78	3.35	3.30	3.55	3.88	4.48	4.89	5.25	5.72	5.84	5.45	5.01	5.27	5.87	6.21	6.36	6.73	6.82	6.46	6.30	6.06	5.79	5.28	4.77	4.57	4.38	4.20	4.46	5.38	4.63	4.49	4.34	3.91	3.52	3.00	2.41	2.55	2.43	2.05	2.05	2.28	2.28	2.63	2.58	2.77	2.92	3.23	3.25	3.38	3.47	3.65	3.73	3.51	3.38	3.46	3.42	3.41	3.43	3.31	3.23	3.28	3.31	3.27	3.30	3.40	3.50	3.56	3.60	3.66	3.72	3.70	3.66	3.72	3.87	3.97	3.94	3.82	3.77	3.76	3.76	
4.10	4.09	4.09	4.10	4.08	4.06	4.05	4.03	4.01	3.99	3.97	3.89	3.82	3.79	3.73	3.65	3.57	3.48	3.42	3.37	3.40	3.58	4.19	4.38	7.43	8.11	7.89	8.38	8.83	9.54	6.50	5.60	4.94	5.15	5.58	5.75	5.74	5.75	5.85	5.82	5.47	4.92	4.57	4.38	4.25	3.94	3.36	2.92	2.78	2.88	3.15	3.58	3.79	4.26	6.39	8.45	5.20	5.26	3.77	3.32	3.70	4.58	4.57	4.00	6.28	8.72	9.42	10.90	6.00	5.93	5.53	3.73	3.00	3.11	2.75	5.24	5.13	3.09	4.10	1.86	3.71	4.24	3.67	4.36	4.02	3.88	3.12	4.07	3.70	4.11	5.15	5.23	7.21	7.28	5.13	4.88	4.82	3.95	3.79	3.58	3.39	2.98	2.99	3.21	3.65	4.04	5.73	6.01	5.81	4.91	4.51	4.15	4.54	4.90	5.38	5.86	6.12	6.36	6.51	6.94	6.77	6.35	6.10	5.99	5.80	5.39	5.08	5.70	4.46	5.50	3.75	4.47	3.71	2.70	2.22	2.12	1.64	1.83	2.32	2.53	2.88	2.74	2.75	3.31	3.19	3.17	3.29	3.42	3.66	3.77	3.55	3.32	3.27	3.25	3.31	3.38	3.31	3.25	3.29	3.33	3.30	3.30	3.39	3.47	3.51	3.53	3.60	3.71	3.73	3.66	3.65	3.74	3.90	3.98	3.89	3.77	3.73	3.73	
4.09	4.08	4.08	4.08	4.06	4.04	4.02	4.01	3.99	3.95	3.93	3.85	3.77	3.73	3.66	3.56	3.48	3.36	3.29	3.21	3.25	3.46	4.45	4.78	7.91	7.68	7.22	7.53	8.16	10.14	5.10	5.76	4.59	4.72	5.05	5.30	5.40	5.38	5.43	5.50	5.36	4.96	4.60	4.39	4.26	3.45	3.55	3.08	2.93	3.11	3.46	3.66	3.70	4.94	5.37	8.03	7.02	6.41	5.42	4.93	4.85	4.88	4.83	6.24	7.13	7.58	8.35	9.68	11.34	8.37	5.70	5.65	5.07	3.51	6.42	6.58	5.70	5.04	3.73	2.67	3.93	4.28	3.48	4.09	3.77	3.66	3.69	3.67	3.88	4.24	4.90	6.87	6.92	4.80	4.40	4.20	3.94	3.78	3.69	3.55	3.29	3.00	2.79	2.88	3.38	3.90	4.18	4.54	4.94	4.93	4.66	4.01	4.10	4.36	4.85	5.43	5.89	6.22	6.52	6.81	6.89	7.05	7.32	7.32	7.05	6.62	6.24	5.85	5.33	4.53	4.29	4.01	3.49	3.97	2.79	2.27	1.89	1.63	2.10	2.43	2.83	2.84	2.80	3.31	3.23	3.21	3.24	3.35	3.61	3.78	3.67	3.44	3.21	3.08	3.15	3.27	3.23	3.15	3.20	3.29	3.29	3.29	3.36	3.46	3.50	3.49	3.54	3.67	3.74	3.67	3.62	3.66	3.76	3.90	3.94	3.82	3.73	3.73	
4.09	4.07	4.07	4.07	4.05	4.02	4.01	3.99	3.96	3.92	3.89	3.83	3.74	3.67	3.60	3.50	3.39	3.25	3.15	3.05	3.06	3.27	4.23	4.61	8.53	7.80	6.77	6.72	7.77	9.87	4.45	4.33	4.20	3.92	4.77	5.04	5.22	5.19	5.18	5.20	5.15	4.95	4.72	4.57	4.37	3.73	3.62	0.89	3.19	3.20	3.52	3.86	4.47	4.41	5.87	7.59	7.44	6.02	5.54	5.21	5.18	8.20	6.57	5.65	6.11	7.16	7.75	8.49	9.78	11.13	9.46	7.60	7.28	2.94	7.41	7.62	4.49	6.62	5.13	3.84	4.83	4.92	4.20	4.04	3.63	3.45	3.63	3.79	4.12	4.68	4.98	6.73	7.96	4.11	3.74	3.74	3.56	3.54	3.68	3.55	3.42	3.11	2.61	2.65	3.07	3.51	3.77	4.10	4.85	4.93	4.71	4.34	4.02	4.02	3.92	4.24	4.65	4.89	5.08	6.46	6.37	6.40	6.98	7.79	7.93	7.69	7.36	7.01	6.37	5.45	5.21	4.96	4.54	3.97	2.92	3.12	2.45	1.93	1.70	2.73	2.47	3.11	2.75	3.25	3.18	3.17	3.19	3.28	3.51	3.75	3.87	3.78	3.46	3.18	3.14	3.26	3.25	3.09	3.07	3.18	3.23	3.25	3.33	3.44	3.48	3.44	3.45	3.58	3.69	3.66	3.60	3.62	3.66	3.77	3.92	3.87	3.77	3.77	
4.08	4.07	4.06	4.06	4.03	4.01	3.99	3.97	3.94	3.89	3.86	3.80	3.70	3.60	3.51	3.41	3.28	3.12	3.00	2.87	2.83	3.00	3.50	3.76	8.87	9.61	6.91	6.32	7.65	9.47	5.26	4.71	2.81	4.19	4.79	5.02	5.20	5.21	5.14	5.06	4.94	4.42	4.89	4.92	3.13	4.07	3.65	2.82	3.39	3.33	3.42	3.65	4.48	5.72	6.52	4.66	6.60	6.69	7.17	7.33	7.25	7.24	6.58	5.70	5.83	6.77	7.48	7.97	8.64	9.48	10.01	8.79	7.52	10.27	10.53	10.68	11.36	11.86	4.53	6.93	6.87	5.82	6.07	5.14	4.39	3.00	4.07	4.53	4.85	5.11	6.24	7.48	4.56	3.77	3.16	2.85	2.86	3.11	3.09	3.56	3.20	3.09	2.81	2.62	2.83	3.20	3.46	3.77	4.32	4.71	4.71	4.59	4.39	4.06	3.80	3.86	4.22	4.53	4.75	5.00	5.10	4.95	5.00	5.58	6.25	6.63	6.90	7.66	7.77	7.33	6.71	6.40	5.66	4.99	4.17	3.33	3.43	2.76	2.65	2.52	2.42	2.73	3.11	3.18	3.15	3.17	3.22	3.27	3.38	3.60	3.89	3.95	3.64	3.30	3.17	3.24	3.32	3.25	3.12	3.07	3.12	3.18	3.27	3.39	3.45	3.43	3.39	3.47	3.60	3.63	3.60	3.61	3.61	3.62	3.81	3.88	3.81	3.81	
4.08	4.07	4.05	4.05	4.02	4.00	3.98	3.95	3.91	3.87	3.83	3.77	3.65	3.54	3.44	3.33	3.18	3.01	2.84	2.69	2.60	2.68	2.70	2.67	6.04	10.25	8.65	8.67	9.92	11.87	7.10	5.49	5.14	4.72	4.72	5.00	5.18	5.22	5.15	5.05	2.05	4.84	5.01	5.05	4.66	4.12	3.74	3.25	3.60	3.64	3.50	3.38	4.36	3.81	4.04	6.44	5.77	5.66	6.12	6.38	6.68	6.93	6.51	4.84	4.93	6.21	6.91	7.07	7.33	8.84	9.12	7.85	7.08	8.91	9.07	9.05	9.52	10.43	11.04	8.28	7.76	10.70	7.59	6.87	5.96	3.05	5.45	5.45	5.57	5.69	5.73	7.41	4.36	4.17	3.34	3.03	2.94	3.11	2.93	2.44	2.83	2.91	2.82	2.71	2.76	2.88	3.10	3.44	3.94	4.48	4.69	4.57	4.35	4.15	3.89	3.70	3.75	4.06	4.44	4.64	4.70	4.51	4.34	4.33	5.29	5.69	6.12	6.54	7.01	7.29	7.23	7.05	6.85	6.13	5.67	4.84	4.90	3.78	3.14	2.75	2.35	2.45	2.88	3.05	3.10	3.19	3.27	3.30	3.30	3.43	3.80	4.01	3.71	3.32	3.18	3.18	3.31	3.47	3.41	3.17	3.05	3.06	3.16	3.30	3.40	3.43	3.39	3.40	3.50	3.56	3.59	3.62	3.60	3.52	3.64	3.79	3.79	3.79	
4.07	4.06	4.05	4.04	4.02	3.99	3.96	3.93	3.89	3.84	3.80	3.73	3.62	3.49	3.40	3.28	3.11	2.93	2.73	2.53	2.39	2.37	2.22	2.36	4.16	8.85	10.66	10.19	10.02	10.91	10.11	6.78	4.80	4.68	4.43	4.75	5.03	5.18	5.15	2.01	4.97	4.88	5.07	3.51	4.70	4.18	3.87	3.55	3.69	3.68	3.50	3.78	3.09	3.38	3.80	5.95	5.33	5.35	5.73	5.46	5.92	6.36	6.77	4.59	3.66	5.35	3.81	6.61	7.50	7.93	8.55	6.95	7.09	8.43	8.61	8.87	9.01	9.30	9.38	9.58	9.90	10.57	10.53	7.02	6.17	9.48	8.50	8.97	9.38	5.47	8.34	10.36	6.01	4.72	3.28	3.19	3.10	3.17	2.85	1.94	3.43	3.11	2.98	2.95	0.65	2.71	2.79	3.18	3.56	4.07	4.56	4.57	4.24	4.05	4.02	3.88	3.65	3.71	4.08	4.33	4.40	4.19	3.82	3.76	4.03	4.26	4.45	4.79	5.26	5.72	6.91	6.98	7.15	7.17	6.69	5.91	5.13	4.92	4.07	3.47	2.71	2.46	1.99	2.93	2.98	3.13	3.27	3.32	3.27	3.38	3.80	4.14	3.93	3.42	3.16	3.09	3.15	3.44	3.63	3.45	3.18	3.03	3.05	3.17	3.30	3.39	3.40	3.38	3.39	3.43	3.50	3.59	3.62	3.56	3.57	3.67	3.71	3.71	
4.07	4.06	4.05	4.04	4.01	3.99	3.95	3.91	3.88	3.82	3.77	3.70	3.59	3.47	3.36	3.24	3.05	2.86	2.63	2.40	2.19	2.13	1.96	2.50	2.06	8.06	10.12	9.65	9.65	10.39	11.93	9.16	6.39	5.63	3.64	3.06	4.67	3.06	1.65	4.90	4.83	4.85	5.08	5.19	4.69	4.22	1.96	3.90	3.84	3.83	3.86	3.27	3.36	3.05	3.51	4.65	4.97	4.74	4.96	5.57	6.08	6.78	7.00	4.81	3.86	3.00	4.22	4.13	6.86	7.70	8.02	6.56	6.42	7.73	8.04	8.24	8.51	8.67	8.98	9.19	9.23	9.69	9.54	8.31	8.45	8.99	4.53	5.78	5.45	8.41	8.90	10.40	7.96	5.20	4.47	3.04	2.78	2.50	2.18	4.50	4.00	3.66	3.42	3.32	3.16	2.81	0.52	3.04	3.37	3.72	4.24	4.47	4.12	3.88	3.97	4.10	3.83	3.53	3.75	4.06	4.18	4.00	3.73	3.63	3.59	3.50	3.38	3.63	4.28	4.79	5.08	5.31	5.51	5.93	6.35	6.60	6.19	5.85	5.01	4.16	3.55	2.89	2.15	2.96	2.94	3.04	3.22	3.32	3.27	3.34	3.72	4.15	4.10	3.61	3.16	2.95	2.94	3.22	3.58	3.64	3.46	3.22	3.06	3.08	3.20	3.31	3.38	3.39	3.32	3.29	3.37	3.48	3.57	3.62	3.63	3.62	3.62	3.62	
4.06	4.06	4.05	4.04	4.02	3.98	3.95	3.90	3.87	3.82	3.76	3.69	3.59	3.46	3.34	3.21	3.01	2.81	2.54	2.29	2.02	1.89	1.85	2.56	2.60	7.59	9.83	9.42	9.54	10.07	11.15	12.66	9.05	6.37	5.82	3.56	4.82	4.65	4.63	4.65	4.69	4.85	4.28	5.07	4.54	4.05	3.87	3.96	4.13	4.28	3.41	3.70	2.30	2.88	3.10	4.43	4.49	4.43	4.60	3.38	3.73	4.21	6.97	4.70	3.92	3.00	4.46	4.40	3.30	7.47	7.86	5.12	4.60	7.23	7.49	7.65	7.92	8.01	8.28	8.61	9.04	9.41	8.96	7.34	7.37	8.00	3.93	4.20	6.01	5.98	8.91	9.95	11.36	7.29	5.82	4.96	3.92	3.29	4.75	4.70	4.42	4.18	3.94	3.79	3.55	3.14	2.93	3.06	0.71	3.54	3.88	4.20	4.07	3.91	4.05	3.46	3.15	3.59	3.52	3.77	3.99	3.90	3.80	3.74	3.57	3.33	2.92	2.90	3.49	3.89	4.16	4.45	4.61	4.99	5.37	5.71	6.22	6.05	4.88	4.41	4.14	3.56	3.12	3.05	2.96	2.95	3.10	3.22	3.20	3.23	3.57	4.01	4.12	3.80	3.29	2.94	2.84	3.06	3.44	3.63	3.61	3.49	3.26	3.09	3.13	3.24	3.34	3.40	3.31	3.24	3.26	3.33	3.44	3.58	3.66	3.60	3.55	3.55	
4.06	4.06	4.05	4.03	4.01	3.97	3.93	3.90	3.86	3.81	3.75	3.68	3.59	3.46	3.31	3.17	2.97	2.75	2.47	2.20	1.88	1.66	1.75	2.62	2.31	7.27	9.32	9.23	9.49	9.85	10.36	11.44	11.94	8.55	5.34	7.09	6.57	6.01	5.42	5.16	5.21	5.35	4.29	5.06	4.55	4.05	3.75	3.85	4.20	5.04	4.58	3.33	2.44	2.95	2.81	2.96	3.24	4.29	3.19	3.61	3.12	4.47	4.83	4.52	3.87	3.03	4.65	2.67	4.95	5.42	7.92	5.29	4.63	6.97	7.35	7.47	7.75	7.57	7.80	8.49	8.40	9.25	8.56	6.64	6.61	7.15	3.54	3.81	6.27	6.42	6.57	9.62	10.66	11.25	6.13	6.58	4.78	5.08	4.94	4.85	4.64	4.26	3.89	4.22	4.07	3.64	3.25	3.27	3.47	3.59	3.72	3.95	4.04	4.08	4.22	4.37	4.27	3.90	3.59	3.66	3.87	3.87	3.86	3.90	3.84	3.62	3.17	2.83	2.87	3.08	3.42	3.75	3.83	4.11	4.26	4.35	5.04	5.51	5.03	4.58	4.25	3.37	3.28	1.70	1.76	3.00	3.05	3.12	3.09	3.10	3.38	3.81	4.09	4.00	3.57	3.10	2.88	3.01	3.34	3.54	3.60	3.65	3.48	3.17	3.10	3.21	3.33	3.38	3.30	3.21	3.19	3.20	3.29	3.48	3.64	3.62	3.54	3.54	
4.07	4.06	4.05	4.03	4.00	3.97	3.93	3.90	3.85	3.80	3.73	3.67	3.58	3.45	3.30	3.14	2.95	2.73	2.44	2.14	1.79	1.51	1.52	2.52	2.38	7.07	9.27	9.27	9.48	9.75	9.97	10.41	10.44	10.15	10.10	7.67	7.67	3.83	4.24	5.94	6.42	4.58	5.54	4.68	2.61	2.99	4.23	4.24	4.49	4.79	3.34	3.52	2.82	3.33	2.68	2.44	2.70	2.91	2.96	2.44	2.82	3.49	4.93	4.46	3.80	3.12	2.83	2.83	3.19	3.87	6.24	5.23	4.18	3.49	7.07	7.19	7.49	7.58	7.80	5.49	5.39	8.99	8.51	5.41	5.10	6.49	3.09	3.61	3.84	6.61	6.86	9.32	10.26	11.57	8.89	6.65	6.48	5.86	5.32	5.14	5.04	4.71	4.19	3.86	3.65	3.31	3.76	3.65	3.72	3.81	3.82	3.87	4.07	4.26	4.33	4.38	4.51	4.40	3.99	3.68	3.66	3.70	3.78	4.01	4.11	3.88	3.45	2.96	2.69	2.84	3.10	3.22	3.33	3.55	3.66	3.66	4.24	4.77	4.28	3.84	3.20	3.48	2.04	1.79	3.14	3.09	3.11	3.16	3.11	3.05	3.15	3.48	3.89	4.07	3.86	3.34	2.94	2.96	3.24	3.41	3.48	3.63	3.59	3.26	3.08	3.17	3.30	3.35	3.28	3.16	3.11	3.09	3.13	3.30	3.53	3.60	3.57	3.57	
4.07	4.07	4.05	4.03	4.01	3.98	3.94	3.90	3.85	3.79	3.73	3.66	3.58	3.45	3.30	3.15	2.96	2.75	2.47	2.16	1.78	1.41	1.22	2.06	1.94	6.70	9.23	9.13	9.21	9.56	9.80	9.87	9.02	8.68	9.03	9.36	7.35	7.63	7.62	6.95	10.74	4.76	6.80	3.81	4.04	4.92	5.24	5.08	5.01	3.94	3.88	3.48	3.11	2.87	2.49	2.29	3.34	2.48	2.71	2.12	2.47	3.18	5.02	5.08	3.73	3.03	2.77	2.87	3.28	3.90	6.47	5.16	4.15	3.35	6.64	6.86	7.31	6.23	3.93	5.70	5.68	9.29	8.37	4.86	3.43	5.86	2.79	3.21	3.91	4.02	7.25	7.46	9.59	10.53	12.30	9.11	6.64	6.54	4.99	4.11	3.60	3.08	2.63	2.55	2.38	3.43	4.24	4.12	4.06	4.06	3.98	3.95	4.21	4.40	4.11	4.31	4.64	4.84	4.54	3.98	3.66	3.64	3.81	4.20	4.32	3.94	3.60	3.19	2.78	2.89	3.17	3.36	3.63	3.28	2.52	3.41	3.77	4.27	4.09	3.64	2.74	2.12	1.77	1.94	2.99	2.98	3.09	3.20	3.20	3.09	2.97	3.05	3.45	3.87	3.97	3.59	3.05	2.93	3.13	3.26	3.31	3.51	3.57	3.31	3.10	3.12	3.21	3.26	3.23	3.11	3.01	2.98	3.00	3.10	3.30	3.47	3.52	3.52	
4.08	4.07	4.06	4.04	4.02	3.98	3.94	3.90	3.85	3.80	3.73	3.67	3.59	3.46	3.31	3.16	2.99	2.77	2.51	2.20	1.83	1.41	1.03	1.15	1.08	4.77	8.66	9.06	8.95	9.30	9.41	9.10	8.13	6.56	6.72	6.80	6.82	6.97	7.11	10.00	10.02	10.46	6.85	4.54	6.45	5.98	5.58	8.49	5.40	4.51	4.00	3.62	3.36	3.23	2.79	2.44	1.89	3.09	1.75	1.79	2.18	2.90	3.82	4.73	3.86	3.09	2.84	2.77	3.24	3.87	6.68	5.22	4.15	3.41	6.47	6.62	6.54	3.75	3.97	4.31	5.95	9.21	8.06	4.65	3.23	5.06	2.71	3.04	3.42	4.25	4.38	7.70	8.94	9.45	10.36	12.21	10.44	6.27	6.40	5.14	3.76	3.28	2.80	2.67	3.94	4.60	4.55	4.54	4.48	4.33	4.13	4.12	4.36	4.50	4.27	4.35	4.62	4.89	4.47	4.07	3.68	3.92	4.08	4.48	4.49	3.99	3.71	3.46	2.94	2.75	2.79	2.85	3.02	3.17	3.18	3.16	3.39	3.88	4.13	3.90	2.91	2.57	2.27	1.73	2.80	2.82	2.99	3.19	3.28	3.23	2.93	2.69	2.93	3.44	3.80	3.68	3.20	2.98	3.11	3.20	3.20	3.36	3.45	3.30	3.13	3.13	3.15	3.15	3.14	3.05	2.90	2.83	2.89	2.99	3.12	3.31	3.41	3.41	
4.08	4.08	4.06	4.04	4.02	3.99	3.94	3.90	3.85	3.80	3.74	3.67	3.60	3.49	3.33	3.19	3.03	2.81	2.57	2.27	1.91	1.49	1.01	0.50	0.61	1.52	7.34	9.00	9.06	9.21	9.02	8.06	6.71	6.52	6.62	6.71	6.76	5.23	9.19	9.48	9.47	9.55	9.65	5.71	6.26	6.00	5.80	8.03	7.67	5.84	4.61	3.78	3.23	2.94	2.81	2.45	1.90	1.61	1.41	1.34	1.70	2.46	3.35	3.96	3.89	3.29	5.37	2.77	3.26	3.92	6.83	4.77	4.09	3.45	3.25	7.00	3.53	3.79	4.03	4.40	6.11	6.56	7.34	4.80	2.96	2.26	2.34	2.74	3.21	4.51	4.53	7.88	8.64	9.29	9.50	10.73	12.80	9.06	6.91	5.54	4.44	3.60	3.20	4.67	4.35	4.05	4.71	4.77	4.77	3.66	3.15	4.32	2.92	4.57	4.63	4.66	4.66	4.65	4.49	4.18	3.86	3.67	3.98	4.52	4.79	4.11	3.73	3.61	3.18	2.85	2.79	2.92	3.19	3.24	2.95	2.80	3.10	3.66	4.11	4.24	3.20	2.59	1.93	1.48	2.57	2.70	2.86	3.11	3.31	3.40	3.10	2.56	2.57	3.01	3.46	3.56	3.21	2.94	3.07	3.18	3.18	3.26	3.30	3.21	3.10	3.10	3.11	3.05	3.02	2.97	2.78	2.61	2.64	2.76	2.88	3.09	3.23	3.23	
4.09	4.08	4.07	4.05	4.02	3.99	3.95	3.90	3.85	3.80	3.75	3.68	3.62	3.52	3.37	3.22	3.07	2.87	2.64	2.36	2.04	1.64	1.17	0.85	0.88	0.75	5.28	8.90	8.94	9.00	8.73	6.88	5.02	4.76	4.59	4.51	4.65	8.22	8.74	9.15	9.22	9.10	5.09	5.04	5.80	5.82	5.98	6.32	8.28	7.80	5.46	4.31	3.37	2.69	2.24	2.34	1.69	1.78	1.18	0.93	1.22	1.85	2.61	3.23	3.45	3.06	2.67	2.74	3.22	3.95	4.69	4.81	4.20	3.49	3.15	3.60	3.37	3.73	4.06	4.48	6.13	6.78	6.25	4.96	3.00	2.06	5.54	2.28	2.91	3.38	4.76	7.68	8.26	8.54	8.68	9.80	11.47	11.52	9.16	6.68	5.67	4.50	3.62	5.17	4.90	4.47	4.35	4.37	4.23	3.92	3.31	2.89	2.90	4.59	4.76	4.97	5.03	4.93	4.65	4.36	4.08	4.04	4.48	4.86	4.72	4.41	3.89	3.74	3.55	3.18	2.86	2.89	3.26	3.43	3.04	2.63	2.87	3.31	3.84	2.80	3.88	2.88	1.93	1.93	2.34	2.60	2.74	2.93	3.21	3.46	3.24	2.63	2.46	2.74	3.12	3.36	3.15	2.86	2.96	3.07	3.10	3.22	3.22	3.07	2.96	2.97	2.95	2.87	2.85	2.80	2.61	2.34	2.23	2.31	2.40	2.65	2.86	2.86	
4.09	4.09	4.07	4.06	4.03	3.99	3.95	3.91	3.86	3.81	3.77	3.70	3.64	3.55	3.41	3.26	3.12	2.94	2.72	2.45	2.16	1.80	1.40	1.05	1.00	0.77	5.28	8.72	8.64	8.78	8.22	5.26	4.80	4.70	4.44	4.40	7.81	8.36	8.75	9.01	9.02	8.61	4.89	4.81	4.66	4.56	4.70	6.58	7.19	8.92	6.87	5.21	4.35	4.52	3.50	3.48	2.75	1.88	1.11	0.77	1.01	1.38	1.77	2.32	2.71	2.53	2.32	2.50	3.01	3.79	4.59	4.82	4.35	3.60	3.19	3.17	3.35	3.62	3.97	6.03	6.23	9.61	6.49	4.79	3.20	2.26	4.31	2.02	2.59	3.12	4.97	7.37	7.36	8.06	8.09	9.14	10.34	11.39	12.59	9.51	7.45	6.29	6.40	5.75	5.39	4.94	4.79	4.65	4.40	3.02	2.90	3.16	3.09	4.63	4.75	4.97	3.79	3.56	3.29	3.13	2.90	4.45	4.93	5.21	5.14	4.55	4.22	3.94	3.87	3.62	3.11	2.84	3.15	3.53	3.38	2.88	2.66	3.06	2.11	2.16	2.88	3.26	2.08	1.82	2.13	2.45	2.58	2.72	3.07	3.43	3.26	2.70	2.47	2.62	2.94	3.16	3.03	2.84	2.89	2.90	2.90	3.10	3.19	2.97	2.83	2.84	2.75	2.68	2.70	2.62	2.41	2.18	1.93	1.83	1.89	2.17	2.42	2.42	
4.11	4.09	4.08	4.07	4.04	4.00	3.96	3.92	3.88	3.83	3.78	3.72	3.66	3.58	3.45	3.30	3.16	3.00	2.80	2.56	2.28	1.94	1.56	1.13	0.97	0.80	5.33	6.67	8.48	8.45	5.73	5.03	4.26	4.08	4.21	4.40	8.02	8.41	5.53	5.22	8.94	4.90	4.70	4.53	6.33	4.11	4.24	4.65	5.24	7.89	9.26	6.90	5.43	5.53	4.37	4.14	3.40	2.40	1.33	0.84	1.07	1.27	1.23	1.46	1.89	1.84	1.81	2.11	2.72	3.77	4.44	6.38	4.25	3.49	4.20	3.29	3.44	3.49	3.73	6.11	6.35	10.06	6.64	4.99	3.51	2.51	1.91	1.86	2.21	2.78	4.99	7.05	7.39	5.87	7.57	8.71	9.71	10.77	12.01	13.37	9.64	7.89	6.84	6.75	6.08	5.58	3.65	2.94	2.55	2.65	2.75	3.51	3.51	4.83	4.86	3.86	3.86	3.65	3.37	3.12	2.92	4.66	5.13	4.28	5.63	5.28	4.74	4.26	4.15	4.07	3.66	3.12	3.09	3.44	3.62	3.40	2.91	2.98	1.93	4.26	2.65	3.89	2.61	2.00	2.06	2.33	2.44	2.57	2.96	3.38	3.24	2.71	2.44	2.58	2.91	2.98	2.79	2.76	2.87	2.84	4.25	2.97	3.16	2.98	2.84	2.80	2.64	2.64	2.74	2.52	2.30	2.12	1.75	1.33	1.19	1.78	2.19	2.19	
4.11	4.10	4.09	4.07	4.05	4.01	3.98	3.94	3.89	3.84	3.80	3.74	3.68	3.60	3.49	3.35	3.21	3.07	2.89	2.67	2.41	2.08	1.70	1.22	0.85	0.76	5.39	6.82	8.24	7.95	5.62	4.84	4.18	3.93	4.02	6.36	4.59	4.75	5.17	5.47	8.96	5.03	5.94	5.47	5.53	3.67	3.82	4.27	4.74	5.48	8.64	9.48	6.50	5.30	5.60	4.58	4.26	3.20	1.80	0.97	1.18	1.39	1.16	1.09	1.16	1.11	1.15	1.48	2.15	3.18	4.44	6.66	4.18	3.49	3.18	3.32	3.52	3.52	3.59	6.13	8.50	10.00	7.52	5.40	4.12	2.88	1.94	1.57	1.79	2.37	3.07	6.54	7.26	6.09	7.52	8.30	8.98	9.88	11.05	12.07	13.03	9.43	8.13	7.41	6.60	5.66	4.70	3.59	2.88	2.69	2.67	3.83	4.01	4.40	4.37	4.06	3.83	3.22	3.59	3.61	3.39	3.70	4.09	4.29	4.42	5.91	5.40	4.91	4.73	4.91	4.93	4.52	4.08	3.93	4.05	4.10	3.70	3.38	2.57	2.56	3.93	3.83	3.15	2.55	1.66	2.30	2.27	2.37	2.81	3.26	3.15	2.62	2.37	2.66	3.04	2.89	2.58	2.65	2.93	2.97	2.81	2.91	3.07	2.99	2.91	2.76	2.63	2.73	2.78	2.57	2.38	2.27	1.86	1.10	0.23	1.01	1.81	1.81	
4.11	4.11	4.10	4.08	4.05	4.02	3.99	3.95	3.90	3.86	3.81	3.77	3.71	3.63	3.54	3.41	3.28	3.14	2.97	2.78	2.54	2.23	1.85	1.37	0.75	0.71	5.28	6.90	6.74	6.27	5.18	4.61	4.16	4.04	6.61	4.38	4.67	4.90	5.33	5.76	5.69	5.49	3.76	4.10	4.66	3.09	3.33	3.73	4.24	5.22	5.93	9.41	9.28	6.04	7.12	5.95	4.97	4.21	2.69	1.44	1.38	1.55	1.36	1.15	0.95	0.74	0.65	0.71	1.23	2.36	3.57	4.86	4.14	3.59	3.30	3.35	3.58	3.68	3.70	6.54	8.57	9.09	8.20	5.97	4.88	3.38	2.12	1.41	1.45	1.96	2.84	3.44	3.67	6.27	6.32	7.87	8.26	8.79	9.75	10.75	11.68	12.52	12.72	7.62	7.49	5.99	5.63	4.69	3.62	3.19	3.11	4.32	4.61	4.83	3.84	3.35	3.11	3.15	3.20	3.21	3.45	3.85	4.21	4.38	4.57	6.32	6.46	6.19	6.06	4.80	6.00	6.50	4.48	4.82	3.85	3.48	3.48	3.33	4.03	3.81	3.63	3.89	3.59	2.96	2.52	2.31	2.14	2.22	2.72	3.14	3.04	2.49	2.24	2.79	3.20	2.83	2.42	2.56	3.02	3.17	2.97	3.05	3.81	3.69	3.00	2.78	2.54	2.61	2.78	2.78	4.64	2.90	2.50	1.88	1.71	3.00	3.58	3.58	
4.12	4.12	4.10	4.09	4.06	4.03	4.00	3.95	3.92	3.87	3.83	3.79	3.73	3.66	3.58	3.47	3.34	3.20	3.05	2.88	2.66	2.37	2.01	1.55	0.89	0.83	2.83	6.90	7.08	6.27	5.02	4.29	3.94	4.07	4.29	4.50	4.77	5.07	5.82	5.92	6.19	6.09	5.09	3.80	2.88	4.14	2.60	3.14	3.74	4.36	5.68	6.45	9.77	10.61	5.84	7.40	6.24	4.98	4.08	2.65	1.86	1.65	1.46	1.18	1.01	0.93	0.81	0.58	0.47	1.32	2.68	3.69	3.79	3.37	3.18	3.30	3.51	3.66	6.76	7.98	8.25	8.42	8.69	7.18	5.09	4.16	2.54	1.38	2.01	1.49	2.24	3.07	3.52	6.65	6.77	7.74	8.03	8.11	8.69	9.54	10.51	11.40	11.30	11.67	12.39	5.93	6.24	5.76	4.73	4.03	3.75	4.90	5.24	4.37	3.90	3.54	3.49	3.54	3.31	3.16	3.12	3.90	3.91	4.78	5.09	6.70	5.22	5.88	6.45	6.82	6.88	7.04	6.82	5.83	5.16	4.69	4.90	4.73	4.41	4.10	3.70	3.43	3.29	3.13	2.84	2.51	2.23	2.24	2.67	3.01	2.91	2.48	4.84	2.94	3.24	2.74	5.22	3.88	3.08	3.37	5.56	3.54	3.45	3.71	3.86	3.11	2.46	1.17	2.39	3.09	2.76	2.99	2.66	2.06	1.99	2.64	4.06	4.06	
4.13	4.13	4.11	4.10	4.08	4.05	4.01	3.97	3.94	3.89	3.86	3.82	3.76	3.69	3.62	3.53	3.39	3.26	3.11	2.97	2.77	2.51	2.17	1.74	1.16	0.98	2.49	4.30	7.11	5.39	5.02	4.21	3.79	3.92	4.18	4.43	4.75	5.88	5.85	5.94	6.46	6.58	5.56	4.27	3.36	2.53	2.84	2.36	3.03	3.69	4.41	6.14	6.87	7.61	11.01	6.26	7.67	6.50	5.11	3.76	3.34	2.58	2.10	1.65	1.12	0.86	0.81	0.70	0.39	0.44	1.70	2.97	4.17	3.06	2.99	3.22	3.95	6.99	7.30	7.36	7.18	7.64	8.34	8.62	6.30	5.26	3.51	1.74	1.03	1.12	1.50	2.37	3.46	6.92	6.98	7.08	7.99	6.66	7.97	8.82	9.94	9.94	9.98	10.58	11.45	12.47	6.34	6.19	5.83	5.46	4.94	4.60	4.93	4.42	3.98	3.62	3.69	3.78	3.69	3.60	3.32	3.00	4.11	3.74	5.80	6.52	6.79	6.82	6.24	6.06	5.88	6.22	6.75	6.86	6.21	5.30	4.77	4.67	4.57	4.21	3.71	3.21	3.11	3.27	3.16	2.79	2.43	2.31	2.54	2.63	2.67	2.75	4.82	3.23	3.22	2.85	2.33	1.70	2.76	3.68	3.34	3.38	3.39	3.21	3.05	2.95	2.58	2.00	2.68	2.81	2.09	4.83	5.66	5.24	4.54	3.58	3.24	3.24	
4.14	4.14	4.13	4.11	4.09	4.06	4.02	3.99	3.95	3.92	3.88	3.84	3.78	3.71	3.66	3.59	3.46	3.32	3.19	3.06	2.88	2.65	2.35	1.97	1.47	1.09	1.67	3.97	5.06	5.24	4.98	4.21	3.69	3.72	3.93	4.20	4.56	5.91	5.82	8.92	9.36	6.95	5.92	4.71	3.84	2.97	2.18	3.28	2.34	3.09	3.78	4.50	6.47	7.14	7.90	10.80	7.27	6.20	6.70	5.57	4.61	4.60	3.88	3.26	2.74	2.03	1.31	0.69	0.26	0.09	0.75	2.21	2.80	2.80	2.84	4.04	4.13	7.31	7.26	6.61	6.53	6.87	7.37	8.12	7.87	5.97	4.85	2.87	1.39	1.17	2.92	1.86	3.62	4.02	4.08	7.46	7.15	6.35	5.92	8.79	9.12	8.79	9.31	10.04	10.67	11.38	11.67	7.94	5.10	5.15	5.08	5.64	5.89	5.06	4.98	4.48	4.11	3.98	3.89	3.58	3.03	3.23	4.78	5.74	6.65	6.34	6.74	6.42	5.55	4.97	4.90	5.36	6.16	6.76	6.61	5.75	4.81	4.41	4.41	4.23	3.65	2.92	2.96	3.59	3.83	3.58	3.01	4.67	2.70	2.39	2.08	3.09	3.14	3.13	3.19	3.01	2.54	2.09	3.15	3.42	2.72	6.27	7.50	7.39	7.29	7.12	7.01	6.57	5.55	4.99	4.84	5.29	5.67	5.40	4.80	3.90	3.34	3.34	
4.15	4.15	4.13	4.12	4.10	4.07	4.04	4.00	3.97	3.94	3.89	3.85	3.81	3.74	3.69	3.64	3.52	3.38	3.27	3.16	3.00	2.79	2.53	2.21	1.76	1.25	1.65	3.84	4.75	4.96	4.75	4.06	3.85	3.65	3.87	4.11	4.41	5.78	5.71	9.32	10.34	5.59	6.36	4.83	4.16	3.32	2.54	1.93	1.89	2.45	3.15	3.85	4.58	6.74	7.29	10.22	10.38	9.29	7.10	6.13	5.97	5.09	5.53	4.85	4.42	3.82	3.13	2.21	1.23	0.45	0.50	1.40	2.18	2.45	2.65	4.11	4.27	6.86	6.78	6.57	6.51	6.81	7.30	7.94	8.30	7.77	6.07	4.04	2.24	1.48	1.50	1.81	2.67	3.23	4.20	4.13	6.58	6.11	8.17	8.54	7.81	7.92	8.71	9.39	9.96	10.48	10.64	10.44	10.18	9.77	9.55	10.70	5.28	5.23	5.08	5.17	5.09	4.64	4.05	3.82	4.11	4.69	4.63	4.70	4.68	5.28	6.18	6.50	5.91	4.81	4.27	4.53	5.45	6.40	6.82	6.46	5.54	5.09	5.09	4.70	3.99	2.95	1.74	3.27	4.10	3.85	3.30	2.74	2.77	2.36	1.77	3.08	2.78	6.65	8.13	7.97	7.93	7.34	6.21	5.73	5.68	6.50	7.24	7.30	7.21	7.08	6.91	6.45	5.72	5.29	4.99	4.65	4.51	4.38	4.05	3.54	3.25	3.25	
4.16	4.15	4.14	4.13	4.11	4.08	4.06	4.02	3.99	3.96	3.91	3.87	3.83	3.78	3.73	3.70	3.60	3.45	3.35	3.25	3.11	2.93	2.71	2.43	2.04	1.53	1.76	3.40	4.50	4.64	4.47	3.93	3.66	3.72	3.90	4.11	4.32	5.63	8.67	9.34	9.95	6.73	6.81	5.49	4.69	3.76	2.92	2.20	2.62	1.84	2.41	3.14	3.92	4.67	6.82	8.96	9.60	9.57	9.22	8.39	7.59	6.93	6.28	5.64	5.39	4.98	4.06	3.45	2.79	1.84	1.10	1.20	1.76	2.23	2.57	4.26	4.48	4.66	4.73	4.65	4.49	4.55	4.79	7.55	7.68	7.68	7.66	4.95	3.10	1.83	1.62	1.79	2.46	3.99	3.98	3.83	6.88	7.92	7.97	6.04	7.31	7.79	8.39	8.94	9.39	9.62	9.62	9.34	9.11	9.21	9.56	9.95	10.26	10.11	9.67	8.35	5.19	4.63	5.45	5.52	5.17	5.00	4.68	4.76	4.42	4.55	5.29	6.30	6.37	5.23	4.04	3.69	4.56	5.60	6.34	6.78	6.19	5.62	5.33	4.64	3.89	2.97	1.92	3.43	3.28	4.72	7.90	8.61	8.49	8.37	7.53	6.24	5.91	6.93	7.81	7.86	7.69	7.14	6.37	6.01	5.75	5.50	5.58	5.68	5.64	5.55	5.38	5.17	4.97	4.72	4.52	4.38	4.21	4.06	3.86	3.59	3.44	3.44	
4.16	4.16	4.15	4.14	4.12	4.10	4.07	4.04	4.01	3.98	3.94	3.90	3.86	3.81	3.76	3.73	3.66	3.52	3.41	3.33	3.20	3.04	2.86	2.61	2.28	1.83	1.93	3.10	3.92	4.18	4.12	3.78	3.68	3.80	3.91	4.07	5.84	8.03	8.77	9.37	9.32	8.63	6.05	6.30	5.04	4.42	3.52	2.75	2.03	3.04	1.88	2.54	3.32	4.06	4.72	7.14	8.59	8.56	8.35	8.11	7.97	7.11	6.56	5.80	5.38	5.24	4.28	4.07	3.67	2.68	1.82	1.46	1.58	2.04	2.49	4.38	4.63	4.81	4.72	4.65	4.53	4.57	4.69	5.06	5.28	5.37	5.69	5.45	3.90	2.31	1.77	1.74	2.10	3.86	3.93	6.65	7.26	7.06	6.11	6.05	6.38	6.65	8.46	8.80	9.04	8.90	8.79	8.51	8.27	8.48	8.90	9.18	9.29	9.39	9.42	9.58	9.90	9.46	8.22	7.13	6.05	5.70	5.59	5.94	5.69	5.44	5.44	6.18	6.78	6.33	4.96	3.86	4.36	5.11	5.66	6.41	5.93	5.73	7.30	7.89	8.27	8.46	7.98	6.99	6.62	7.14	8.13	8.62	8.54	8.25	7.50	6.60	6.02	5.73	5.84	5.97	5.84	5.65	5.48	5.27	5.14	5.12	5.09	5.09	5.08	5.01	4.90	4.79	4.66	4.53	4.40	4.27	4.14	3.99	3.84	3.67	3.56	3.56	
4.17	4.17	4.16	4.15	4.13	4.11	4.08	4.05	4.02	4.00	3.96	3.92	3.88	3.84	3.79	3.77	3.71	3.58	3.48	3.40	3.28	3.14	2.99	2.78	2.51	2.12	2.14	2.92	3.56	3.76	3.76	3.60	3.65	3.81	5.99	6.03	5.89	8.10	8.60	8.89	9.03	9.16	8.59	6.19	6.00	4.71	4.26	3.44	2.60	1.89	1.79	2.09	2.90	3.59	4.23	7.03	7.41	7.26	7.13	6.95	6.95	6.95	6.60	5.89	5.28	4.36	4.04	3.85	3.33	2.90	2.20	1.56	1.43	1.85	2.26	2.63	4.57	4.84	4.71	4.59	4.58	4.65	4.77	5.05	5.24	5.14	5.37	5.50	4.34	2.74	1.86	1.68	1.84	2.37	4.00	3.98	7.50	4.31	4.29	4.18	6.93	8.09	8.27	8.43	8.60	8.33	8.29	7.96	7.66	7.82	8.32	8.72	8.78	8.81	8.82	8.87	9.31	9.82	9.59	8.87	7.69	7.57	7.23	7.16	7.10	6.72	6.52	6.50	6.98	7.23	7.02	6.63	6.57	6.80	7.00	7.27	7.30	7.33	7.74	8.26	8.67	8.70	8.18	7.39	6.93	6.61	6.40	6.42	6.39	6.18	5.95	5.69	5.43	5.33	5.29	5.29	5.28	5.19	5.08	4.99	4.93	4.88	4.87	4.86	4.83	4.79	4.71	4.60	4.50	4.40	4.30	4.19	4.07	3.95	3.84	3.75	3.70	3.70	
4.18	4.18	4.17	4.16	4.14	4.12	4.10	4.06	4.04	4.01	3.98	3.94	3.90	3.87	3.83	3.80	3.77	3.66	3.55	3.47	3.37	3.26	3.12	2.93	2.72	2.41	2.35	2.82	3.34	3.61	3.64	3.54	3.64	3.76	6.24	6.26	6.20	7.78	7.95	8.14	8.42	8.80	9.12	8.60	6.24	5.55	5.09	4.08	3.14	2.30	1.57	1.71	2.41	3.21	3.86	4.50	7.36	7.18	7.02	6.67	6.49	6.39	6.11	5.23	4.85	4.34	3.87	3.33	3.06	2.85	2.38	1.71	1.53	1.83	2.11	2.41	2.86	3.41	3.63	3.55	3.48	3.40	3.49	3.89	4.31	4.29	4.17	4.50	4.27	2.92	1.83	1.60	1.73	2.06	3.90	4.12	4.17	4.38	4.33	4.15	7.39	7.96	8.48	8.41	8.33	7.96	7.82	7.64	7.56	7.73	8.29	8.81	8.97	7.33	6.77	6.88	6.92	7.44	8.19	8.79	9.20	8.45	7.24	6.91	6.38	6.45	6.69	6.62	6.75	6.99	7.17	7.20	7.19	7.20	7.14	7.09	7.05	6.87	6.65	6.59	6.65	6.57	6.39	6.18	5.93	5.79	5.73	5.67	5.61	5.54	5.42	5.28	5.18	5.09	5.07	5.05	5.01	4.96	4.89	4.82	4.78	4.74	4.70	4.67	4.64	4.60	4.55	4.48	4.40	4.33	4.25	4.17	4.09	3.99	3.89	3.80	3.77	3.77	
4.20	4.19	4.18	4.17	4.15	4.14	4.11	4.08	4.06	4.03	4.00	3.96	3.92	3.89	3.84	3.82	3.80	3.71	3.62	3.53	3.43	3.34	3.23	3.07	2.87	2.60	2.46	2.68	3.10	3.51	3.61	3.66	3.58	3.68	6.44	6.34	6.24	6.11	7.40	7.43	7.77	8.29	8.72	8.83	7.84	6.35	5.33	5.04	3.85	2.90	2.08	1.80	1.86	2.67	3.40	4.29	4.88	5.24	6.90	5.39	5.26	5.17	5.22	5.19	4.87	4.26	3.70	3.17	2.89	2.78	2.58	2.13	1.83	1.91	2.07	2.28	2.64	3.14	3.38	3.43	3.39	3.22	3.28	3.62	4.07	4.20	3.95	4.02	4.04	3.11	1.89	1.57	1.78	2.04	3.93	4.10	3.78	3.90	4.36	7.08	6.77	7.86	8.61	8.66	8.76	6.18	5.92	5.97	5.88	5.90	5.39	6.14	6.59	6.15	4.45	4.58	4.32	3.53	4.13	4.95	5.89	6.61	6.56	6.32	6.02	5.90	6.12	6.23	6.26	6.28	6.29	6.28	6.25	6.20	6.14	6.07	6.01	6.00	5.98	5.94	5.89	5.86	5.77	5.64	5.53	5.45	5.41	5.37	5.31	5.24	5.16	5.07	4.99	4.93	4.88	4.84	4.81	4.79	4.76	4.71	4.67	4.64	4.62	4.59	4.56	4.52	4.48	4.43	4.36	4.29	4.23	4.16	4.09	4.02	3.93	3.86	3.84	3.84	
4.21	4.20	4.19	4.18	4.17	4.15	4.13	4.10	4.07	4.05	4.02	3.98	3.95	3.92	3.88	3.86	3.84	3.78	3.69	3.60	3.51	3.42	3.32	3.18	3.00	2.72	2.43	2.40	2.72	3.24	3.46	3.67	3.54	3.67	6.29	6.21	6.11	6.06	6.05	6.18	6.52	6.83	6.94	7.12	7.34	7.40	6.64	5.33	4.95	3.84	2.86	1.97	1.74	2.28	3.03	4.20	4.71	5.03	5.09	5.13	5.07	4.99	5.14	5.25	5.08	4.65	3.98	3.36	3.02	2.91	2.87	2.64	2.25	2.04	2.04	2.26	2.58	2.88	3.05	3.27	3.36	3.18	3.12	3.35	3.80	4.06	3.78	3.53	3.65	3.12	1.90	1.43	1.85	2.32	2.82	3.18	3.43	3.51	3.70	3.48	5.22	4.77	4.93	5.69	6.01	5.66	4.22	4.03	3.65	3.05	3.47	4.03	4.54	4.91	4.77	4.59	4.13	3.70	4.08	4.77	5.41	5.89	6.05	6.01	5.92	5.80	5.76	5.80	5.83	5.85	5.85	5.84	5.81	5.78	5.74	5.70	5.65	5.61	5.60	5.58	5.55	5.49	5.44	5.37	5.27	5.20	5.15	5.10	5.06	5.01	4.97	4.92	4.87	4.82	4.79	4.76	4.73	4.69	4.67	4.64	4.60	4.57	4.53	4.51	4.48	4.44	4.41	4.38	4.33	4.27	4.21	4.17	4.11	4.05	3.99	3.92	3.89	3.89	
4.20	4.21	4.20	4.19	4.18	4.16	4.14	4.12	4.09	4.07	4.04	4.01	3.97	3.94	3.92	3.89	3.87	3.83	3.75	3.67	3.58	3.50	3.40	3.28	3.13	2.88	2.45	2.08	2.23	2.82	3.28	3.75	3.71	3.81	3.80	3.79	3.90	3.99	6.05	6.17	6.46	6.65	6.72	6.89	7.28	7.57	7.34	6.40	5.16	4.88	3.90	2.86	1.88	2.12	2.79	3.59	4.62	4.58	4.90	4.66	4.60	4.54	4.53	4.65	4.82	4.77	4.34	3.73	3.34	3.28	3.32	3.15	2.70	2.26	2.13	2.31	2.58	2.70	2.73	3.03	3.40	3.35	3.12	3.17	3.60	3.93	3.70	3.31	3.11	2.78	2.01	1.44	1.79	2.54	3.04	3.12	3.27	3.45	3.33	3.54	3.62	2.77	3.02	3.72	4.21	4.59	4.50	4.15	3.59	3.23	3.54	4.00	4.36	4.66	4.72	4.61	4.45	4.31	4.39	4.69	5.00	5.25	5.44	5.53	5.54	5.54	5.53	5.54	5.55	5.56	5.56	5.55	5.52	5.48	5.46	5.43	5.41	5.38	5.35	5.32	5.28	5.23	5.19	5.16	5.11	5.05	5.02	4.99	4.95	4.91	4.86	4.82	4.78	4.73	4.69	4.67	4.64	4.62	4.60	4.58	4.56	4.53	4.50	4.47	4.45	4.42	4.38	4.35	4.30	4.25	4.20	4.16	4.12	4.07	4.02	3.97	3.95	3.95	
4.21	4.21	4.21	4.20	4.18	4.17	4.15	4.13	4.11	4.08	4.06	4.02	4.00	3.97	3.94	3.91	3.89	3.85	3.80	3.75	3.66	3.57	3.48	3.38	3.26	3.09	2.66	2.03	1.88	2.36	2.95	3.22	3.86	3.92	3.95	3.94	3.95	3.97	3.96	3.96	4.18	6.59	6.53	6.69	7.14	7.52	7.28	6.81	5.99	5.42	4.57	3.90	2.95	2.35	2.62	3.48	4.10	4.44	4.58	4.49	4.41	4.38	4.35	4.41	4.51	4.54	4.34	3.91	3.65	3.69	3.81	3.68	3.15	2.53	2.37	2.62	2.81	2.75	2.54	2.68	3.10	3.58	3.20	2.96	3.23	3.67	3.69	3.34	2.94	2.60	2.29	1.85	2.01	2.74	3.05	3.09	3.31	3.51	3.46	3.58	3.46	2.95	3.11	3.65	4.04	4.32	4.38	4.20	3.91	3.70	3.72	3.90	4.11	4.26	4.36	4.39	4.39	4.44	4.53	4.66	4.84	5.00	5.13	5.23	5.27	5.29	5.31	5.33	5.34	5.33	5.33	5.33	5.31	5.28	5.25	5.22	5.20	5.18	5.16	5.15	5.13	5.10	5.06	5.03	5.00	4.95	4.89	4.87	4.84	4.80	4.77	4.74	4.71	4.68	4.64	4.62	4.61	4.58	4.56	4.54	4.51	4.49	4.45	4.42	4.41	4.38	4.35	4.32	4.28	4.24	4.19	4.16	4.14	4.10	4.05	4.01	3.99	3.99	
4.23	4.22	4.21	4.21	4.19	4.18	4.16	4.15	4.13	4.10	4.08	4.04	4.02	3.99	3.97	3.95	3.92	3.89	3.85	3.83	3.77	3.67	3.57	3.49	3.40	3.32	3.03	2.29	1.84	2.13	2.57	2.96	3.27	3.45	3.56	3.94	3.96	4.02	4.00	4.01	4.22	4.49	4.62	4.69	4.94	5.46	5.83	5.84	5.75	5.40	4.87	4.37	3.81	3.01	2.74	3.37	4.08	4.42	4.46	4.32	4.23	4.13	4.04	4.10	4.26	4.27	4.04	3.72	3.61	3.81	4.00	4.02	3.66	2.78	2.38	2.79	2.97	2.74	2.44	2.46	3.28	3.60	3.40	3.08	2.85	3.42	3.71	3.53	3.28	2.94	2.75	2.56	2.51	2.82	3.05	3.13	3.28	3.43	3.46	3.50	3.52	3.40	3.37	3.56	3.78	3.93	3.97	3.96	3.90	3.86	3.88	3.94	4.03	4.15	4.24	4.30	4.35	4.42	4.51	4.61	4.72	4.83	4.94	5.03	5.08	5.11	5.12	5.14	5.16	5.17	5.16	5.16	5.16	5.14	5.12	5.10	5.08	5.06	5.04	5.02	4.99	4.97	4.95	4.92	4.91	4.88	4.83	4.79	4.78	4.75	4.72	4.69	4.66	4.64	4.60	4.57	4.57	4.55	4.52	4.49	4.47	4.45	4.42	4.40	4.39	4.36	4.33	4.30	4.28	4.24	4.20	4.17	4.15	4.12	4.08	4.04	4.03	4.03	
4.24	4.23	4.22	4.21	4.21	4.19	4.18	4.16	4.14	4.12	4.09	4.07	4.04	4.02	3.99	3.97	3.95	3.91	3.90	3.89	3.85	3.79	3.69	3.60	3.56	3.55	3.45	2.71	1.91	2.02	2.40	2.73	3.14	3.40	3.48	3.48	3.50	3.55	3.57	3.62	4.23	4.41	4.52	4.67	4.91	5.31	5.53	5.51	5.43	5.20	4.73	4.41	4.14	3.58	3.05	3.30	4.05	4.56	4.59	4.40	4.22	3.89	3.59	3.43	3.71	4.03	3.72	3.50	3.70	4.00	4.17	4.25	4.17	3.39	2.61	3.11	3.72	3.89	3.72	3.47	3.49	3.69	3.84	3.70	3.37	3.50	3.73	3.68	3.50	3.24	3.06	2.96	2.92	2.99	3.12	3.21	3.33	3.43	3.44	3.44	3.52	3.57	3.54	3.58	3.69	3.80	3.86	3.88	3.88	3.88	3.91	3.96	4.03	4.09	4.17	4.25	4.31	4.37	4.45	4.55	4.62	4.70	4.79	4.86	4.92	4.94	4.97	5.00	5.01	5.03	5.03	5.01	5.01	5.02	5.00	4.99	4.97	4.96	4.96	4.95	4.93	4.90	4.88	4.85	4.82	4.80	4.77	4.72	4.71	4.70	4.67	4.64	4.61	4.60	4.57	4.53	4.52	4.52	4.49	4.47	4.46	4.44	4.41	4.39	4.38	4.36	4.33	4.30	4.28	4.25	4.21	4.19	4.16	4.14	4.10	4.07	4.06	4.06	
4.24	4.24	4.23	4.22	4.21	4.20	4.19	4.17	4.15	4.14	4.11	4.09	4.06	4.04	4.02	4.00	3.97	3.92	3.92	3.93	3.91	3.88	3.79	3.70	3.68	3.73	3.83	3.21	2.08	2.01	2.38	2.63	3.01	3.33	3.41	3.38	3.42	3.48	3.50	3.55	3.72	3.85	3.91	4.11	4.48	4.92	5.16	5.21	5.26	5.12	4.71	4.42	4.26	3.85	3.24	3.16	3.82	4.57	4.76	4.73	4.56	3.97	3.49	3.15	3.42	4.05	3.74	3.82	4.37	4.59	4.76	4.91	4.97	3.75	3.15	3.63	3.96	4.22	4.18	3.93	3.73	3.76	3.93	3.94	3.76	3.61	3.62	3.62	3.52	3.38	3.27	3.19	3.17	3.20	3.25	3.30	3.37	3.46	3.49	3.46	3.51	3.63	3.63	3.60	3.67	3.75	3.79	3.84	3.87	3.89	3.91	3.96	4.02	4.06	4.12	4.19	4.26	4.32	4.38	4.46	4.54	4.59	4.66	4.72	4.78	4.81	4.83	4.87	4.89	4.90	4.91	4.91	4.91	4.93	4.92	4.91	4.90	4.88	4.87	4.86	4.84	4.81	4.79	4.78	4.76	4.75	4.73	4.68	4.66	4.67	4.64	4.60	4.59	4.57	4.55	4.52	4.50	4.51	4.49	4.46	4.45	4.43	4.40	4.38	4.37	4.35	4.33	4.30	4.28	4.25	4.23	4.20	4.18	4.16	4.13	4.10	4.09	4.09	
4.25	4.24	4.23	4.23	4.22	4.21	4.20	4.18	4.17	4.15	4.13	4.11	4.09	4.07	4.04	4.02	3.99	3.96	3.93	3.93	3.96	3.94	3.86	3.80	3.79	3.85	4.09	3.67	2.48	2.19	2.48	2.66	2.93	3.22	3.32	3.32	3.37	3.45	3.50	3.52	3.61	3.70	3.71	3.87	4.19	4.53	4.76	4.91	5.01	4.98	4.75	4.55	4.53	4.23	3.62	3.29	3.69	4.43	4.72	4.97	5.21	4.93	4.48	4.27	4.44	4.68	4.45	4.30	4.53	4.71	4.84	4.94	4.95	4.76	4.31	3.94	3.88	3.96	4.00	3.96	3.84	3.78	3.80	3.85	3.83	3.76	3.71	3.67	3.60	3.52	3.44	3.38	3.36	3.37	3.39	3.41	3.43	3.48	3.55	3.52	3.51	3.62	3.69	3.64	3.66	3.74	3.77	3.80	3.84	3.88	3.90	3.93	3.99	4.03	4.08	4.14	4.20	4.26	4.32	4.38	4.44	4.50	4.56	4.61	4.66	4.71	4.74	4.76	4.79	4.81	4.81	4.83	4.84	4.85	4.85	4.83	4.83	4.82	4.80	4.80	4.79	4.76	4.74	4.73	4.73	4.71	4.69	4.66	4.63	4.64	4.63	4.60	4.58	4.57	4.54	4.52	4.51	4.50	4.49	4.45	4.44	4.43	4.40	4.38	4.37	4.36	4.33	4.31	4.29	4.26	4.24	4.22	4.20	4.18	4.15	4.13	4.12	4.12	
4.25	4.25	4.24	4.24	4.23	4.22	4.21	4.19	4.18	4.16	4.15	4.13	4.11	4.09	4.07	4.04	4.01	3.98	3.95	3.96	4.00	3.98	3.92	3.89	3.89	3.97	4.24	4.06	3.08	2.55	2.65	2.81	2.97	3.18	3.31	3.31	3.33	3.44	3.53	3.49	3.49	3.61	3.66	3.76	4.01	4.23	4.40	4.55	4.67	4.74	4.65	4.60	4.71	4.72	4.52	4.21	4.21	4.57	4.79	5.02	5.29	5.25	4.96	4.74	4.72	4.75	4.60	4.40	4.38	4.45	4.51	4.52	4.47	4.38	4.23	4.10	4.06	4.03	4.03	4.03	3.99	3.90	3.83	3.85	3.85	3.79	3.75	3.70	3.64	3.60	3.55	3.49	3.48	3.49	3.50	3.52	3.52	3.53	3.57	3.58	3.55	3.60	3.70	3.68	3.66	3.73	3.77	3.77	3.82	3.87	3.88	3.90	3.95	4.00	4.03	4.08	4.15	4.20	4.25	4.31	4.36	4.42	4.48	4.54	4.57	4.61	4.66	4.69	4.71	4.74	4.75	4.76	4.77	4.77	4.77	4.77	4.76	4.77	4.77	4.76	4.75	4.74	4.73	4.71	4.71	4.70	4.66	4.65	4.64	4.63	4.62	4.59	4.57	4.56	4.54	4.52	4.50	4.49	4.48	4.46	4.44	4.43	4.41	4.39	4.38	4.36	4.34	4.32	4.30	4.28	4.26	4.24	4.22	4.20	4.18	4.15	4.15	4.15	
4.26	4.25	4.25	4.25	4.24	4.23	4.22	4.21	4.20	4.18	4.17	4.15	4.13	4.11	4.09	4.07	4.04	4.00	3.96	3.99	4.04	4.01	3.96	3.95	3.95	4.02	4.28	4.33	3.73	3.03	2.91	3.08	3.14	3.26	3.40	3.37	3.39	3.48	3.54	3.49	3.42	3.54	3.62	3.69	3.88	4.03	4.15	4.27	4.39	4.51	4.51	4.50	4.60	4.68	4.71	4.62	4.54	4.61	4.72	4.84	4.93	4.84	4.69	4.54	4.46	4.47	4.46	4.41	4.40	4.40	4.40	4.39	4.35	4.30	4.24	4.16	4.11	4.09	4.04	4.04	4.07	4.01	3.91	3.88	3.91	3.89	3.84	3.79	3.72	3.69	3.68	3.61	3.57	3.57	3.58	3.58	3.59	3.60	3.61	3.62	3.60	3.62	3.69	3.70	3.67	3.71	3.76	3.76	3.79	3.83	3.85	3.87	3.90	3.95	3.99	4.03	4.09	4.14	4.20	4.24	4.29	4.34	4.39	4.45	4.49	4.52	4.57	4.60	4.62	4.65	4.67	4.68	4.70	4.72	4.73	4.74	4.74	4.74	4.75	4.74	4.72	4.71	4.70	4.68	4.69	4.69	4.66	4.64	4.63	4.62	4.60	4.58	4.57	4.55	4.53	4.53	4.51	4.50	4.49	4.47	4.45	4.44	4.43	4.40	4.39	4.38	4.36	4.33	4.32	4.30	4.27	4.26	4.24	4.22	4.20	4.18	4.16	4.16	
4.27	4.26	4.25	4.25	4.25	4.24	4.23	4.22	4.21	4.20	4.18	4.17	4.15	4.14	4.12	4.10	4.08	4.03	3.98	4.00	4.04	4.03	3.99	3.99	3.99	4.02	4.19	4.39	4.24	3.74	3.47	3.51	3.47	3.49	3.54	3.51	3.53	3.56	3.57	3.54	3.48	3.52	3.60	3.63	3.73	3.85	3.93	4.03	4.14	4.24	4.31	4.33	4.36	4.39	4.40	4.42	4.43	4.47	4.54	4.65	4.74	4.72	4.64	4.58	4.49	4.44	4.44	4.43	4.41	4.41	4.40	4.37	4.34	4.30	4.26	4.20	4.14	4.11	4.05	4.03	4.06	4.05	3.99	3.91	3.92	3.94	3.92	3.88	3.81	3.77	3.78	3.74	3.69	3.67	3.66	3.65	3.65	3.64	3.64	3.65	3.64	3.64	3.67	3.69	3.67	3.68	3.72	3.75	3.77	3.79	3.82	3.83	3.86	3.90	3.94	3.97	4.01	4.07	4.13	4.17	4.20	4.26	4.31	4.36	4.41	4.46	4.52	4.55	4.56	4.59	4.63	4.65	4.67	4.69	4.70	4.71	4.71	4.71	4.71	4.71	4.70	4.69	4.69	4.68	4.67	4.68	4.66	4.63	4.64	4.63	4.61	4.60	4.58	4.56	4.54	4.53	4.52	4.50	4.49	4.48	4.46	4.44	4.43	4.42	4.40	4.39	4.37	4.35	4.33	4.32	4.29	4.28	4.26	4.24	4.22	4.20	4.19	4.19	
4.27	4.27	4.26	4.25	4.25	4.24	4.23	4.22	4.21	4.20	4.19	4.18	4.16	4.15	4.13	4.12	4.09	4.06	4.01	4.00	4.02	4.03	4.01	4.00	4.01	4.03	4.12	4.35	4.46	4.21	3.89	3.78	3.68	3.64	3.63	3.60	3.62	3.63	3.61	3.60	3.57	3.56	3.60	3.62	3.66	3.76	3.82	3.91	4.01	4.08	4.18	4.24	4.29	4.34	4.35	4.37	4.40	4.42	4.47	4.54	4.64	4.68	4.64	4.58	4.51	4.43	4.43	4.46	4.44	4.42	4.43	4.40	4.36	4.32	4.28	4.23	4.18	4.14	4.08	4.04	4.04	4.04	4.02	3.94	3.90	3.92	3.92	3.91	3.85	3.81	3.81	3.79	3.75	3.74	3.71	3.69	3.69	3.67	3.67	3.66	3.65	3.65	3.65	3.68	3.67	3.68	3.70	3.73	3.75	3.77	3.81	3.83	3.84	3.87	3.91	3.94	3.98	4.03	4.08	4.14	4.17	4.21	4.27	4.33	4.38	4.43	4.49	4.54	4.56	4.58	4.61	4.64	4.66	4.67	4.67	4.67	4.68	4.69	4.70	4.70	4.71	4.70	4.70	4.70	4.68	4.67	4.67	4.63	4.64	4.65	4.63	4.62	4.60	4.58	4.56	4.54	4.54	4.51	4.49	4.48	4.46	4.44	4.43	4.42	4.40	4.39	4.37	4.35	4.33	4.32	4.30	4.29	4.28	4.26	4.24	4.22	4.20	4.20	
