ncols	178
nrows	225
xllcorner	1669333.329241
yllcorner	496308.452995
cellsize	90.000000
NODATA_value	nan
232	232	230	228	226	224	221	218	215	212	210	209	209	209	211	213	217	221	223	226	169	155	144	138	129	120	113	105	297	8	77	284	281	277	270	263	255	248	242	238	234	230	228	226	225	224	224	224	225	225	226	228	229	230	231	228	226	155	143	128	116	102	91	84	77	69	66	65	62	61	64	65	64	318	314	308	302	294	281	276	272	269	265	260	255	250	246	243	241	239	238	237	237	236	236	236	235	235	235	234	234	234	233	233	233	233	234	234	235	235	235	235	235	235	234	234	234	234	233	233	233	232	232	231	231	230	230	229	229	228	227	226	225	224	223	221	219	217	216	215	213	212	212	211	210	209	209	208	208	208	207	207	208	208	209	209	209	209	210	210	211	211	211	211	211	212	214	216	219	222	224	227	228	231	234	242	232	232	
232	232	230	228	226	224	221	218	215	212	210	209	209	209	211	213	217	221	223	226	169	155	144	138	129	120	113	105	297	8	77	284	281	277	270	263	255	248	242	238	234	230	228	226	225	224	224	224	225	225	226	228	229	230	231	228	226	155	143	128	116	102	91	84	77	69	66	65	62	61	64	65	64	318	314	308	302	294	281	276	272	269	265	260	255	250	246	243	241	239	238	237	237	236	236	236	235	235	235	234	234	234	233	233	233	233	234	234	235	235	235	235	235	235	234	234	234	234	233	233	233	232	232	231	231	230	230	229	229	228	227	226	225	224	223	221	219	217	216	215	213	212	212	211	210	209	209	208	208	208	207	207	208	208	209	209	209	209	210	210	211	211	211	211	211	212	214	216	219	222	224	227	228	231	234	242	232	232	
232	231	230	228	225	223	220	217	215	212	210	210	210	211	225	224	223	225	226	230	152	159	153	150	146	141	139	138	207	175	272	270	263	264	259	254	248	243	239	235	232	230	228	227	226	226	226	226	227	227	229	230	230	231	232	229	231	142	145	134	128	120	112	107	103	98	96	97	97	97	100	103	107	285	270	254	240	275	271	268	265	262	258	254	250	247	244	242	240	239	238	237	237	236	236	235	235	235	234	234	234	234	233	233	233	233	234	235	235	235	235	235	235	235	234	234	234	234	233	233	232	232	232	231	231	230	230	229	228	228	227	226	225	224	222	221	219	217	216	215	214	213	212	212	211	210	209	209	209	217	215	214	212	210	210	210	210	211	211	222	220	218	215	212	213	214	216	219	222	224	226	228	229	231	231	231	232	232	
231	230	228	226	224	221	219	216	214	212	211	214	213	230	230	246	253	255	231	238	167	168	162	159	155	153	152	206	186	171	252	246	237	245	243	240	237	235	233	231	230	228	228	228	228	228	228	229	230	231	232	233	233	233	232	231	240	150	153	145	141	135	130	127	126	125	124	125	126	125	126	129	132	219	210	207	201	259	257	255	253	250	247	244	242	241	240	239	238	237	237	237	236	236	235	235	235	234	234	234	234	233	233	233	233	234	235	235	235	235	235	234	234	234	234	234	234	233	233	232	232	231	231	231	230	230	229	228	228	227	226	225	224	223	221	220	218	216	216	215	214	214	213	213	212	211	226	224	222	220	218	235	236	236	235	234	233	231	229	226	240	241	242	240	238	237	237	236	236	235	229	230	230	231	230	231	232	232	
230	229	227	225	223	220	217	215	213	212	212	215	216	233	245	252	256	262	259	243	174	171	166	164	159	158	158	197	181	170	243	235	239	237	235	233	231	230	230	229	228	228	228	229	229	229	230	231	232	234	240	239	238	237	234	234	166	156	156	150	147	143	138	136	136	134	134	135	135	134	136	139	213	202	199	197	191	250	249	248	246	244	241	239	238	238	237	237	236	236	236	236	236	235	235	235	234	234	234	234	233	233	233	233	233	234	235	235	234	234	234	234	234	234	234	233	233	233	232	232	232	231	231	230	230	229	229	228	227	226	225	224	223	222	220	218	217	216	215	215	214	214	214	213	213	229	227	226	224	238	238	239	239	239	241	243	244	244	244	244	246	247	246	246	246	248	250	253	256	237	236	232	232	231	231	233	234	234	
229	228	226	224	221	219	216	214	212	212	213	215	235	236	250	256	261	265	264	173	178	172	169	165	162	161	161	191	178	240	236	226	234	232	230	228	227	227	227	227	227	227	228	229	229	230	231	233	234	235	241	240	239	238	235	238	142	163	158	155	151	147	143	142	142	140	140	141	140	140	142	143	201	195	193	191	246	245	244	243	242	240	237	236	236	235	235	235	235	235	235	235	235	235	235	234	234	234	233	233	233	233	233	233	233	234	235	234	234	234	234	234	234	234	233	233	233	232	232	232	231	231	230	230	229	229	228	227	227	226	225	224	223	221	219	217	216	215	215	215	214	214	214	214	213	229	228	227	240	240	241	242	242	243	245	246	247	247	247	248	249	250	249	248	249	252	254	258	260	261	236	237	233	235	231	235	236	236	
227	226	225	222	220	218	215	213	212	212	214	217	237	238	253	259	263	268	245	182	179	173	170	166	164	164	163	187	175	237	230	220	230	228	226	225	225	225	226	226	226	227	229	229	230	231	233	234	235	242	241	241	240	239	237	244	157	167	160	157	154	149	147	146	145	143	144	144	142	143	145	146	195	191	190	187	242	241	241	240	238	236	234	234	234	234	234	234	234	235	235	235	235	234	234	234	234	233	233	233	233	233	233	233	234	234	234	234	234	234	234	234	234	233	233	233	232	232	232	231	231	230	230	229	229	228	227	227	226	225	225	223	222	220	218	217	215	215	215	214	214	214	214	214	232	230	229	227	241	242	243	243	244	246	247	248	249	249	249	250	251	252	251	251	252	254	257	260	261	262	261	236	232	260	237	237	237	237	
226	225	223	221	219	216	214	212	212	213	217	219	238	250	257	262	266	272	178	185	177	174	171	167	165	165	198	183	173	234	225	230	227	226	224	223	223	223	224	225	226	227	229	229	230	232	234	235	236	242	242	241	241	238	238	247	164	168	162	159	155	150	149	149	147	146	147	146	145	145	147	199	191	189	188	185	238	238	238	237	235	233	232	232	232	232	233	233	234	234	234	234	234	234	234	234	233	233	233	233	233	233	233	233	234	234	234	234	234	234	234	234	233	233	233	233	232	232	231	231	230	230	229	229	228	228	227	226	226	225	224	222	221	219	217	216	215	214	215	214	214	214	214	213	232	230	229	227	242	243	244	244	245	247	249	249	250	250	251	252	253	253	253	252	253	256	259	262	263	263	262	236	232	232	240	238	238	238	
225	224	222	220	218	215	213	212	212	213	217	221	239	253	259	264	268	281	185	185	176	174	171	167	166	166	193	180	234	229	220	227	225	224	222	221	222	222	223	224	225	227	229	230	231	232	234	236	243	242	242	242	241	238	240	127	170	167	163	160	156	152	151	150	148	149	150	148	147	148	149	194	189	188	186	237	236	236	236	234	233	231	230	230	231	231	232	233	233	233	234	234	234	234	233	233	233	233	233	232	232	232	232	233	234	234	234	233	233	233	234	233	233	233	233	232	232	231	231	230	230	229	229	228	228	227	227	226	225	224	223	222	220	218	216	215	214	214	214	214	214	214	214	213	231	230	229	242	243	244	245	245	247	249	249	250	251	251	251	253	254	254	253	253	254	258	261	262	264	264	264	232	234	234	240	238	239	239	
224	223	221	219	216	214	212	211	212	214	218	239	240	256	262	266	272	250	188	182	176	174	171	168	167	166	189	177	232	225	215	225	223	222	220	220	221	222	223	224	225	227	229	230	231	233	235	236	243	243	242	242	241	238	244	157	175	167	165	161	156	153	153	151	150	150	150	148	148	150	150	191	187	186	184	235	234	234	234	232	230	229	229	229	230	231	231	232	232	233	233	234	233	233	233	233	233	232	232	232	232	232	232	233	234	234	233	233	233	233	233	233	233	233	232	232	231	231	230	230	230	229	229	228	228	227	227	226	225	224	222	221	219	218	216	214	214	214	214	214	214	215	214	233	231	230	229	243	244	245	245	246	248	249	250	251	251	251	252	254	255	254	252	252	255	259	262	263	263	264	266	232	233	232	234	237	239	239	
223	222	220	218	215	213	211	211	212	218	220	239	252	258	264	268	277	183	187	179	176	174	170	168	168	199	185	175	231	221	226	224	222	220	219	219	220	221	223	224	226	228	229	230	232	234	236	237	243	243	242	242	240	239	247	166	176	168	166	161	156	155	154	152	151	152	151	149	150	151	196	189	186	185	182	233	233	233	233	231	228	227	228	228	229	230	230	231	232	232	233	233	233	233	233	233	232	232	232	232	232	232	232	233	234	233	233	232	232	233	233	233	233	232	232	231	231	230	230	230	229	229	228	228	227	227	226	225	224	223	222	221	219	217	215	214	214	214	214	214	214	214	213	233	231	230	228	244	245	245	245	246	248	249	250	251	250	250	251	254	254	252	251	251	255	259	261	260	261	264	263	231	233	230	234	238	240	240	
221	221	219	216	214	212	210	210	212	217	222	240	254	260	266	270	278	188	184	177	175	173	169	168	168	194	182	173	227	217	224	223	221	219	218	219	220	221	222	224	226	228	229	231	233	235	237	244	243	243	243	242	239	239	304	173	175	169	166	161	157	156	155	152	152	153	151	150	151	152	192	187	186	184	232	231	232	232	231	229	227	227	227	228	228	229	230	231	231	232	233	233	233	232	232	232	232	232	232	232	232	232	232	233	233	233	232	232	232	232	233	233	232	232	231	231	230	230	230	229	229	229	228	228	227	226	226	225	224	223	222	220	218	216	214	213	213	214	214	214	214	214	212	232	230	229	243	244	245	245	245	246	248	249	250	250	248	247	250	253	251	249	248	249	254	258	258	258	264	231	253	235	235	232	217	242	242	242	
220	219	217	215	213	211	210	210	213	218	238	240	257	263	268	275	194	189	181	176	174	172	169	168	168	190	179	231	223	213	223	222	219	218	218	219	220	221	222	224	226	228	229	231	234	236	237	244	243	243	243	242	239	242	139	178	173	170	166	160	157	156	155	153	153	153	150	150	152	152	190	186	185	183	231	231	231	231	229	227	225	226	226	227	228	229	230	231	231	232	233	232	232	232	232	232	232	232	231	232	232	232	232	233	233	232	232	232	232	232	232	232	232	231	231	230	230	230	229	229	229	229	228	227	227	226	226	225	224	223	221	220	218	215	213	212	213	213	213	213	213	213	233	230	229	228	243	245	245	244	244	246	247	247	247	246	243	242	247	251	247	247	246	246	251	252	247	242	206	207	211	205	234	222	213	243	242	242	
219	218	216	214	211	210	209	210	214	219	238	251	259	265	269	284	188	187	178	175	174	171	169	169	200	186	176	230	219	224	222	221	218	217	217	218	220	221	223	225	227	228	230	232	234	236	244	244	244	243	243	242	240	246	164	182	173	170	166	160	158	157	154	153	154	153	151	151	152	195	188	185	184	181	230	231	231	230	228	225	224	225	225	227	228	229	230	231	231	232	233	232	232	232	232	232	232	232	231	232	232	232	233	233	233	232	232	231	231	232	232	232	232	231	230	230	230	229	229	229	229	228	228	227	227	226	226	225	224	222	221	219	217	214	213	212	212	213	213	212	212	211	231	229	227	227	243	244	242	240	240	243	242	242	245	242	236	235	236	229	235	237	238	239	237	229	226	221	209	207	209	206	208	220	213	243	242	242	
217	217	215	212	210	208	208	210	216	221	239	254	261	267	273	269	190	183	176	175	174	170	169	169	195	183	173	226	216	224	222	220	218	217	217	218	220	221	223	225	227	229	231	233	235	237	244	244	244	243	243	241	241	249	173	182	173	170	165	160	158	157	154	154	154	152	151	152	153	192	186	185	183	231	230	230	230	229	226	224	224	224	225	226	228	229	229	230	231	232	232	232	232	232	232	232	232	231	231	232	232	232	233	233	232	232	231	231	231	232	232	232	232	231	231	230	230	229	229	229	229	228	228	227	227	226	225	225	224	222	221	219	216	214	211	211	211	212	211	211	210	208	228	225	223	238	241	241	238	234	233	235	233	231	222	214	219	223	218	216	225	229	230	232	232	228	227	221	207	205	208	209	210	218	210	243	244	244	
216	215	213	211	209	207	207	210	216	236	248	256	264	269	279	190	189	178	175	174	173	169	169	169	191	180	230	222	212	222	221	219	217	217	217	219	220	222	224	226	227	229	231	234	236	237	244	244	244	244	243	240	241	305	179	181	174	169	164	160	158	157	155	155	154	152	151	153	152	189	185	184	182	230	230	230	229	228	225	223	223	224	225	227	228	229	229	230	231	232	232	232	232	232	232	231	231	231	231	231	232	233	233	233	232	232	232	232	232	232	233	232	232	231	231	230	230	229	229	229	229	228	228	227	227	226	226	225	224	222	221	219	216	213	210	209	209	209	208	207	207	227	223	221	219	231	232	231	227	223	223	223	219	213	207	208	217	224	224	226	233	236	236	240	240	235	228	221	209	206	210	212	212	212	210	214	220	220	
215	214	212	209	207	206	207	211	217	236	250	259	266	272	277	193	184	176	174	174	172	169	169	169	187	177	229	218	224	222	220	218	217	217	217	219	221	222	224	226	228	230	232	235	237	245	244	244	244	244	243	241	244	131	185	178	174	169	162	160	159	156	155	155	154	152	152	153	194	187	185	183	181	230	230	230	229	227	224	223	223	224	225	226	228	229	229	230	232	232	232	232	232	232	231	231	231	231	231	231	232	233	233	233	232	232	232	232	232	233	233	233	232	232	231	231	230	230	229	229	229	229	228	227	227	226	226	225	224	222	221	219	216	212	210	207	206	206	206	206	206	205	218	218	217	224	221	220	219	219	221	221	215	210	209	217	229	239	243	245	246	246	248	249	246	238	229	222	212	210	212	210	209	210	211	215	215	215	
213	212	210	207	205	205	207	214	218	235	252	262	268	276	198	191	179	174	174	173	170	169	169	196	183	174	225	215	223	222	220	218	217	217	218	219	221	223	225	227	228	231	233	236	237	245	245	245	244	244	244	242	248	170	188	177	173	167	161	160	159	156	155	156	153	152	153	152	191	186	184	182	231	230	230	230	228	225	223	222	223	224	225	226	228	229	229	230	231	232	231	231	231	231	231	231	231	231	231	232	233	234	234	233	232	232	232	232	232	233	233	233	232	232	231	231	230	230	230	229	229	229	228	228	227	226	226	225	224	223	221	219	216	213	210	208	207	208	209	209	209	208	206	221	220	218	220	221	218	218	222	222	216	211	218	234	244	248	248	246	247	250	251	248	239	232	228	221	212	213	212	208	208	209	212	213	218	218	
212	211	208	206	204	204	207	213	232	244	255	264	270	288	194	186	176	174	173	173	169	169	169	192	180	229	221	211	222	221	219	217	217	217	218	220	222	224	226	227	229	231	234	237	245	245	245	245	245	244	243	243	251	180	189	177	173	166	161	160	158	155	156	155	152	152	153	197	189	185	183	181	230	230	230	230	227	224	222	222	223	224	226	227	228	229	229	230	231	231	231	231	231	231	231	231	231	231	231	232	233	234	233	233	232	232	232	232	233	233	233	233	232	232	231	231	231	230	230	229	229	229	228	228	227	226	226	225	224	223	222	220	216	214	212	210	210	212	213	213	212	210	208	224	223	220	219	221	216	216	221	222	220	222	238	243	244	242	236	237	241	245	245	241	231	227	224	219	215	217	213	209	220	207	214	216	219	219	
211	209	207	204	203	203	206	212	230	246	258	266	274	296	194	181	174	173	173	171	169	169	169	187	176	228	217	223	221	220	218	217	217	217	219	220	222	225	226	228	230	232	235	238	246	245	245	245	245	244	242	244	254	186	187	178	171	164	161	160	157	155	156	154	152	152	153	194	187	185	182	180	230	231	231	229	226	223	222	222	223	224	226	227	228	229	230	231	232	231	231	231	231	231	231	231	231	231	231	233	234	234	233	233	232	232	232	232	233	233	233	233	232	232	232	231	231	230	230	230	229	229	228	228	227	227	226	225	225	224	222	220	218	215	214	212	210	211	213	214	213	210	208	223	224	223	223	222	218	220	224	227	231	240	243	241	239	233	230	233	237	238	235	231	225	223	221	220	221	222	215	222	219	208	215	217	215	215	
209	208	205	203	202	202	206	213	229	249	261	269	283	196	190	176	173	173	173	170	169	169	197	183	173	224	213	222	221	220	218	217	217	218	219	221	223	225	227	228	231	233	236	238	246	245	245	245	245	244	242	245	359	191	185	177	170	163	161	160	156	155	156	153	151	152	152	192	186	184	181	232	231	231	231	229	225	222	221	222	223	224	226	228	228	228	230	231	231	231	231	231	231	231	231	231	231	230	232	234	234	234	233	233	232	232	232	233	233	233	233	233	232	232	232	231	231	231	230	230	229	229	229	228	228	227	226	226	225	224	223	221	219	217	217	215	211	210	211	213	213	211	209	212	223	225	225	225	225	228	231	235	239	240	239	237	233	230	232	233	236	235	229	225	223	219	218	223	228	229	219	223	242	209	218	216	218	218	
207	206	203	201	201	202	208	223	236	253	265	273	308	196	183	174	172	172	172	169	168	169	192	179	228	220	210	221	220	219	218	217	217	218	219	221	224	226	227	229	232	235	238	246	246	246	246	246	245	245	243	249	182	196	183	176	168	162	160	158	155	155	155	151	151	152	199	189	185	183	180	232	231	232	231	228	224	221	221	222	223	225	227	228	228	229	230	231	231	231	231	231	231	231	231	231	230	230	232	235	234	233	233	233	232	232	232	233	233	233	233	233	232	232	232	232	231	231	230	230	230	229	229	228	228	227	227	226	225	224	223	222	221	220	219	217	214	211	211	213	215	213	211	213	216	226	226	228	231	232	238	237	236	234	232	233	233	234	236	235	237	234	228	225	223	219	222	231	235	235	220	223	242	213	220	216	215	215	
206	204	202	200	200	202	207	217	243	260	269	281	198	193	177	172	171	172	171	168	168	169	187	176	227	216	222	220	219	218	217	217	217	219	220	222	225	227	228	230	233	236	239	246	246	246	246	246	245	245	246	254	191	198	183	175	166	162	160	157	155	155	153	150	150	151	196	188	184	181	178	232	232	233	231	228	223	221	221	222	224	226	228	228	228	229	231	231	231	231	231	231	231	231	231	231	230	230	233	234	233	233	233	232	232	232	232	233	233	233	233	232	232	232	232	232	231	231	231	230	230	230	229	229	228	228	227	226	226	225	224	223	222	221	220	219	216	213	212	215	218	217	214	214	216	226	226	228	231	231	238	237	234	230	231	234	235	236	236	235	236	234	230	227	224	225	235	240	238	235	220	220	240	211	218	216	221	221	
204	202	200	198	199	204	210	224	254	267	275	256	197	186	173	170	171	171	170	168	168	197	183	173	223	212	221	220	218	217	217	218	218	219	221	224	226	228	229	232	235	238	247	247	247	247	247	247	246	244	246	256	197	197	183	173	164	161	159	155	154	153	150	148	149	148	193	186	183	179	235	233	233	234	232	227	223	220	221	223	224	226	228	229	229	230	231	231	231	231	231	231	231	231	231	231	230	231	233	234	234	233	234	233	232	232	233	233	233	233	233	232	232	232	232	232	231	231	231	230	230	230	229	229	228	228	227	227	226	226	225	224	223	222	221	220	218	215	214	216	220	220	217	216	218	220	228	229	230	226	229	230	230	229	233	237	238	239	238	235	234	234	232	229	231	240	245	240	236	233	218	247	240	211	219	221	218	218	
201	200	197	197	200	206	216	234	263	272	281	196	192	178	171	169	170	171	168	168	169	192	179	227	219	208	220	219	218	217	218	218	219	221	223	226	228	229	230	233	237	239	248	248	247	248	248	247	246	244	247	323	203	195	182	171	163	160	156	152	152	150	146	146	147	203	189	183	181	176	237	235	235	234	231	226	222	220	221	224	225	226	228	229	229	231	232	231	231	231	231	231	231	231	231	231	231	231	232	234	234	234	233	233	232	232	232	233	233	233	232	232	232	232	232	232	231	231	231	231	230	230	230	229	229	228	228	227	227	226	226	225	224	223	222	221	220	218	216	216	220	221	219	217	217	219	221	229	228	225	224	227	226	228	234	238	240	241	240	236	233	234	236	237	243	246	243	236	234	231	218	246	238	212	218	216	225	225	
199	197	194	195	201	210	221	242	270	277	306	194	185	173	169	169	170	170	167	168	169	187	175	226	215	221	220	219	218	218	219	220	221	223	225	228	229	230	232	235	238	249	249	249	248	249	249	248	247	246	254	264	209	194	180	167	161	158	154	152	150	142	135	135	134	200	185	177	177	244	241	240	238	235	231	226	221	220	222	224	225	226	228	230	230	230	231	231	231	230	230	231	231	232	232	231	231	231	232	234	235	234	233	233	232	232	232	232	232	232	232	232	232	232	232	232	232	231	231	231	230	230	230	229	229	228	228	228	227	227	226	225	225	224	223	222	221	220	218	217	219	221	220	217	216	219	222	229	227	226	227	228	230	232	236	238	238	238	235	231	231	237	242	245	247	247	244	239	233	225	218	245	235	214	215	221	225	225	
195	193	190	193	193	212	223	242	272	284	178	190	177	170	168	169	170	168	167	168	168	183	172	222	211	221	220	219	219	219	220	221	223	225	228	230	231	232	234	237	241	251	252	251	250	251	252	251	249	250	258	208	208	191	174	154	144	135	127	119	107	99	100	105	108	210	191	173	166	243	243	243	242	239	233	226	221	220	222	224	226	226	228	230	230	230	231	231	231	231	231	231	231	232	232	231	231	231	232	233	234	234	233	233	232	232	232	232	232	232	232	232	232	232	232	232	232	231	231	231	230	230	230	229	229	229	228	228	228	227	226	226	226	225	224	224	223	221	219	218	220	222	222	220	218	220	224	226	228	228	228	230	231	236	236	237	237	233	230	228	234	244	246	244	244	246	247	238	227	220	215	238	231	214	216	223	232	232	
192	189	187	192	197	213	226	241	275	308	185	182	171	168	168	169	170	168	167	168	193	179	226	218	208	220	220	220	219	220	221	223	226	228	231	233	234	236	237	239	243	252	254	253	253	256	258	257	254	252	254	308	281	281	306	353	7	12	47	55	49	58	76	88	94	217	207	199	196	189	239	239	240	239	234	226	221	221	223	225	226	227	228	231	230	230	231	231	231	231	231	231	232	232	232	231	231	231	231	232	233	233	232	232	232	232	232	232	232	232	232	232	232	232	232	232	232	231	231	231	231	230	230	230	229	229	229	228	228	227	227	227	226	226	225	224	224	223	221	219	221	224	225	223	221	222	225	228	228	229	229	230	230	234	234	236	236	230	230	233	240	244	244	240	241	245	245	228	219	214	238	230	240	226	218	233	232	232	
187	185	184	177	201	215	232	243	281	145	184	173	168	167	168	169	169	167	168	169	188	176	224	214	221	220	221	221	221	221	223	226	229	232	236	238	239	241	242	242	252	255	256	256	256	259	262	261	259	255	280	295	283	279	284	291	312	326	325	14	32	45	70	85	83	232	214	201	193	175	236	233	233	234	231	223	220	221	224	225	227	227	230	231	230	231	231	230	231	231	231	232	232	232	232	231	231	231	231	232	233	234	233	232	232	232	232	232	232	232	232	232	232	232	232	232	232	232	231	231	231	230	230	230	230	229	229	228	228	228	227	227	227	226	226	225	225	224	223	221	221	223	225	223	221	221	224	227	228	227	232	230	231	232	233	233	231	227	232	238	241	242	241	239	241	244	242	220	215	236	230	242	238	221	224	246	235	235	
181	181	183	178	203	218	238	248	309	178	177	168	166	167	168	169	167	167	169	198	184	174	219	210	220	220	221	221	222	224	227	230	233	236	240	241	243	245	245	245	252	251	250	250	274	281	259	258	257	256	265	155	295	270	266	258	254	353	318	323	2	17	37	55	56	54	244	219	188	167	237	232	231	231	228	219	217	221	223	225	226	228	230	231	230	231	231	231	231	231	231	232	232	232	231	231	232	232	232	233	234	234	233	233	233	232	232	232	232	232	232	232	232	232	232	232	232	232	231	231	231	231	230	230	230	229	229	229	229	228	228	228	227	227	227	226	226	225	224	222	221	221	222	221	219	220	222	225	226	226	232	231	233	234	234	231	232	235	240	243	243	243	240	238	242	244	241	220	237	230	244	242	237	209	240	249	234	234	
174	176	139	181	187	225	245	254	162	180	170	165	165	166	167	167	166	167	169	193	180	222	214	219	219	220	221	223	225	228	232	235	237	240	242	243	243	244	249	244	243	245	263	264	272	278	256	255	254	17	255	254	245	260	233	228	241	307	321	302	76	51	33	40	44	34	36	250	222	166	238	235	234	233	229	218	215	220	223	225	226	228	230	230	230	232	231	231	231	231	231	232	232	232	232	232	232	232	233	233	234	234	234	233	233	232	232	232	232	232	232	232	232	232	232	232	232	232	231	231	231	231	230	230	230	230	229	229	229	229	228	228	228	228	227	227	226	226	225	224	222	221	221	222	220	220	222	224	225	226	230	231	233	233	235	238	242	245	246	247	247	245	241	241	243	245	241	220	233	226	241	239	231	214	245	239	234	234	
168	170	180	166	207	235	252	330	182	175	166	163	163	165	165	164	164	168	170	189	180	220	212	219	219	221	223	225	227	230	233	235	237	239	241	242	248	244	241	238	263	262	258	273	268	252	252	251	13	250	37	119	251	251	185	204	233	249	131	130	126	101	73	44	26	14	32	243	225	169	238	238	239	237	232	222	215	219	223	226	227	228	230	229	230	232	231	230	231	231	232	232	232	232	232	232	233	232	232	233	233	234	234	234	233	232	232	232	232	232	233	233	232	232	232	232	232	232	232	231	231	231	231	230	230	230	230	229	229	229	229	228	228	228	228	227	227	227	226	225	224	223	224	225	224	223	224	225	226	226	227	232	234	234	235	237	242	243	246	248	246	245	245	245	245	244	237	220	229	241	239	235	227	216	240	249	252	252	
163	163	154	167	216	247	257	181	180	167	160	153	150	153	156	159	163	169	197	187	223	215	221	221	222	222	224	226	228	230	232	234	235	242	242	242	239	237	263	262	263	260	269	278	261	262	251	36	246	17	250	249	52	172	169	170	187	191	152	132	125	98	75	76	39	22	51	73	227	174	140	238	238	237	234	226	218	219	224	226	227	229	230	228	230	232	231	231	231	231	232	232	232	231	232	232	232	232	232	233	232	232	233	234	234	232	232	232	232	232	233	233	232	232	232	232	232	232	232	231	231	231	231	230	230	230	230	230	229	229	229	229	229	229	228	228	228	227	227	227	226	226	228	229	228	226	226	226	226	226	227	226	233	234	234	237	239	241	245	246	243	244	245	245	245	241	232	220	225	240	237	232	224	222	235	247	251	251	
158	157	159	171	230	244	316	177	146	136	114	87	123	149	164	170	174	204	194	225	220	220	221	222	223	223	224	226	228	231	234	235	242	240	238	272	269	260	256	255	270	270	273	284	254	255	253	249	246	248	247	248	360	8	55	144	170	179	169	131	85	53	67	91	101	105	104	80	237	204	140	235	235	234	233	228	221	220	224	227	228	230	230	229	232	233	231	231	231	231	232	232	232	232	232	232	232	232	233	233	232	232	233	234	234	233	232	232	232	233	233	233	233	232	232	232	232	232	232	232	231	231	231	231	230	230	230	230	230	229	229	229	229	229	229	229	228	228	228	228	228	228	229	229	228	227	225	225	226	227	228	227	227	230	233	237	241	241	243	242	240	243	244	242	239	234	226	219	224	218	236	229	221	224	234	247	253	253	
152	153	149	156	230	262	291	303	321	6	357	86	146	162	172	176	207	195	229	225	221	219	219	221	222	222	223	225	228	235	236	237	237	262	269	271	265	258	266	267	270	272	283	295	77	121	82	243	244	25	241	20	360	335	327	322	222	210	222	266	298	318	25	84	104	111	100	85	96	213	159	231	232	233	232	230	226	222	224	226	228	230	230	231	233	233	232	231	231	232	232	232	232	232	232	231	232	233	233	233	232	233	234	234	234	233	232	232	233	233	233	233	233	232	232	232	232	232	232	232	231	231	231	231	231	230	230	230	230	230	230	230	230	229	229	229	229	229	229	229	229	228	228	228	227	226	224	224	225	226	227	227	228	232	235	237	236	236	241	243	241	242	243	237	233	230	223	219	222	217	236	228	223	228	238	251	250	250	
148	148	150	161	214	251	291	300	143	128	148	163	169	171	171	173	198	185	225	222	220	218	217	219	220	221	223	226	229	234	233	255	255	258	264	264	269	267	265	267	271	278	299	253	94	88	237	235	15	237	36	43	358	324	335	338	214	246	245	256	266	283	300	76	88	72	63	95	119	214	189	144	228	231	232	232	230	225	223	225	227	229	230	231	233	233	231	231	232	232	232	232	232	232	231	231	233	233	232	232	233	233	234	234	234	233	232	232	233	233	233	233	233	233	232	232	232	232	232	232	232	231	231	231	231	230	230	230	230	230	230	230	230	230	229	229	229	229	229	229	229	229	228	228	228	227	226	225	225	225	226	226	226	228	237	238	237	237	243	244	239	239	238	229	228	228	220	221	218	241	236	228	213	235	238	241	241	241	
144	144	155	170	204	253	284	175	163	158	165	172	174	175	172	205	191	224	218	217	215	214	214	216	218	220	223	228	230	246	249	251	254	278	288	278	268	268	264	265	271	285	288	256	255	247	237	41	37	42	44	31	353	0	10	345	256	243	207	193	200	240	238	182	113	80	68	97	117	115	204	176	227	229	230	231	231	227	223	225	227	229	231	231	232	233	231	231	232	232	232	232	232	232	232	233	233	233	232	233	233	233	233	234	234	234	233	232	233	233	233	233	233	233	233	232	232	232	232	232	232	231	231	231	231	231	230	230	231	231	231	230	230	230	230	230	230	230	230	229	229	229	229	229	229	229	228	227	227	226	226	226	225	227	236	239	241	242	246	245	240	238	236	226	226	227	219	219	215	239	235	226	226	238	231	243	244	244	
142	143	155	141	177	246	249	176	158	158	161	167	171	172	172	199	188	221	216	214	211	211	213	214	216	218	221	223	240	243	243	260	270	283	289	276	268	268	266	267	274	292	268	268	246	240	238	56	63	70	63	58	71	97	92	86	126	162	173	187	247	252	225	182	140	106	97	109	118	115	205	197	209	228	230	230	231	229	225	226	228	230	232	231	232	233	232	231	232	231	232	232	232	232	233	234	233	233	233	233	233	233	233	233	233	233	233	233	233	233	233	233	233	233	233	233	232	232	232	232	232	232	231	231	231	231	231	231	231	231	231	230	230	230	230	230	230	230	230	230	230	230	230	230	230	230	230	230	229	228	228	227	226	229	232	239	243	244	244	243	239	239	235	223	224	227	220	218	241	238	234	227	222	230	234	250	254	254	
141	141	151	130	159	245	222	191	165	163	166	168	169	166	203	194	184	214	212	210	208	209	212	214	216	217	218	238	240	242	259	266	275	286	290	275	268	269	267	268	276	290	252	69	64	57	77	78	69	64	71	98	111	108	112	130	137	144	152	165	239	223	200	183	160	127	112	122	122	113	207	197	193	193	230	231	231	230	227	227	229	232	233	232	232	233	232	232	232	232	233	233	232	232	233	234	233	233	232	232	233	233	233	233	233	233	233	233	233	233	233	233	233	233	233	233	232	232	232	232	232	232	231	231	231	231	231	231	231	231	231	231	231	231	230	230	230	231	231	230	231	231	231	231	230	230	231	231	230	229	228	226	225	229	232	241	246	247	246	243	240	238	231	221	219	225	222	218	240	237	235	229	219	233	240	250	254	254	
141	140	145	118	147	245	206	191	178	167	166	169	167	163	197	189	218	212	209	206	205	208	210	213	215	218	219	239	239	255	262	269	278	291	291	271	268	270	269	270	280	285	75	95	78	76	92	86	77	67	70	92	92	74	86	120	137	142	143	145	154	167	173	172	163	142	124	127	119	105	97	197	180	178	205	230	232	231	228	227	230	233	235	234	233	233	233	233	233	233	233	233	232	233	233	233	233	233	233	233	233	233	233	233	233	233	233	233	233	233	233	233	233	233	233	233	232	232	232	232	232	232	232	231	231	231	231	231	231	231	231	231	231	231	231	231	231	231	231	231	231	231	231	231	231	231	231	230	230	229	228	226	225	228	230	235	247	250	250	246	243	237	227	221	214	220	223	218	238	235	234	227	222	240	242	252	256	256	
142	141	138	130	133	247	207	194	185	173	170	172	170	164	193	183	214	210	207	204	204	207	210	212	216	218	240	240	237	255	263	271	278	285	282	270	271	274	272	273	288	23	122	108	94	92	93	84	70	65	78	89	88	81	88	116	130	131	136	145	152	164	168	165	161	147	131	130	111	91	85	218	202	200	216	217	230	230	230	229	230	234	237	236	234	234	234	233	233	233	232	232	232	232	233	233	233	233	233	233	234	234	233	233	233	233	234	234	233	233	233	233	233	233	233	233	232	232	232	232	232	232	232	232	232	231	231	231	231	231	231	231	231	231	231	231	231	231	231	231	231	231	231	231	231	231	231	230	230	229	228	226	226	228	230	233	246	247	246	244	242	234	225	221	213	218	223	222	238	234	234	228	232	237	246	253	256	256	
144	142	136	121	123	250	248	201	190	181	179	178	177	172	193	216	211	208	205	203	202	205	209	212	216	219	240	237	252	257	265	272	275	278	274	269	274	276	276	278	300	114	129	112	99	86	79	82	79	85	94	98	109	115	120	127	131	131	135	135	136	176	177	168	164	162	159	180	200	113	89	78	217	220	228	224	224	229	229	228	228	231	235	238	236	235	235	234	233	233	233	233	233	233	233	234	234	233	233	233	234	234	233	233	233	233	234	234	234	233	233	233	233	233	233	233	233	232	232	232	232	232	232	232	232	232	231	231	232	231	231	231	231	231	231	232	231	231	231	231	231	231	231	231	231	231	231	231	230	230	228	225	225	228	230	233	243	242	240	239	239	226	221	219	216	219	222	223	244	239	234	226	235	241	248	254	255	255	
147	145	138	126	136	242	251	206	192	187	185	188	182	204	193	215	211	207	203	201	201	204	208	211	215	239	238	250	253	259	266	272	273	275	273	271	275	277	277	283	328	130	114	97	89	80	82	99	109	115	111	115	123	123	111	111	122	126	123	114	142	174	182	175	168	176	191	212	209	169	116	87	69	226	233	229	225	229	227	225	225	228	233	237	238	236	235	235	234	233	233	233	233	233	234	234	233	233	233	233	234	233	233	233	233	233	233	234	234	233	233	233	233	233	233	233	233	233	232	232	232	232	232	232	232	232	232	232	232	232	232	232	232	232	232	232	231	231	231	232	232	232	232	232	232	232	231	231	231	231	230	226	224	227	230	234	240	240	238	234	233	232	230	230	229	220	220	219	242	236	227	237	241	244	250	257	253	253	
152	149	143	145	150	165	253	211	198	193	189	185	182	199	220	215	211	206	201	200	202	205	210	212	216	236	234	250	253	260	264	268	269	270	269	268	276	283	280	287	19	160	114	95	95	94	111	123	123	119	117	119	114	94	90	115	122	123	121	123	144	168	179	177	167	166	184	195	185	179	148	96	49	30	232	230	222	200	228	227	227	229	233	237	239	238	236	235	233	233	233	233	233	233	233	234	233	233	233	234	234	233	233	234	233	233	233	233	233	233	233	233	233	233	233	233	233	233	232	232	232	232	232	232	232	232	232	232	232	232	232	232	232	232	232	232	232	232	232	232	232	232	232	232	232	232	232	232	232	231	230	228	226	229	233	236	239	239	237	232	231	228	228	227	227	229	228	242	239	225	234	238	242	246	250	254	255	255	
158	155	150	152	146	152	254	215	203	197	194	187	207	194	218	213	209	204	201	200	202	207	213	215	218	236	249	250	254	259	260	261	263	265	266	269	281	297	296	314	141	155	131	117	113	114	125	128	118	115	122	117	101	78	63	83	117	129	132	134	146	163	174	178	182	193	225	211	189	179	168	120	56	42	55	226	226	226	223	228	229	230	233	236	238	240	239	236	233	232	232	233	233	233	233	233	233	233	233	234	234	234	234	234	233	233	233	234	233	233	233	233	233	233	233	233	233	233	232	232	232	232	232	232	232	232	232	232	232	232	232	232	232	232	232	232	232	232	232	232	232	232	232	232	232	232	232	232	232	232	232	232	232	235	239	240	242	247	239	235	232	226	225	224	225	227	241	238	228	234	235	238	244	246	249	258	256	256	
163	161	156	150	138	142	256	218	205	203	192	216	202	222	217	213	209	205	202	202	204	208	213	217	238	236	253	252	255	260	258	258	261	266	268	274	298	355	118	181	167	154	144	136	131	130	131	124	112	125	128	107	85	71	54	85	122	129	125	131	147	158	168	177	193	200	220	221	228	226	211	199	86	59	60	228	228	231	232	239	227	228	230	233	235	238	239	237	234	232	232	233	233	234	234	234	234	234	234	234	235	234	234	234	234	233	233	234	234	233	233	233	233	233	233	233	233	233	233	232	232	232	232	232	232	232	232	232	232	232	232	232	232	232	232	232	232	232	232	232	232	232	232	232	232	232	232	232	232	232	233	234	236	239	241	242	244	249	250	237	233	227	222	220	225	226	241	226	235	236	250	243	244	246	257	255	253	253	
169	167	161	151	131	133	255	225	214	204	195	208	225	221	217	213	209	206	204	204	207	211	216	220	240	238	255	254	257	259	257	257	262	266	269	286	55	141	170	178	180	166	151	145	142	140	133	118	118	130	122	84	91	98	101	124	136	135	130	133	143	150	162	176	182	185	202	218	225	218	205	208	223	252	313	338	232	235	231	227	254	225	227	228	229	232	234	235	232	232	233	234	234	234	234	234	235	234	234	234	235	234	234	234	234	234	234	234	234	233	233	233	233	233	233	233	233	233	233	233	233	232	232	232	232	232	232	232	232	232	232	232	232	232	232	232	232	232	232	233	233	233	232	232	232	232	233	233	233	233	234	235	236	239	239	240	245	249	250	248	230	230	220	240	226	227	229	242	237	239	238	244	244	253	251	250	247	247	
175	173	167	155	129	131	255	225	213	207	222	205	224	220	217	213	209	207	207	206	209	214	218	241	242	256	257	256	257	258	257	257	260	264	273	313	158	168	180	180	185	184	171	150	149	144	132	121	128	130	120	116	130	130	127	132	138	137	134	135	141	149	151	159	173	184	194	201	207	201	193	186	195	209	210	268	286	11	229	231	250	259	247	226	227	227	228	229	228	230	233	233	233	233	233	234	234	234	234	235	235	235	234	234	234	234	234	234	233	233	233	233	233	233	233	233	233	233	233	233	233	233	232	232	232	232	232	232	232	232	232	232	232	232	232	232	232	232	233	233	233	233	233	232	232	233	233	233	233	234	235	236	237	238	238	239	245	251	251	247	243	244	220	237	236	236	245	237	240	239	251	251	248	243	243	245	242	242	
181	180	174	162	138	145	254	233	212	229	217	229	223	220	216	213	211	209	209	209	211	215	219	237	254	258	257	258	258	259	260	261	261	261	268	172	180	176	186	186	180	186	192	179	154	145	131	127	135	137	136	142	144	141	137	137	138	137	135	134	133	140	152	154	157	169	180	190	208	214	215	210	199	190	186	233	196	146	31	225	235	244	239	230	229	229	229	228	225	227	231	232	233	233	234	234	234	235	235	235	235	235	235	235	235	235	234	234	233	233	233	233	233	233	233	233	233	233	233	233	233	233	232	232	232	232	232	232	232	232	232	232	232	233	233	233	233	233	233	233	233	233	233	232	233	233	233	233	234	235	235	236	237	238	237	238	245	250	250	246	244	244	241	235	233	244	233	236	239	247	248	245	242	241	243	247	244	244	
187	187	182	171	152	159	249	247	238	223	209	227	221	218	216	214	212	211	211	212	213	215	235	236	255	257	259	258	257	259	260	263	265	265	205	197	186	173	177	187	184	181	211	212	171	148	138	134	137	141	146	144	142	141	138	140	142	140	135	126	126	139	155	169	168	160	163	170	189	206	209	207	204	209	230	242	239	215	179	277	225	232	234	215	232	232	232	229	227	226	229	233	235	236	236	236	236	237	237	236	235	235	236	235	235	235	234	233	233	233	233	233	233	233	232	232	233	233	233	233	233	233	233	232	233	233	232	232	232	233	232	232	233	233	233	233	233	233	233	233	233	233	233	233	233	233	233	234	234	235	236	236	237	238	238	240	247	251	249	246	244	243	239	234	232	244	245	246	247	246	243	239	240	244	248	253	254	254	
193	193	189	180	166	162	244	249	237	214	232	225	221	218	215	214	213	213	213	213	213	214	232	251	257	257	258	256	255	255	258	260	264	269	191	190	181	174	170	179	220	181	201	210	206	161	147	154	156	157	157	156	157	151	147	144	143	138	133	128	141	152	163	172	177	180	176	166	165	165	176	186	187	194	215	221	216	203	187	191	212	223	229	231	224	231	230	228	227	226	226	232	237	238	238	238	239	238	237	236	236	236	236	235	235	235	234	233	233	233	233	233	233	232	232	231	231	232	232	232	232	232	232	232	233	233	233	233	233	233	233	233	232	232	232	233	233	233	233	233	233	233	233	233	233	233	234	234	234	235	236	236	237	238	238	242	248	251	250	248	244	241	237	234	233	240	240	241	242	241	238	239	244	248	251	254	253	253	
198	198	195	188	182	160	190	250	231	233	229	225	222	218	215	215	215	216	217	217	214	213	229	249	255	259	256	254	253	253	254	257	260	192	189	179	163	152	131	121	139	165	192	242	208	198	189	171	169	165	165	166	166	170	173	169	160	151	149	159	163	155	155	163	172	182	186	184	186	207	181	171	170	166	174	187	193	188	172	156	155	179	218	220	219	209	228	228	228	227	226	230	235	238	240	240	240	240	239	238	237	237	236	235	235	235	234	233	234	233	233	233	232	232	232	232	232	232	232	232	232	232	232	232	232	232	232	232	232	232	232	232	232	232	232	232	233	233	233	233	233	233	233	233	233	233	233	234	234	235	236	236	237	237	238	241	245	247	247	245	241	238	235	234	234	234	239	239	239	237	236	240	244	245	248	252	249	249	
202	203	200	196	190	158	192	250	226	230	227	224	221	218	216	217	218	221	224	224	220	238	230	245	249	255	254	251	251	251	251	251	243	201	189	177	157	140	129	116	228	118	133	185	239	240	238	236	230	224	217	214	176	177	181	181	178	179	180	181	179	174	170	174	175	179	184	182	208	209	208	205	183	174	175	176	169	174	171	157	147	148	156	210	209	204	226	229	230	229	228	232	236	238	240	240	240	240	240	240	240	238	237	236	236	235	234	234	234	233	233	233	233	233	233	232	232	233	232	232	232	232	232	232	232	232	232	232	232	232	232	232	232	232	232	232	232	232	232	232	232	233	233	233	233	233	233	234	234	235	236	237	237	237	238	240	242	244	244	241	238	237	237	236	235	235	236	236	237	235	233	236	234	236	241	247	247	247	
206	207	206	204	195	163	210	250	242	231	228	224	221	220	218	220	222	226	232	233	230	248	235	243	244	251	255	252	249	247	246	242	239	199	186	177	158	149	141	133	128	130	133	144	173	235	233	231	227	222	219	217	214	235	235	199	179	185	184	184	184	185	219	217	215	214	214	212	207	207	205	203	201	195	192	232	194	184	171	164	154	152	157	206	207	204	198	229	229	229	230	235	238	240	240	241	242	242	241	241	241	240	238	237	236	236	235	234	234	233	233	233	234	233	232	231	232	233	232	232	232	232	232	233	233	232	232	232	232	232	232	232	233	233	233	233	233	233	232	232	233	233	233	232	232	233	233	234	235	236	236	236	236	237	238	239	241	243	243	241	240	240	240	239	238	238	239	234	236	233	231	233	236	240	240	248	247	247	
210	211	210	209	201	169	215	250	242	231	228	224	222	221	221	222	225	231	237	239	240	264	248	246	243	248	253	251	246	244	244	243	234	191	179	156	152	148	150	156	170	198	193	182	176	230	226	225	224	240	240	240	239	237	238	240	196	188	236	184	182	182	220	220	218	214	213	211	207	205	203	200	198	195	189	186	235	234	183	172	162	160	161	205	206	209	206	229	229	229	231	235	239	241	241	243	245	247	246	245	244	243	241	239	237	236	235	234	234	233	233	234	234	233	232	231	231	232	232	232	232	232	233	233	233	233	232	232	232	232	232	233	233	233	233	233	233	233	233	232	233	233	232	232	233	234	234	235	236	236	236	236	236	236	237	239	240	241	241	242	244	244	244	242	241	243	243	243	236	233	232	235	238	242	248	253	252	252	
213	213	213	213	207	178	215	250	242	231	228	225	223	222	221	223	226	232	258	266	272	280	268	246	247	233	235	235	239	239	245	244	245	188	163	155	153	169	173	175	200	192	193	233	228	225	222	221	219	241	240	240	240	239	240	241	241	241	235	240	184	179	220	220	217	213	209	209	206	204	202	199	197	193	190	186	236	236	233	229	223	219	163	231	231	207	204	229	228	230	234	236	238	240	241	242	245	246	247	247	248	247	243	239	237	236	235	234	234	233	234	234	233	232	232	232	232	232	232	231	232	232	232	232	232	232	232	232	232	232	233	233	233	232	232	233	233	232	232	232	233	233	233	233	233	234	234	235	235	235	235	235	235	236	237	238	239	239	240	242	244	245	246	244	243	245	246	246	247	246	237	238	239	242	248	254	252	252	
215	216	216	216	213	194	223	248	241	232	228	226	224	223	223	225	228	249	254	255	257	304	274	272	253	238	239	238	239	242	242	245	242	190	186	182	182	177	181	210	197	188	183	231	225	223	221	221	162	213	239	240	240	240	240	242	186	186	237	235	184	172	161	216	219	217	214	211	208	205	202	198	194	190	187	239	237	235	234	231	227	236	236	237	240	240	235	229	227	230	234	236	238	239	239	240	242	243	243	244	247	248	243	238	236	235	234	234	234	233	233	233	233	232	232	233	233	232	231	231	232	232	232	232	232	232	232	233	233	232	232	233	232	232	232	233	233	232	232	233	233	233	233	233	234	234	234	234	234	235	235	235	235	236	237	238	238	239	240	241	242	244	246	245	244	245	246	247	247	246	245	237	239	243	249	257	252	252	
217	217	218	218	217	207	227	245	241	233	229	227	225	225	226	229	233	249	250	274	289	243	242	295	263	240	241	239	240	243	242	244	247	198	189	190	183	182	211	201	195	190	232	225	223	238	242	243	242	238	237	238	239	239	242	184	182	178	173	174	157	115	119	215	215	216	214	211	208	246	244	242	240	240	161	159	237	234	232	238	240	239	240	221	247	252	250	265	261	259	256	235	235	236	236	238	239	240	241	242	245	247	242	238	237	236	235	235	234	233	233	233	233	232	232	233	233	233	231	231	231	232	232	232	232	232	233	233	233	232	232	233	232	232	233	233	232	232	233	233	233	233	233	233	233	234	234	234	234	235	235	235	235	236	237	237	237	238	239	240	240	242	244	245	244	245	246	247	247	246	245	244	241	245	251	257	255	255	
218	218	218	218	218	213	226	242	240	233	229	227	226	227	229	232	243	244	267	277	293	241	240	239	275	240	240	240	241	245	244	246	250	221	208	193	229	216	207	197	234	234	229	221	222	157	142	145	154	235	235	236	237	241	180	175	169	132	102	81	63	49	106	113	109	94	100	136	199	202	246	245	244	245	244	240	236	232	236	168	170	157	244	237	239	254	256	259	263	261	260	262	236	235	237	237	238	239	241	243	246	247	242	238	238	237	235	235	234	233	233	234	233	232	232	232	232	232	232	232	232	231	231	232	232	232	233	233	232	232	233	233	233	233	233	232	232	233	233	233	233	233	233	233	233	233	234	234	235	235	235	235	235	235	236	237	237	237	238	238	239	241	242	242	242	244	247	248	248	247	245	243	243	247	251	255	255	255	
218	219	218	218	217	213	220	235	237	233	229	227	227	229	232	242	242	261	267	286	242	239	237	237	304	239	239	239	241	243	245	249	252	215	201	229	220	214	236	235	235	234	226	220	123	103	122	217	233	232	232	233	238	170	164	124	98	57	235	235	238	348	20	42	236	17	72	113	118	117	120	119	130	144	243	240	236	234	237	169	168	297	231	235	292	247	251	258	262	261	259	259	263	237	238	237	237	238	242	246	249	248	243	238	237	237	236	235	234	233	234	234	233	232	232	232	232	232	232	232	232	232	231	231	232	232	233	233	233	233	233	233	233	233	233	233	233	233	233	233	232	233	233	232	233	233	234	234	235	235	235	235	235	235	236	236	237	237	238	238	239	240	240	240	240	242	246	249	249	247	244	243	243	250	252	254	253	253	
219	218	218	217	215	211	212	227	234	233	230	228	227	228	238	240	261	260	271	301	244	240	236	236	238	279	237	240	243	245	248	252	253	250	234	220	240	239	239	239	237	232	227	235	238	238	237	234	233	233	232	235	139	131	113	76	236	235	237	239	243	358	5	237	18	37	92	115	119	132	119	110	112	124	137	236	233	234	238	161	235	227	230	235	285	291	302	255	260	264	261	256	256	258	265	235	235	237	241	245	248	248	245	240	238	237	236	235	234	233	233	233	232	232	232	232	232	232	232	232	232	232	231	231	232	232	232	233	233	233	233	233	232	232	233	233	233	233	233	232	232	233	233	233	234	234	234	234	235	235	234	235	235	235	236	237	237	237	237	238	238	239	238	239	239	241	245	247	246	244	244	243	244	249	250	252	251	251	
218	218	217	215	213	209	206	219	232	236	230	229	228	239	237	259	262	263	272	263	244	239	236	237	237	295	234	240	244	248	251	254	249	240	226	241	240	240	240	238	235	232	236	237	241	243	241	239	237	235	236	145	157	138	116	42	232	234	237	239	245	11	19	50	45	52	71	71	80	98	102	106	118	129	143	150	150	143	138	313	228	228	230	237	240	285	293	302	254	259	263	259	257	254	252	264	272	276	240	244	246	244	242	241	239	237	235	234	233	233	233	233	232	232	232	232	232	232	232	232	232	232	232	232	232	232	232	232	232	233	233	232	232	232	233	233	233	233	233	233	233	233	233	233	234	234	234	234	234	234	234	235	234	235	236	236	237	237	237	237	238	238	238	238	238	240	243	244	242	241	242	242	244	246	247	251	249	249	
218	217	216	214	211	206	200	211	228	231	229	245	244	254	256	259	261	262	267	258	241	236	235	236	236	302	277	238	244	249	252	254	238	249	245	242	240	240	239	237	236	236	236	237	240	242	241	240	241	242	242	242	242	125	238	235	233	233	234	237	358	11	6	22	45	61	66	61	68	64	71	109	123	136	234	231	230	144	307	228	230	231	236	238	287	289	294	298	306	323	255	256	255	254	252	260	269	271	276	246	246	241	238	237	238	236	233	232	232	232	233	233	231	231	231	231	231	231	231	231	232	232	232	233	232	232	232	232	232	232	232	232	232	232	233	233	232	232	233	233	233	233	233	233	233	233	234	234	234	234	234	234	234	234	235	236	236	237	237	237	237	237	238	239	238	239	241	242	241	240	242	243	245	246	245	250	250	250	
217	216	214	212	208	202	193	202	225	230	246	243	255	256	260	262	264	269	272	255	241	236	235	235	234	297	279	239	245	249	252	238	231	246	243	242	240	238	238	238	238	238	238	238	239	240	240	241	243	244	242	241	242	241	238	236	236	235	234	238	352	358	358	19	37	60	78	82	79	73	95	126	235	233	232	230	230	30	227	230	232	236	236	239	242	292	304	320	334	338	323	312	310	305	247	255	262	264	266	266	247	245	240	238	238	236	234	233	231	230	231	231	231	230	231	231	231	231	231	231	231	232	232	232	231	231	232	233	232	232	232	232	232	232	233	233	232	232	232	233	233	233	233	233	233	233	234	234	234	234	234	234	234	235	235	236	236	236	236	236	237	237	238	239	239	239	240	241	241	241	243	245	246	247	249	250	250	250	
215	214	212	210	206	199	188	195	224	247	245	243	257	258	261	266	269	272	278	246	242	236	235	235	234	292	234	242	247	251	252	250	247	244	243	241	239	237	237	238	239	239	239	238	237	238	242	243	119	35	236	239	241	239	237	236	236	235	236	239	336	241	356	19	26	52	86	95	91	95	111	129	231	230	231	230	127	228	231	233	234	235	235	237	276	291	302	327	345	343	341	335	317	306	300	246	252	253	257	254	250	239	239	240	240	237	236	235	232	230	230	231	230	230	231	230	230	230	231	231	231	231	231	231	231	231	232	233	232	232	232	232	232	232	232	232	232	232	232	233	233	233	233	233	233	233	234	234	234	234	234	234	234	235	236	236	236	236	235	236	237	237	238	238	239	239	240	241	241	242	245	247	246	247	252	256	250	250	
214	213	211	207	203	196	184	188	228	243	244	256	260	261	263	265	268	271	284	246	241	236	235	235	233	297	283	242	248	253	254	251	248	245	243	242	240	239	239	239	239	239	241	239	237	240	121	84	236	234	234	236	237	238	238	237	236	235	236	239	264	350	359	281	358	35	82	86	89	108	123	231	228	228	231	127	227	228	232	235	235	236	236	238	278	299	303	325	349	350	347	330	309	296	289	290	306	241	245	247	238	231	231	231	235	235	235	235	235	232	232	231	229	229	230	230	230	230	230	231	231	231	231	231	231	231	232	232	232	232	233	233	232	233	233	233	233	232	232	232	233	233	233	233	233	233	234	234	234	234	234	234	234	235	235	236	236	236	236	236	237	237	237	238	238	239	240	241	243	244	246	247	247	248	253	257	248	248	
212	211	209	205	200	193	182	185	216	240	243	256	261	264	266	268	271	273	294	246	240	235	234	232	232	305	237	242	248	255	256	252	249	246	243	242	241	241	241	241	241	241	242	241	240	113	92	236	232	234	235	234	235	236	238	239	239	238	238	267	357	351	260	347	11	80	93	76	91	117	230	227	226	227	127	226	224	227	231	233	234	235	264	271	298	307	313	334	354	6	2	329	306	291	287	282	292	329	312	235	229	218	210	216	225	227	227	227	230	232	232	231	229	227	228	230	230	230	230	231	231	231	231	231	231	231	232	232	232	232	233	233	233	232	233	233	233	232	232	232	233	233	233	233	233	233	234	234	234	233	233	234	234	235	235	235	235	235	236	236	237	237	237	237	238	239	240	242	244	244	246	247	248	250	255	257	257	257	
211	210	207	203	198	190	181	182	212	237	256	257	262	265	266	271	274	277	293	245	238	233	231	305	234	236	282	239	247	69	255	252	248	245	245	246	244	242	240	239	241	242	82	241	243	246	242	236	233	234	234	234	234	236	238	239	238	238	265	268	266	261	333	10	93	112	103	95	117	208	226	226	225	224	313	223	224	227	230	231	256	258	261	282	300	306	307	311	323	344	2	349	316	300	308	26	127	121	88	72	222	211	200	207	222	220	220	219	219	221	225	227	227	225	227	229	229	229	230	230	231	231	231	231	231	231	232	232	232	232	233	233	233	232	232	233	233	233	232	232	232	233	233	233	233	233	234	234	234	233	233	234	234	235	235	235	235	235	235	236	236	236	237	237	238	238	239	241	242	242	243	245	247	251	256	257	256	256	
209	208	205	201	196	188	180	177	201	239	258	259	264	266	266	271	276	281	249	244	236	233	231	233	234	231	282	282	245	258	254	250	245	243	245	247	246	243	239	239	30	243	244	242	243	244	240	236	235	235	234	233	235	237	238	253	255	257	260	261	260	258	291	39	111	115	113	122	214	225	223	224	223	340	221	223	225	227	230	253	255	257	279	296	302	304	305	308	317	338	352	349	326	315	4	129	140	134	125	136	151	204	189	194	209	206	219	218	216	215	216	219	222	221	224	228	228	229	229	230	230	231	231	231	231	232	232	232	233	233	233	233	233	232	232	233	233	233	232	232	232	232	233	233	233	233	233	233	233	233	234	234	234	234	235	235	235	235	235	236	236	236	237	237	237	238	238	239	240	240	241	242	244	248	253	255	256	256	
207	206	203	200	194	186	179	172	185	232	260	261	263	266	267	270	276	291	248	242	236	234	233	233	253	282	229	279	247	29	143	244	242	241	74	67	114	242	240	242	244	243	242	241	240	240	238	236	235	235	234	231	232	235	244	247	250	252	306	313	311	311	35	93	127	162	164	221	226	223	221	221	13	220	222	223	225	227	247	248	250	271	278	292	295	298	304	313	326	334	338	352	356	13	107	142	143	133	123	140	151	204	185	181	188	192	190	221	219	216	215	217	218	217	222	227	228	228	229	229	230	231	231	231	231	232	232	232	232	233	233	233	233	232	232	232	233	232	232	233	233	233	233	233	233	233	233	233	233	233	234	234	234	234	234	235	235	235	235	235	235	236	236	236	237	237	238	238	239	240	240	240	241	243	247	251	252	252	
205	204	202	198	192	184	176	167	179	233	263	236	262	265	267	269	273	301	246	239	235	234	233	232	231	230	232	240	252	162	244	238	238	239	243	244	242	240	239	241	241	239	236	234	234	235	235	234	234	240	241	229	230	234	237	275	279	287	295	301	307	34	103	171	192	170	223	217	223	220	217	108	215	217	221	224	226	245	245	246	248	273	278	283	292	297	301	303	307	319	345	31	55	88	130	143	138	131	134	152	161	201	186	181	188	191	228	225	223	220	218	218	217	215	221	227	228	228	229	230	230	231	231	231	231	231	232	232	232	232	233	233	233	232	232	232	232	232	232	232	233	233	233	233	233	233	233	233	233	234	234	233	233	233	234	234	234	235	234	234	235	235	235	236	236	237	237	238	239	240	241	241	241	242	243	245	246	246	
204	203	200	197	190	182	172	159	167	232	262	235	238	265	266	268	270	248	245	236	234	234	233	232	231	231	231	242	43	252	241	93	232	232	236	237	236	234	234	235	236	235	233	232	232	232	231	229	229	231	232	231	228	230	265	268	275	282	280	12	45	99	167	199	191	178	220	213	219	216	214	22	212	215	220	235	238	240	242	242	268	272	280	293	298	302	305	305	306	319	6	62	79	99	126	138	134	129	143	154	204	198	187	180	186	189	230	228	227	223	220	220	218	215	221	227	227	228	229	230	230	231	231	231	231	232	232	232	232	232	232	233	233	233	232	232	232	232	232	232	232	232	233	232	232	233	233	233	234	234	234	233	233	234	235	234	234	235	234	235	235	235	235	236	236	237	237	238	238	239	240	242	244	244	243	243	243	243	
202	201	199	195	188	180	170	153	159	229	258	235	236	240	265	269	275	250	244	235	234	233	233	233	232	230	231	242	109	246	241	246	229	227	229	229	229	229	231	232	234	234	232	231	231	232	231	228	227	227	227	225	226	257	253	251	264	260	58	97	146	161	202	195	190	224	218	220	218	216	214	213	213	215	220	235	236	236	235	263	268	273	280	291	295	298	306	318	326	338	64	100	106	117	128	133	133	126	133	142	200	195	187	182	182	184	232	231	230	226	223	221	219	217	222	227	228	228	229	229	230	230	231	231	231	232	232	232	232	231	232	233	233	233	232	232	232	232	232	232	232	232	232	232	232	233	233	233	234	234	233	233	234	235	235	234	234	234	234	235	235	235	235	235	236	236	237	237	237	238	239	240	242	243	242	243	244	244	
200	200	197	193	187	179	169	152	157	228	250	239	236	253	236	240	277	248	241	233	233	232	243	234	232	231	234	242	3	241	59	232	229	228	227	227	228	230	232	233	234	234	229	227	228	261	231	229	226	225	257	225	252	249	245	272	244	122	157	161	164	167	199	193	226	223	221	221	220	218	216	215	216	217	221	235	235	234	263	266	272	276	283	294	295	296	299	316	9	96	124	120	112	115	120	123	130	127	125	133	198	191	188	185	183	182	234	234	232	229	226	222	218	218	223	228	229	229	229	230	230	230	231	231	231	232	232	232	232	231	231	233	234	233	232	232	232	232	232	232	232	232	232	232	232	233	233	233	233	233	233	233	234	234	234	234	234	234	234	234	235	234	234	235	235	236	236	236	237	237	237	238	240	239	239	242	244	244	
199	198	196	192	186	178	168	159	166	221	249	244	238	246	237	239	276	247	239	231	231	241	235	235	233	232	235	241	243	7	238	232	232	231	229	228	229	232	235	250	251	252	227	225	229	256	260	264	266	221	245	243	243	305	130	189	171	176	176	175	173	207	196	228	226	223	222	222	221	220	218	218	218	220	222	232	232	232	263	267	273	278	288	301	303	302	303	317	95	125	135	129	120	111	106	111	125	134	131	131	198	189	187	188	185	180	235	236	234	230	228	224	220	220	224	228	229	229	229	230	230	230	231	231	231	231	232	232	232	232	232	233	234	234	232	232	232	232	232	232	232	232	232	232	232	233	233	233	233	233	233	233	234	234	233	233	234	234	234	234	234	234	234	235	235	235	235	236	236	236	237	237	238	237	237	241	243	243	
198	197	195	190	185	177	167	164	172	217	251	247	243	240	240	242	247	247	238	230	231	233	236	236	235	234	235	237	288	243	243	237	237	235	231	228	228	232	242	242	347	51	223	224	230	253	256	316	262	218	233	263	303	137	171	206	206	200	190	183	216	206	196	228	228	226	224	223	222	221	221	221	222	223	233	232	230	262	261	263	271	278	288	300	304	307	311	245	138	114	125	125	117	100	97	104	111	126	132	129	200	188	191	195	186	236	235	236	234	232	229	225	223	221	224	228	229	229	229	230	230	230	230	230	231	231	231	232	232	232	232	233	234	234	233	233	232	232	232	232	232	232	233	233	233	233	233	233	233	233	233	233	234	233	233	233	233	234	234	234	234	234	235	235	235	235	235	235	235	236	236	236	236	235	236	240	242	242	
197	196	194	189	184	176	166	164	144	204	245	249	248	247	246	247	249	247	239	232	232	232	299	235	236	234	232	233	237	240	241	240	240	243	230	226	228	233	237	296	6	334	223	223	236	233	264	275	236	226	220	281	156	164	167	191	199	198	194	224	214	205	228	228	227	226	224	224	223	222	223	224	224	232	231	228	225	260	261	261	271	280	295	301	304	307	302	234	184	112	103	93	87	73	83	81	70	90	113	117	200	188	196	202	188	236	235	235	234	232	230	227	225	223	224	228	229	230	229	230	230	230	230	230	231	231	232	232	232	232	232	232	233	233	233	233	233	232	232	232	232	233	233	233	233	233	233	233	233	233	233	233	233	233	233	233	233	233	234	234	234	235	235	235	235	235	235	235	235	235	235	235	236	235	235	238	241	241	
196	195	193	188	183	175	165	164	134	173	249	252	253	253	254	254	253	249	241	234	232	233	235	236	233	297	229	230	231	275	253	263	236	233	233	224	227	233	270	279	292	236	234	224	215	247	240	230	260	217	220	190	182	177	174	183	185	189	228	220	211	231	229	228	227	226	225	225	225	224	225	225	229	227	224	262	259	257	259	268	272	283	303	311	315	309	237	213	209	169	112	53	37	52	75	65	59	74	91	107	200	188	194	204	191	238	237	236	234	232	231	231	230	226	225	228	230	229	229	229	229	230	230	231	232	232	233	232	232	232	232	232	232	232	233	233	232	232	232	232	232	233	233	232	232	232	232	233	233	233	233	233	233	233	233	233	234	234	233	234	234	234	234	234	234	234	234	234	235	235	235	235	235	235	234	237	240	240	
195	194	192	187	183	174	165	163	139	160	252	256	254	250	274	257	256	251	243	234	232	233	236	236	232	230	230	227	227	232	244	266	264	288	226	223	225	246	244	259	230	240	248	243	247	164	165	159	162	185	220	205	194	203	191	187	188	228	220	216	233	231	230	230	229	227	226	226	226	226	226	227	225	224	263	260	257	254	254	267	273	284	302	311	329	149	164	178	197	211	196	29	3	40	73	79	73	62	55	84	205	191	196	202	195	238	237	236	233	230	229	231	233	231	226	227	229	229	228	229	229	230	230	231	232	232	232	232	232	232	232	232	232	232	233	233	232	232	232	231	232	232	232	232	232	232	232	232	233	233	233	234	233	233	233	234	234	234	233	233	233	234	234	233	233	234	234	234	235	235	234	235	235	234	233	236	239	239	
194	193	191	187	182	174	164	160	130	147	251	255	291	252	252	276	288	251	244	234	231	232	234	235	235	234	230	225	225	229	274	263	249	259	230	224	234	275	66	219	213	90	95	212	222	200	193	188	217	215	214	219	212	199	189	232	229	222	217	236	232	230	230	231	228	226	226	226	226	227	226	226	226	266	264	259	256	253	250	266	274	288	308	312	225	154	157	164	185	215	205	177	137	101	96	96	82	73	81	102	207	197	215	213	204	194	234	233	231	228	227	228	231	231	225	223	227	228	229	229	229	230	231	231	231	232	232	232	232	233	233	232	232	233	233	234	233	232	231	231	232	232	232	232	232	232	232	232	233	233	233	234	233	233	233	233	233	233	233	233	233	234	233	233	233	234	234	234	234	234	234	234	234	234	234	237	239	239	
194	192	191	187	182	173	164	157	123	139	244	247	279	245	250	252	254	253	244	233	231	231	234	235	235	232	299	223	223	227	232	257	252	242	235	219	286	146	178	197	192	193	192	227	230	230	226	216	213	210	210	211	206	197	235	228	224	218	237	234	230	227	227	359	225	225	226	227	227	227	228	228	227	265	261	259	256	251	247	266	275	295	322	152	157	159	153	155	164	190	195	191	188	180	146	116	92	104	119	122	207	229	238	221	211	203	232	230	229	226	226	227	230	230	222	218	223	227	228	230	230	231	232	231	232	233	233	233	233	233	232	232	232	232	233	233	233	232	231	232	232	232	232	232	232	232	232	232	232	232	233	233	233	233	233	233	233	233	233	233	233	234	233	233	233	233	233	234	234	233	233	234	234	234	235	236	237	237	
193	192	190	187	182	174	164	156	138	139	237	243	265	262	277	251	255	253	244	235	232	232	234	235	234	229	302	222	223	226	229	243	233	252	254	90	155	163	188	231	234	193	233	227	222	221	216	210	207	202	241	242	242	238	230	225	239	237	235	232	228	224	44	224	223	225	226	227	229	230	230	265	267	265	262	260	255	247	261	264	279	315	154	154	158	160	154	151	154	165	174	169	158	158	155	138	124	123	111	56	11	262	250	211	193	190	232	230	228	226	226	228	233	234	224	217	221	226	228	230	230	231	231	232	232	233	233	233	233	232	232	232	232	232	232	232	232	232	232	232	232	232	232	232	232	232	232	232	232	232	232	233	233	233	233	233	232	233	233	233	233	233	233	233	233	233	233	234	234	233	233	234	234	234	234	234	235	235	
192	191	189	187	181	174	165	156	151	163	221	253	264	247	276	254	257	251	242	236	234	234	234	234	233	226	297	223	224	225	226	232	230	180	178	177	172	159	169	175	233	229	220	237	238	238	239	208	239	239	240	241	239	234	226	240	240	238	235	232	228	225	225	225	225	226	227	228	229	257	260	262	265	264	260	257	250	265	262	265	300	145	165	158	159	162	158	152	152	160	167	165	158	158	160	153	137	115	47	243	333	3	251	222	190	183	186	230	228	226	226	231	238	238	229	219	221	226	229	230	230	231	232	232	232	232	233	233	233	232	232	232	233	232	232	233	234	233	233	232	232	232	231	231	231	232	232	232	232	233	233	232	232	233	233	232	232	233	233	232	233	232	232	233	233	233	233	233	233	233	233	233	233	233	233	234	234	234	
192	191	189	187	181	175	167	157	167	180	208	245	253	268	279	254	254	249	239	235	234	233	233	234	253	306	223	225	224	225	239	234	183	188	198	191	181	172	174	168	222	220	214	208	239	240	241	240	239	240	240	237	234	242	240	239	238	237	235	232	228	225	225	225	226	227	229	229	254	255	258	261	288	291	286	276	271	267	264	264	186	175	201	220	204	163	163	158	157	163	168	168	163	163	161	144	102	39	330	321	349	20	56	219	192	200	216	200	229	227	228	234	239	239	232	221	220	226	229	230	230	231	232	233	233	233	233	233	233	233	233	233	233	232	232	233	234	234	233	232	231	231	231	231	231	232	232	232	233	234	233	232	233	233	233	232	233	233	232	232	232	232	232	232	233	233	233	233	233	233	233	233	233	233	233	233	233	233	
192	192	189	186	181	175	168	159	167	149	181	236	238	259	249	283	251	244	236	234	235	234	234	233	309	225	226	226	225	227	231	237	189	181	181	221	211	197	179	221	214	215	210	239	240	241	242	242	241	240	241	241	242	242	240	238	237	237	234	230	227	225	224	225	225	227	247	250	251	251	252	287	297	307	294	246	268	267	240	243	252	242	230	217	204	204	163	159	160	162	164	168	164	150	143	280	276	280	293	326	26	64	76	222	190	191	207	218	230	230	232	236	237	238	235	222	220	225	228	229	230	231	232	233	234	234	234	234	234	234	234	233	233	232	231	232	232	233	232	231	231	231	231	231	232	232	232	232	232	233	232	232	232	233	232	232	232	233	232	232	232	232	232	233	233	233	233	233	233	233	233	233	233	233	233	232	232	232	
192	192	190	186	181	176	169	159	162	136	175	235	242	234	264	263	246	240	235	234	235	268	233	231	313	229	228	226	229	235	240	244	222	195	185	209	203	234	183	219	212	210	238	240	242	242	243	244	243	242	242	242	243	242	240	239	237	236	232	228	227	227	226	225	226	227	246	244	243	273	279	291	310	321	315	276	238	233	241	247	249	234	242	240	239	156	156	153	163	172	176	177	172	171	247	263	255	244	292	342	46	67	75	79	212	188	193	225	223	232	234	235	236	238	236	223	219	223	226	228	229	230	231	232	234	236	236	234	234	234	233	233	233	232	231	231	231	232	232	231	231	231	231	231	231	231	231	230	230	230	231	231	231	232	232	232	232	232	232	232	232	233	233	233	233	233	233	233	233	233	233	233	233	233	232	232	232	232	
192	192	190	187	182	176	170	160	158	126	175	237	240	233	238	253	243	239	235	239	239	313	229	313	239	231	229	231	240	246	245	245	245	196	209	235	237	238	236	233	234	235	238	240	241	241	244	247	246	245	243	242	242	241	239	238	235	8	231	229	229	229	228	226	226	243	242	240	269	276	286	301	320	324	349	313	245	243	247	247	246	244	242	162	240	115	96	144	163	175	193	241	244	275	239	264	270	272	11	79	92	85	86	84	82	199	224	250	225	187	234	234	236	240	237	226	220	222	226	230	231	232	234	235	236	238	239	237	236	235	233	233	233	232	230	230	231	231	231	231	230	231	231	230	230	230	230	230	231	231	231	231	231	233	233	232	232	232	232	232	233	233	233	232	232	232	233	232	232	232	232	232	232	232	232	232	232	232	
192	192	191	187	183	177	170	161	155	119	169	243	242	234	235	251	239	237	233	232	296	228	302	232	234	232	231	240	249	249	245	247	247	222	237	236	241	242	241	238	237	237	238	238	237	238	239	241	243	241	241	242	242	239	237	8	234	235	235	233	233	232	229	225	240	237	234	264	269	274	292	325	355	5	226	228	240	249	249	246	244	244	244	139	92	72	142	237	174	171	209	269	258	257	260	273	282	177	135	121	115	108	100	89	100	193	209	247	229	217	232	234	239	243	240	232	225	224	228	231	233	235	236	237	238	240	242	241	238	235	233	232	232	231	230	231	232	232	232	231	231	231	230	230	230	231	232	232	232	233	232	231	231	232	233	232	232	231	232	232	232	232	232	232	232	232	232	232	232	232	232	232	232	232	232	232	232	232	
193	193	191	188	184	178	171	162	155	153	162	246	245	238	235	241	238	236	237	254	295	298	269	233	232	228	234	192	253	234	247	249	248	243	238	231	230	244	243	240	239	239	239	238	235	168	238	239	238	234	236	238	238	237	236	236	234	234	234	234	235	234	251	244	237	235	264	263	262	278	348	227	231	233	232	234	68	111	241	240	242	137	124	105	107	234	238	241	240	142	289	277	264	259	272	288	261	145	140	131	120	115	94	88	111	188	181	227	224	239	262	272	238	241	240	235	228	226	229	233	235	235	235	236	238	240	242	241	238	235	232	231	231	231	230	231	232	233	233	232	231	231	230	230	231	232	232	232	232	232	232	232	232	233	233	232	231	231	232	232	232	231	231	232	232	232	232	232	232	232	232	232	232	232	232	232	231	231	
193	193	192	189	185	179	172	164	155	150	160	247	244	244	237	235	243	237	247	272	287	318	230	230	270	310	239	166	173	213	180	247	247	243	236	235	166	222	211	239	240	240	239	236	233	180	161	236	233	227	221	231	232	232	232	231	230	228	230	240	243	244	240	234	230	265	268	263	273	346	118	121	116	118	114	116	109	85	91	108	112	104	116	135	232	232	236	129	322	293	228	283	274	274	288	281	171	146	138	134	128	119	94	92	107	195	206	235	230	236	243	255	262	236	236	232	225	222	225	231	234	234	234	236	238	239	241	240	236	234	231	230	230	230	229	229	231	232	232	231	231	231	231	231	232	232	231	231	231	231	232	231	232	233	232	232	231	231	232	232	232	231	232	232	232	232	232	232	232	231	231	232	232	232	232	232	231	231	
194	194	192	189	186	180	173	165	156	154	167	226	251	247	239	233	232	252	255	243	234	232	229	228	231	239	161	182	162	149	169	241	241	240	238	233	161	236	235	238	199	238	237	235	234	189	238	236	228	222	224	225	226	226	225	225	226	227	235	236	285	334	233	225	224	262	267	283	305	123	130	122	128	134	126	113	77	58	71	88	112	130	147	231	228	232	111	334	294	228	230	288	231	278	287	266	172	146	135	135	127	106	83	84	94	83	44	235	236	229	240	255	256	255	236	232	224	219	220	226	229	230	231	234	237	239	241	239	236	232	229	230	231	230	229	229	231	231	231	231	231	231	231	232	232	231	231	231	231	231	231	231	232	232	232	232	231	231	232	232	231	231	232	232	232	231	231	232	232	231	232	232	232	232	232	231	231	231	
195	194	193	190	187	181	175	166	157	160	171	217	250	246	238	237	233	232	265	238	237	232	228	230	111	206	189	176	160	236	235	113	234	236	238	237	163	232	233	99	237	236	234	234	235	238	238	234	226	219	221	223	224	223	222	222	228	230	233	275	298	7	227	220	256	263	286	332	245	247	238	230	234	127	110	78	222	61	109	224	232	234	232	226	227	136	358	223	225	228	288	286	232	290	276	231	169	143	129	117	85	29	10	62	92	88	62	230	230	220	234	246	247	244	232	231	223	219	220	223	225	227	229	232	236	239	240	238	235	230	226	228	231	232	231	230	231	231	231	231	231	231	231	231	231	231	231	231	231	231	231	231	232	232	232	231	231	231	231	231	231	231	232	232	232	231	232	232	232	232	232	232	232	231	231	231	231	231	
196	195	194	191	188	183	176	167	157	161	134	174	248	246	242	240	236	234	242	240	233	227	229	234	97	151	240	165	237	156	139	230	230	233	125	233	226	135	157	224	236	233	232	233	169	237	237	233	225	219	220	223	224	224	222	221	223	229	259	272	346	326	280	256	254	291	356	99	245	239	233	230	127	107	94	83	89	234	237	235	234	234	230	226	141	128	316	222	225	226	291	229	286	291	274	242	175	137	108	27	343	345	3	88	96	76	44	16	39	229	234	234	241	239	225	228	221	217	218	220	223	227	230	233	237	240	241	240	237	229	224	227	230	231	231	230	230	230	231	230	231	231	231	230	230	230	230	231	231	231	232	232	232	232	231	231	231	231	231	231	231	231	232	232	232	232	232	232	232	232	232	231	232	232	232	231	231	231	
197	196	194	192	189	184	178	168	157	160	126	169	251	250	246	243	246	238	244	237	222	221	225	229	235	117	233	135	236	232	229	129	97	125	223	231	233	229	229	221	233	231	143	232	235	237	236	233	226	221	221	223	225	225	222	219	220	228	254	321	314	277	268	252	277	360	61	105	235	231	231	234	116	115	228	230	234	236	237	236	234	233	233	231	230	71	226	226	227	229	232	233	258	292	270	241	205	175	330	313	317	2	63	104	107	85	62	45	40	18	242	250	257	251	225	227	219	217	216	217	220	226	231	234	239	243	244	244	240	230	225	226	229	230	230	230	229	230	230	230	230	230	230	230	230	230	230	230	230	230	231	231	232	232	232	231	231	231	231	231	231	232	232	232	232	232	232	232	232	232	232	231	232	232	232	231	231	231	
198	197	195	193	189	185	179	170	158	158	119	165	251	257	252	249	255	243	248	239	185	171	142	211	226	220	230	124	232	230	231	178	234	234	232	232	237	240	239	236	233	231	178	233	236	237	236	232	227	223	222	224	226	226	222	216	216	235	268	283	284	280	275	277	313	56	96	201	231	230	232	237	240	237	234	236	238	238	237	236	236	236	235	233	231	231	229	229	230	231	233	233	259	297	261	243	240	266	282	289	299	310	89	105	120	105	89	77	60	25	23	228	246	247	224	227	220	218	217	216	220	227	231	234	240	245	247	247	241	231	226	227	229	230	230	229	229	229	230	229	229	230	229	229	230	230	230	230	230	230	231	231	232	232	232	232	232	231	231	231	231	232	232	231	231	231	231	231	232	232	231	232	232	232	232	231	230	230	
198	197	196	194	190	186	181	172	159	157	115	166	245	251	254	251	261	255	257	252	191	233	196	188	186	220	219	155	229	229	231	233	235	233	235	239	242	241	239	237	235	235	235	236	236	236	236	233	227	224	222	222	224	226	222	216	215	232	263	272	268	266	275	306	246	90	217	233	230	231	233	236	238	237	237	238	239	238	236	234	235	237	232	345	228	229	229	229	229	230	231	233	257	296	269	259	255	263	274	266	215	123	119	119	127	115	85	66	57	36	64	82	230	233	220	226	221	218	217	217	222	229	232	235	240	245	247	244	238	230	225	226	228	229	228	228	228	229	229	229	229	229	229	229	230	230	229	229	229	230	231	231	231	232	232	231	231	231	231	231	231	231	231	231	231	231	231	231	231	231	231	232	232	232	231	231	230	230	
198	198	197	195	191	187	182	173	161	157	113	175	239	258	251	248	250	266	271	194	184	241	237	203	202	190	220	176	224	217	229	231	232	231	233	231	239	240	239	238	239	240	239	238	237	237	236	233	227	224	221	220	223	225	223	218	216	229	251	264	266	272	312	251	91	231	203	182	230	231	233	235	236	238	239	240	239	237	235	232	233	66	229	228	229	229	230	230	230	230	231	233	276	295	276	266	256	255	225	143	132	129	131	133	129	111	84	64	54	44	61	69	38	230	215	202	189	218	216	216	222	228	230	233	238	243	243	239	235	229	223	225	227	228	227	227	227	227	228	229	229	229	229	229	230	229	229	229	230	230	231	230	231	232	231	231	231	231	231	231	231	231	231	231	231	231	231	231	231	231	231	231	232	232	232	231	231	231	
199	199	198	196	193	189	183	175	164	158	135	189	226	251	250	245	244	259	270	165	168	180	195	185	211	218	194	181	220	219	222	224	226	227	64	58	87	235	237	237	239	240	238	236	236	236	235	233	229	226	224	223	224	225	224	220	216	223	241	272	352	218	110	182	166	221	202	188	231	232	233	235	237	239	241	240	237	235	235	232	233	41	228	227	230	230	231	230	230	229	230	243	279	297	280	263	240	205	155	141	138	136	129	122	107	94	84	69	66	70	73	66	58	225	232	228	190	230	254	258	259	261	260	262	266	255	239	236	234	229	224	225	228	228	227	226	226	227	228	228	228	229	229	230	229	229	229	229	229	230	230	230	231	231	231	230	230	231	231	231	231	231	231	231	230	231	231	232	232	232	231	231	231	231	231	231	230	230	
200	200	199	197	194	190	184	176	167	157	139	166	216	244	273	244	236	241	245	238	230	169	180	182	189	210	214	194	221	173	216	217	217	221	226	228	230	109	233	234	236	21	234	232	232	232	231	229	227	226	226	226	225	226	225	222	232	219	239	345	216	202	238	190	176	218	230	231	232	232	234	235	237	239	243	243	238	235	234	231	24	232	229	228	229	230	230	229	228	228	229	239	286	295	282	256	208	177	162	147	136	130	122	117	98	76	65	55	55	58	52	59	81	104	205	189	203	249	251	258	260	258	254	257	260	237	235	233	232	228	224	225	227	227	225	224	225	226	227	228	228	228	229	229	229	229	229	229	229	229	230	231	231	231	230	230	230	230	231	231	231	230	230	230	231	232	233	233	233	233	232	231	230	230	230	230	229	229	
201	201	200	198	196	191	185	177	170	158	160	153	211	240	254	235	237	209	222	228	225	172	180	182	181	218	225	207	194	194	193	209	216	176	211	216	222	227	230	232	236	238	234	230	228	228	227	225	225	225	224	222	223	224	245	240	231	224	248	202	224	240	238	237	229	232	232	234	235	235	235	236	237	239	242	241	237	234	41	232	233	232	230	229	229	229	230	229	227	227	229	234	286	296	279	238	193	189	182	162	145	136	130	127	102	67	68	63	47	35	36	44	49	80	215	215	249	252	252	259	266	261	256	258	244	227	221	231	229	225	222	221	223	224	221	222	224	225	227	228	228	228	228	228	228	228	229	229	229	229	230	231	231	231	231	230	230	230	230	230	230	230	230	230	231	232	232	232	232	232	233	232	231	231	231	230	230	230	
202	202	201	199	197	192	186	178	172	159	151	136	195	243	244	237	222	211	208	189	226	230	170	180	180	184	217	221	195	195	195	194	195	204	204	220	220	221	223	226	232	236	232	226	238	226	250	225	225	225	222	220	222	225	241	235	226	253	253	195	222	236	236	235	234	232	231	233	237	235	232	234	237	240	40	236	48	234	237	236	233	231	228	228	227	228	229	229	227	228	229	231	294	301	240	195	186	192	201	187	191	159	143	123	86	68	80	81	65	44	55	48	27	29	3	236	238	243	248	254	266	270	262	266	231	223	222	210	226	223	222	222	223	222	218	218	222	224	225	226	226	226	227	227	227	228	228	229	229	229	229	230	230	231	231	231	230	230	230	230	230	230	230	230	229	229	229	229	229	230	231	231	231	231	232	232	231	231	
203	203	202	200	198	194	187	179	173	159	153	130	195	252	228	217	212	206	213	195	220	222	222	224	176	181	186	194	192	194	195	199	195	195	199	201	223	203	219	220	225	230	229	225	226	226	225	225	227	227	255	219	224	243	239	229	260	253	269	234	211	236	233	235	234	233	229	229	87	226	224	229	234	238	237	235	234	235	238	240	236	229	227	227	227	227	227	234	226	227	229	228	319	298	205	190	182	189	208	202	180	164	153	117	44	47	74	72	50	53	81	63	37	6	313	295	305	329	240	245	252	262	271	270	251	234	217	204	224	221	221	222	223	221	216	215	219	222	224	225	225	226	226	227	227	228	229	229	229	229	229	230	230	230	230	230	231	231	230	230	230	230	230	229	229	230	230	230	229	230	232	231	230	230	232	232	231	231	
204	204	203	201	199	195	189	181	173	160	156	124	187	256	230	219	214	209	193	192	188	189	220	222	193	191	191	188	190	195	193	228	222	196	201	204	210	214	219	219	224	229	230	227	227	241	225	227	230	251	255	221	225	234	234	233	257	254	241	247	240	235	234	235	235	234	230	228	85	222	220	226	63	53	233	234	234	233	233	233	229	224	225	226	227	227	227	227	226	227	224	290	351	151	180	175	176	190	206	199	185	178	184	214	241	156	115	99	66	57	80	75	51	353	311	306	328	347	313	291	284	296	253	258	249	236	217	198	195	219	220	221	220	218	215	212	215	220	222	224	225	225	226	227	227	228	229	229	229	229	229	230	231	230	230	230	230	230	230	230	230	230	230	230	231	232	232	231	230	232	233	231	229	230	231	231	231	231	
205	204	204	202	200	196	190	182	174	162	156	117	173	256	235	221	218	214	193	190	232	229	187	179	195	187	186	186	186	189	193	215	230	195	200	204	215	219	221	223	230	236	235	231	228	224	224	228	239	310	241	221	230	232	273	277	260	250	252	245	239	235	235	238	239	237	234	231	228	225	225	230	235	235	233	235	237	235	230	357	358	223	223	225	226	227	231	229	227	223	223	348	120	160	172	177	172	170	186	198	204	206	207	216	212	159	129	118	97	86	119	126	91	332	305	305	317	338	309	284	283	290	309	324	326	232	218	200	197	220	219	221	219	216	216	212	213	217	220	223	224	225	225	226	227	228	228	229	229	229	229	230	230	231	230	230	230	230	230	231	230	231	231	231	231	231	231	230	230	232	233	232	229	229	231	231	230	230	
205	205	205	204	201	197	192	184	175	164	154	150	159	257	236	244	225	222	196	187	187	219	214	189	197	187	185	218	185	188	191	229	228	225	194	207	214	220	224	228	233	219	237	233	9	223	225	229	302	224	219	222	224	250	273	301	292	252	248	244	241	235	235	240	242	242	240	235	230	229	230	234	237	237	236	236	236	233	3	227	231	225	221	224	227	228	227	226	224	220	271	71	153	167	174	161	158	157	172	181	185	185	181	190	208	191	161	143	126	115	119	125	103	317	300	303	309	310	291	275	275	274	265	277	278	188	210	196	198	209	196	222	219	216	216	214	211	214	218	221	223	224	225	226	227	227	228	228	229	229	229	230	230	230	231	230	230	231	231	231	231	231	231	231	230	230	230	230	230	232	233	231	229	230	231	231	230	230	
206	206	206	205	203	198	193	187	177	166	154	145	156	246	248	237	228	202	196	188	181	235	235	194	190	187	219	210	204	187	194	229	226	222	217	204	217	221	224	226	230	232	244	290	232	224	227	231	230	313	220	218	220	233	275	244	246	248	247	245	241	236	235	56	240	244	243	234	230	231	233	234	235	234	233	234	357	25	18	222	343	343	218	223	227	228	228	227	222	219	357	140	158	151	160	161	170	154	168	168	170	165	164	162	175	166	151	138	132	129	125	118	63	296	297	299	305	291	281	284	280	273	207	166	151	155	205	196	194	195	185	222	219	216	216	216	211	210	215	219	222	223	225	226	226	227	227	228	229	229	229	229	230	230	231	231	230	230	230	231	231	230	230	231	230	231	231	231	231	233	233	231	230	231	231	231	230	230	
208	207	207	207	204	200	195	189	179	167	154	153	168	233	251	248	225	202	194	186	181	188	234	235	191	188	214	229	228	227	190	190	225	221	216	213	214	219	223	225	227	228	230	251	248	225	228	315	228	221	218	218	219	231	241	242	236	239	243	242	230	236	238	239	239	31	240	234	231	230	231	231	230	229	232	33	59	51	24	217	356	221	220	222	225	227	227	223	270	25	160	152	148	155	163	168	161	170	155	156	171	155	156	145	145	154	147	148	129	156	131	114	276	276	291	291	276	274	287	75	31	128	150	150	151	155	155	195	195	197	188	220	217	215	216	217	212	208	212	218	221	223	224	225	226	226	227	228	228	229	229	229	229	230	230	230	230	230	230	231	231	230	230	230	231	231	231	231	232	233	233	231	230	231	231	231	230	230	
209	209	208	208	206	202	197	191	182	169	156	158	167	214	249	247	239	203	194	191	178	178	236	238	236	218	189	206	227	225	223	221	194	222	217	212	213	218	223	225	227	225	236	235	235	237	270	230	331	220	220	221	224	239	231	235	226	184	75	232	230	229	229	232	236	237	233	228	227	227	227	228	227	229	34	47	36	14	219	220	334	224	222	223	224	224	219	323	45	123	163	242	235	165	165	165	159	169	150	153	168	143	144	144	146	150	146	133	145	135	138	158	271	247	247	282	267	267	171	108	103	147	159	158	156	157	159	190	190	195	190	217	215	215	218	219	215	210	211	216	220	222	223	224	225	226	227	228	228	229	229	229	229	230	230	230	230	229	230	231	231	230	230	230	231	231	231	231	232	233	232	231	231	231	230	230	230	230	
210	210	210	209	207	204	199	193	185	172	157	158	122	165	251	249	222	203	199	189	180	174	177	245	240	236	233	206	198	228	223	221	191	222	217	212	213	219	223	225	229	225	233	230	220	246	247	227	260	241	235	234	232	241	244	230	225	229	200	94	159	48	222	226	232	234	227	219	218	217	221	226	229	249	29	38	29	220	219	222	224	223	221	219	218	238	322	62	126	137	152	155	236	161	161	157	152	152	150	150	143	129	162	140	139	141	143	135	145	152	137	126	283	133	133	262	267	189	134	130	129	144	159	157	156	153	192	189	190	192	190	217	216	218	221	221	218	213	211	215	219	221	223	224	225	226	227	227	228	228	229	229	230	230	230	230	230	230	230	230	231	230	230	230	230	230	231	232	232	232	231	232	231	231	230	231	231	231	
211	211	211	210	209	206	202	196	189	175	158	155	113	152	255	251	232	224	210	196	223	205	244	179	248	242	240	238	191	231	227	216	195	217	220	215	214	219	223	225	230	237	233	229	222	218	222	219	244	221	221	222	237	245	238	230	228	233	239	238	232	229	229	233	237	235	226	219	66	214	217	224	239	11	26	33	15	217	217	218	218	217	214	226	222	317	79	117	135	144	147	147	151	155	158	227	154	158	154	151	146	135	134	168	159	134	136	133	129	135	135	122	113	142	153	128	114	134	145	148	146	145	154	159	160	156	191	189	191	191	189	218	217	220	222	222	219	215	212	214	218	220	222	224	225	226	227	227	228	228	229	229	229	230	230	230	230	229	230	231	231	231	230	230	230	230	231	232	231	231	231	232	231	231	231	231	231	231	
212	212	212	212	210	207	204	199	192	178	162	150	132	133	258	253	230	242	211	238	237	237	237	240	175	180	189	245	196	232	229	225	190	192	192	217	215	219	223	225	231	236	233	226	217	214	211	217	215	229	239	242	243	245	236	232	231	235	16	240	238	237	236	240	244	241	232	227	224	220	219	223	13	37	22	13	223	212	214	237	215	233	227	221	223	140	231	154	154	151	149	153	156	232	156	158	156	157	156	155	147	137	153	137	144	134	131	132	137	140	135	122	112	106	125	135	144	156	158	160	157	151	156	162	165	162	191	192	192	189	187	220	218	221	222	221	219	217	213	213	217	219	222	223	225	226	226	227	228	228	229	229	229	229	230	230	229	229	230	231	231	231	230	230	230	230	232	232	231	231	231	231	231	230	231	231	231	231	
213	213	214	213	211	209	207	202	195	183	166	148	122	121	257	233	230	243	218	237	234	234	235	235	240	241	231	228	231	187	216	210	191	211	218	215	216	220	223	225	231	231	226	219	216	215	217	217	218	217	226	232	248	245	238	235	235	240	245	243	238	234	234	238	245	243	237	233	230	227	224	224	19	34	14	14	211	26	110	171	219	213	211	203	208	178	236	235	231	225	226	159	157	148	225	145	163	166	164	160	143	102	353	138	153	140	134	136	138	141	137	131	134	152	156	151	157	173	171	168	163	155	159	168	169	165	192	193	193	189	184	219	218	220	221	220	219	217	214	213	215	218	221	223	225	225	226	227	227	228	228	228	229	229	229	229	229	229	229	230	230	230	230	230	229	231	232	231	231	231	231	231	230	230	230	231	230	230	
214	214	215	214	213	211	209	205	198	188	172	150	118	118	253	234	245	245	239	237	234	234	234	235	235	232	231	233	237	236	230	224	204	215	214	215	218	222	225	225	228	224	220	216	228	227	228	228	220	225	233	241	246	245	239	237	237	241	246	245	237	231	231	236	242	243	239	235	231	229	226	231	26	22	45	217	196	176	183	182	220	218	224	184	186	185	185	186	230	227	230	231	154	144	127	157	163	234	167	154	22	316	311	140	154	147	142	139	133	131	130	120	132	155	170	162	162	171	174	174	169	161	161	172	171	165	194	192	193	189	184	219	219	220	221	220	219	217	215	213	212	217	221	223	224	225	226	227	227	228	228	228	229	229	229	229	229	229	229	229	230	230	230	230	230	232	232	231	231	232	231	231	230	230	230	230	230	230	
215	216	216	216	214	213	211	207	201	192	178	155	128	136	247	246	235	246	243	241	201	229	218	234	233	232	231	230	230	229	223	217	213	213	215	217	219	223	225	230	223	219	223	222	222	222	225	228	226	232	237	245	241	242	239	236	232	230	230	233	229	225	226	231	237	238	237	232	230	229	229	355	232	80	234	205	161	178	181	230	219	223	233	184	179	179	183	187	184	190	192	231	228	154	153	156	155	156	155	118	308	299	305	165	158	150	140	132	130	122	108	109	134	149	162	162	162	167	171	177	178	171	167	171	172	200	197	194	193	189	222	221	220	221	221	221	221	219	217	214	212	216	220	222	224	225	226	227	227	228	228	228	229	229	229	229	229	229	230	230	231	231	230	230	231	232	231	231	231	231	231	230	230	230	231	231	231	231	
217	217	217	217	215	215	213	210	204	197	184	163	149	162	249	253	250	247	245	243	241	229	221	235	233	231	231	231	229	226	220	213	187	211	214	216	219	223	228	216	212	217	218	231	231	231	217	229	235	238	241	245	234	234	234	231	223	216	238	226	180	216	217	220	221	219	216	217	220	224	311	231	237	171	168	164	171	174	179	227	221	228	235	237	185	181	176	177	180	190	192	230	231	231	230	228	227	152	145	15	316	299	301	190	163	147	134	130	132	121	109	132	146	151	157	158	156	161	165	172	177	176	172	173	173	199	198	196	194	189	222	221	221	221	221	219	220	220	219	214	212	216	220	222	224	225	226	227	228	228	228	228	229	229	229	229	229	229	230	231	231	231	230	230	231	231	230	231	231	231	230	230	230	231	231	231	231	231	
218	218	218	217	217	216	214	212	207	201	190	171	162	165	239	254	250	239	246	236	241	230	227	235	233	232	231	231	229	226	220	213	207	207	213	216	220	228	216	230	226	227	232	233	233	232	227	234	234	242	241	243	243	228	226	230	225	220	169	163	223	178	212	213	215	212	212	216	218	29	228	153	161	161	246	241	165	171	173	224	224	235	239	241	192	193	187	178	182	188	192	191	188	232	230	229	228	230	74	227	228	233	301	218	166	144	137	141	138	124	128	142	150	148	150	153	155	158	161	166	172	172	170	170	200	196	196	195	194	190	222	221	221	220	220	218	219	220	219	214	212	216	220	222	224	225	226	227	228	228	228	228	229	229	229	229	229	230	231	231	231	230	230	231	231	231	231	231	231	231	230	230	230	231	231	231	230	230	
218	219	218	218	218	217	215	214	210	204	194	177	169	159	178	254	251	245	244	242	240	205	229	235	233	232	230	231	228	225	219	212	206	205	212	217	222	227	226	229	225	225	226	233	233	231	236	237	238	246	245	246	244	243	244	232	171	238	169	174	174	184	215	217	216	192	180	178	175	183	189	164	164	166	162	241	245	175	167	225	239	179	249	244	190	235	229	185	184	186	195	220	197	203	205	230	229	41	232	232	233	236	307	197	162	146	146	151	146	138	142	144	148	148	146	149	156	158	157	161	169	171	166	164	198	196	195	192	191	191	222	221	221	221	221	218	218	220	218	214	213	217	221	223	224	225	226	227	228	228	227	228	229	229	229	230	230	230	230	230	230	230	230	231	231	231	231	231	231	230	230	230	230	230	230	230	230	230	
219	219	219	219	219	218	217	215	212	207	197	182	167	144	160	255	254	233	243	238	241	217	227	226	234	233	231	222	228	225	219	212	206	204	211	218	224	223	233	230	225	226	230	232	230	239	233	234	241	236	248	250	249	245	243	198	182	159	157	166	180	206	210	214	215	215	194	188	186	173	176	168	222	213	234	235	238	237	229	232	160	163	172	247	187	229	228	189	183	183	226	226	200	217	226	223	229	231	231	232	232	236	306	176	160	155	156	156	148	140	140	141	147	150	150	153	158	157	154	154	157	164	167	197	197	197	196	194	189	190	189	221	221	222	222	218	217	220	219	218	216	218	221	223	224	225	226	227	227	227	227	228	229	229	229	230	230	230	230	230	230	230	230	231	231	230	231	231	230	230	230	230	230	229	229	230	231	231	
220	220	220	220	220	220	218	217	214	209	200	186	164	130	134	251	251	212	243	242	243	226	199	220	210	235	232	221	229	225	220	212	204	201	210	220	226	219	233	229	226	228	229	232	234	232	234	234	242	250	248	252	251	248	243	199	240	233	231	224	217	165	185	209	208	210	210	190	182	173	176	168	219	231	231	231	230	229	228	234	240	238	239	168	178	234	240	191	188	189	218	220	221	213	219	222	226	227	227	227	227	305	177	175	165	161	156	147	137	132	133	138	144	148	154	159	161	157	156	152	150	157	164	194	196	196	195	195	190	190	188	222	222	223	223	218	217	221	222	221	220	220	222	223	224	225	226	227	227	227	228	228	228	229	229	230	230	230	230	230	230	230	230	232	231	230	231	231	231	230	230	230	230	229	230	231	232	232	
221	221	221	221	221	220	219	218	215	211	204	191	167	122	121	247	247	240	239	244	247	234	219	200	210	191	232	221	228	225	220	212	203	202	212	223	214	214	233	229	226	228	232	231	231	232	233	246	240	250	247	250	250	247	238	228	235	228	222	218	221	226	164	222	224	207	209	197	187	183	182	223	222	229	230	229	227	227	230	232	231	230	232	233	234	163	174	180	229	218	215	216	218	218	217	220	223	224	223	221	285	185	182	176	167	161	151	140	134	134	135	142	149	152	158	163	158	150	149	151	153	157	192	194	195	195	195	194	191	190	225	223	224	226	224	219	217	221	222	221	221	222	223	224	225	226	226	226	227	228	228	228	229	229	229	230	230	230	230	230	230	230	231	232	230	230	231	231	231	231	230	230	230	230	231	232	232	232	
222	222	222	222	222	221	221	219	217	213	207	196	174	139	143	245	239	242	218	244	246	243	231	201	211	190	230	219	228	224	218	213	209	176	210	224	231	212	235	231	227	227	229	230	232	233	232	243	249	248	248	248	246	241	225	244	213	178	223	219	222	222	221	169	225	225	228	201	196	180	185	223	225	228	229	229	228	229	231	231	227	231	230	229	232	236	236	162	181	216	214	216	218	218	216	218	221	222	219	219	181	188	185	175	166	154	143	136	135	137	139	140	145	147	150	158	155	147	141	144	148	189	189	225	226	228	197	195	193	191	226	226	227	228	224	218	216	219	221	221	222	223	224	224	225	226	226	227	227	228	228	228	229	229	229	229	229	229	230	230	230	230	231	231	231	230	231	230	230	230	230	230	230	230	231	232	231	231	
223	222	222	222	222	222	221	220	218	215	210	201	184	175	165	218	251	245	223	241	249	244	235	202	214	189	229	220	226	222	216	215	210	198	201	220	228	231	232	230	227	227	228	229	229	228	245	247	246	245	244	243	240	234	216	248	240	225	218	216	184	227	228	153	186	220	229	203	201	198	182	217	222	226	226	228	228	229	231	230	225	226	231	231	234	233	231	230	169	214	213	215	217	216	215	216	219	220	218	223	177	196	187	173	161	149	145	146	139	131	128	130	130	126	120	123	135	142	145	146	145	187	184	185	228	232	200	198	196	229	230	230	230	228	222	217	216	218	221	222	223	224	225	225	226	226	227	227	228	228	228	228	228	229	229	229	229	229	229	230	230	229	231	231	230	230	230	230	230	230	230	230	230	230	231	232	231	231	
223	223	223	223	223	223	222	221	219	217	213	205	193	182	155	178	250	244	236	239	251	244	241	202	216	188	228	219	207	222	217	215	209	198	195	215	222	223	224	224	223	223	222	221	222	245	241	242	241	240	240	240	236	232	213	243	223	233	231	231	233	177	230	222	183	223	201	205	205	223	216	207	172	225	223	216	203	229	229	229	224	169	223	232	234	234	232	230	224	165	211	213	216	215	214	216	223	224	225	216	195	190	196	190	176	160	155	158	157	142	128	133	134	126	123	115	120	129	141	142	142	184	183	181	183	191	195	195	232	232	234	234	232	228	222	217	217	219	221	222	223	224	225	225	226	226	227	227	228	228	228	228	229	229	229	229	229	229	230	231	230	230	231	231	230	230	231	231	231	231	230	230	230	230	231	232	232	232	
223	223	223	223	224	223	223	222	221	218	215	208	198	182	145	157	249	245	237	239	252	243	246	200	214	189	229	217	203	225	221	218	212	204	174	206	214	217	217	217	216	215	226	240	233	231	232	236	238	238	241	241	236	230	208	246	237	233	233	235	237	193	226	218	207	194	195	202	224	218	206	203	202	186	184	183	198	189	229	229	225	167	170	217	233	232	230	229	227	219	173	208	215	216	216	218	223	222	219	220	212	188	181	178	178	171	164	163	163	157	146	147	146	137	135	136	139	133	134	139	140	184	180	183	184	189	192	190	231	233	235	235	232	228	222	218	217	219	221	222	223	224	225	225	226	226	227	227	228	228	228	229	229	229	229	229	229	230	231	231	230	230	231	231	230	230	231	231	231	231	231	230	230	231	232	232	231	231	
224	224	224	224	224	224	223	223	221	219	216	211	202	184	143	153	248	227	239	240	253	248	235	247	199	191	176	214	200	185	225	221	214	202	188	196	207	212	214	214	227	225	227	217	218	225	232	236	238	240	241	241	239	234	247	243	237	237	237	237	236	233	186	217	160	179	184	217	216	223	204	202	204	196	182	183	179	190	181	229	225	219	166	212	216	231	229	228	226	217	202	201	210	214	217	222	222	219	221	222	212	200	198	193	188	180	173	168	166	161	155	156	157	148	143	147	151	136	127	139	143	190	180	181	184	186	189	234	232	234	236	236	232	226	221	217	218	220	222	223	224	224	225	225	226	226	227	227	228	228	228	229	229	229	229	229	229	230	231	231	230	230	231	230	230	230	231	230	230	230	230	230	230	231	231	231	230	230	
224	224	225	225	225	224	224	223	222	220	218	213	204	188	149	159	246	241	252	254	253	246	228	252	201	192	178	213	195	180	228	223	215	197	185	190	203	211	214	222	219	220	214	212	224	235	240	240	238	237	239	240	241	240	198	204	182	179	239	238	237	235	232	189	175	175	178	212	218	227	203	203	204	199	188	176	181	194	182	168	224	222	229	230	216	232	229	228	226	219	211	142	203	211	219	225	219	223	228	222	212	203	201	201	198	190	182	174	168	163	160	160	162	157	151	154	154	143	127	131	143	194	186	189	189	188	187	233	233	236	239	237	232	226	220	218	218	220	222	223	223	224	225	226	226	227	227	227	228	228	228	229	229	229	229	229	229	229	230	231	230	229	230	231	230	230	230	230	230	230	230	230	230	230	231	230	230	230	
225	225	225	225	225	225	224	224	223	221	219	215	207	192	163	173	240	244	251	253	251	246	251	202	199	188	176	209	188	232	228	225	214	192	178	185	199	209	215	217	214	212	210	216	229	237	238	235	235	237	240	244	244	240	199	240	182	177	176	238	237	237	239	193	180	176	175	198	230	210	204	203	204	203	195	183	174	180	183	170	221	226	227	222	217	212	229	227	225	222	218	210	173	201	219	228	218	222	227	219	210	203	198	196	197	195	186	177	169	166	166	166	167	165	157	155	154	146	136	139	146	195	191	193	192	195	201	231	231	233	236	235	231	226	220	217	218	220	222	223	223	224	225	226	226	227	227	228	228	228	229	229	229	229	229	229	229	230	231	231	230	229	230	231	230	230	230	230	230	230	230	230	230	230	231	231	231	231	
225	225	226	226	226	225	224	223	222	222	220	216	209	197	174	179	237	246	244	247	250	254	248	253	221	192	231	215	200	229	226	223	212	189	171	177	194	208	218	210	210	212	218	229	235	235	234	235	235	239	242	244	242	237	239	238	235	229	177	175	238	244	247	192	202	175	173	191	229	213	206	202	206	208	202	192	182	179	184	224	224	224	221	216	210	208	227	227	227	223	218	208	188	190	217	227	231	236	225	215	211	205	200	195	195	193	186	179	173	170	168	169	171	171	159	154	155	149	146	148	148	196	194	195	201	226	228	229	228	227	228	229	228	226	219	215	216	219	221	222	223	224	225	226	226	227	227	228	228	228	229	229	229	229	229	229	229	230	231	231	230	229	230	231	230	229	230	230	230	230	230	230	230	230	230	231	231	231	
226	226	226	226	226	226	225	224	225	225	221	217	211	201	183	177	227	242	240	242	246	254	243	245	246	244	235	218	198	227	223	220	211	191	170	169	188	208	218	211	216	232	235	239	246	241	238	239	241	242	244	243	239	233	202	210	232	234	224	211	201	170	250	197	178	190	174	184	216	224	227	204	211	216	208	197	188	178	175	170	173	225	223	221	217	208	202	229	229	226	221	211	198	177	213	223	230	238	216	212	211	206	202	198	199	196	187	182	186	173	167	169	174	176	164	159	160	157	154	152	146	144	199	202	223	223	218	220	225	224	224	226	225	224	218	212	213	217	219	222	223	224	225	226	226	226	227	227	228	229	229	229	229	229	229	229	229	231	231	231	230	229	230	231	230	229	230	230	230	230	230	230	230	230	231	231	231	231	
226	226	226	227	227	226	226	227	181	224	221	218	213	204	191	176	204	244	240	240	241	248	259	241	252	230	191	221	198	176	222	218	210	197	177	166	181	207	214	224	228	227	231	238	245	255	251	248	248	248	246	243	236	224	212	203	230	230	234	238	242	243	242	243	240	234	164	173	198	220	226	207	224	214	211	200	191	180	175	168	169	224	223	225	224	215	227	206	193	226	222	209	213	150	194	216	230	220	211	209	209	205	200	201	205	199	191	188	184	184	178	176	177	177	167	163	167	164	159	157	155	155	204	214	221	212	211	214	216	224	224	224	223	222	219	210	209	214	218	221	223	224	225	225	226	226	227	228	228	228	229	229	229	229	229	230	230	231	231	231	230	230	230	231	230	230	230	230	230	230	230	230	230	230	230	230	230	230	
226	226	227	227	227	227	227	227	225	224	223	220	214	207	195	174	200	245	240	239	241	245	251	240	228	206	177	170	201	182	221	218	211	202	183	166	175	201	213	218	225	224	228	232	237	241	241	258	252	250	244	237	224	215	214	215	206	227	227	228	232	234	234	233	231	227	221	212	182	206	226	209	214	217	214	210	199	176	176	174	219	185	219	222	222	219	217	207	191	225	220	208	213	193	185	212	228	213	211	209	208	206	201	204	208	203	197	194	188	181	176	185	183	180	174	171	172	169	163	160	159	160	207	216	217	211	205	207	209	202	224	222	222	223	220	211	208	213	218	221	223	224	224	225	226	227	228	228	228	229	229	229	229	229	230	230	230	230	231	231	230	230	231	231	230	230	230	230	230	230	230	230	230	230	230	230	230	230	
227	227	227	227	227	227	227	227	226	184	224	220	216	209	197	175	196	243	237	238	240	244	246	236	207	196	173	165	160	181	169	218	211	193	189	172	175	194	208	214	223	223	244	246	247	234	234	261	253	247	238	221	212	212	215	218	220	212	224	222	223	225	226	225	224	220	215	214	164	195	220	208	222	226	218	220	211	182	166	166	164	169	171	175	178	213	211	205	189	169	218	206	213	199	169	208	228	224	215	211	205	201	199	203	209	207	204	202	196	187	183	190	189	184	180	222	220	171	167	163	162	162	160	211	211	207	200	203	206	197	224	221	221	224	222	214	208	213	218	221	223	224	225	225	226	227	228	228	228	229	229	229	229	229	230	229	229	230	230	230	230	230	231	230	230	230	230	230	230	230	230	230	230	230	230	231	232	232	
227	227	227	228	228	228	227	227	227	226	222	220	217	211	200	178	195	243	234	236	241	244	246	232	205	195	176	170	166	166	172	163	213	194	194	179	177	190	204	211	221	221	244	245	244	243	241	259	254	246	224	206	206	211	215	218	221	217	209	199	188	220	216	222	220	218	215	216	216	187	202	207	221	223	222	222	213	199	187	178	187	183	171	171	170	168	170	175	189	171	214	206	214	208	141	197	223	213	217	214	209	199	194	198	206	208	207	206	202	194	192	197	192	188	184	180	219	217	172	167	163	163	163	183	216	213	206	208	202	195	224	221	222	225	223	216	211	213	217	221	223	224	225	226	227	228	228	228	228	229	229	228	229	229	229	229	229	230	231	230	229	230	230	230	230	230	230	230	230	229	230	230	230	231	231	231	231	231	
227	227	228	228	228	228	228	227	226	224	222	221	218	213	203	182	196	239	236	239	243	246	247	231	205	197	177	168	164	164	169	164	208	190	198	181	176	185	198	218	217	216	240	239	249	253	234	257	254	238	203	195	198	208	216	222	223	218	211	207	201	193	193	201	223	220	217	218	161	187	200	206	216	226	225	219	209	204	202	192	192	195	190	184	179	177	178	173	167	171	164	209	197	211	204	171	200	213	219	218	214	205	196	194	203	209	208	207	204	197	195	199	194	191	189	184	179	179	179	221	217	161	214	217	209	215	209	207	200	194	225	222	224	225	222	218	213	214	218	221	223	224	225	226	227	228	228	228	228	229	229	229	229	229	229	229	229	230	231	230	229	230	230	230	230	230	230	230	230	230	231	231	231	231	231	231	230	230	
228	228	228	228	228	228	228	228	227	226	224	222	220	215	206	189	200	237	239	243	245	250	249	231	205	196	178	167	160	163	155	155	200	178	196	175	170	179	191	212	212	233	232	236	235	237	242	245	233	208	193	188	193	204	217	224	222	216	210	208	207	200	198	202	191	219	221	221	218	193	206	206	222	219	223	221	208	202	205	200	198	201	199	192	188	188	188	183	177	175	169	167	161	181	215	211	189	210	241	221	218	208	199	194	201	208	209	209	207	205	200	197	192	189	190	187	183	183	182	222	217	213	211	217	183	212	207	206	201	194	225	224	225	225	222	219	216	216	219	222	224	224	226	227	227	228	228	228	228	229	229	229	229	230	230	230	230	231	231	231	230	231	231	230	230	230	230	230	230	231	231	231	231	231	231	230	230	230	
228	228	228	229	229	229	228	228	227	226	225	223	221	217	209	195	202	234	238	247	248	252	250	238	209	197	176	167	160	167	147	214	187	209	189	166	161	170	185	211	212	225	224	223	224	229	232	228	209	199	189	181	188	207	221	221	214	213	208	208	214	207	194	199	228	218	223	220	217	192	203	203	208	219	232	226	208	196	199	199	201	205	203	199	194	192	191	185	178	176	175	175	170	161	153	220	167	201	237	222	222	210	201	196	199	205	209	210	211	212	209	203	196	190	188	187	185	185	183	176	219	165	212	204	187	207	206	207	204	196	224	225	227	225	222	219	217	219	221	223	224	225	226	227	227	228	228	228	229	229	229	230	230	231	231	230	230	230	231	231	231	231	230	230	230	230	230	230	230	231	231	231	231	231	230	230	230	230	
228	229	229	229	229	229	229	228	228	227	226	224	222	218	211	200	203	231	237	249	249	251	251	249	221	208	172	160	183	168	144	213	196	203	187	167	158	164	180	197	215	221	224	224	228	232	231	222	206	200	192	178	183	212	224	212	205	212	207	208	220	217	200	199	194	217	224	221	219	180	200	206	211	220	225	221	208	196	192	191	197	205	205	200	192	188	190	189	181	175	171	169	163	160	161	156	151	189	236	247	223	219	204	201	202	205	206	209	210	212	212	209	206	200	196	195	197	197	195	186	177	197	206	214	211	210	210	209	206	198	224	226	227	225	220	217	218	220	222	223	225	226	227	227	227	228	228	229	229	229	229	230	230	230	230	230	230	229	230	231	231	230	230	230	230	230	230	230	230	230	230	230	230	230	230	230	230	230	
229	229	229	229	229	229	229	229	228	228	226	225	223	219	213	202	202	225	236	250	250	252	251	249	220	217	179	157	189	180	158	213	200	178	191	174	159	161	175	194	214	218	226	232	237	238	231	218	204	201	197	183	186	208	218	206	197	208	205	210	227	224	205	196	198	212	226	222	217	216	188	209	217	223	224	218	206	196	189	186	192	205	212	200	186	180	178	183	181	174	170	167	163	161	160	159	146	169	216	220	222	221	206	201	202	206	208	210	211	211	211	209	209	206	200	199	204	207	206	201	212	204	206	213	213	214	216	212	207	226	225	227	227	224	219	216	218	221	223	224	226	226	227	227	228	228	228	229	229	229	229	230	229	229	230	230	229	229	230	231	231	230	229	230	230	230	230	230	230	230	230	230	230	230	230	230	230	230	
230	229	229	229	230	230	229	229	229	228	227	226	224	220	215	204	198	220	236	251	250	253	250	247	207	216	190	164	154	155	162	151	202	183	198	181	161	157	169	190	215	221	228	235	237	236	229	216	201	200	198	184	189	209	216	207	194	201	204	212	231	230	208	195	215	206	226	222	216	219	179	208	218	228	227	216	200	192	184	178	184	204	218	207	194	186	175	172	177	177	171	169	159	153	152	155	155	159	197	215	246	219	208	199	200	205	210	210	210	211	212	211	211	209	225	218	219	223	224	222	218	212	211	213	216	219	220	215	209	228	227	228	228	225	219	216	219	222	224	225	226	227	228	228	228	229	229	229	229	229	229	230	229	229	230	229	229	229	231	231	231	229	229	230	229	230	230	230	230	230	230	230	230	230	230	230	230	230	
230	230	229	230	230	230	230	229	229	229	228	227	225	222	216	207	196	210	236	252	251	253	250	244	201	202	190	170	158	161	164	157	153	185	203	188	164	160	160	183	206	226	232	239	235	229	222	214	204	202	203	191	192	210	213	204	191	197	205	217	235	235	210	197	211	206	227	222	219	170	181	213	216	224	224	209	200	194	181	170	169	200	230	211	198	193	185	181	183	184	178	167	172	154	154	158	166	160	200	224	253	244	212	206	203	206	210	208	232	231	232	232	231	228	224	220	220	223	224	224	220	216	236	237	238	240	241	239	235	232	231	231	230	227	220	218	220	223	225	226	227	227	228	228	229	229	229	229	229	229	230	230	229	230	230	229	230	231	231	231	230	230	230	230	229	229	230	230	230	230	230	230	230	230	230	230	230	230	
230	230	229	230	230	230	230	230	230	229	228	227	226	223	218	209	195	206	235	251	250	253	250	243	205	193	185	174	168	163	159	153	152	182	205	195	176	155	154	171	199	217	233	237	232	225	218	212	207	205	206	200	197	206	210	202	190	193	206	224	241	236	209	202	198	188	201	224	221	220	198	211	217	227	219	208	199	194	185	175	168	197	222	217	200	195	190	185	180	178	177	175	176	179	174	170	175	167	199	210	251	234	234	232	230	230	231	231	229	227	228	228	226	223	221	220	221	248	247	246	245	242	239	239	240	242	244	243	240	238	236	234	232	228	222	219	222	225	226	227	228	228	228	228	228	229	229	229	229	230	230	230	230	229	230	231	231	231	231	230	230	230	230	230	230	229	230	230	230	230	230	230	230	230	230	230	230	230	
230	230	230	230	231	231	231	231	230	230	229	228	227	225	221	211	194	203	235	248	244	249	247	238	206	189	182	176	173	167	163	160	157	181	169	200	187	170	157	164	192	219	232	237	229	223	216	209	205	205	206	203	197	205	210	203	194	195	210	227	244	233	208	204	208	195	233	226	222	189	209	220	226	225	214	201	194	191	185	175	165	195	219	219	209	199	192	184	177	173	172	173	178	181	180	177	214	215	237	199	249	251	228	228	227	229	230	230	228	226	227	226	224	220	245	246	248	249	248	249	248	247	245	244	244	244	245	244	243	242	239	235	232	228	223	221	223	226	228	228	228	228	228	229	229	229	229	229	230	230	230	230	230	229	230	231	232	231	231	230	230	230	230	230	229	230	230	230	230	230	229	230	230	230	230	230	230	230	
230	230	230	230	231	231	231	231	231	230	230	230	229	227	223	216	195	201	237	242	238	234	231	226	209	196	189	184	177	172	168	168	169	184	172	204	197	184	165	164	187	218	233	240	233	221	217	212	205	206	208	207	195	199	208	199	192	198	223	235	240	223	211	208	217	202	233	224	219	191	221	231	230	222	208	200	196	193	192	180	164	189	216	221	217	205	199	193	189	186	181	173	170	170	169	210	212	213	239	198	212	251	231	229	225	227	228	226	225	225	225	250	248	246	246	249	250	250	250	251	252	251	250	251	251	250	249	247	247	247	244	239	235	230	226	224	226	229	230	230	229	229	229	229	230	230	229	230	230	230	230	230	229	229	230	231	231	231	230	230	230	230	230	229	229	230	230	230	230	230	230	230	230	230	230	231	231	231	
230	231	231	231	231	232	231	231	231	231	231	231	230	229	226	220	203	206	239	242	232	232	229	223	211	203	196	193	189	183	180	178	173	191	180	209	205	195	175	166	184	213	234	243	245	208	210	212	207	207	211	212	196	192	203	199	188	206	224	244	229	218	211	215	224	213	201	220	215	193	218	229	236	211	201	198	195	194	196	190	175	184	213	222	219	208	203	200	197	194	189	179	171	170	209	207	210	211	212	240	245	250	252	232	251	227	227	250	249	250	250	250	249	247	248	251	253	252	252	254	255	255	254	257	260	261	258	254	252	251	249	246	243	238	232	230	230	231	231	230	230	230	230	230	230	230	230	230	230	229	229	230	229	229	230	231	231	230	230	230	230	230	230	230	230	230	230	230	230	230	230	231	230	230	230	231	231	231	
231	231	231	231	232	232	232	232	232	232	232	232	232	232	230	227	224	230	247	249	226	231	231	222	212	206	199	194	191	189	187	186	183	176	185	214	212	205	186	164	179	210	233	249	245	198	198	210	213	214	215	215	192	242	196	203	195	214	238	234	220	214	210	222	229	217	200	217	216	200	217	235	211	201	199	192	189	188	190	192	178	180	210	224	220	211	206	203	201	198	193	183	175	212	209	209	210	213	213	210	238	243	251	254	253	252	252	251	251	251	252	252	251	250	250	251	251	250	252	257	259	259	258	260	265	270	271	266	260	256	254	253	252	248	241	236	234	233	233	231	230	230	230	230	230	230	230	230	230	229	230	230	230	229	229	230	230	230	230	229	230	230	230	230	230	230	230	230	230	230	230	230	230	230	230	231	230	230	
231	231	231	231	232	232	232	232	232	233	233	233	234	234	235	238	177	248	259	252	247	231	235	224	212	204	197	192	189	187	186	185	185	186	182	182	218	213	197	174	177	212	240	259	243	202	198	209	220	220	219	217	191	240	185	203	208	227	239	228	215	213	213	225	233	218	202	187	177	207	224	240	206	200	201	196	190	187	188	192	179	171	205	229	221	212	209	206	207	204	197	189	180	212	212	211	209	213	216	214	210	240	248	255	256	254	254	254	254	254	255	255	254	254	254	253	250	248	252	258	261	260	258	259	264	270	273	272	267	260	255	255	257	255	249	243	237	235	234	233	231	231	230	230	231	230	230	230	230	230	230	230	230	229	229	229	230	230	230	229	230	230	230	229	229	230	230	230	230	230	230	230	230	230	230	230	230	230	
232	232	231	231	232	232	232	232	233	233	234	234	235	236	239	242	246	257	267	263	243	249	239	226	211	206	201	197	192	187	182	178	177	188	195	195	178	219	208	192	186	214	247	265	241	212	193	203	222	224	223	222	201	242	179	199	222	237	238	222	209	213	220	230	236	219	201	188	180	208	236	233	209	200	201	199	195	190	188	196	193	176	197	225	222	214	211	206	204	204	200	192	218	214	213	211	208	237	240	241	241	242	246	254	257	256	256	257	257	257	257	256	256	258	258	256	252	250	252	256	257	256	255	257	260	263	265	265	263	258	253	252	254	254	253	249	243	239	236	234	233	231	230	229	230	230	230	230	230	230	230	230	230	229	229	230	230	230	230	229	229	230	229	229	229	230	230	230	230	230	230	230	230	230	230	230	230	230	
232	232	232	232	232	233	233	233	233	234	234	235	236	238	241	244	252	183	277	270	259	248	256	227	208	205	203	199	194	190	187	182	184	178	189	201	193	175	218	210	203	223	259	268	236	217	199	203	225	225	220	221	211	193	182	225	231	235	229	224	213	217	228	234	237	224	201	184	177	210	236	235	214	203	200	201	198	197	191	192	194	183	219	219	223	219	215	211	209	202	195	224	217	215	213	210	235	237	241	244	245	246	247	252	256	257	258	260	262	262	259	256	256	258	259	257	254	252	252	252	252	251	252	254	257	257	256	254	253	252	250	249	248	249	249	249	248	244	240	237	234	231	230	229	229	230	230	230	229	229	229	230	230	229	229	230	230	230	230	230	229	229	229	229	229	230	230	229	230	230	230	230	230	230	230	231	231	231	
232	232	232	232	233	233	233	233	234	234	235	236	237	239	242	247	254	265	143	281	268	248	253	228	211	205	201	196	192	189	187	194	186	179	225	231	236	229	219	223	221	243	272	266	265	257	249	241	250	227	216	217	212	195	224	226	248	230	215	216	217	220	227	234	234	226	206	240	165	214	242	237	221	210	204	208	206	199	194	193	192	226	217	233	245	246	241	239	221	211	230	222	218	215	213	235	235	239	244	248	250	251	250	253	257	258	259	261	264	264	260	255	254	255	256	255	254	254	254	253	252	253	254	255	255	254	251	247	245	245	246	246	247	246	245	246	248	248	244	240	236	233	231	230	231	231	230	229	229	229	229	229	229	229	229	229	230	230	231	230	229	230	230	229	230	230	230	230	230	230	230	230	230	230	230	230	231	231	
232	232	232	232	233	233	233	233	234	234	235	236	238	240	243	247	253	261	272	161	275	271	248	242	215	212	206	198	194	186	190	189	186	228	221	226	233	231	224	234	237	257	275	280	276	257	251	247	254	259	255	251	250	241	221	238	255	225	256	247	249	253	227	233	235	231	218	197	171	210	240	240	228	216	206	204	206	202	200	232	230	226	218	227	237	240	240	241	244	240	233	227	223	220	238	238	239	242	246	250	253	254	253	255	257	258	258	258	260	260	256	251	250	249	249	250	251	252	253	253	254	257	260	260	257	254	250	244	242	242	242	244	246	245	242	242	244	248	247	242	237	233	231	231	231	230	229	228	228	229	229	230	229	229	229	230	230	230	231	230	230	230	230	230	230	230	230	230	230	230	230	230	230	230	230	230	230	230	
232	232	233	233	233	233	233	234	234	234	235	237	238	240	243	247	253	260	269	132	281	274	268	237	218	216	209	199	206	198	188	190	233	226	220	237	244	245	244	245	251	266	276	279	279	276	274	275	277	261	255	248	263	258	254	252	259	258	251	241	243	251	255	260	233	230	221	203	181	226	236	239	227	216	206	202	240	235	230	229	230	228	224	252	258	260	240	243	245	243	237	248	246	245	244	244	244	246	248	250	252	252	252	252	253	255	254	253	253	253	251	248	247	246	247	248	249	249	249	264	266	272	279	285	286	283	250	245	243	241	240	242	244	243	240	239	239	241	241	240	237	233	231	230	230	229	227	227	228	229	229	230	229	229	229	230	230	229	230	230	230	230	230	230	230	230	230	229	230	230	230	230	230	230	230	230	230	230	
232	233	233	233	233	233	234	234	234	234	235	237	239	241	243	247	251	258	265	294	310	281	270	261	229	227	220	211	207	201	190	230	227	223	235	241	248	249	248	252	260	271	276	279	282	284	282	281	283	281	275	269	268	267	270	276	259	256	250	242	242	252	257	259	260	258	253	247	234	225	250	261	227	250	245	240	236	233	229	227	250	251	251	254	258	263	266	266	265	261	256	252	249	247	246	246	247	249	250	250	249	248	247	249	251	252	252	251	251	250	248	246	244	243	245	263	264	264	263	264	269	275	279	281	281	280	281	286	286	242	238	239	240	239	238	238	239	237	234	235	235	232	230	229	229	228	227	228	230	229	229	229	229	229	230	230	229	229	229	230	230	230	230	229	229	230	229	229	229	230	230	230	230	230	230	230	230	230	
233	233	233	233	233	233	234	234	234	234	235	237	239	241	243	235	244	254	260	283	320	291	273	264	258	255	223	216	212	204	233	223	235	235	239	246	250	251	253	257	265	272	276	278	282	287	287	286	286	286	282	278	276	277	281	281	279	276	273	270	272	278	279	277	258	257	253	248	238	231	248	258	254	247	242	239	234	252	251	251	253	255	256	256	258	266	273	275	271	266	261	256	251	247	246	246	247	249	250	249	247	244	244	247	249	250	250	250	251	251	249	246	242	257	255	256	257	257	258	261	267	274	278	281	280	280	284	290	289	296	239	268	253	233	234	238	239	236	232	231	230	228	226	226	227	227	227	229	230	229	228	229	229	229	229	230	229	229	229	230	230	230	229	229	229	229	229	229	230	230	230	229	229	229	229	229	229	229	
233	233	233	233	233	233	234	234	234	235	235	237	228	241	231	235	240	250	253	266	301	297	279	267	262	260	222	253	249	242	230	232	232	234	240	247	251	252	254	258	263	268	273	275	277	282	286	286	287	289	288	285	283	284	285	284	281	278	277	277	279	283	285	283	280	277	273	267	261	260	248	255	252	245	241	254	252	252	254	257	260	261	260	258	257	264	275	279	275	270	266	261	255	249	246	244	244	246	249	250	248	244	243	245	246	264	246	260	261	264	270	271	263	255	252	253	254	253	272	276	289	306	327	277	274	275	282	291	296	310	247	241	272	260	256	257	238	235	232	230	229	225	222	223	224	225	226	228	228	228	228	229	229	229	229	229	229	229	229	230	230	230	229	229	229	229	229	229	230	230	229	229	229	229	229	229	229	229	
233	233	234	233	233	233	234	234	235	235	235	237	230	229	231	233	238	246	251	252	264	291	289	272	262	258	257	251	245	237	237	233	231	232	238	245	250	252	253	257	260	263	266	268	271	275	279	282	284	286	288	287	285	284	286	286	283	279	280	282	284	287	289	289	285	282	280	277	272	270	271	272	268	264	260	256	252	250	253	260	264	265	264	260	258	262	270	276	274	269	265	262	257	250	245	242	241	243	246	248	248	244	241	258	257	258	258	257	258	263	267	271	263	252	247	266	269	273	275	283	297	308	338	268	263	265	273	283	294	253	318	246	236	230	263	245	232	235	232	231	231	226	220	220	223	224	226	227	227	227	228	229	229	229	229	229	228	228	229	229	230	231	230	228	229	229	229	230	230	230	229	229	229	230	230	230	230	230	
234	234	233	233	233	233	234	234	235	235	235	237	232	231	231	233	237	243	249	242	240	257	280	278	268	253	251	246	240	241	236	231	228	229	233	239	245	249	250	254	258	259	261	264	266	269	273	277	277	278	281	282	281	281	282	283	282	280	281	281	281	284	288	291	290	287	286	284	280	276	275	273	270	268	265	260	255	252	253	257	261	264	264	261	259	260	263	265	265	263	259	256	253	246	243	242	241	242	260	263	265	264	258	254	252	252	252	251	254	259	264	269	269	251	264	264	270	273	274	283	298	307	353	259	291	300	311	272	254	298	249	331	240	236	236	226	230	234	230	230	230	226	218	217	221	223	225	227	227	227	228	228	228	229	228	228	229	229	229	229	229	231	230	229	229	229	229	230	230	230	229	230	230	230	230	230	229	229	
234	233	233	233	233	234	234	234	235	235	236	237	235	232	231	233	236	241	245	239	235	235	249	266	269	263	257	252	244	238	233	228	226	228	232	238	243	251	253	256	259	259	260	263	266	271	276	282	283	269	270	272	274	274	275	276	276	277	276	273	271	274	279	285	288	287	288	288	285	279	275	272	270	269	267	262	258	255	251	250	254	258	259	258	258	260	260	259	256	256	254	252	248	241	239	241	241	256	258	261	262	261	258	254	251	247	244	266	268	274	283	298	266	253	265	266	271	273	276	290	305	271	43	302	286	299	309	330	271	249	301	249	245	243	242	240	218	219	230	229	229	226	218	215	218	221	224	225	226	227	228	228	228	229	229	229	230	229	229	229	230	231	230	229	229	229	229	230	230	230	229	229	230	229	230	229	229	229	
233	233	233	233	233	234	234	234	235	236	236	237	244	233	233	233	235	241	248	242	151	231	228	228	251	256	256	251	243	236	231	227	226	229	234	238	245	248	252	254	255	254	253	253	256	263	269	271	268	268	272	275	275	279	283	286	270	268	264	261	264	269	272	275	278	280	282	286	286	281	275	270	269	268	266	261	259	256	249	246	250	254	255	255	255	256	256	254	252	253	253	252	248	240	236	255	255	254	256	258	258	258	257	254	250	272	268	265	266	273	282	291	312	300	269	264	266	268	281	304	277	227	18	288	283	295	301	312	251	277	251	251	251	249	245	242	201	212	233	231	230	226	220	214	216	219	222	224	225	226	227	228	228	228	229	229	229	228	228	229	230	230	229	229	229	229	230	230	229	229	229	229	229	230	230	229	229	229	
233	233	233	234	233	234	234	235	235	236	236	237	238	236	232	232	235	214	230	230	239	223	221	232	234	240	247	247	240	234	229	226	225	228	236	236	238	242	270	280	288	290	286	282	282	293	309	256	281	279	288	263	264	267	276	279	268	254	249	253	259	265	267	269	270	271	273	276	279	278	273	267	264	263	261	258	257	255	247	244	249	252	253	268	270	271	271	269	267	267	269	249	247	239	251	250	254	254	256	256	254	253	254	251	280	270	264	260	262	274	284	292	308	317	274	261	262	272	293	312	256	233	327	280	282	293	297	306	319	257	248	247	247	248	247	243	241	205	235	231	229	226	221	214	213	217	221	224	225	226	226	227	227	227	227	227	227	227	227	228	230	230	229	229	229	229	229	229	229	229	229	230	230	229	229	229	229	229	
233	233	234	234	233	234	234	235	235	236	236	237	237	244	233	233	195	204	229	237	230	208	213	227	228	231	237	238	234	230	228	227	225	232	232	231	254	258	264	272	280	279	275	273	273	285	298	296	281	288	291	293	301	318	353	258	248	239	240	249	268	274	278	265	264	264	264	265	266	267	267	264	260	259	257	255	256	254	242	238	252	256	260	263	266	267	266	265	265	266	265	264	264	264	245	244	248	281	287	291	289	287	293	293	280	269	261	256	261	270	277	282	287	300	290	265	263	278	303	293	252	7	296	271	279	290	296	308	249	250	251	243	241	240	240	242	244	198	236	229	225	223	220	213	211	215	220	223	224	225	225	226	227	227	227	227	227	227	228	229	230	229	229	229	229	229	229	229	229	230	230	229	229	229	229	229	229	229	
233	233	234	234	234	234	234	235	235	235	236	236	237	238	235	193	202	210	228	235	167	200	206	225	227	231	234	234	230	228	227	226	227	232	229	228	250	253	260	276	273	269	277	276	278	293	303	277	265	272	280	295	327	25	252	242	227	224	232	250	260	267	271	274	275	274	273	274	275	259	258	257	256	255	253	252	269	271	240	247	249	253	255	258	260	261	260	260	261	262	262	262	262	266	244	239	270	280	285	284	281	282	289	293	288	275	262	258	261	271	277	280	280	286	302	275	266	284	306	286	343	348	287	231	285	294	280	285	294	247	247	244	240	236	233	102	145	186	235	229	225	223	220	213	209	213	218	221	223	224	224	225	228	228	228	228	228	229	230	230	230	229	228	229	229	229	229	230	230	230	229	229	229	228	229	229	229	229	
233	233	234	234	234	234	234	235	235	235	236	236	237	237	244	200	194	215	231	236	234	197	228	225	230	235	238	236	230	228	228	229	237	235	230	252	247	255	263	274	277	276	283	283	287	306	314	281	275	290	314	356	53	250	244	230	213	216	227	243	253	261	263	265	267	267	268	269	270	272	271	268	267	265	262	261	262	261	263	245	244	249	251	253	292	256	256	297	254	291	253	257	258	261	245	234	266	278	281	281	281	283	288	291	291	288	270	260	261	269	280	285	285	289	301	280	270	289	303	300	321	333	226	234	294	301	298	274	278	291	242	240	72	235	149	123	39	172	234	231	228	226	222	214	209	213	218	221	223	223	224	226	228	228	228	228	229	229	230	230	230	229	229	229	229	230	230	230	230	230	229	229	229	229	229	229	229	229	
233	234	234	234	234	233	234	234	235	235	235	236	236	237	238	215	201	218	234	239	212	224	229	223	230	236	238	236	231	230	230	236	236	234	231	253	247	256	263	273	275	274	277	276	284	300	308	284	289	316	14	241	227	241	233	219	207	211	223	238	280	298	306	256	258	258	259	262	264	265	265	263	263	263	260	259	258	253	253	239	237	271	276	278	286	292	295	295	294	290	288	298	315	348	240	256	263	272	274	274	282	288	292	295	291	294	287	264	260	267	274	277	278	283	289	285	277	293	304	303	302	321	226	279	290	297	301	276	245	211	237	78	233	211	157	122	126	161	235	232	229	227	223	214	210	214	219	221	223	223	224	226	228	228	228	228	228	229	229	229	229	229	229	229	230	230	230	230	229	229	229	230	230	229	229	229	229	229	
234	234	233	233	233	233	234	234	235	235	235	236	236	237	238	246	208	220	236	237	231	214	214	215	223	229	231	231	230	231	235	231	230	263	259	255	258	256	262	270	276	277	275	272	283	296	300	279	290	315	285	224	204	232	224	212	200	207	220	236	277	288	300	306	310	306	305	311	255	254	253	253	255	255	256	256	321	242	247	238	228	262	271	276	283	288	288	286	284	280	283	300	248	234	307	219	227	268	271	274	281	286	288	289	287	296	305	274	259	262	268	272	273	274	278	284	284	295	308	298	359	310	224	283	296	307	295	242	151	202	113	93	98	96	177	127	128	152	234	232	229	227	223	214	209	213	218	220	222	223	224	226	228	228	228	228	228	228	228	228	228	228	229	230	230	230	230	230	229	229	229	230	230	229	229	229	228	228	
234	233	233	233	233	233	234	234	234	235	235	236	236	237	237	239	218	219	233	237	238	180	174	200	212	219	223	226	232	233	233	230	262	260	256	263	264	260	260	264	270	273	271	276	292	299	295	291	327	165	166	202	192	226	217	207	212	210	223	237	276	280	288	296	298	299	302	306	305	301	296	293	295	300	311	322	321	321	329	236	225	259	266	276	281	282	280	278	278	274	284	304	246	234	329	272	226	264	269	275	282	282	281	286	288	292	305	293	266	258	264	273	275	274	279	283	283	293	306	315	332	287	274	292	315	309	266	138	137	132	138	118	108	88	213	176	151	151	231	230	229	228	223	214	208	212	217	220	221	222	224	225	226	227	227	227	228	228	228	228	228	228	228	229	229	230	230	230	229	229	230	229	229	228	228	228	228	228	
233	233	233	233	233	234	234	234	234	234	235	235	235	236	237	238	273	219	231	237	240	164	155	189	204	212	221	223	225	228	232	271	264	258	256	265	267	267	260	259	268	271	269	278	288	290	303	350	159	178	213	198	230	223	214	205	207	217	230	239	268	287	293	289	291	295	298	298	295	290	287	288	293	303	320	334	317	308	325	304	218	255	259	272	274	274	275	281	282	279	294	283	244	232	334	279	262	265	268	274	280	280	281	286	286	288	296	302	280	260	260	268	271	278	287	289	288	300	310	299	316	279	282	304	314	315	117	135	133	131	133	133	123	100	91	189	175	174	228	227	227	226	222	213	207	211	217	219	221	222	224	224	225	226	226	227	227	228	228	228	227	227	227	227	228	229	229	229	229	229	229	228	228	228	228	228	228	228	
233	233	233	233	233	233	233	234	234	234	234	235	235	235	236	237	239	225	228	232	240	163	156	186	208	214	216	218	253	254	259	265	260	253	264	266	266	270	265	260	269	280	280	290	297	306	353	153	175	229	207	233	228	221	212	205	208	219	231	259	262	281	284	289	299	306	307	306	290	283	287	293	306	308	319	321	310	310	228	326	261	250	257	264	266	265	270	277	274	279	300	276	242	230	346	274	261	266	270	272	277	276	278	282	280	283	296	312	295	268	258	263	274	284	291	290	291	305	302	323	310	284	301	324	318	63	123	125	111	102	121	134	126	115	118	190	173	174	170	223	224	225	221	213	206	210	216	219	221	222	224	225	225	226	227	227	227	227	227	227	227	227	228	228	228	229	229	229	229	229	229	228	228	228	228	228	228	228	
233	233	233	233	233	233	233	233	234	234	234	234	234	235	235	236	237	263	226	234	238	169	163	191	204	210	213	252	250	250	256	261	272	264	263	265	265	267	265	264	275	290	291	307	342	165	168	183	173	222	208	228	223	216	209	205	209	219	245	252	267	274	278	284	295	301	303	299	292	289	295	311	328	333	331	321	305	315	227	332	262	250	254	258	265	267	271	273	270	286	306	264	239	228	350	294	211	224	272	273	274	275	276	280	277	280	292	308	305	277	260	261	278	291	294	291	294	308	297	330	291	283	308	318	352	103	98	78	61	99	129	136	128	121	130	129	177	174	171	221	221	223	221	214	207	209	215	219	221	222	224	224	225	226	227	227	227	227	227	227	227	228	229	229	229	229	229	229	229	229	229	229	228	229	229	228	228	228	
233	233	233	233	233	233	233	233	233	233	234	234	234	234	235	235	236	238	238	238	235	192	172	192	203	209	250	248	247	246	259	265	271	270	266	265	267	266	265	272	289	307	303	329	242	178	196	180	169	219	209	221	216	209	131	206	212	220	242	247	265	273	282	289	295	300	305	298	286	286	299	318	336	342	341	348	227	341	225	325	206	251	250	251	256	260	268	273	281	301	295	257	250	226	355	329	207	220	269	275	275	274	275	279	278	279	285	300	312	284	261	263	279	291	293	292	299	311	299	320	281	287	301	315	341	331	347	30	110	131	135	134	135	135	138	135	178	176	172	221	221	222	221	216	208	210	215	219	221	222	224	224	225	225	226	227	227	227	228	228	228	229	229	229	229	229	229	229	229	229	229	229	228	228	229	228	227	227	
233	233	233	233	233	233	233	233	233	233	233	233	234	234	234	234	235	236	243	237	231	202	183	194	244	249	252	251	247	256	254	258	266	270	267	263	262	260	265	282	310	340	321	0	193	180	189	175	226	216	207	219	211	204	200	205	213	232	237	257	261	269	277	282	285	296	308	296	287	293	310	335	334	275	283	232	229	335	341	331	203	204	211	228	251	257	262	268	282	296	290	252	248	227	218	358	200	211	261	267	271	276	272	274	276	277	289	308	324	289	263	265	281	292	290	288	296	302	295	302	283	298	292	47	53	327	320	121	131	139	136	132	140	146	141	134	180	175	174	220	219	220	221	217	210	210	214	219	221	222	223	224	224	225	226	227	227	227	228	228	228	228	228	228	228	228	228	229	229	229	228	228	228	228	228	228	227	227	
233	233	233	233	233	233	233	233	233	233	233	233	233	233	233	233	233	234	235	234	229	213	160	196	233	238	247	249	258	257	252	257	269	273	265	260	258	256	266	288	314	334	336	354	187	174	181	168	225	215	225	218	209	201	199	204	212	230	233	255	259	265	272	276	279	285	293	288	290	309	334	252	251	249	257	232	228	337	317	313	303	199	205	213	226	252	261	267	278	289	285	283	245	237	219	14	288	204	226	261	267	275	271	269	267	270	285	295	303	297	272	269	285	293	288	287	292	288	285	285	287	302	251	174	27	21	141	142	142	146	141	133	142	151	145	137	183	174	174	173	218	218	219	216	211	209	212	216	220	221	223	224	224	225	226	227	227	227	227	227	227	228	228	228	228	229	228	229	230	229	228	228	228	228	228	227	227	227	
233	233	233	233	233	233	233	233	232	232	232	232	232	232	232	232	232	232	233	234	232	219	193	196	208	246	255	263	259	256	251	254	268	272	265	262	262	264	276	300	320	334	339	348	187	171	183	168	222	213	223	217	207	197	195	202	220	224	226	250	257	263	272	276	278	282	289	289	297	323	332	254	257	252	236	232	228	333	301	295	327	285	201	213	226	245	257	271	281	279	280	281	302	230	219	208	311	200	219	220	263	274	274	268	266	269	277	282	287	295	284	276	287	290	285	290	296	287	282	315	328	259	184	204	213	139	150	150	147	147	145	137	145	155	151	146	185	173	175	177	217	217	218	217	213	210	211	214	219	221	222	223	224	225	226	226	227	227	227	227	228	228	228	227	228	228	228	229	230	229	228	228	228	228	227	227	228	228	
233	233	233	233	232	232	232	232	232	232	232	232	231	231	231	231	231	230	230	232	232	223	197	197	207	229	258	265	263	255	250	254	264	265	258	255	260	271	287	323	354	20	22	110	176	203	185	172	219	212	220	215	205	342	193	197	215	217	217	245	252	257	265	270	275	283	293	295	306	313	326	344	347	257	265	272	353	310	286	294	214	323	200	213	226	246	250	268	275	276	281	290	279	230	222	210	315	270	209	215	246	265	268	269	265	271	278	282	292	305	293	282	285	285	287	298	308	266	107	94	108	133	145	156	155	157	161	157	152	151	151	152	158	162	157	151	187	172	174	178	217	217	218	218	215	212	213	214	217	220	221	222	223	225	225	226	226	227	227	227	227	228	228	228	228	228	228	229	230	229	228	228	228	227	227	227	227	227	
233	233	233	233	232	232	232	232	232	231	231	231	231	230	230	230	229	229	228	229	230	225	202	198	207	214	248	252	253	255	253	254	258	261	258	255	266	284	309	355	38	129	157	174	213	199	186	226	218	222	219	213	205	201	199	197	202	215	214	238	241	252	259	265	270	276	282	290	309	301	322	338	335	247	252	256	335	290	273	305	214	338	200	213	225	248	250	263	271	274	277	275	261	230	221	209	301	274	270	215	239	251	262	267	266	266	269	275	290	313	304	283	279	284	301	327	333	110	125	132	149	163	169	165	166	170	166	155	149	151	155	159	166	163	157	149	186	170	172	177	218	217	219	219	216	213	214	215	217	219	221	222	224	225	225	225	226	227	227	227	227	227	228	228	228	228	228	228	229	229	228	227	227	227	228	228	227	227	
233	233	233	232	232	232	232	232	231	231	231	230	230	230	229	229	228	227	226	225	243	224	209	201	207	213	223	245	250	256	256	252	253	253	250	261	279	308	353	10	162	167	229	217	208	198	231	225	225	224	220	212	336	210	212	207	205	210	215	215	237	238	252	261	269	272	279	291	307	291	303	322	331	320	238	347	313	280	282	225	209	311	219	223	221	248	258	258	268	279	274	273	246	228	216	27	283	261	266	274	217	234	253	264	263	262	272	291	312	332	323	281	274	297	345	51	93	134	139	140	151	174	204	200	173	171	173	159	146	143	138	139	144	137	131	134	187	168	168	175	219	218	219	219	217	214	215	216	217	219	222	223	224	225	225	225	226	226	227	227	227	227	228	228	228	228	228	229	229	229	227	227	227	228	228	227	227	227	
233	233	232	232	232	231	231	231	231	231	230	230	229	229	228	227	227	226	224	223	223	221	248	209	209	213	221	241	248	259	261	252	249	248	250	267	293	333	358	148	168	165	222	207	240	235	231	228	226	226	221	213	211	217	222	220	213	213	219	216	218	234	244	252	268	273	281	295	291	286	300	302	300	314	316	309	282	279	308	222	204	286	204	254	252	242	257	261	265	273	282	269	241	227	215	205	281	202	258	269	275	238	248	253	263	268	294	48	67	347	332	281	276	324	19	74	128	149	148	141	137	144	164	246	240	177	171	170	168	166	157	150	148	144	143	143	131	175	166	171	171	218	220	219	217	215	216	217	217	219	223	224	224	224	224	225	226	226	227	227	227	227	228	228	228	228	228	229	230	229	228	227	228	228	228	227	227	227	
233	233	232	232	232	231	231	231	231	230	230	229	229	228	227	226	225	224	222	221	219	216	215	214	214	216	219	238	244	256	261	255	249	252	263	283	315	334	160	163	177	171	221	204	236	233	231	229	228	227	221	214	215	222	237	229	224	247	219	219	219	219	231	246	259	268	270	281	281	286	301	301	269	306	305	275	261	291	223	223	206	196	201	207	212	237	237	258	260	268	281	263	239	228	217	204	292	201	212	266	275	277	258	249	257	283	248	237	342	330	311	281	291	1	72	116	145	158	158	154	146	143	147	162	247	241	180	167	167	174	175	168	161	156	153	150	142	187	167	168	175	217	219	218	215	215	216	217	217	219	223	225	224	223	224	225	226	227	227	227	227	227	228	228	228	228	228	229	230	229	228	228	229	228	227	227	227	227	
232	232	232	232	231	231	231	231	230	230	230	229	228	227	226	225	224	223	221	218	214	211	214	217	218	221	218	236	234	248	254	247	247	257	270	296	312	207	177	192	177	232	218	238	233	231	230	229	227	224	311	215	217	223	231	233	228	223	232	219	219	219	220	229	249	263	268	268	265	279	291	277	292	306	289	278	290	249	224	221	211	197	196	202	207	231	230	249	253	261	283	256	237	228	218	204	304	199	210	227	266	271	270	265	261	292	242	239	24	315	284	282	318	21	110	138	151	156	154	148	149	152	148	141	169	250	244	236	182	170	170	169	168	164	159	150	149	196	174	168	173	218	219	218	215	214	216	217	216	217	221	224	223	222	223	225	226	226	227	227	227	228	228	228	228	228	228	228	229	229	228	229	229	228	227	226	226	226	
232	232	232	231	231	231	231	231	230	229	229	228	228	227	226	224	223	221	219	215	210	206	211	219	222	222	220	238	233	244	245	247	252	263	278	312	253	195	176	191	167	230	216	235	231	229	228	226	223	221	220	219	219	224	227	294	228	224	303	219	219	219	220	228	243	251	274	260	251	260	266	265	275	258	259	287	237	223	221	215	327	321	197	200	204	208	213	226	247	254	280	249	238	229	220	207	300	198	206	216	246	260	258	262	276	311	242	236	350	282	270	303	39	108	136	142	148	152	147	138	136	136	133	124	115	139	251	252	248	218	190	184	176	171	162	151	151	153	179	166	169	172	220	217	216	214	215	216	215	215	220	223	221	220	221	224	225	225	226	226	227	228	228	228	227	228	228	228	228	228	228	228	228	227	227	227	227	227	
232	232	232	231	231	231	231	230	230	229	229	228	227	226	225	223	222	220	217	213	207	202	206	218	223	223	245	240	233	243	244	247	253	263	284	313	248	191	169	168	164	165	214	230	227	224	221	219	216	217	220	222	221	223	257	283	233	230	225	285	222	221	221	230	228	245	259	277	247	233	237	269	256	258	290	169	222	223	216	324	285	306	316	208	206	208	213	220	227	246	268	251	238	229	220	349	302	199	201	207	236	246	255	259	279	322	234	21	292	264	294	95	131	145	150	150	151	153	156	157	213	228	231	232	233	237	94	134	256	184	181	168	162	159	157	155	155	201	188	179	174	172	220	218	217	215	215	217	216	215	220	224	222	219	220	223	224	225	226	227	227	228	228	228	227	227	227	228	229	228	227	227	227	227	227	227	227	227	
232	232	231	231	231	231	231	230	230	229	228	227	227	225	224	223	221	218	215	211	204	196	201	219	224	244	245	244	249	245	246	248	252	263	289	295	237	199	164	168	171	223	212	226	223	218	213	11	211	214	218	220	221	248	251	281	237	234	228	317	283	258	226	229	232	245	253	279	247	225	230	273	253	167	213	225	226	223	214	303	210	292	218	322	306	205	212	221	229	231	252	250	240	228	220	308	290	309	197	199	209	229	245	259	280	263	220	299	278	303	123	152	158	159	160	157	156	158	161	162	158	202	156	226	225	229	98	236	58	61	72	124	132	144	152	146	145	147	192	193	193	188	219	218	218	216	214	216	217	217	223	225	223	219	220	223	225	226	226	227	227	228	228	228	227	227	227	227	228	228	228	228	227	226	226	226	226	226	
232	232	231	231	231	231	230	230	229	229	228	227	226	225	223	222	220	217	214	209	202	191	196	219	225	244	245	247	258	251	250	250	251	260	298	247	214	194	180	200	176	219	210	225	221	215	208	206	208	212	217	220	246	245	247	276	253	234	227	224	310	289	274	236	236	237	248	261	224	203	179	184	225	224	231	229	226	222	213	311	212	221	304	217	210	304	210	221	230	248	254	249	242	227	316	290	284	331	318	196	208	222	243	252	313	150	131	95	107	157	163	163	167	164	162	162	164	166	166	167	163	161	161	158	153	155	152	140	148	236	177	151	149	153	157	154	153	152	187	185	191	191	193	217	216	214	212	214	217	220	224	226	224	221	220	222	225	226	226	226	226	227	228	228	227	226	226	226	227	228	229	229	228	226	226	226	226	226	
232	232	231	231	231	231	230	229	229	228	227	227	226	224	223	221	219	216	212	207	200	188	190	217	240	243	245	266	267	263	257	255	254	259	306	212	200	190	185	204	177	218	211	222	219	214	207	203	204	209	214	218	240	240	259	270	246	234	225	220	304	277	281	282	236	237	261	270	234	237	231	232	233	233	231	227	225	232	224	318	210	219	297	223	218	209	210	219	228	233	254	278	239	317	277	268	288	221	338	200	224	215	240	223	202	186	171	176	186	189	186	175	169	165	165	169	172	175	177	177	170	168	164	162	160	159	153	149	147	147	155	158	158	159	162	164	163	155	188	181	183	186	217	217	215	211	211	213	218	223	225	226	225	222	221	222	224	224	225	225	225	225	227	228	227	226	227	227	227	228	228	228	227	227	227	226	226	226	
231	231	231	231	231	230	230	229	229	228	227	226	225	224	222	220	218	215	211	205	197	187	188	214	236	238	256	265	268	270	268	266	266	267	226	216	195	189	188	204	180	217	209	222	218	214	207	200	201	206	212	231	231	252	256	266	271	234	223	217	284	265	282	296	271	261	264	301	236	239	234	233	230	228	226	223	226	228	218	314	208	217	292	228	221	212	246	215	226	231	250	291	243	287	266	265	283	310	295	222	214	214	226	205	209	201	189	185	189	194	196	192	187	181	173	169	168	166	174	181	181	174	174	172	174	170	167	165	162	168	171	171	172	173	177	177	166	151	190	179	180	181	180	179	215	211	212	215	221	226	226	226	225	223	222	223	224	224	225	225	225	224	226	228	226	226	227	228	228	228	228	227	227	227	227	226	226	226	
231	231	231	231	230	230	229	229	229	228	227	226	225	224	222	220	217	214	210	204	196	185	186	211	233	245	252	261	269	271	269	269	274	260	220	211	197	226	217	206	227	217	224	223	219	215	10	201	199	204	210	214	226	251	256	265	265	235	221	213	266	257	279	297	276	265	269	317	238	218	231	194	253	230	223	224	273	282	219	313	209	219	274	228	222	212	236	210	221	226	252	277	279	279	220	267	279	217	278	282	211	225	200	203	207	205	195	184	183	190	197	198	197	194	187	180	171	165	163	172	177	177	181	183	178	173	176	178	182	185	183	179	172	169	169	160	149	132	199	193	180	178	178	178	216	213	214	217	223	226	225	225	224	223	222	224	225	225	225	226	225	225	227	229	227	226	227	228	228	228	228	227	227	227	226	225	225	225	
231	231	231	231	230	230	229	229	229	228	227	226	225	223	221	219	216	213	208	202	194	184	180	205	230	246	247	255	262	267	271	274	269	252	251	245	232	222	217	232	228	219	224	223	219	216	213	205	199	203	209	213	222	247	249	262	256	236	220	220	252	251	271	280	266	261	271	295	233	221	202	199	218	225	223	221	278	276	220	314	212	220	291	227	222	215	286	206	217	222	235	267	271	260	260	276	242	217	213	177	212	219	217	218	221	221	205	194	187	193	197	201	200	198	195	191	182	175	167	164	164	164	167	169	162	146	137	146	154	159	159	149	130	109	92	89	106	122	118	202	189	180	178	178	216	215	217	219	223	225	224	223	223	222	222	224	225	225	226	226	225	226	229	229	227	226	227	228	228	228	228	227	227	227	226	225	225	225	
231	231	231	231	230	230	229	229	228	228	227	226	225	223	221	219	216	212	207	201	192	183	176	189	228	251	248	251	256	261	277	288	251	252	247	237	240	239	237	234	230	226	224	222	227	217	338	12	201	205	211	214	218	241	240	260	246	234	219	284	245	250	263	266	263	267	269	281	227	214	212	225	227	226	221	316	289	273	260	318	212	218	295	226	221	214	304	205	216	222	234	251	270	224	296	225	172	177	179	212	207	208	207	211	214	214	214	208	198	188	193	202	204	202	201	197	189	183	177	169	166	159	159	160	166	175	168	157	156	159	159	201	221	213	195	126	125	129	134	133	187	179	178	178	217	216	218	220	223	226	225	223	223	222	223	225	224	224	225	225	225	227	228	228	228	227	228	228	228	227	227	227	227	226	226	225	224	224	
231	231	231	230	230	230	229	229	228	228	227	226	224	223	221	219	215	211	206	199	190	181	172	186	235	263	240	235	250	259	307	253	254	251	248	244	242	240	238	235	232	228	224	221	219	221	219	212	205	208	215	230	222	218	236	256	255	227	222	234	234	244	260	290	174	197	210	211	206	213	210	214	223	254	293	217	222	268	221	299	213	219	306	226	218	210	300	253	217	224	236	230	252	243	203	196	191	225	215	206	197	240	240	240	242	243	210	208	199	188	187	221	223	221	220	217	211	206	202	191	184	176	168	167	169	168	169	166	166	170	178	181	174	170	154	136	132	129	140	144	188	180	178	220	217	217	218	220	224	227	226	226	226	226	226	226	225	224	225	226	226	227	228	228	228	228	228	228	228	227	227	226	226	226	226	224	223	223	
231	231	231	230	230	230	230	229	228	228	227	226	224	223	221	218	215	211	206	198	189	178	163	172	240	249	270	241	257	257	240	254	251	250	248	246	244	241	239	236	233	228	224	221	223	235	221	211	205	208	223	223	222	249	237	252	260	221	211	248	245	205	212	178	184	194	205	213	209	222	206	202	206	246	208	211	225	226	231	293	213	222	255	228	218	212	265	213	219	225	233	255	254	210	203	241	228	215	242	198	189	243	241	244	246	242	240	239	237	231	190	213	212	213	214	214	211	209	206	204	200	196	192	187	181	172	172	167	166	169	175	172	173	175	177	163	135	140	147	150	188	179	177	218	217	217	218	221	225	227	226	227	228	228	228	228	228	227	226	227	227	227	227	228	228	228	228	228	228	227	226	226	226	226	226	224	223	223	
231	231	230	230	230	230	229	229	228	228	227	225	224	223	221	218	215	211	206	197	187	174	152	157	235	264	271	269	240	269	250	220	237	234	243	243	241	240	238	236	233	227	222	223	227	227	217	347	205	209	220	218	246	240	254	252	186	219	205	204	206	201	189	184	183	190	202	211	215	210	194	215	207	234	204	206	255	214	223	247	225	235	236	225	219	214	259	215	221	232	227	251	288	187	188	229	216	206	245	245	245	242	229	247	250	251	249	249	232	227	220	213	206	204	245	245	244	243	242	206	202	200	202	203	198	191	184	174	171	165	168	167	166	169	173	170	158	149	149	151	185	220	176	218	218	218	220	223	225	225	225	227	228	228	227	228	229	228	228	228	227	227	228	229	229	228	228	228	228	227	226	226	226	225	225	224	223	223	
231	231	231	231	230	230	229	229	228	228	227	226	225	223	221	219	216	211	205	197	186	172	147	148	226	234	262	264	229	268	227	218	178	231	237	238	238	236	235	234	230	227	221	226	274	223	214	222	210	214	218	217	237	255	253	228	189	187	190	195	200	201	191	185	181	188	202	213	217	214	205	194	197	192	202	207	207	199	261	217	217	245	220	218	212	229	262	227	223	222	247	264	222	173	156	144	159	188	185	249	247	249	247	249	254	255	253	251	251	249	247	246	245	245	246	247	247	244	242	241	238	232	227	227	226	222	216	193	190	184	174	173	172	169	169	169	168	159	155	155	186	219	220	219	219	219	221	223	224	223	226	229	230	227	226	226	226	226	227	228	228	228	229	229	229	228	229	228	228	227	226	226	226	225	225	224	223	223	
231	231	231	231	230	230	229	229	228	228	227	226	225	224	222	219	216	212	206	197	187	170	152	156	213	241	252	224	246	234	227	219	235	236	235	236	235	235	233	229	339	219	222	228	229	222	214	218	212	217	219	216	234	221	228	200	180	182	186	193	201	203	192	196	179	185	203	213	217	216	209	196	198	196	200	206	208	208	210	214	215	223	219	215	206	262	202	207	211	215	218	243	172	171	157	148	162	181	179	168	239	251	251	254	260	261	258	256	254	252	250	249	247	246	245	250	252	252	243	241	237	231	225	246	227	223	219	214	212	210	204	198	179	174	178	181	173	167	162	161	191	217	219	219	218	219	221	223	223	222	227	231	231	228	226	225	223	224	227	228	229	229	230	230	229	229	229	228	227	226	225	226	226	225	225	224	223	223	
231	231	231	230	230	230	229	229	229	228	227	226	225	224	222	220	217	212	207	199	188	172	161	167	212	237	230	228	220	222	210	223	214	235	236	236	234	231	228	341	221	220	223	282	228	220	214	215	215	222	223	256	225	231	237	200	186	183	187	197	204	210	194	230	222	174	205	212	217	219	209	201	197	198	200	204	208	210	212	216	217	215	203	210	210	214	224	223	222	217	226	219	197	175	152	151	149	180	147	127	241	243	248	256	115	264	264	263	261	258	255	252	251	249	249	251	256	259	258	257	255	254	253	255	255	252	248	244	242	241	212	207	203	200	184	178	183	180	216	166	198	178	171	217	217	218	221	223	221	221	225	230	231	230	227	225	223	225	228	229	229	230	231	230	230	229	228	228	227	226	226	227	226	225	224	224	223	223	
231	231	231	230	230	230	230	229	229	228	228	227	225	224	222	220	217	214	208	201	190	175	166	166	207	238	236	218	219	223	224	213	220	212	226	223	231	214	350	224	222	222	227	232	227	219	287	213	219	225	255	230	195	239	240	211	186	180	186	194	204	212	205	231	222	209	199	215	219	220	210	199	196	199	202	203	207	211	216	219	220	220	208	194	192	200	212	213	216	220	225	221	238	183	200	160	141	134	131	235	232	236	242	250	255	259	112	265	265	265	260	256	254	254	255	257	262	266	264	261	259	258	259	262	264	263	261	258	255	252	248	244	241	239	237	233	183	186	218	213	205	217	176	218	218	220	221	222	220	220	225	232	234	232	229	226	224	225	228	228	228	229	230	230	229	229	228	229	229	228	227	227	225	223	223	222	221	221	
231	231	230	230	230	230	230	230	229	228	228	227	226	224	223	221	218	215	210	204	193	179	169	159	169	246	220	218	220	225	229	226	231	215	220	287	226	229	229	225	222	224	254	235	229	220	213	214	219	239	320	233	182	241	242	205	193	179	178	211	219	227	210	227	225	211	193	212	227	223	213	224	211	197	202	204	208	213	217	220	222	223	209	194	192	198	215	217	218	223	225	222	214	207	209	225	216	203	232	230	231	234	238	242	246	251	256	259	118	265	263	259	256	257	260	249	141	267	268	266	264	262	263	264	267	271	274	274	270	264	259	255	250	247	243	237	233	191	180	175	208	221	219	220	221	221	222	223	222	223	230	234	234	232	229	225	223	225	227	228	227	228	229	229	229	228	229	230	229	228	227	226	224	223	222	221	220	220	
231	231	230	230	230	230	230	230	229	228	228	227	226	225	224	222	220	217	212	207	197	184	170	150	156	250	222	221	225	229	231	228	215	227	211	217	217	219	219	216	217	224	236	232	227	219	214	216	219	271	233	216	188	157	241	240	234	185	206	205	225	226	227	221	227	215	180	215	223	229	217	219	207	193	202	203	208	214	219	224	229	228	211	194	188	194	215	219	218	224	228	224	222	211	193	227	220	230	230	230	231	233	233	238	241	244	247	251	254	256	258	257	255	254	257	259	258	258	262	264	264	263	262	262	264	269	276	281	280	275	271	266	262	260	256	252	249	244	238	234	212	199	223	215	210	220	221	224	226	228	231	233	232	231	229	225	223	224	227	228	228	229	230	230	229	228	229	231	230	228	227	225	222	222	222	220	218	218	
231	231	231	231	231	230	230	230	229	229	228	228	227	226	224	223	221	218	215	210	202	189	170	142	145	249	225	227	233	235	234	227	216	209	204	217	215	212	237	213	211	250	226	227	304	261	213	214	219	231	170	210	189	236	157	222	220	212	196	223	225	233	224	215	229	215	207	212	225	234	227	215	230	219	199	201	207	214	222	230	235	235	210	192	181	187	215	219	223	224	227	225	224	223	230	208	222	227	228	229	231	233	232	232	233	229	239	242	245	248	249	249	249	250	252	251	248	249	251	255	256	256	254	254	256	260	266	274	278	278	276	274	270	267	265	263	260	254	247	244	242	235	212	218	223	222	223	227	230	232	233	232	231	231	229	226	223	224	228	230	230	232	234	231	229	230	231	231	231	229	227	225	222	221	221	219	218	218	
231	231	231	231	231	230	230	230	229	229	229	228	227	226	225	224	222	220	217	213	206	195	176	139	144	246	229	233	238	237	234	226	214	209	208	207	214	214	213	214	222	251	220	262	244	220	210	215	225	172	173	168	164	167	159	156	161	200	186	222	226	237	221	187	230	216	179	213	224	233	228	211	230	219	196	201	210	220	228	233	237	237	209	236	225	178	211	218	222	227	226	226	223	221	216	227	211	223	222	222	208	174	159	166	156	226	235	237	240	243	244	243	244	247	249	245	243	243	245	247	248	247	246	247	251	254	257	260	263	267	270	271	271	269	273	266	263	256	250	247	268	258	221	188	227	225	227	230	232	235	236	234	233	233	232	229	225	226	231	233	234	236	236	233	231	232	233	233	232	230	227	225	222	220	220	219	218	218	
231	231	231	231	231	230	230	230	230	229	229	228	228	227	226	225	224	222	219	216	211	202	185	150	155	243	238	242	242	238	231	221	212	216	214	215	216	217	217	207	209	212	222	260	215	212	212	205	174	179	175	169	166	165	162	211	189	157	233	222	230	241	244	185	229	218	174	214	225	234	228	209	229	218	192	203	217	224	228	234	241	242	210	235	227	172	205	214	222	226	230	228	223	217	219	220	198	199	219	216	180	168	162	170	230	233	232	234	236	239	238	238	241	243	243	241	241	242	247	247	248	240	239	242	247	250	251	252	252	254	256	258	260	262	261	259	255	249	244	241	296	248	236	186	228	227	229	231	233	236	237	235	235	235	235	233	229	229	233	236	237	238	237	234	233	234	235	235	233	231	228	225	222	220	219	217	216	216	
231	231	231	231	231	231	230	230	230	229	229	229	228	228	227	226	225	223	221	218	214	207	194	176	172	217	246	248	245	238	228	217	215	210	210	212	213	228	213	214	215	217	214	227	217	216	218	206	193	182	180	173	167	164	162	160	189	166	153	228	237	245	244	239	230	220	172	212	226	234	225	239	229	218	212	206	217	224	229	235	243	245	205	243	227	206	201	213	222	224	228	227	219	212	220	226	219	228	180	192	184	177	187	231	234	237	231	232	235	245	243	236	254	237	235	237	241	244	245	244	242	243	248	251	254	257	260	245	244	243	243	244	248	251	251	246	241	238	236	237	304	237	216	185	228	228	230	232	234	238	239	237	237	238	239	237	235	234	237	239	239	239	239	237	236	237	238	238	236	233	230	227	224	221	217	213	212	212	
231	231	231	231	231	231	231	230	230	230	229	229	229	228	228	227	226	225	223	220	217	212	202	190	172	197	249	247	241	235	225	214	237	232	229	229	232	215	220	221	220	218	234	233	217	217	218	221	207	194	185	183	175	165	160	200	185	240	238	238	248	251	248	243	233	223	208	211	224	234	220	236	227	216	210	211	218	224	229	234	243	244	199	241	225	207	186	211	220	224	228	223	210	209	221	228	222	211	231	186	209	210	217	231	233	235	239	241	242	240	236	240	234	233	232	234	236	238	241	242	240	241	242	245	247	249	250	249	249	254	233	233	236	239	241	240	238	236	235	312	238	232	216	230	228	230	232	234	237	240	241	238	238	240	242	242	240	239	242	242	240	241	242	242	242	242	243	241	240	238	235	232	227	222	213	206	206	206	
231	231	231	231	231	231	231	230	230	230	230	230	229	229	228	228	227	226	224	222	220	216	208	194	167	187	250	246	238	232	219	240	229	225	229	231	213	222	230	232	227	219	238	236	234	233	233	218	219	208	186	190	193	228	222	236	237	238	239	245	257	262	257	248	238	224	209	212	225	234	213	234	226	216	208	211	219	224	228	241	241	246	199	228	224	212	166	201	216	223	227	216	204	211	225	227	220	219	219	231	225	231	229	230	232	233	235	236	236	232	215	235	245	230	232	233	269	271	279	279	282	234	235	238	240	272	270	241	239	242	245	249	253	251	248	228	227	228	353	12	174	227	215	228	229	232	234	236	240	243	243	240	238	241	244	246	244	243	245	246	245	247	249	249	249	249	248	246	245	244	242	238	232	222	207	197	196	196	
231	231	231	231	231	231	231	231	230	230	230	230	230	229	229	228	228	227	226	224	222	219	212	198	166	179	251	247	237	229	238	230	233	230	231	233	219	231	241	244	232	244	244	245	201	239	235	234	234	219	204	186	195	226	225	232	233	234	236	240	250	261	264	257	246	228	211	214	226	232	235	195	228	216	199	213	221	225	228	240	240	242	199	224	224	215	199	194	211	224	222	208	204	219	228	225	221	225	226	224	227	233	235	227	229	230	264	239	183	172	177	230	245	229	232	262	265	264	264	275	282	229	231	273	270	267	262	252	245	230	232	234	238	235	225	215	201	122	114	147	164	174	214	205	230	234	235	238	243	247	246	243	241	244	251	253	250	247	248	250	248	255	255	255	255	255	253	253	234	252	249	248	244	228	198	181	180	180	
231	231	231	231	231	231	231	231	231	231	231	230	230	230	230	229	228	228	227	226	224	221	216	203	168	178	250	242	233	224	232	238	230	228	231	224	236	238	243	246	235	251	205	201	197	239	235	233	235	236	217	203	187	198	226	225	230	231	233	234	238	245	253	260	257	237	217	219	227	227	230	200	227	213	206	214	222	226	230	240	240	232	202	218	225	219	206	194	207	225	233	208	213	222	226	222	223	227	226	227	231	225	231	229	233	239	240	227	213	175	191	231	241	245	247	250	255	278	256	261	266	266	268	270	270	263	251	238	221	221	223	220	221	194	169	165	174	166	153	162	225	221	215	209	233	236	238	242	247	251	250	246	243	249	256	258	254	251	252	255	259	261	263	263	263	262	260	261	261	262	265	270	275	275	165	135	138	138	
231	231	231	231	231	231	231	231	231	231	231	231	230	230	230	229	229	229	228	227	226	224	220	210	178	185	248	238	236	230	244	235	227	226	222	232	235	239	243	245	248	254	185	185	190	240	236	234	234	232	233	215	199	187	225	225	224	229	229	229	231	235	239	243	246	242	237	232	227	230	233	220	225	211	207	216	223	227	230	241	234	223	208	193	228	223	214	200	204	221	226	226	225	224	224	222	223	225	227	229	230	231	232	230	227	228	223	220	219	234	254	232	235	237	268	271	275	272	270	267	250	252	252	251	250	245	234	212	185	180	179	163	172	168	161	160	180	179	230	228	225	238	237	236	238	241	244	248	254	256	254	250	249	257	262	263	259	257	258	261	265	270	266	264	283	283	279	269	261	261	242	292	312	339	11	67	88	88	
231	231	231	231	231	231	231	231	231	231	231	231	231	231	230	230	230	230	229	229	228	226	223	217	199	202	243	243	234	226	242	233	225	223	225	229	234	238	243	242	245	249	249	247	156	181	238	235	234	233	229	230	215	206	192	224	222	221	226	225	226	227	230	231	231	232	237	237	219	223	231	218	225	213	211	220	225	228	239	233	224	218	211	195	199	226	220	211	181	209	215	221	225	221	224	226	224	228	233	235	234	228	218	215	215	191	217	217	224	243	250	225	225	257	260	261	267	264	265	263	261	238	249	241	228	201	147	159	167	171	202	202	204	183	196	194	231	233	232	237	240	243	244	245	246	250	255	260	263	261	257	255	255	269	272	273	266	253	259	260	265	241	247	252	258	249	241	197	213	228	243	294	315	342	7	53	84	84	
231	231	231	231	231	231	232	231	231	231	231	231	231	231	231	231	231	230	230	230	229	228	226	223	215	211	244	251	232	245	240	229	221	221	224	229	233	241	241	240	242	245	244	242	240	237	183	237	235	234	234	227	227	227	208	190	222	220	216	213	221	221	222	223	222	220	220	220	206	202	221	229	200	215	216	224	232	238	231	219	216	216	215	208	197	227	223	217	204	189	198	220	227	217	225	228	228	237	243	243	236	224	217	218	221	220	181	213	221	224	226	236	244	251	239	247	257	252	253	249	247	248	172	135	163	170	183	185	213	208	224	227	230	231	231	233	237	239	241	243	246	249	250	252	256	261	268	275	277	270	258	255	258	279	284	286	294	201	225	235	246	281	289	293	298	302	311	316	268	253	239	209	202	198	196	188	178	178	
231	231	231	232	232	232	232	232	232	232	232	231	231	232	232	231	231	231	231	231	230	230	229	228	224	218	240	252	250	245	238	227	219	222	228	233	236	242	241	249	250	244	243	240	238	235	234	183	232	233	233	232	226	227	226	205	183	195	215	211	206	215	216	216	213	212	211	210	205	191	201	221	219	214	219	233	233	231	222	214	214	217	218	218	209	192	226	221	208	186	193	214	225	227	233	235	240	245	243	242	228	218	218	223	226	225	213	187	194	209	212	223	232	231	219	228	239	241	241	231	207	127	183	189	195	225	227	221	213	226	229	233	236	237	236	237	241	248	253	257	260	259	255	255	260	271	280	287	299	299	217	224	243	278	285	285	295	300	262	252	241	212	204	202	202	201	200	198	200	205	204	203	202	201	200	199	199	199	
231	231	231	232	232	232	232	232	232	232	232	232	232	232	232	232	232	232	231	231	231	231	231	230	228	223	240	252	250	245	237	227	222	227	233	236	238	244	241	248	239	206	241	234	238	236	233	228	227	230	231	232	232	227	227	214	205	191	178	177	195	190	186	174	214	208	202	210	207	197	191	206	214	217	224	231	233	223	216	212	210	214	219	221	214	203	189	221	215	195	182	203	224	228	234	233	247	245	244	231	218	215	221	226	229	226	217	207	199	192	187	196	156	172	192	214	224	230	218	143	154	170	188	185	227	226	225	222	228	229	234	240	243	243	242	243	249	260	274	287	295	300	249	244	250	256	289	299	300	307	303	247	239	211	203	201	199	196	200	205	205	204	203	202	202	202	201	199	200	203	205	206	209	210	211	213	214	214	
231	231	232	232	232	232	232	232	232	232	232	232	232	232	232	232	232	232	232	232	232	232	232	232	231	228	239	251	246	243	235	227	225	230	235	236	236	243	249	243	227	198	238	233	235	233	231	230	147	229	230	232	233	235	226	218	212	205	196	187	180	176	173	172	170	168	203	195	212	205	194	196	210	221	231	230	232	232	231	230	227	228	233	222	216	211	205	222	208	203	187	195	217	230	231	231	243	240	231	229	215	219	230	233	231	225	217	209	204	202	202	205	205	199	191	180	158	157	168	178	179	197	185	219	216	226	230	232	232	234	243	256	259	256	251	251	252	254	272	289	301	314	302	243	239	215	206	203	201	199	196	200	204	203	202	201	200	198	199	203	204	206	209	210	210	209	209	209	210	211	212	213	214	216	217	218	219	219	
231	232	232	232	232	232	232	232	232	232	232	232	232	232	232	232	232	233	233	233	233	233	233	233	233	233	241	250	248	242	235	229	229	233	234	233	244	247	241	232	222	209	190	230	226	230	228	228	228	153	226	232	236	238	240	224	216	210	206	199	195	198	191	183	180	181	204	197	188	213	203	197	209	226	236	230	232	230	228	226	224	226	232	235	234	230	230	224	211	210	192	195	213	229	232	239	240	234	227	224	224	230	238	239	232	223	217	210	204	203	205	208	208	206	202	201	200	195	189	187	184	195	181	211	208	217	224	231	233	233	238	250	256	255	249	241	236	222	209	210	209	206	202	204	204	202	202	202	201	200	198	199	202	205	208	208	208	208	209	210	211	212	213	214	214	214	214	214	215	216	216	217	218	219	220	221	222	222	
232	232	232	232	232	232	232	232	232	232	232	232	232	232	233	233	233	233	233	233	233	233	234	234	234	235	241	248	247	242	236	232	232	232	249	245	240	236	230	225	220	214	204	187	224	215	228	227	225	222	210	228	236	239	242	224	222	217	212	207	204	201	196	190	185	209	203	197	223	220	214	208	218	234	242	245	231	230	225	223	221	224	229	232	231	227	228	226	212	217	197	198	214	229	238	243	241	249	246	242	233	242	245	241	230	221	217	209	202	201	205	209	208	207	204	201	203	202	196	190	186	197	190	215	214	220	224	228	229	225	222	220	218	215	213	214	212	205	205	207	207	205	203	202	203	204	206	208	208	208	208	208	209	211	212	213	213	213	213	214	215	216	216	216	217	217	217	217	218	218	219	220	221	221	222	224	224	224	
232	232	232	232	232	232	232	232	233	233	233	233	233	233	233	233	233	233	233	233	234	234	234	235	235	235	237	240	239	236	234	231	230	231	243	238	234	227	224	220	217	215	213	205	189	213	228	228	227	225	195	224	234	239	242	243	221	215	211	205	201	201	199	222	216	209	202	228	227	226	225	224	234	247	252	253	253	253	251	248	247	246	249	251	250	249	248	246	239	225	205	205	221	234	244	243	247	245	240	240	249	253	250	242	229	220	213	204	198	196	202	209	209	198	203	209	211	213	216	215	214	214	227	233	237	235	231	228	225	222	219	217	214	211	209	210	210	210	211	212	212	212	211	210	210	211	212	212	213	213	213	213	214	214	215	215	216	216	216	217	217	218	219	219	219	219	220	220	220	221	221	222	222	223	224	225	225	225	
232	232	232	232	232	232	232	233	233	233	233	233	233	233	233	233	233	233	233	234	234	235	235	235	235	235	233	232	231	231	231	231	230	233	230	229	227	227	220	217	217	218	217	212	200	188	208	227	226	225	224	189	231	240	243	241	245	244	212	238	233	228	224	220	215	209	232	230	230	231	234	241	252	261	263	262	262	260	256	254	253	253	255	255	254	253	251	249	244	234	219	217	233	245	249	247	253	247	242	254	254	255	252	246	232	198	202	208	209	209	217	216	219	216	244	252	260	278	284	282	276	264	252	245	241	237	233	228	225	224	223	221	219	216	215	215	216	216	216	216	216	216	215	215	215	215	215	215	215	215	216	216	217	217	217	218	218	218	219	219	219	220	220	220	221	221	221	222	222	222	223	223	224	225	225	226	226	226	
232	232	232	232	232	232	233	233	233	233	233	233	233	233	233	233	233	233	234	234	234	235	235	236	236	236	233	229	228	231	232	232	235	239	222	224	223	222	222	221	224	226	225	222	218	213	205	202	225	223	223	222	227	239	244	239	240	239	237	234	230	224	222	219	237	234	231	229	230	234	242	250	260	269	273	273	271	268	264	261	260	260	262	262	262	260	257	256	251	244	235	236	252	263	267	263	257	252	246	248	226	225	230	225	225	220	242	249	258	276	284	284	281	271	262	259	261	271	279	279	274	264	253	244	237	234	231	229	227	226	224	223	221	220	219	219	219	219	219	218	218	218	218	217	217	217	218	218	218	218	218	218	219	219	219	219	220	220	220	221	221	221	222	222	222	223	223	223	223	224	224	225	225	226	226	227	227	227	
232	232	232	232	232	233	233	233	233	233	233	233	233	233	233	233	234	234	234	235	235	235	236	236	237	238	237	233	232	236	238	233	238	241	242	245	246	245	220	221	223	224	223	221	219	217	211	201	188	224	222	222	225	235	244	249	236	249	233	247	245	244	243	243	240	237	232	228	229	235	243	251	258	267	276	281	280	277	272	267	265	267	270	269	266	266	269	272	270	261	255	260	274	278	278	274	268	262	262	264	264	269	279	282	280	272	263	259	261	272	281	282	279	272	263	257	255	256	259	259	256	251	246	241	237	234	231	230	228	226	225	224	223	222	221	221	221	220	220	220	220	220	220	220	219	219	219	219	220	220	220	220	220	221	221	221	221	222	222	222	222	223	223	223	223	224	224	224	225	225	225	226	226	227	227	228	228	228	
232	232	232	232	233	233	233	233	233	233	233	233	233	233	234	234	234	234	234	235	235	236	236	237	238	240	242	242	243	245	245	243	236	239	240	241	243	244	245	245	247	224	222	220	221	221	215	207	232	226	218	224	226	232	242	250	251	251	249	247	247	247	246	245	243	240	235	231	230	236	242	249	254	261	270	281	288	289	287	280	273	268	270	274	267	265	269	273	273	267	260	262	271	272	272	273	272	268	265	265	264	268	277	281	279	273	265	259	257	258	262	264	263	260	258	256	254	253	252	251	249	246	242	239	236	234	232	230	228	227	226	225	224	223	223	222	222	222	222	222	221	221	221	221	221	221	221	221	221	221	221	222	222	222	222	222	222	223	223	223	223	224	224	224	224	225	225	225	226	226	226	227	227	227	228	228	229	229	
232	232	232	233	233	233	233	233	233	233	233	233	233	234	234	234	234	234	234	235	236	236	237	238	239	242	245	248	251	254	252	250	250	250	251	239	239	239	241	242	246	247	246	245	246	246	244	239	235	228	221	213	230	232	240	249	252	253	252	250	251	250	250	248	247	245	241	238	239	243	247	249	252	255	257	265	274	279	281	276	265	261	261	257	252	243	242	239	236	235	237	238	243	254	259	261	263	264	262	261	260	261	264	266	264	262	260	258	256	256	256	256	256	254	253	251	250	249	248	246	244	242	240	237	235	233	232	230	229	228	227	226	225	224	224	223	223	223	223	223	223	222	222	222	222	222	222	222	222	222	223	223	223	223	223	223	224	224	224	224	224	225	225	225	225	226	226	226	226	227	227	227	227	228	228	229	229	229	
232	232	233	233	233	233	233	233	233	233	233	234	234	234	234	234	234	234	234	235	235	236	237	238	239	242	246	250	253	256	257	257	256	255	255	254	253	252	252	253	243	244	242	242	244	245	242	236	241	239	236	235	235	236	239	247	251	252	252	254	257	259	260	259	255	252	247	243	244	245	245	243	242	237	230	227	230	230	231	229	232	235	235	233	232	234	234	233	232	231	233	234	238	247	253	256	257	258	258	258	257	258	258	258	258	257	255	254	253	252	252	252	251	250	249	248	247	246	244	243	242	240	238	236	235	233	232	230	229	228	227	226	226	225	225	224	224	224	224	224	223	223	223	223	223	223	223	223	223	224	224	224	224	224	224	224	224	224	225	225	225	225	226	226	226	226	226	227	227	227	227	228	228	228	229	229	229	229	
232	232	233	233	233	233	233	233	233	233	234	234	234	234	234	234	234	234	235	235	236	237	238	238	240	242	246	249	250	254	259	261	260	259	257	256	256	256	257	257	257	256	254	252	252	251	248	245	243	241	238	238	241	243	246	250	253	252	251	251	254	257	258	257	252	242	234	227	228	229	227	227	226	240	242	220	225	227	227	226	227	229	231	231	233	235	237	236	236	237	237	239	242	245	249	252	253	254	254	254	254	254	254	254	254	253	252	251	250	250	249	249	248	247	247	246	245	243	242	241	240	238	237	235	234	233	231	230	229	228	228	227	226	226	225	225	225	225	224	224	224	224	224	224	224	224	224	224	224	224	224	224	224	225	225	225	225	225	225	226	226	226	226	226	226	227	227	227	227	228	228	228	228	229	229	229	229	229	
233	233	233	233	233	233	233	233	233	234	234	234	234	234	234	234	235	235	235	235	237	238	238	238	239	241	245	246	245	250	257	261	263	262	260	259	259	259	260	260	260	259	258	258	257	255	252	249	246	243	239	239	241	243	245	247	249	247	243	237	234	231	229	227	224	221	217	217	223	225	225	224	223	222	222	225	230	232	232	232	232	233	235	236	237	237	237	238	238	239	239	240	242	244	246	248	249	250	251	251	252	252	252	251	251	251	250	249	249	248	247	247	246	245	244	243	243	242	241	239	238	237	236	235	233	232	231	230	229	229	228	227	227	226	226	225	225	225	225	225	225	225	225	225	225	225	225	225	225	225	225	225	225	225	225	225	225	226	226	226	226	226	226	227	227	227	227	228	228	228	228	229	229	229	229	230	230	230	
233	233	233	233	233	233	233	233	234	234	234	234	234	234	234	235	235	235	235	236	237	238	238	238	239	240	243	243	241	244	251	255	259	261	262	262	263	264	264	264	264	263	262	261	260	258	255	251	247	243	239	236	235	233	231	230	231	232	230	228	227	225	224	222	220	218	218	220	226	229	229	229	228	228	229	231	233	233	233	233	234	235	236	236	237	238	238	239	239	239	240	241	242	243	245	246	247	248	249	250	250	250	250	249	249	249	248	248	247	246	246	245	244	244	243	242	241	240	239	238	237	236	235	234	233	232	231	230	229	228	228	227	227	226	226	226	226	226	225	225	225	225	225	225	225	225	225	225	225	225	225	225	225	225	226	226	226	226	226	227	227	227	227	227	227	228	228	228	228	228	229	229	229	229	230	230	230	230	
233	233	233	233	233	233	233	234	234	234	234	234	234	234	235	235	235	235	235	237	238	238	238	238	239	239	240	240	238	239	243	248	253	256	259	260	262	263	264	264	263	263	262	260	258	256	252	249	245	241	237	234	232	230	229	228	228	228	229	229	230	229	228	227	225	224	224	226	228	229	230	230	230	231	232	233	234	234	234	234	235	235	236	236	237	237	238	238	239	240	240	241	242	243	244	245	246	247	248	248	248	248	248	248	248	247	247	246	246	245	245	244	243	243	242	241	240	239	238	237	236	235	234	233	232	231	230	230	229	228	228	227	227	227	226	226	226	226	226	225	225	225	225	225	225	225	225	225	225	226	226	226	226	226	226	226	226	227	227	227	227	227	227	228	228	228	228	228	228	229	229	229	229	230	230	230	230	230	
233	233	233	233	233	233	234	234	234	234	234	234	234	235	235	235	236	236	237	238	238	238	238	238	238	238	238	237	234	231	235	241	246	249	252	253	255	256	256	256	256	257	257	257	255	253	249	246	243	239	237	235	234	233	232	232	231	232	232	232	231	230	229	228	227	227	227	228	229	230	230	231	231	232	232	233	234	234	235	235	236	236	237	237	238	238	238	239	239	240	240	241	242	243	244	245	246	246	247	247	247	247	247	247	247	247	246	246	245	244	244	243	242	242	241	240	239	238	237	236	235	234	233	232	232	231	230	229	229	228	228	227	227	227	226	226	226	226	226	226	226	226	225	225	225	225	225	226	226	226	226	226	226	226	226	227	227	227	227	227	227	227	228	228	228	228	228	229	229	229	229	229	230	230	230	230	231	231	
233	233	233	233	233	233	234	234	234	234	234	234	234	235	235	235	236	236	237	238	239	238	238	238	238	238	237	235	231	228	231	237	242	245	248	250	251	252	252	252	253	254	255	255	254	252	249	245	242	239	237	235	234	233	233	232	232	232	232	232	231	230	228	228	227	227	228	228	229	230	230	231	231	232	233	233	234	234	235	235	236	237	237	237	238	238	239	239	239	240	240	241	242	243	244	245	246	246	246	247	247	247	247	247	247	246	246	246	245	244	244	243	242	241	240	239	239	238	237	236	235	234	233	232	231	231	230	229	229	228	228	227	227	227	226	226	226	226	226	226	226	226	226	225	226	226	226	226	226	226	226	226	226	226	226	227	227	227	227	227	227	227	228	228	228	228	229	229	229	229	229	230	230	230	230	231	231	231	
