ncols	178
nrows	225
xllcorner	1669333.329241
yllcorner	496308.452995
cellsize	90.000000
NODATA_value	nan
3.92	3.96	4.03	4.13	4.25	4.40	4.58	4.83	5.12	5.46	5.81	6.13	6.34	6.33	6.16	5.87	5.52	5.17	4.77	4.59	4.39	2.73	2.08	1.60	1.20	0.98	0.79	0.62	1.00	0.63	0.36	3.04	2.61	2.88	2.86	2.91	2.99	3.17	3.37	3.56	3.75	3.95	4.14	4.28	4.36	4.43	4.50	4.52	4.50	4.48	4.44	4.37	4.30	4.24	4.18	4.08	4.26	4.12	2.91	2.31	1.88	1.67	1.71	1.81	1.84	1.94	2.00	1.91	1.82	1.77	1.64	1.45	1.31	1.89	1.59	1.39	1.24	1.08	3.03	3.03	3.03	3.03	3.03	3.04	3.12	3.24	3.35	3.46	3.55	3.63	3.69	3.74	3.77	3.79	3.80	3.82	3.83	3.84	3.85	3.87	3.88	3.89	3.91	3.91	3.92	3.93	3.93	3.90	3.87	3.85	3.84	3.85	3.86	3.87	3.89	3.91	3.92	3.93	3.94	3.96	3.97	3.99	4.03	4.06	4.08	4.11	4.14	4.17	4.21	4.26	4.30	4.35	4.41	4.48	4.58	4.70	4.85	5.04	5.24	5.43	5.58	5.73	5.88	6.01	6.12	6.22	6.35	6.48	6.55	6.60	6.65	6.69	6.72	6.73	6.68	6.59	6.50	6.45	6.39	6.31	6.23	6.16	6.14	6.18	6.13	6.01	5.81	5.56	5.27	4.99	4.76	4.56	4.39	4.33	4.13	9.71	4.01	4.01	
3.92	3.96	4.03	4.13	4.25	4.40	4.58	4.83	5.12	5.46	5.81	6.13	6.34	6.33	6.16	5.87	5.52	5.17	4.77	4.59	4.39	2.73	2.08	1.60	1.20	0.98	0.79	0.62	1.00	0.63	0.36	3.04	2.61	2.88	2.86	2.91	2.99	3.17	3.37	3.56	3.75	3.95	4.14	4.28	4.36	4.43	4.50	4.52	4.50	4.48	4.44	4.37	4.30	4.24	4.18	4.08	4.26	4.12	2.91	2.31	1.88	1.67	1.71	1.81	1.84	1.94	2.00	1.91	1.82	1.77	1.64	1.45	1.31	1.89	1.59	1.39	1.24	1.08	3.03	3.03	3.03	3.03	3.03	3.04	3.12	3.24	3.35	3.46	3.55	3.63	3.69	3.74	3.77	3.79	3.80	3.82	3.83	3.84	3.85	3.87	3.88	3.89	3.91	3.91	3.92	3.93	3.93	3.90	3.87	3.85	3.84	3.85	3.86	3.87	3.89	3.91	3.92	3.93	3.94	3.96	3.97	3.99	4.03	4.06	4.08	4.11	4.14	4.17	4.21	4.26	4.30	4.35	4.41	4.48	4.58	4.70	4.85	5.04	5.24	5.43	5.58	5.73	5.88	6.01	6.12	6.22	6.35	6.48	6.55	6.60	6.65	6.69	6.72	6.73	6.68	6.59	6.50	6.45	6.39	6.31	6.23	6.16	6.14	6.18	6.13	6.01	5.81	5.56	5.27	4.99	4.76	4.56	4.39	4.33	4.13	9.71	4.01	4.01	
3.88	3.91	3.97	4.06	4.16	4.28	4.44	4.63	4.87	5.13	5.41	5.67	5.84	5.81	6.12	5.72	5.31	4.98	4.66	4.55	1.96	2.61	2.33	1.99	1.70	1.48	1.23	1.04	0.94	0.70	2.81	2.67	2.28	2.66	2.70	2.79	2.91	3.11	3.32	3.49	3.67	3.83	3.99	4.13	4.21	4.27	4.34	4.37	4.37	4.35	4.33	4.28	4.24	4.19	4.15	3.97	4.10	2.63	2.57	2.30	1.90	1.60	1.49	1.42	1.27	1.20	1.23	1.14	1.00	1.02	0.97	0.81	0.72	1.27	1.10	1.06	1.01	2.83	2.83	2.88	2.91	2.93	2.94	2.97	3.07	3.19	3.31	3.42	3.52	3.60	3.67	3.71	3.75	3.77	3.79	3.81	3.82	3.83	3.84	3.86	3.87	3.88	3.89	3.90	3.90	3.91	3.93	3.91	3.88	3.86	3.84	3.84	3.85	3.85	3.87	3.89	3.90	3.92	3.93	3.95	3.96	3.98	4.01	4.04	4.07	4.10	4.13	4.16	4.19	4.23	4.28	4.32	4.37	4.44	4.52	4.62	4.74	4.89	5.06	5.23	5.37	5.49	5.61	5.72	5.82	5.91	6.02	6.12	6.20	6.49	6.47	6.44	6.41	6.37	6.31	6.26	6.18	6.11	6.04	6.34	6.19	6.06	5.94	5.85	5.77	5.68	5.53	5.36	5.16	4.96	4.79	4.62	4.45	4.41	4.31	4.12	4.09	4.09	
3.78	3.81	3.86	3.93	4.00	4.08	4.17	4.30	4.46	4.62	4.80	5.05	5.10	5.79	5.55	6.60	6.95	6.70	4.59	4.65	2.49	2.73	2.60	2.41	2.26	2.11	1.94	1.73	1.56	1.57	2.77	2.53	2.25	2.63	2.69	2.77	2.89	3.06	3.23	3.39	3.53	3.66	3.80	3.92	3.99	4.04	4.12	4.17	4.19	4.20	4.20	4.19	4.18	4.15	4.09	3.94	4.17	2.33	2.42	2.35	2.11	1.95	1.92	1.82	1.67	1.65	1.68	1.59	1.51	1.56	1.52	1.40	1.40	1.09	1.10	1.17	1.23	2.65	2.70	2.79	2.85	2.88	2.88	2.93	3.04	3.15	3.26	3.37	3.47	3.55	3.62	3.68	3.72	3.75	3.77	3.79	3.80	3.81	3.82	3.84	3.85	3.86	3.87	3.88	3.88	3.91	3.93	3.92	3.89	3.87	3.85	3.84	3.84	3.84	3.84	3.86	3.88	3.90	3.92	3.94	3.95	3.96	3.98	4.01	4.03	4.06	4.09	4.12	4.15	4.19	4.23	4.27	4.31	4.35	4.41	4.48	4.57	4.67	4.80	4.92	5.02	5.11	5.20	5.28	5.36	5.42	6.07	6.08	6.06	6.00	5.96	6.99	7.06	7.11	6.94	6.78	6.59	6.39	6.21	6.03	7.05	7.04	7.02	6.85	6.58	6.32	6.07	5.77	5.50	5.25	4.81	4.67	4.53	4.46	4.44	4.33	4.26	4.26	
3.68	3.71	3.76	3.81	3.86	3.91	3.98	4.06	4.17	4.31	4.45	4.65	4.70	5.46	6.31	6.81	7.06	7.33	6.26	4.97	2.61	2.74	2.72	2.63	2.52	2.40	2.28	2.02	1.94	2.02	2.91	2.58	2.75	2.72	2.76	2.80	2.91	3.06	3.19	3.32	3.44	3.57	3.70	3.82	3.88	3.95	4.02	4.08	4.13	4.16	4.47	4.40	4.36	4.26	4.07	4.06	0.88	2.27	2.35	2.36	2.25	2.18	2.17	2.09	2.00	2.03	2.02	1.93	1.92	1.95	1.88	1.81	1.35	1.33	1.38	1.44	1.50	2.65	2.72	2.79	2.85	2.87	2.86	2.93	3.03	3.13	3.24	3.34	3.44	3.52	3.59	3.65	3.69	3.72	3.75	3.77	3.79	3.80	3.81	3.82	3.83	3.84	3.86	3.86	3.87	3.91	3.93	3.91	3.89	3.87	3.85	3.84	3.84	3.83	3.83	3.85	3.86	3.87	3.90	3.91	3.93	3.94	3.96	3.98	4.00	4.02	4.04	4.07	4.10	4.14	4.18	4.21	4.24	4.27	4.31	4.36	4.43	4.51	4.62	4.73	4.80	4.88	4.96	5.03	5.07	5.81	5.82	5.82	5.76	6.74	6.86	6.95	7.03	7.01	7.12	7.17	7.22	7.21	7.23	7.23	7.23	7.23	7.24	7.18	7.15	7.17	7.15	7.31	7.35	5.24	5.07	4.73	4.57	4.41	4.42	4.46	4.42	4.42	
3.58	3.61	3.66	3.69	3.73	3.77	3.82	3.89	3.96	4.08	4.23	4.38	5.33	5.24	6.42	7.06	7.46	7.50	6.18	2.06	2.74	2.82	2.82	2.76	2.68	2.58	2.50	2.24	2.23	3.08	2.94	2.64	2.82	2.81	2.82	2.84	2.93	3.06	3.17	3.28	3.38	3.50	3.63	3.73	3.80	3.88	3.98	4.05	4.11	4.15	4.45	4.39	4.35	4.24	3.97	4.15	1.76	2.32	2.40	2.40	2.35	2.35	2.37	2.31	2.26	2.31	2.28	2.22	2.24	2.24	2.16	2.12	1.54	1.56	1.62	1.67	2.65	2.69	2.75	2.80	2.84	2.85	2.86	2.93	3.03	3.12	3.22	3.32	3.42	3.50	3.57	3.62	3.66	3.70	3.72	3.75	3.77	3.78	3.79	3.80	3.81	3.83	3.85	3.85	3.86	3.91	3.93	3.90	3.88	3.87	3.85	3.83	3.83	3.82	3.82	3.83	3.84	3.85	3.87	3.88	3.89	3.91	3.93	3.95	3.97	3.99	4.01	4.03	4.05	4.08	4.10	4.13	4.15	4.18	4.21	4.25	4.31	4.38	4.47	4.56	4.64	4.71	4.78	4.84	4.89	5.62	5.63	5.61	6.55	6.66	6.82	6.91	7.00	7.11	7.18	7.24	7.29	7.31	7.34	7.39	7.43	7.46	7.44	7.41	7.39	7.47	7.56	7.76	7.70	7.60	5.09	5.06	4.68	4.58	4.50	4.61	4.53	4.53	
3.50	3.52	3.57	3.60	3.62	3.65	3.69	3.74	3.80	3.91	4.07	4.22	5.15	5.08	6.61	7.20	7.59	7.66	5.09	2.50	2.83	2.91	2.91	2.87	2.81	2.71	2.65	2.42	2.46	3.14	2.91	2.68	2.89	2.88	2.88	2.90	2.97	3.06	3.16	3.25	3.34	3.47	3.59	3.67	3.74	3.84	3.94	4.03	4.10	4.49	4.44	4.40	4.34	4.24	4.00	4.34	1.98	2.36	2.45	2.46	2.44	2.49	2.52	2.47	2.47	2.52	2.49	2.44	2.46	2.42	2.34	2.34	1.74	1.76	1.81	1.85	2.67	2.72	2.79	2.83	2.85	2.84	2.87	2.94	3.03	3.12	3.22	3.31	3.40	3.48	3.55	3.61	3.65	3.68	3.70	3.73	3.74	3.76	3.77	3.78	3.80	3.82	3.83	3.84	3.87	3.91	3.91	3.89	3.87	3.86	3.84	3.83	3.82	3.81	3.81	3.81	3.82	3.83	3.85	3.87	3.87	3.89	3.91	3.93	3.95	3.97	3.98	3.99	4.01	4.03	4.05	4.06	4.08	4.09	4.12	4.15	4.20	4.28	4.36	4.43	4.51	4.58	4.65	4.70	5.49	5.46	5.46	5.44	6.45	6.60	6.77	6.84	6.98	7.15	7.25	7.28	7.35	7.42	7.45	7.51	7.60	7.63	7.60	7.64	7.64	7.82	7.98	8.01	7.89	7.71	7.24	5.17	4.89	8.80	4.67	4.72	4.66	4.66	
3.42	3.44	3.48	3.51	3.52	3.54	3.58	3.63	3.69	3.80	4.01	4.10	5.03	6.12	6.87	7.52	7.69	7.74	1.26	2.72	2.88	2.96	2.96	2.91	2.86	2.80	2.63	2.57	2.64	3.20	2.89	2.99	2.94	2.93	2.92	2.97	3.03	3.09	3.17	3.24	3.33	3.45	3.56	3.64	3.72	3.83	3.93	4.02	4.09	4.46	4.42	4.39	4.33	4.18	4.16	4.75	2.09	2.39	2.50	2.50	2.52	2.60	2.61	2.59	2.64	2.68	2.64	2.62	2.64	2.57	2.49	1.87	1.88	1.92	1.96	2.01	2.71	2.77	2.82	2.84	2.85	2.83	2.87	2.95	3.03	3.12	3.21	3.30	3.39	3.47	3.54	3.59	3.63	3.66	3.68	3.71	3.72	3.74	3.75	3.77	3.79	3.81	3.81	3.83	3.88	3.91	3.89	3.87	3.86	3.85	3.83	3.82	3.80	3.80	3.79	3.79	3.80	3.81	3.83	3.85	3.86	3.87	3.89	3.90	3.91	3.94	3.95	3.96	3.97	3.99	4.01	4.02	4.02	4.03	4.04	4.07	4.11	4.19	4.27	4.32	4.39	4.45	4.51	4.56	5.31	5.30	5.32	5.27	6.38	6.56	6.73	6.80	6.95	7.15	7.25	7.30	7.40	7.52	7.55	7.58	7.70	7.76	7.77	7.73	7.83	8.04	8.23	8.32	8.24	7.76	7.29	5.21	5.05	4.62	4.72	4.73	4.77	4.77	
3.34	3.36	3.40	3.42	3.43	3.45	3.49	3.53	3.60	3.72	3.90	4.02	4.95	6.32	7.14	7.67	7.78	7.21	2.29	2.83	2.92	2.98	2.98	2.93	2.88	2.86	2.69	2.69	3.35	3.18	2.89	3.00	2.96	2.95	2.94	2.99	3.06	3.12	3.19	3.26	3.34	3.46	3.56	3.62	3.71	3.83	3.94	4.04	4.48	4.44	4.42	4.40	4.34	4.08	4.28	0.94	2.26	2.44	2.53	2.54	2.61	2.68	2.68	2.69	2.76	2.78	2.75	2.78	2.78	2.69	2.64	1.97	1.98	2.03	2.07	2.74	2.76	2.82	2.85	2.86	2.85	2.85	2.89	2.96	3.03	3.12	3.21	3.29	3.37	3.46	3.53	3.57	3.61	3.64	3.67	3.69	3.71	3.72	3.74	3.75	3.77	3.79	3.80	3.82	3.88	3.89	3.87	3.86	3.85	3.83	3.82	3.80	3.79	3.78	3.77	3.78	3.79	3.80	3.82	3.83	3.84	3.84	3.86	3.87	3.88	3.90	3.91	3.92	3.93	3.95	3.96	3.97	3.96	3.96	3.97	3.99	4.04	4.10	4.17	4.22	4.27	4.33	4.38	4.41	5.18	5.19	5.19	6.21	6.35	6.55	6.68	6.78	6.96	7.15	7.24	7.33	7.47	7.57	7.58	7.70	7.85	7.92	7.85	7.80	7.99	8.37	8.50	8.48	8.34	7.78	7.32	5.16	5.13	4.87	4.89	4.78	4.81	4.81	
3.27	3.29	3.32	3.34	3.36	3.37	3.40	3.45	3.53	3.66	3.84	4.87	4.88	6.58	7.40	7.77	7.90	5.26	2.54	2.85	2.97	3.00	3.00	2.98	2.94	2.94	2.77	2.81	3.36	3.11	2.89	3.04	3.00	2.97	2.97	3.01	3.06	3.13	3.19	3.26	3.35	3.46	3.55	3.62	3.72	3.84	3.95	4.05	4.45	4.43	4.42	4.40	4.34	4.05	4.38	1.70	2.42	2.51	2.57	2.61	2.70	2.75	2.75	2.80	2.86	2.85	2.84	2.88	2.85	2.78	2.77	2.10	2.09	2.11	2.15	2.74	2.78	2.85	2.88	2.88	2.86	2.87	2.92	2.98	3.05	3.13	3.21	3.29	3.36	3.45	3.52	3.56	3.59	3.62	3.65	3.67	3.69	3.70	3.72	3.73	3.76	3.77	3.79	3.83	3.87	3.87	3.85	3.84	3.84	3.82	3.81	3.79	3.77	3.76	3.76	3.76	3.77	3.78	3.80	3.82	3.83	3.83	3.83	3.85	3.86	3.87	3.88	3.88	3.89	3.90	3.90	3.89	3.89	3.88	3.88	3.91	3.96	4.02	4.09	4.14	4.19	4.24	4.28	5.10	5.07	5.09	5.08	6.16	6.34	6.54	6.63	6.79	6.99	7.14	7.23	7.35	7.51	7.59	7.64	7.81	8.02	8.04	7.87	7.88	8.23	8.60	8.68	8.72	8.46	7.71	7.19	5.31	5.26	5.04	5.05	5.02	4.92	4.92	
3.19	3.22	3.25	3.27	3.28	3.30	3.33	3.39	3.48	3.71	3.81	4.80	6.00	6.89	7.62	7.88	7.94	1.75	2.70	2.88	3.00	3.03	3.03	3.03	3.00	2.89	2.85	2.93	3.39	3.07	3.14	3.07	3.03	2.99	3.00	3.04	3.09	3.15	3.20	3.26	3.36	3.46	3.54	3.62	3.74	3.85	3.96	4.05	4.44	4.42	4.42	4.39	4.31	4.17	4.66	1.97	2.48	2.58	2.62	2.67	2.76	2.80	2.81	2.89	2.94	2.92	2.93	2.95	2.90	2.84	2.21	2.21	2.22	2.23	2.25	2.76	2.79	2.85	2.88	2.87	2.84	2.88	2.94	3.00	3.08	3.16	3.23	3.29	3.36	3.45	3.51	3.54	3.57	3.60	3.63	3.65	3.67	3.69	3.70	3.72	3.75	3.76	3.78	3.83	3.86	3.84	3.83	3.82	3.81	3.81	3.79	3.76	3.75	3.74	3.74	3.75	3.76	3.77	3.79	3.81	3.82	3.81	3.81	3.82	3.83	3.84	3.85	3.84	3.84	3.84	3.83	3.82	3.81	3.80	3.81	3.84	3.90	3.97	4.03	4.08	4.13	4.19	4.22	5.00	4.98	4.99	4.96	6.13	6.35	6.52	6.61	6.81	7.02	7.12	7.24	7.41	7.54	7.61	7.72	7.94	8.12	8.07	7.87	7.94	8.39	8.74	8.72	8.73	8.57	7.56	7.80	5.60	5.45	5.11	5.33	5.34	5.12	5.12	
3.13	3.15	3.18	3.20	3.21	3.24	3.28	3.34	3.45	3.64	3.79	4.75	6.25	7.10	7.75	7.98	5.52	2.39	2.80	2.94	3.02	3.06	3.04	3.03	3.02	2.88	2.88	2.99	3.32	3.04	3.15	3.08	3.04	3.01	3.03	3.06	3.11	3.17	3.22	3.28	3.38	3.47	3.53	3.63	3.75	3.88	3.98	4.44	4.43	4.42	4.41	4.38	4.23	4.32	1.91	2.18	2.49	2.60	2.64	2.71	2.80	2.83	2.86	2.94	2.98	2.97	3.00	3.01	2.94	2.90	2.25	2.27	2.31	2.33	2.83	2.82	2.84	2.86	2.87	2.84	2.82	2.86	2.94	3.01	3.09	3.17	3.24	3.30	3.37	3.46	3.51	3.54	3.56	3.59	3.62	3.63	3.65	3.67	3.69	3.71	3.73	3.75	3.77	3.83	3.83	3.81	3.80	3.79	3.79	3.78	3.76	3.73	3.72	3.72	3.74	3.75	3.76	3.77	3.78	3.80	3.81	3.81	3.80	3.80	3.81	3.81	3.81	3.81	3.80	3.79	3.78	3.77	3.75	3.74	3.76	3.79	3.85	3.93	3.98	4.03	4.08	4.13	4.15	4.93	4.93	4.94	5.98	6.15	6.38	6.51	6.62	6.84	7.05	7.13	7.26	7.45	7.56	7.64	7.87	8.11	8.29	8.14	7.88	8.00	8.53	8.76	8.67	8.79	8.22	5.69	10.35	5.56	5.44	5.02	10.64	5.51	5.23	5.23	
3.07	3.09	3.12	3.14	3.16	3.19	3.23	3.30	3.44	3.62	4.64	4.73	6.55	7.48	7.87	8.04	1.11	2.64	2.86	2.99	3.04	3.07	3.06	3.04	3.06	2.92	2.96	3.52	3.25	3.02	3.15	3.10	3.05	3.03	3.05	3.07	3.11	3.17	3.23	3.30	3.40	3.48	3.55	3.65	3.78	3.91	3.99	4.43	4.43	4.42	4.42	4.38	4.13	4.38	0.96	2.36	2.52	2.62	2.67	2.76	2.83	2.85	2.92	3.00	3.01	3.01	3.04	3.02	2.94	2.95	2.31	2.32	2.35	2.37	2.83	2.85	2.88	2.89	2.88	2.83	2.82	2.86	2.92	3.00	3.08	3.16	3.23	3.29	3.35	3.44	3.50	3.52	3.55	3.58	3.60	3.62	3.64	3.65	3.67	3.69	3.71	3.74	3.78	3.81	3.80	3.78	3.77	3.76	3.75	3.74	3.70	3.67	3.70	3.72	3.74	3.75	3.76	3.77	3.78	3.80	3.81	3.80	3.78	3.78	3.78	3.78	3.78	3.77	3.76	3.75	3.74	3.72	3.69	3.68	3.69	3.73	3.80	3.88	3.94	3.99	4.05	4.09	4.89	4.88	4.90	4.90	5.97	6.18	6.41	6.51	6.69	6.93	7.11	7.23	7.37	7.53	7.61	7.66	7.98	8.26	8.49	8.14	8.01	8.40	9.23	9.93	10.32	11.06	8.51	8.63	9.71	7.14	5.33	10.48	9.55	5.63	5.30	5.30	
3.02	3.03	3.06	3.08	3.11	3.14	3.19	3.27	3.43	3.63	4.60	5.87	6.89	7.68	7.99	7.76	2.16	2.78	2.93	3.03	3.08	3.09	3.09	3.08	3.00	2.96	3.04	3.51	3.19	3.25	3.17	3.12	3.06	3.05	3.07	3.11	3.15	3.18	3.24	3.32	3.41	3.47	3.56	3.68	3.82	3.93	4.41	4.42	4.43	4.42	4.41	4.39	4.13	4.51	1.64	2.47	2.57	2.66	2.71	2.79	2.85	2.89	2.98	3.04	3.03	3.05	3.08	3.02	2.96	2.35	2.35	2.37	2.38	2.41	2.84	2.86	2.88	2.88	2.86	2.84	2.85	2.89	2.94	3.01	3.08	3.15	3.21	3.27	3.34	3.42	3.47	3.49	3.52	3.56	3.58	3.60	3.62	3.63	3.65	3.68	3.69	3.72	3.77	3.79	3.77	3.75	3.73	3.72	3.72	3.70	3.65	3.60	3.70	3.74	3.75	3.76	3.77	3.77	3.78	3.79	3.80	3.79	3.77	3.76	3.76	3.76	3.75	3.74	3.72	3.70	3.68	3.65	3.62	3.60	3.62	3.67	3.75	3.83	3.89	3.95	4.03	4.08	4.84	4.85	4.90	4.90	6.02	6.24	6.44	6.54	6.79	7.06	7.19	7.26	7.46	8.13	8.47	8.53	9.70	10.40	9.62	9.33	9.10	9.45	10.53	10.95	10.77	10.81	7.86	8.37	9.20	8.23	7.91	10.21	10.16	5.74	5.60	5.60	
2.96	2.98	3.01	3.03	3.06	3.10	3.16	3.27	3.49	3.63	4.58	6.14	7.21	7.81	8.10	3.57	2.51	2.82	3.00	3.08	3.11	3.09	3.09	3.10	2.97	2.97	3.09	3.40	3.12	3.22	3.16	3.11	3.07	3.07	3.08	3.12	3.18	3.21	3.26	3.35	3.43	3.49	3.58	3.70	3.84	3.95	4.39	4.41	4.42	4.41	4.40	4.36	4.26	4.83	1.94	2.50	2.58	2.65	2.72	2.80	2.86	2.91	3.00	3.05	3.05	3.08	3.08	3.01	2.98	2.35	2.37	2.40	2.42	2.87	2.87	2.89	2.89	2.87	2.82	2.82	2.85	2.90	2.96	3.04	3.11	3.17	3.23	3.28	3.35	3.42	3.45	3.47	3.50	3.53	3.56	3.57	3.59	3.61	3.63	3.66	3.68	3.71	3.76	3.76	3.73	3.72	3.70	3.70	3.69	3.68	3.68	3.69	3.74	3.76	3.77	3.77	3.78	3.78	3.78	3.79	3.80	3.79	3.77	3.75	3.74	3.73	3.72	3.71	3.68	3.65	3.62	3.58	3.53	3.52	3.55	3.62	3.72	3.82	3.88	3.96	4.07	4.14	4.85	4.87	4.94	5.90	6.05	6.38	6.75	7.08	7.56	8.04	8.26	8.74	9.63	9.67	8.99	8.70	9.40	9.45	9.15	9.13	8.96	9.07	9.94	10.45	10.54	10.84	8.66	8.12	9.38	9.00	9.71	10.13	9.82	5.67	5.95	5.95	
2.90	2.92	2.95	2.98	3.01	3.06	3.13	3.26	3.49	4.45	5.45	6.48	7.49	7.95	8.12	1.81	2.68	2.88	3.03	3.10	3.11	3.09	3.10	3.11	2.97	3.02	3.59	3.31	3.09	3.23	3.16	3.10	3.08	3.07	3.09	3.12	3.17	3.22	3.28	3.37	3.44	3.51	3.61	3.74	3.88	3.96	4.40	4.42	4.42	4.41	4.39	4.28	4.40	2.68	2.14	2.48	2.58	2.64	2.73	2.82	2.87	2.94	3.03	3.06	3.05	3.08	3.05	2.98	2.99	2.36	2.38	2.40	2.43	2.86	2.88	2.91	2.91	2.87	2.82	2.82	2.85	2.89	2.95	3.03	3.11	3.18	3.23	3.28	3.37	3.42	3.44	3.47	3.50	3.52	3.55	3.56	3.58	3.59	3.62	3.65	3.67	3.72	3.75	3.74	3.71	3.69	3.68	3.68	3.68	3.68	3.70	3.73	3.76	3.78	3.79	3.79	3.79	3.78	3.78	3.78	3.79	3.78	3.76	3.73	3.72	3.71	3.69	3.67	3.64	3.60	3.56	3.51	3.45	3.42	3.45	3.55	3.72	3.89	3.98	4.05	4.13	5.22	5.13	5.07	5.08	6.61	7.21	7.63	7.89	7.93	7.86	8.41	8.80	8.70	8.41	8.18	7.87	7.92	8.55	8.83	8.67	9.01	9.06	8.99	9.74	10.55	10.67	10.82	9.66	8.74	9.59	9.62	9.59	10.01	8.90	8.88	10.73	10.73	
2.86	2.87	2.90	2.93	2.98	3.04	3.11	3.26	3.49	4.41	5.69	6.85	7.70	8.09	5.25	2.41	2.79	2.97	3.06	3.10	3.11	3.11	3.10	3.12	3.00	3.08	3.56	3.22	3.29	3.22	3.16	3.10	3.08	3.09	3.10	3.14	3.19	3.23	3.30	3.38	3.45	3.53	3.64	3.78	3.90	4.38	4.40	4.43	4.42	4.41	4.39	4.16	4.48	0.61	2.32	2.48	2.59	2.66	2.76	2.84	2.89	2.97	3.03	3.04	3.06	3.08	3.02	2.97	2.37	2.38	2.38	2.39	2.43	2.85	2.87	2.89	2.87	2.83	2.79	2.82	2.86	2.91	2.97	3.04	3.11	3.17	3.21	3.27	3.35	3.40	3.43	3.45	3.48	3.51	3.53	3.55	3.57	3.58	3.61	3.64	3.67	3.72	3.73	3.71	3.69	3.67	3.67	3.67	3.68	3.69	3.71	3.74	3.77	3.79	3.80	3.80	3.79	3.78	3.78	3.78	3.78	3.78	3.75	3.72	3.70	3.69	3.66	3.64	3.60	3.56	3.51	3.44	3.35	3.30	3.30	3.36	3.51	3.70	3.81	3.87	3.90	3.87	5.39	5.10	4.98	6.88	7.46	7.79	7.94	7.75	7.41	7.76	8.23	8.08	7.99	8.22	8.19	8.38	8.87	8.71	8.66	9.13	9.10	8.83	9.61	10.72	10.90	10.74	9.83	9.48	9.84	9.24	9.71	9.32	9.04	9.27	10.34	10.34	
2.81	2.82	2.86	2.89	2.94	3.02	3.11	3.34	3.50	4.38	6.00	7.21	7.88	8.20	1.33	2.64	2.87	3.04	3.10	3.13	3.13	3.14	3.12	3.03	3.02	3.14	3.44	3.16	3.26	3.20	3.14	3.09	3.08	3.08	3.10	3.15	3.20	3.25	3.32	3.39	3.46	3.55	3.68	3.83	3.92	4.37	4.40	4.43	4.42	4.40	4.39	4.14	4.61	1.46	2.47	2.51	2.60	2.67	2.76	2.83	2.87	2.95	3.01	3.02	3.05	3.04	2.96	2.96	2.35	2.37	2.38	2.40	2.84	2.85	2.88	2.88	2.84	2.78	2.76	2.79	2.85	2.91	2.98	3.05	3.12	3.18	3.23	3.29	3.35	3.38	3.40	3.43	3.46	3.49	3.51	3.53	3.55	3.56	3.59	3.63	3.68	3.71	3.71	3.68	3.66	3.65	3.65	3.66	3.68	3.70	3.72	3.75	3.77	3.79	3.80	3.80	3.79	3.78	3.78	3.77	3.77	3.77	3.75	3.71	3.69	3.67	3.64	3.61	3.57	3.52	3.45	3.37	3.26	3.18	3.12	3.04	3.04	3.13	3.24	3.36	3.45	3.45	3.41	4.81	4.77	4.75	6.91	7.18	7.58	7.58	7.30	7.54	7.93	7.99	8.42	8.35	7.57	7.67	8.21	8.34	8.58	8.81	8.75	9.10	10.02	10.71	10.99	10.79	10.24	10.41	9.87	8.45	8.43	9.39	9.80	10.15	9.39	9.39	
2.75	2.78	2.82	2.85	2.91	3.00	3.12	3.34	4.22	5.20	6.39	7.48	8.03	7.62	2.27	2.75	2.96	3.07	3.12	3.13	3.12	3.13	3.14	3.02	3.07	3.63	3.34	3.12	3.26	3.20	3.13	3.09	3.07	3.08	3.11	3.15	3.21	3.27	3.34	3.40	3.48	3.58	3.72	3.87	4.38	4.37	4.41	4.43	4.41	4.40	4.40	4.26	4.88	1.80	2.51	2.53	2.58	2.67	2.75	2.78	2.84	2.93	2.98	3.00	3.03	2.99	2.93	2.34	2.33	2.34	2.36	2.39	2.80	2.83	2.87	2.86	2.81	2.74	2.74	2.78	2.84	2.90	2.97	3.04	3.11	3.16	3.23	3.31	3.36	3.38	3.40	3.43	3.46	3.48	3.50	3.51	3.53	3.55	3.58	3.63	3.68	3.70	3.68	3.66	3.64	3.64	3.65	3.66	3.68	3.70	3.73	3.75	3.77	3.79	3.79	3.79	3.79	3.78	3.77	3.77	3.76	3.75	3.74	3.71	3.67	3.65	3.62	3.58	3.54	3.48	3.41	3.31	3.17	3.07	3.00	2.86	2.78	2.83	2.88	2.96	3.07	3.14	3.18	4.70	4.79	4.81	4.63	6.74	7.01	7.07	7.07	7.46	7.99	8.46	8.03	7.08	7.05	8.04	8.81	8.68	8.69	9.10	9.50	9.95	10.16	10.21	10.45	10.56	10.55	10.73	10.05	7.94	6.16	9.36	9.88	9.38	9.01	9.01	
2.70	2.72	2.77	2.83	2.88	2.96	3.11	3.34	4.18	5.46	6.80	7.70	8.15	1.24	2.61	2.83	3.02	3.09	3.12	3.13	3.14	3.13	3.15	3.04	3.12	3.60	3.26	3.32	3.25	3.19	3.11	3.08	3.07	3.08	3.12	3.17	3.23	3.30	3.36	3.42	3.50	3.61	3.76	3.91	4.37	4.38	4.43	4.43	4.41	4.38	4.35	4.49	5.36	1.98	2.46	2.54	2.58	2.67	2.74	2.76	2.83	2.91	2.94	2.97	2.99	2.92	2.90	2.30	2.30	2.32	2.33	2.37	2.77	2.81	2.84	2.81	2.75	2.69	2.70	2.76	2.83	2.91	2.98	3.05	3.10	3.14	3.21	3.29	3.33	3.35	3.38	3.42	3.44	3.47	3.49	3.50	3.52	3.55	3.59	3.65	3.68	3.68	3.67	3.64	3.62	3.63	3.65	3.66	3.68	3.70	3.73	3.75	3.77	3.78	3.79	3.79	3.79	3.78	3.77	3.76	3.75	3.74	3.73	3.70	3.66	3.63	3.60	3.56	3.51	3.45	3.38	3.27	3.11	2.98	2.91	2.80	2.73	2.82	2.89	2.90	2.88	2.88	2.95	4.76	4.90	4.88	4.72	4.52	6.71	6.69	6.85	7.47	8.13	7.87	7.09	6.98	7.69	8.52	8.63	8.31	8.34	9.19	9.93	10.18	10.10	9.88	9.78	10.06	10.55	10.90	10.75	6.84	6.13	8.64	9.99	9.45	10.40	10.40	
2.65	2.67	2.72	2.79	2.86	2.95	3.12	3.36	4.16	5.83	7.16	7.93	8.02	2.03	2.75	2.95	3.09	3.13	3.15	3.15	3.16	3.15	3.06	3.06	3.19	3.47	3.20	3.30	3.24	3.18	3.11	3.07	3.07	3.09	3.14	3.19	3.25	3.32	3.38	3.44	3.54	3.65	3.82	3.93	4.37	4.39	4.43	4.44	4.41	4.38	4.24	4.65	1.09	2.27	2.44	2.53	2.57	2.64	2.69	2.71	2.78	2.86	2.90	2.93	2.91	2.83	2.84	2.24	2.25	2.27	2.30	2.75	2.76	2.80	2.81	2.77	2.68	2.65	2.67	2.73	2.81	2.88	2.97	3.05	3.09	3.14	3.22	3.29	3.31	3.33	3.36	3.39	3.41	3.44	3.47	3.47	3.48	3.53	3.62	3.68	3.65	3.65	3.66	3.61	3.60	3.62	3.64	3.66	3.68	3.70	3.72	3.74	3.76	3.78	3.78	3.79	3.78	3.77	3.76	3.75	3.74	3.73	3.71	3.69	3.65	3.61	3.58	3.54	3.49	3.43	3.35	3.24	3.08	2.90	2.79	2.68	2.59	2.66	2.86	2.98	2.92	2.75	2.68	2.82	4.87	4.96	4.92	4.83	4.73	6.71	6.76	7.08	7.33	7.29	7.39	7.62	8.04	8.36	8.38	8.02	7.95	8.91	9.60	9.79	9.88	9.70	9.58	9.93	10.40	10.94	10.92	6.64	5.54	9.52	9.99	10.16	10.46	10.46	
2.61	2.64	2.68	2.76	2.85	2.96	3.19	3.99	4.93	6.28	7.45	8.12	2.87	2.51	2.82	3.04	3.12	3.16	3.17	3.15	3.15	3.16	3.05	3.10	3.64	3.37	3.16	3.30	3.24	3.17	3.11	3.08	3.07	3.10	3.15	3.20	3.28	3.34	3.39	3.47	3.57	3.70	3.86	4.39	4.37	4.41	4.43	4.43	4.39	4.38	4.18	4.76	1.15	2.48	2.46	2.49	2.55	2.61	2.62	2.64	2.73	2.80	2.82	2.84	2.78	2.73	2.20	2.17	2.18	2.20	2.24	2.67	2.72	2.77	2.77	2.71	2.61	2.59	2.65	2.72	2.80	2.87	2.95	3.02	3.06	3.13	3.23	3.28	3.29	3.31	3.35	3.39	3.40	3.43	3.47	3.45	3.44	3.49	3.65	3.73	3.62	3.63	3.68	3.61	3.57	3.61	3.64	3.66	3.68	3.70	3.72	3.74	3.75	3.77	3.78	3.78	3.78	3.77	3.76	3.74	3.73	3.72	3.70	3.68	3.65	3.61	3.57	3.53	3.48	3.42	3.34	3.23	3.09	2.92	2.75	2.59	2.43	2.39	2.55	2.79	2.89	2.74	2.57	2.63	2.85	4.94	5.12	5.05	4.92	4.65	6.47	6.52	6.93	7.37	7.66	7.88	8.14	8.17	8.23	8.12	8.01	8.71	9.23	9.37	9.48	9.53	9.89	10.16	10.27	10.89	10.89	6.43	5.55	9.22	10.11	10.13	10.19	10.19	
2.56	2.60	2.66	2.73	2.84	2.97	3.19	3.93	5.24	6.72	7.74	8.12	1.79	2.71	2.91	3.09	3.14	3.16	3.16	3.14	3.14	3.18	3.07	3.17	3.61	3.29	3.36	3.29	3.23	3.15	3.08	3.06	3.07	3.11	3.16	3.22	3.30	3.35	3.40	3.49	3.61	3.76	3.89	4.37	4.37	4.42	4.44	4.41	4.36	4.39	4.32	5.02	1.61	2.52	2.47	2.47	2.53	2.58	2.54	2.55	2.65	2.70	2.73	2.71	2.62	2.61	2.07	2.06	2.08	2.09	2.15	2.60	2.67	2.73	2.69	2.61	2.54	2.52	2.59	2.68	2.77	2.86	2.94	2.99	3.01	3.11	3.22	3.26	3.27	3.28	3.33	3.37	3.38	3.41	3.46	3.45	3.42	3.46	3.67	3.80	3.64	3.59	3.67	3.62	3.57	3.60	3.64	3.66	3.67	3.69	3.71	3.73	3.75	3.76	3.77	3.77	3.77	3.76	3.75	3.74	3.73	3.71	3.69	3.67	3.64	3.60	3.56	3.52	3.47	3.41	3.33	3.23	3.12	2.98	2.82	2.63	2.41	2.24	2.22	2.42	2.67	2.67	2.52	2.48	2.62	4.77	5.06	5.07	4.91	4.71	6.45	6.48	6.90	7.36	7.53	7.77	8.13	8.08	8.12	8.25	8.32	8.77	9.22	9.33	9.40	9.78	10.14	10.16	10.27	10.84	10.10	6.51	5.47	8.80	10.06	10.25	9.51	9.51	
2.52	2.56	2.64	2.72	2.82	2.97	3.21	3.92	5.70	7.14	8.03	5.32	2.34	2.78	3.00	3.12	3.15	3.16	3.16	3.18	3.18	3.10	3.10	3.24	3.49	3.23	3.32	3.26	3.21	3.13	3.04	3.02	3.07	3.12	3.18	3.25	3.32	3.36	3.42	3.51	3.65	3.81	4.38	4.36	4.37	4.42	4.45	4.39	4.30	4.34	4.59	5.53	1.96	2.50	2.44	2.41	2.45	2.47	2.40	2.41	2.51	2.58	2.59	2.53	2.45	2.48	1.91	1.92	1.93	1.95	2.49	2.52	2.64	2.69	2.62	2.51	2.44	2.45	2.53	2.63	2.72	2.83	2.94	2.96	2.95	3.06	3.19	3.24	3.26	3.27	3.31	3.36	3.37	3.38	3.42	3.43	3.41	3.42	3.62	3.81	3.70	3.57	3.61	3.60	3.57	3.59	3.63	3.65	3.67	3.69	3.70	3.72	3.74	3.75	3.76	3.77	3.76	3.76	3.75	3.73	3.72	3.70	3.68	3.66	3.63	3.60	3.56	3.51	3.46	3.41	3.33	3.24	3.14	3.03	2.89	2.72	2.49	2.26	2.11	2.19	2.45	2.55	2.43	2.35	2.44	2.69	4.84	4.87	4.84	4.81	6.69	6.66	6.96	7.29	7.41	7.57	7.98	8.11	8.18	8.35	8.54	8.89	9.39	9.67	9.93	9.88	9.71	10.24	10.33	10.77	9.36	6.23	5.23	8.39	9.80	9.08	10.25	10.25	
2.48	2.53	2.62	2.72	2.81	2.99	3.70	4.62	6.18	7.54	8.15	1.46	2.60	2.88	3.10	3.16	3.16	3.18	3.19	3.22	3.22	3.09	3.15	3.66	3.39	3.18	3.31	3.25	3.17	3.11	3.04	3.03	3.10	3.15	3.20	3.27	3.32	3.35	3.42	3.54	3.70	3.85	4.38	4.34	4.36	4.43	4.46	4.36	4.26	4.20	4.77	3.24	2.32	2.44	2.35	2.30	2.31	2.25	2.15	2.18	2.33	2.43	2.39	2.29	2.26	1.78	1.71	1.77	1.78	1.80	2.30	2.36	2.54	2.65	2.59	2.44	2.34	2.36	2.47	2.59	2.68	2.79	2.94	2.98	2.92	3.00	3.13	3.19	3.23	3.26	3.29	3.34	3.38	3.39	3.39	3.40	3.39	3.41	3.57	3.80	3.78	3.60	3.56	3.57	3.55	3.58	3.62	3.64	3.66	3.68	3.70	3.71	3.73	3.75	3.75	3.76	3.76	3.75	3.74	3.73	3.71	3.69	3.67	3.65	3.62	3.59	3.55	3.51	3.46	3.40	3.34	3.25	3.16	3.06	2.94	2.78	2.59	2.36	2.14	2.09	2.28	2.45	2.40	2.31	2.37	2.56	2.77	4.69	4.82	4.83	4.60	6.54	6.78	7.00	7.08	7.32	7.83	8.16	8.50	8.64	8.67	8.94	9.53	10.08	9.91	9.47	9.84	10.20	10.27	10.52	8.82	6.09	5.13	8.50	9.69	9.60	8.70	8.70	
2.44	2.49	2.60	2.70	2.81	3.05	3.66	5.02	6.67	7.88	5.99	2.33	2.76	3.01	3.17	3.18	3.18	3.20	3.21	3.22	3.23	3.10	3.22	3.63	3.31	3.38	3.30	3.24	3.15	3.09	3.06	3.08	3.13	3.17	3.22	3.29	3.33	3.35	3.42	3.56	3.76	4.42	4.39	4.31	4.33	4.41	4.42	4.32	4.24	4.09	4.91	1.22	2.47	2.32	2.17	2.10	2.11	2.02	1.89	2.03	2.32	2.23	1.93	1.81	1.82	1.40	1.28	1.41	1.52	2.27	2.11	2.12	2.28	2.44	2.51	2.42	2.30	2.31	2.41	2.55	2.64	2.73	2.90	3.01	2.95	2.98	3.08	3.13	3.19	3.24	3.27	3.31	3.36	3.39	3.39	3.38	3.37	3.39	3.52	3.77	3.85	3.66	3.56	3.56	3.54	3.57	3.61	3.63	3.65	3.67	3.69	3.70	3.72	3.74	3.75	3.75	3.75	3.75	3.74	3.73	3.71	3.69	3.67	3.65	3.62	3.58	3.55	3.51	3.46	3.40	3.34	3.27	3.19	3.09	2.98	2.84	2.67	2.47	2.23	2.09	2.17	2.35	2.37	2.28	2.28	2.42	2.59	4.59	4.75	4.86	4.74	4.52	6.64	6.66	6.67	7.06	7.68	8.18	8.73	8.92	8.84	8.94	9.28	9.63	9.64	9.70	10.04	10.31	10.22	9.80	8.05	5.82	5.11	8.30	9.41	8.68	11.12	11.12	
2.40	2.46	2.58	2.69	2.83	3.09	3.69	5.55	7.20	8.10	1.22	2.56	2.88	3.12	3.19	3.17	3.18	3.21	3.24	3.23	3.26	3.16	3.32	3.53	3.28	3.37	3.31	3.24	3.16	3.10	3.08	3.09	3.14	3.18	3.23	3.28	3.30	3.33	3.40	3.56	3.80	4.46	4.39	4.30	4.31	4.36	4.35	4.17	4.04	4.16	5.25	1.81	2.61	2.23	1.86	1.58	1.39	1.10	0.91	0.92	1.09	1.07	0.96	0.94	1.12	1.18	0.95	0.87	0.90	2.30	2.09	1.96	2.02	2.08	2.19	2.25	2.24	2.27	2.36	2.49	2.60	2.68	2.85	3.01	2.97	2.99	3.06	3.08	3.14	3.20	3.25	3.29	3.33	3.37	3.38	3.37	3.36	3.36	3.45	3.71	3.88	3.75	3.58	3.54	3.53	3.55	3.59	3.62	3.64	3.66	3.68	3.70	3.71	3.73	3.74	3.74	3.75	3.74	3.74	3.72	3.71	3.69	3.66	3.64	3.61	3.58	3.55	3.51	3.46	3.40	3.35	3.29	3.21	3.12	3.01	2.89	2.74	2.57	2.37	2.18	2.15	2.23	2.26	2.16	2.11	2.23	2.45	2.59	4.66	4.77	4.79	4.68	4.49	6.46	6.45	6.85	7.48	8.10	8.55	8.90	8.96	8.66	8.83	9.34	9.72	9.91	10.29	10.64	9.93	8.11	6.83	5.41	5.10	7.72	9.06	10.19	11.53	11.53	
2.38	2.44	2.57	2.70	2.85	3.11	4.31	6.10	7.71	6.43	2.22	2.70	3.01	3.17	3.18	3.17	3.19	3.24	3.27	3.27	3.18	3.26	3.72	3.47	3.27	3.40	3.34	3.26	3.17	3.12	3.09	3.11	3.14	3.18	3.23	3.26	3.25	3.28	3.35	3.55	3.86	4.53	4.43	4.30	4.33	4.38	4.28	3.98	3.78	4.12	5.41	2.54	2.37	1.75	1.34	0.98	0.87	0.80	0.54	0.25	0.44	0.54	0.52	0.58	0.81	1.15	0.95	0.74	0.57	0.63	2.25	2.05	1.98	1.91	1.84	1.90	2.05	2.18	2.29	2.41	2.53	2.61	2.78	2.97	2.96	2.99	3.05	3.04	3.10	3.15	3.20	3.24	3.30	3.36	3.36	3.36	3.36	3.34	3.40	3.63	3.87	3.86	3.67	3.57	3.53	3.53	3.58	3.61	3.63	3.65	3.67	3.69	3.70	3.72	3.73	3.73	3.74	3.74	3.73	3.72	3.70	3.68	3.66	3.64	3.61	3.58	3.55	3.52	3.47	3.41	3.36	3.30	3.23	3.15	3.05	2.93	2.80	2.65	2.46	2.27	2.19	2.22	2.20	2.09	2.00	2.08	2.34	2.55	2.64	4.66	4.68	4.66	4.51	6.43	6.37	6.57	7.38	8.02	8.35	8.73	8.56	8.42	8.92	9.29	9.51	9.78	10.56	10.42	8.32	7.02	5.33	5.14	4.89	5.68	9.44	10.75	11.39	11.39	
2.36	2.44	2.59	2.72	2.90	3.42	4.84	6.75	8.08	1.17	2.52	2.83	3.10	3.17	3.16	3.15	3.22	3.28	3.30	3.31	3.23	3.37	3.72	3.45	3.53	3.46	3.40	3.30	3.20	3.12	3.10	3.13	3.14	3.18	3.25	3.23	3.20	3.22	3.23	3.44	4.32	4.42	4.22	4.08	4.29	4.52	4.29	3.85	3.64	3.80	6.32	3.80	3.69	3.13	2.65	1.99	1.40	1.16	1.03	0.68	0.47	0.40	0.35	0.51	0.63	1.15	0.91	0.77	0.65	0.73	2.34	2.26	2.19	2.05	1.78	1.63	1.81	2.06	2.23	2.35	2.46	2.53	2.68	2.88	2.91	2.97	3.03	3.02	3.07	3.13	3.17	3.20	3.26	3.33	3.35	3.36	3.36	3.33	3.34	3.51	3.77	3.88	3.76	3.63	3.55	3.52	3.56	3.60	3.62	3.64	3.66	3.68	3.69	3.71	3.71	3.72	3.73	3.73	3.73	3.72	3.70	3.68	3.66	3.63	3.61	3.58	3.55	3.52	3.47	3.42	3.37	3.31	3.25	3.17	3.08	2.98	2.85	2.70	2.54	2.35	2.26	2.32	2.32	2.17	2.03	2.04	2.24	2.51	2.66	2.68	4.60	4.60	4.53	4.35	6.35	6.35	7.04	7.71	8.04	8.23	8.22	8.35	8.96	9.26	9.18	9.58	10.77	9.93	7.04	5.57	5.22	4.77	4.55	5.88	9.99	6.35	11.87	11.87	
2.35	2.44	2.62	2.75	2.99	3.52	5.44	7.54	5.92	2.20	2.62	2.93	3.11	3.13	3.11	3.15	3.24	3.32	3.33	3.28	3.33	3.53	3.70	3.50	3.59	3.55	3.50	3.39	3.26	3.13	3.06	3.08	3.12	3.19	3.27	3.25	3.21	3.23	3.18	3.34	3.99	4.26	4.27	4.27	4.84	4.75	4.31	3.79	3.65	3.59	7.12	2.14	2.38	3.12	2.72	1.83	1.12	0.87	1.03	1.00	0.75	0.60	0.40	0.26	0.40	0.55	1.01	0.72	0.65	0.71	2.21	2.24	2.32	2.29	1.95	1.58	1.63	1.91	2.14	2.30	2.43	2.51	2.63	2.77	2.86	2.94	2.97	2.99	3.04	3.10	3.16	3.19	3.22	3.28	3.32	3.35	3.37	3.34	3.31	3.40	3.62	3.80	3.78	3.68	3.58	3.52	3.54	3.58	3.60	3.62	3.65	3.67	3.68	3.70	3.70	3.71	3.72	3.72	3.72	3.71	3.70	3.68	3.66	3.63	3.61	3.58	3.55	3.52	3.48	3.43	3.38	3.33	3.27	3.19	3.12	3.02	2.90	2.77	2.62	2.43	2.29	2.35	2.46	2.36	2.17	2.09	2.20	2.43	2.63	2.71	4.64	4.61	4.53	4.52	6.52	6.46	6.65	7.37	7.68	7.84	8.13	8.30	8.77	9.12	9.05	9.44	10.85	9.55	6.19	5.38	5.13	4.63	3.92	8.14	4.91	6.51	11.86	11.86	
2.38	2.49	2.66	2.75	2.97	3.88	6.20	8.11	1.34	2.44	2.69	2.96	3.05	3.04	3.05	3.15	3.25	3.35	3.40	3.34	3.49	3.96	3.81	3.86	3.75	3.68	3.62	3.51	3.37	3.22	3.09	3.06	3.13	3.24	3.32	3.32	3.34	3.36	3.34	3.59	4.08	4.32	4.60	4.72	4.75	4.50	4.36	3.81	3.62	2.47	3.90	4.58	5.49	1.57	2.65	2.17	1.44	1.10	0.98	0.92	0.71	0.52	0.50	0.33	0.33	0.53	0.55	0.97	0.67	0.59	2.05	2.06	2.15	2.28	2.11	1.67	1.56	1.77	2.02	2.20	2.36	2.51	2.62	2.68	2.81	2.93	2.92	2.94	3.01	3.07	3.14	3.18	3.19	3.22	3.27	3.31	3.35	3.34	3.32	3.35	3.50	3.69	3.75	3.71	3.62	3.53	3.53	3.57	3.60	3.62	3.64	3.66	3.67	3.69	3.70	3.70	3.71	3.71	3.71	3.70	3.69	3.68	3.66	3.63	3.61	3.58	3.55	3.52	3.48	3.44	3.40	3.35	3.29	3.22	3.14	3.06	2.96	2.83	2.69	2.51	2.30	2.24	2.38	2.43	2.27	2.15	2.17	2.30	2.48	2.66	4.71	4.65	4.58	4.64	4.70	6.75	6.62	6.91	7.43	7.74	8.14	8.50	8.70	8.85	9.01	9.43	10.82	9.56	6.41	5.55	5.32	4.85	3.82	8.21	4.65	10.93	11.72	11.72	
2.45	2.60	2.80	2.84	3.03	4.04	7.24	3.22	2.21	2.40	2.65	2.86	2.95	3.00	3.04	3.06	3.20	3.44	3.63	3.56	3.83	3.98	3.96	4.04	3.96	3.84	3.74	3.63	3.52	3.43	3.35	3.28	3.31	3.42	3.51	3.47	3.46	3.48	3.51	3.74	4.67	4.65	4.84	5.29	4.67	4.68	4.38	3.93	1.93	3.64	1.75	1.92	4.51	5.77	3.06	2.13	1.60	1.24	0.85	0.78	0.74	0.51	0.45	0.48	0.42	0.59	0.44	1.22	0.77	0.59	1.96	1.95	1.97	2.03	2.02	1.70	1.52	1.66	1.90	2.09	2.25	2.45	2.61	2.63	2.76	2.92	2.89	2.92	2.98	3.03	3.10	3.14	3.17	3.20	3.23	3.29	3.33	3.35	3.35	3.37	3.44	3.60	3.71	3.71	3.64	3.54	3.52	3.56	3.58	3.60	3.62	3.64	3.66	3.67	3.68	3.69	3.70	3.70	3.70	3.70	3.69	3.67	3.66	3.63	3.61	3.58	3.55	3.52	3.49	3.45	3.41	3.36	3.31	3.24	3.17	3.09	3.00	2.89	2.76	2.59	2.37	2.16	2.16	2.29	2.24	2.12	2.11	2.18	2.31	2.51	2.69	4.69	4.67	4.72	4.79	4.63	6.57	6.66	7.23	7.76	8.21	8.65	8.81	8.69	8.89	9.58	10.64	9.36	6.75	5.97	5.51	5.15	4.24	8.58	4.74	6.72	7.89	7.89	
2.50	2.70	3.14	3.16	3.35	4.78	7.46	1.70	2.29	2.29	2.44	2.33	2.22	2.30	2.45	2.78	3.17	3.64	3.70	3.85	3.98	3.84	3.89	3.97	4.00	3.96	3.88	3.79	3.69	3.64	3.60	3.54	3.54	3.65	3.77	3.69	3.61	3.66	3.89	4.18	4.46	4.59	5.52	5.67	4.78	4.01	4.28	1.12	3.78	1.89	3.83	4.09	0.95	3.70	2.73	1.78	1.42	1.34	1.02	0.88	0.81	0.47	0.37	0.45	0.44	0.44	0.22	0.12	0.91	0.61	0.60	1.90	1.96	1.90	1.84	1.64	1.45	1.52	1.75	1.97	2.12	2.31	2.52	2.58	2.72	2.87	2.85	2.88	2.95	3.01	3.09	3.12	3.14	3.18	3.22	3.27	3.31	3.34	3.38	3.39	3.40	3.55	3.72	3.73	3.64	3.54	3.51	3.55	3.57	3.59	3.61	3.63	3.65	3.66	3.67	3.68	3.68	3.68	3.69	3.69	3.68	3.67	3.66	3.64	3.61	3.59	3.56	3.53	3.50	3.46	3.43	3.38	3.32	3.27	3.20	3.12	3.03	2.94	2.83	2.68	2.49	2.25	2.10	2.11	2.15	2.10	2.07	2.11	2.19	2.34	2.54	2.68	4.69	4.73	4.75	4.63	6.65	6.43	6.99	7.86	8.29	8.56	8.85	8.73	8.86	9.71	10.36	9.15	6.97	6.15	5.69	5.27	4.59	9.05	4.83	6.69	8.03	8.03	
2.62	2.78	3.38	3.51	5.13	6.06	2.25	0.86	0.84	1.02	0.54	0.11	0.90	2.10	3.15	3.62	3.93	3.74	4.02	4.10	4.00	3.87	3.84	3.87	3.93	3.97	4.01	3.99	3.91	3.85	3.77	3.67	3.61	3.69	3.84	3.99	3.87	4.01	4.06	4.15	4.52	4.78	5.37	5.54	5.05	4.15	4.12	3.82	3.86	4.00	3.82	4.00	1.98	1.23	0.38	0.91	1.31	1.46	1.24	0.82	0.54	0.44	0.27	0.34	0.54	0.65	0.49	0.19	1.29	0.72	0.50	1.83	1.97	1.97	1.83	1.61	1.40	1.39	1.60	1.84	2.00	2.17	2.36	2.47	2.65	2.79	2.79	2.84	2.90	2.98	3.08	3.12	3.13	3.15	3.17	3.23	3.28	3.32	3.36	3.37	3.35	3.44	3.68	3.77	3.67	3.54	3.50	3.53	3.56	3.58	3.60	3.62	3.63	3.65	3.66	3.67	3.67	3.67	3.68	3.68	3.67	3.66	3.65	3.64	3.61	3.59	3.56	3.54	3.51	3.47	3.44	3.40	3.34	3.29	3.23	3.15	3.07	2.98	2.88	2.77	2.61	2.43	2.24	2.11	2.08	2.10	2.08	2.09	2.13	2.20	2.36	2.50	2.66	4.68	4.68	4.61	6.66	6.41	6.74	7.79	8.24	8.33	8.78	8.92	8.96	9.41	9.67	8.67	7.12	6.58	5.81	5.35	4.90	4.74	5.04	6.76	8.22	8.22	
2.72	2.87	3.16	3.25	6.70	7.01	3.42	2.67	1.50	0.76	0.83	0.34	1.54	2.70	3.67	3.87	3.42	3.59	3.72	3.87	3.93	3.94	3.96	4.00	3.97	3.97	4.08	4.18	4.19	4.15	4.09	3.98	3.90	3.84	3.79	3.65	3.75	4.01	4.76	4.94	4.88	5.04	5.15	3.82	0.09	0.83	0.98	3.78	3.93	1.41	4.02	1.40	1.65	1.89	1.81	1.16	1.23	1.44	1.51	1.35	1.31	1.12	0.63	0.26	0.58	0.88	0.60	0.24	0.33	1.08	0.56	1.84	1.94	2.02	1.91	1.67	1.39	1.27	1.43	1.70	1.91	2.09	2.23	2.35	2.56	2.69	2.72	2.78	2.84	2.90	3.00	3.07	3.12	3.15	3.16	3.20	3.26	3.31	3.34	3.36	3.33	3.36	3.56	3.75	3.72	3.59	3.49	3.50	3.54	3.57	3.59	3.60	3.62	3.63	3.65	3.66	3.67	3.66	3.66	3.67	3.66	3.66	3.65	3.64	3.62	3.59	3.57	3.55	3.52	3.49	3.46	3.42	3.36	3.31	3.26	3.20	3.11	3.02	2.93	2.84	2.72	2.58	2.42	2.23	2.08	2.04	2.05	2.09	2.13	2.18	2.28	2.38	2.52	4.59	4.56	4.58	4.61	6.56	6.48	7.46	8.11	8.10	8.67	9.11	9.02	9.14	9.09	8.10	7.05	6.68	5.64	5.11	4.71	4.78	5.12	7.01	10.44	10.44	
2.80	2.92	2.70	2.53	5.03	10.50	3.85	1.95	0.71	0.91	1.93	2.92	3.14	3.17	3.42	3.58	3.20	3.24	3.50	3.57	3.72	3.89	4.06	4.23	4.23	4.13	4.18	4.27	4.33	4.32	4.31	4.29	4.16	3.97	3.41	3.34	3.91	4.10	4.58	5.02	5.26	5.59	4.62	4.68	0.38	0.35	4.36	4.13	1.24	4.06	0.98	0.81	1.36	1.92	1.52	0.90	1.13	1.47	1.74	1.70	1.47	1.30	1.05	0.64	0.37	0.13	0.07	0.37	0.67	1.47	0.84	0.44	1.98	2.07	2.01	1.81	1.47	1.19	1.24	1.51	1.78	2.01	2.15	2.27	2.47	2.60	2.64	2.72	2.80	2.85	2.93	3.00	3.07	3.13	3.15	3.19	3.25	3.30	3.33	3.35	3.35	3.35	3.46	3.64	3.73	3.65	3.52	3.48	3.53	3.56	3.58	3.59	3.61	3.62	3.64	3.65	3.66	3.65	3.65	3.65	3.66	3.65	3.65	3.63	3.62	3.59	3.57	3.55	3.53	3.50	3.47	3.43	3.38	3.33	3.29	3.23	3.16	3.07	2.98	2.90	2.81	2.69	2.55	2.37	2.17	2.00	1.94	2.00	2.10	2.17	2.26	2.34	2.46	2.62	4.51	4.63	4.73	4.43	6.25	7.14	7.94	7.93	8.43	8.82	8.92	9.27	9.16	7.47	7.00	5.78	5.37	4.70	8.79	4.74	9.60	11.06	12.57	12.57	
2.88	2.87	2.51	2.68	3.92	8.65	2.68	1.68	2.20	2.31	2.95	3.42	3.62	3.61	3.58	3.36	3.34	3.60	3.56	3.59	3.71	3.91	4.11	4.37	4.52	4.49	4.49	4.53	4.66	4.48	4.35	4.34	4.30	4.22	3.34	3.75	4.28	4.43	4.73	5.10	5.31	5.42	3.60	4.68	4.30	3.95	3.59	0.70	0.83	0.89	0.70	0.74	1.22	1.05	0.66	0.84	1.04	1.30	1.52	1.54	1.34	1.26	1.21	1.01	0.65	0.32	0.14	0.37	0.68	0.66	1.22	0.73	2.04	2.11	2.11	1.99	1.70	1.28	1.11	1.28	1.57	1.88	2.09	2.20	2.39	2.52	2.55	2.65	2.77	2.82	2.90	2.98	3.02	3.06	3.11	3.17	3.22	3.24	3.28	3.32	3.35	3.36	3.41	3.54	3.67	3.69	3.56	3.47	3.50	3.54	3.56	3.58	3.60	3.61	3.62	3.64	3.64	3.64	3.64	3.64	3.65	3.65	3.64	3.63	3.61	3.60	3.57	3.56	3.54	3.51	3.48	3.45	3.40	3.35	3.31	3.26	3.21	3.13	3.03	2.95	2.86	2.77	2.64	2.49	2.31	2.09	1.90	1.84	1.92	2.04	2.17	2.25	2.32	2.49	4.53	4.74	4.81	4.57	6.19	6.92	7.80	7.88	8.24	8.31	8.47	9.08	9.19	7.78	7.22	5.81	5.33	4.57	4.31	4.97	9.74	11.44	13.16	13.16	
2.86	2.85	2.55	2.96	3.04	8.24	2.80	1.38	1.79	2.25	2.64	2.91	3.32	3.63	3.72	3.39	3.35	3.55	3.53	3.64	3.77	3.98	4.13	4.29	4.51	4.68	4.85	5.02	5.05	4.87	4.71	4.73	4.52	3.82	3.24	3.88	4.47	4.80	5.22	5.58	5.81	4.95	3.42	2.33	4.42	3.97	3.66	0.67	0.83	1.05	0.86	0.76	0.90	1.02	0.42	0.49	0.79	1.06	1.57	1.68	1.75	1.87	1.57	1.30	0.94	0.56	0.41	0.52	0.74	0.86	1.54	1.09	0.73	2.19	2.18	2.12	1.95	1.53	1.14	1.12	1.33	1.66	1.94	2.09	2.29	2.46	2.48	2.55	2.71	2.78	2.84	2.93	2.96	3.00	3.08	3.14	3.18	3.20	3.23	3.30	3.35	3.37	3.39	3.47	3.60	3.70	3.63	3.48	3.46	3.52	3.55	3.56	3.58	3.60	3.61	3.62	3.63	3.63	3.63	3.62	3.63	3.64	3.64	3.62	3.61	3.60	3.58	3.57	3.55	3.53	3.50	3.46	3.42	3.37	3.33	3.29	3.25	3.18	3.08	2.99	2.91	2.83	2.72	2.59	2.44	2.24	2.01	1.81	1.74	1.82	2.00	2.14	2.19	2.35	2.65	4.76	4.91	4.71	6.28	6.72	7.58	7.96	8.32	8.07	8.05	8.58	8.99	7.99	6.10	5.93	5.41	4.42	8.41	9.21	10.16	7.58	9.09	9.09	
2.86	2.87	2.73	3.19	3.21	8.45	3.90	2.18	2.03	2.75	3.10	2.90	3.00	3.33	3.28	3.40	3.45	3.57	3.54	3.62	3.77	3.98	4.17	4.29	4.41	4.55	4.77	5.36	5.42	5.30	5.59	5.45	4.92	3.71	3.27	4.14	4.66	4.88	5.14	5.52	5.98	4.09	3.53	0.16	0.67	0.86	0.95	0.91	0.95	1.13	1.19	1.61	1.97	1.71	1.46	1.77	1.90	2.08	2.06	1.53	1.55	1.86	1.94	1.67	1.27	0.84	0.60	0.73	0.88	0.90	1.56	1.27	1.03	0.81	2.30	2.19	2.09	1.82	1.37	1.12	1.15	1.42	1.75	1.92	2.13	2.36	2.42	2.45	2.59	2.71	2.78	2.87	2.89	2.95	3.05	3.12	3.15	3.17	3.20	3.26	3.33	3.38	3.38	3.42	3.52	3.66	3.69	3.55	3.45	3.49	3.53	3.55	3.57	3.59	3.60	3.61	3.62	3.62	3.62	3.61	3.62	3.63	3.63	3.62	3.61	3.60	3.59	3.57	3.56	3.53	3.51	3.47	3.43	3.39	3.35	3.32	3.27	3.22	3.14	3.05	2.97	2.89	2.79	2.68	2.55	2.39	2.20	1.97	1.77	1.69	1.81	1.99	2.11	2.29	2.56	4.68	4.97	4.97	4.60	6.59	7.18	7.82	8.21	7.95	7.72	7.97	8.67	8.13	6.03	6.00	5.55	4.57	8.25	8.90	5.68	7.57	9.12	9.12	
2.84	2.83	2.90	3.52	3.30	8.58	5.62	3.86	3.08	2.85	2.92	2.89	2.93	3.16	3.23	3.47	3.78	3.74	3.72	3.71	3.78	3.96	4.15	4.34	4.49	4.55	4.54	5.21	5.38	6.03	5.87	5.68	5.23	3.65	3.62	4.74	4.95	5.00	5.24	5.62	5.83	3.17	0.32	0.72	0.94	1.01	1.12	1.03	1.02	1.08	1.09	1.24	1.28	0.94	0.77	1.37	2.13	2.49	2.36	2.02	2.19	2.53	2.38	1.99	1.62	1.22	0.83	0.80	0.75	0.67	0.72	1.22	1.06	0.89	0.77	2.33	2.18	1.98	1.66	1.33	1.14	1.24	1.52	1.74	1.93	2.20	2.36	2.37	2.47	2.61	2.72	2.82	2.86	2.91	3.01	3.08	3.12	3.14	3.15	3.19	3.27	3.34	3.37	3.38	3.45	3.58	3.69	3.64	3.48	3.46	3.51	3.54	3.56	3.58	3.59	3.60	3.61	3.62	3.61	3.61	3.61	3.62	3.62	3.61	3.60	3.60	3.59	3.58	3.57	3.54	3.52	3.49	3.45	3.41	3.38	3.34	3.30	3.25	3.18	3.11	3.03	2.95	2.86	2.77	2.65	2.52	2.36	2.16	1.93	1.73	1.67	1.78	1.96	2.21	2.46	2.83	4.92	5.13	4.93	6.88	7.05	7.60	7.79	7.80	7.42	7.50	8.00	8.47	5.85	5.93	5.71	5.04	8.62	8.52	5.48	7.59	13.75	13.75	
2.77	2.75	2.85	3.48	3.41	8.33	7.93	6.05	4.55	3.48	3.07	3.09	3.05	3.16	3.36	3.53	3.76	3.75	3.79	3.80	3.85	3.99	4.13	4.26	4.48	4.55	4.97	5.02	5.13	6.17	6.10	5.62	5.16	3.99	3.85	4.49	4.93	5.24	5.57	6.01	5.80	0.78	0.94	1.45	1.57	1.49	1.27	0.94	0.72	0.77	0.95	1.06	1.05	0.91	0.73	1.08	1.67	1.90	2.14	2.39	2.12	2.16	2.35	2.25	2.00	1.49	0.97	0.78	0.58	0.35	0.32	1.31	0.95	0.78	0.79	0.83	2.36	2.14	1.87	1.58	1.31	1.21	1.34	1.53	1.70	1.97	2.24	2.32	2.38	2.51	2.64	2.76	2.83	2.89	2.98	3.04	3.08	3.11	3.14	3.17	3.22	3.29	3.34	3.34	3.39	3.50	3.62	3.67	3.52	3.44	3.49	3.52	3.55	3.57	3.57	3.58	3.59	3.61	3.60	3.60	3.60	3.61	3.62	3.61	3.60	3.60	3.59	3.58	3.57	3.56	3.53	3.50	3.47	3.43	3.40	3.36	3.33	3.28	3.23	3.17	3.09	3.01	2.92	2.84	2.73	2.62	2.48	2.31	2.10	1.87	1.67	1.62	1.77	2.05	2.31	2.67	4.77	5.23	5.30	5.04	7.20	7.43	7.41	7.54	7.23	7.45	7.77	8.18	5.62	5.52	5.44	5.21	8.73	4.71	5.50	7.65	12.08	12.08	
2.67	2.62	2.62	2.83	2.67	7.31	11.16	7.11	5.50	4.77	4.38	4.33	4.16	3.98	3.85	4.03	3.87	3.75	3.75	3.83	3.92	4.09	4.28	4.38	4.48	4.51	5.08	4.95	5.91	6.38	6.50	6.02	5.69	4.67	4.26	4.48	4.62	4.79	4.98	5.57	4.31	0.59	1.46	1.85	1.85	1.46	1.00	0.84	0.70	0.84	1.18	1.49	1.93	2.16	1.93	1.74	1.81	1.95	2.08	1.68	0.93	1.49	1.91	2.01	1.79	1.32	1.01	0.94	0.91	0.66	0.34	0.23	1.21	0.90	0.85	0.87	0.87	2.37	2.12	1.84	1.59	1.41	1.36	1.41	1.50	1.72	2.03	2.22	2.29	2.40	2.53	2.65	2.75	2.83	2.92	3.00	3.04	3.07	3.12	3.17	3.20	3.24	3.30	3.31	3.35	3.44	3.57	3.66	3.57	3.44	3.45	3.50	3.53	3.55	3.56	3.57	3.58	3.59	3.59	3.59	3.59	3.59	3.60	3.60	3.60	3.60	3.59	3.58	3.57	3.56	3.54	3.51	3.48	3.45	3.42	3.38	3.35	3.31	3.26	3.21	3.15	3.07	2.98	2.89	2.80	2.70	2.57	2.42	2.25	2.03	1.77	1.57	1.63	1.90	2.17	2.48	4.63	5.31	5.55	5.33	5.09	7.08	7.02	7.16	7.21	7.53	7.81	8.16	5.07	4.78	4.71	8.86	4.83	4.94	5.59	7.65	13.81	13.81	
2.52	2.45	2.37	1.93	1.82	3.03	10.11	7.15	5.74	5.30	4.93	4.71	4.67	4.31	4.28	4.18	3.93	3.75	3.70	3.77	3.85	4.00	4.21	4.41	4.53	5.12	4.91	5.58	5.99	6.38	6.39	6.14	6.08	5.59	5.11	5.01	4.83	4.67	4.62	5.10	2.40	0.79	1.12	1.30	1.40	1.28	1.15	1.39	1.65	1.81	1.78	2.10	2.54	2.63	1.91	1.36	1.48	1.69	1.33	0.68	0.85	1.73	2.17	1.97	1.61	1.41	1.29	1.15	1.11	0.98	0.61	0.32	0.17	1.15	0.96	0.88	0.85	2.48	2.34	2.15	1.92	1.72	1.57	1.45	1.38	1.50	1.79	2.06	2.19	2.29	2.43	2.54	2.66	2.76	2.87	2.96	2.99	3.02	3.09	3.16	3.19	3.21	3.26	3.29	3.30	3.38	3.54	3.66	3.63	3.50	3.43	3.46	3.51	3.53	3.55	3.56	3.57	3.58	3.58	3.58	3.58	3.58	3.59	3.60	3.59	3.59	3.59	3.59	3.58	3.57	3.55	3.52	3.50	3.47	3.44	3.40	3.37	3.33	3.29	3.25	3.19	3.12	3.04	2.95	2.87	2.77	2.65	2.52	2.36	2.17	1.93	1.63	1.52	1.74	2.04	2.32	4.49	5.16	5.67	5.52	5.28	5.15	5.14	5.21	5.29	7.48	7.55	7.63	4.88	4.63	8.25	4.62	4.93	5.13	5.84	11.63	13.63	13.63	
2.38	2.31	2.16	1.70	1.89	2.03	8.71	7.97	6.53	5.71	5.16	4.74	4.53	4.25	4.32	4.13	3.92	3.75	3.68	3.72	3.76	3.83	3.97	4.11	4.29	5.18	4.90	5.84	6.28	6.46	6.33	5.92	5.54	5.22	4.99	4.90	4.66	4.42	4.71	4.86	0.77	1.36	0.98	0.96	1.22	1.57	2.27	2.51	2.28	2.02	1.94	2.11	2.05	1.65	1.41	1.75	1.69	1.67	1.55	1.09	1.20	2.02	2.33	2.06	1.67	1.45	1.32	1.21	1.15	1.14	0.89	0.49	0.27	0.25	1.28	1.01	0.86	0.77	2.38	2.30	2.17	1.98	1.83	1.64	1.40	1.33	1.52	1.84	2.07	2.21	2.35	2.46	2.57	2.69	2.83	2.91	2.95	2.97	3.04	3.14	3.18	3.19	3.22	3.26	3.27	3.29	3.46	3.63	3.66	3.59	3.47	3.43	3.47	3.51	3.53	3.55	3.56	3.56	3.58	3.58	3.57	3.57	3.58	3.59	3.59	3.59	3.59	3.59	3.58	3.57	3.56	3.54	3.52	3.49	3.46	3.42	3.38	3.35	3.32	3.28	3.23	3.17	3.09	3.01	2.93	2.85	2.74	2.62	2.48	2.30	2.08	1.76	1.49	1.53	1.82	2.14	2.53	4.89	5.53	5.65	5.55	5.33	5.32	5.33	5.44	5.58	5.52	4.47	4.65	6.14	4.45	4.68	5.04	5.66	6.19	7.78	13.45	13.45	
2.30	2.22	2.04	1.92	2.22	1.71	8.24	8.40	6.89	5.80	5.25	4.90	4.49	4.34	4.36	4.20	4.06	3.87	3.75	3.71	3.74	3.82	3.95	3.95	4.03	4.86	6.02	6.40	6.76	6.82	6.73	6.38	5.91	5.41	5.07	4.94	4.20	3.32	4.41	3.54	2.42	2.41	1.95	1.83	1.83	2.06	2.73	2.81	2.08	1.76	2.04	1.97	1.56	1.08	0.69	0.57	1.34	2.16	2.58	2.34	2.01	2.18	2.32	2.13	1.74	1.53	1.50	1.47	1.28	1.16	1.06	0.69	0.38	0.30	0.11	1.24	1.00	0.86	0.73	2.33	2.29	2.16	2.05	1.89	1.60	1.33	1.30	1.52	1.84	2.09	2.28	2.42	2.49	2.60	2.75	2.86	2.91	2.93	2.98	3.09	3.15	3.16	3.17	3.22	3.24	3.23	3.33	3.53	3.63	3.63	3.56	3.45	3.44	3.48	3.51	3.53	3.55	3.55	3.57	3.58	3.57	3.57	3.57	3.58	3.58	3.59	3.59	3.59	3.58	3.58	3.56	3.55	3.53	3.50	3.47	3.44	3.40	3.37	3.34	3.31	3.27	3.21	3.14	3.06	2.99	2.91	2.81	2.70	2.58	2.42	2.22	1.94	1.61	1.45	1.62	1.90	2.27	3.03	5.45	5.68	5.73	5.45	5.30	5.20	5.38	5.62	4.43	4.42	6.20	4.47	4.46	4.75	5.62	5.79	6.41	10.90	13.39	13.39	
2.23	2.14	1.99	1.96	2.41	2.08	7.95	8.57	7.13	5.70	5.12	4.66	4.45	4.48	4.39	4.22	4.11	3.95	3.77	3.65	3.64	3.74	3.88	3.91	4.67	4.61	5.94	6.25	6.56	6.55	6.49	6.50	6.50	6.11	5.64	5.34	3.57	0.75	3.55	5.02	4.58	3.90	3.30	2.98	2.79	2.77	2.97	2.66	1.78	2.04	2.31	1.55	0.79	0.47	0.33	0.45	1.33	1.93	2.09	2.35	2.72	2.52	2.47	2.14	1.89	1.81	1.72	1.85	1.78	1.57	1.39	1.05	0.62	0.33	0.26	1.56	1.18	0.98	0.85	0.76	2.38	2.36	2.30	2.16	1.91	1.58	1.29	1.27	1.52	1.86	2.15	2.34	2.44	2.52	2.64	2.77	2.86	2.89	2.92	3.02	3.11	3.13	3.15	3.17	3.20	3.20	3.23	3.39	3.56	3.62	3.62	3.53	3.44	3.44	3.48	3.51	3.53	3.54	3.55	3.56	3.57	3.56	3.56	3.57	3.58	3.58	3.59	3.58	3.58	3.58	3.57	3.56	3.54	3.52	3.49	3.46	3.43	3.40	3.37	3.33	3.29	3.25	3.18	3.11	3.05	2.98	2.88	2.78	2.67	2.53	2.37	2.13	1.84	1.58	1.54	1.72	2.09	2.88	3.60	5.66	5.68	5.66	5.25	5.02	5.25	5.49	4.29	6.01	4.29	4.34	7.65	5.43	5.63	5.88	10.13	11.55	13.54	13.54	
2.18	2.09	1.92	1.87	2.36	2.08	7.73	8.22	7.57	6.35	5.23	4.56	4.55	4.42	4.29	4.09	3.98	3.88	3.73	3.59	3.55	3.62	3.74	3.79	4.55	4.44	5.83	5.87	6.33	6.42	6.42	6.66	6.68	6.28	5.71	5.00	0.88	3.17	4.02	4.65	4.89	5.01	4.32	3.47	3.35	3.46	3.29	2.47	2.04	2.30	1.76	0.45	0.62	0.94	1.18	1.99	2.45	2.49	2.50	2.64	2.94	2.70	2.33	2.14	2.14	2.06	1.90	2.02	2.09	1.94	1.64	1.42	1.24	0.94	0.75	0.66	1.67	1.27	0.99	0.82	0.87	2.51	2.54	2.46	2.29	2.00	1.58	1.27	1.27	1.58	1.95	2.20	2.36	2.46	2.56	2.67	2.80	2.85	2.87	2.96	3.06	3.09	3.12	3.15	3.17	3.18	3.19	3.27	3.43	3.56	3.61	3.59	3.50	3.43	3.44	3.48	3.51	3.53	3.54	3.55	3.56	3.56	3.55	3.56	3.57	3.58	3.58	3.58	3.58	3.58	3.57	3.56	3.55	3.53	3.51	3.48	3.45	3.42	3.39	3.36	3.32	3.28	3.22	3.15	3.10	3.04	2.95	2.85	2.75	2.64	2.50	2.32	2.08	1.82	1.58	1.58	1.98	2.70	3.42	3.68	5.51	5.84	5.32	3.82	5.45	5.62	5.93	5.90	4.13	4.24	4.28	5.25	5.53	9.27	10.50	12.33	13.48	13.48	
2.17	2.05	1.84	1.74	2.00	1.70	7.55	8.91	7.39	6.44	5.36	4.59	4.46	4.36	4.24	4.07	3.91	3.79	3.68	3.57	3.59	3.70	3.77	4.39	4.26	5.28	5.70	6.07	6.53	6.67	6.75	7.08	7.29	6.85	6.43	2.08	2.77	3.82	4.85	5.08	4.92	5.50	5.47	4.19	3.63	3.62	3.46	2.83	2.89	2.77	2.14	1.91	2.76	2.73	2.33	2.41	2.70	2.83	2.88	2.95	3.29	3.83	3.38	2.63	2.50	2.40	2.20	2.15	2.15	2.12	1.77	1.43	1.32	1.26	1.01	0.83	0.76	0.52	1.36	1.05	1.00	1.13	1.03	2.62	2.57	2.42	2.12	1.64	1.26	1.36	1.73	2.05	2.27	2.42	2.52	2.62	2.74	2.81	2.84	2.90	2.99	3.03	3.07	3.12	3.14	3.16	3.16	3.19	3.29	3.46	3.58	3.61	3.58	3.49	3.42	3.43	3.48	3.51	3.53	3.54	3.55	3.55	3.55	3.55	3.56	3.57	3.58	3.58	3.58	3.58	3.58	3.57	3.56	3.55	3.52	3.50	3.47	3.44	3.42	3.38	3.35	3.31	3.25	3.19	3.15	3.10	3.01	2.92	2.84	2.74	2.62	2.47	2.28	2.05	1.73	1.58	1.91	2.59	3.21	3.50	3.59	3.96	5.55	3.99	3.85	6.03	5.83	4.01	4.13	4.16	7.46	7.80	8.70	9.50	10.31	12.04	13.05	13.05	
2.16	2.04	1.79	1.62	1.59	1.28	6.23	10.30	6.26	5.56	4.97	4.73	4.31	4.18	4.13	4.04	3.88	3.73	3.60	3.48	3.51	3.71	3.86	4.39	5.14	5.40	5.57	6.06	6.36	6.48	6.70	7.08	7.42	7.47	8.38	3.42	3.46	3.94	4.62	5.03	4.87	5.23	5.90	5.39	4.44	3.53	3.20	3.19	3.54	3.74	3.90	4.07	3.88	3.39	2.91	2.69	2.75	2.91	2.99	2.95	2.80	3.34	4.46	4.41	3.47	2.91	2.65	2.55	2.59	2.71	2.42	1.92	1.53	1.32	1.14	0.89	0.78	0.69	0.51	1.48	1.21	1.12	1.04	0.90	2.58	2.55	2.43	2.09	1.61	1.37	1.54	1.86	2.13	2.33	2.45	2.56	2.67	2.77	2.81	2.84	2.92	2.98	3.01	3.05	3.10	3.13	3.14	3.15	3.19	3.32	3.51	3.61	3.62	3.59	3.48	3.41	3.44	3.47	3.50	3.52	3.54	3.54	3.54	3.54	3.55	3.56	3.57	3.57	3.58	3.58	3.58	3.57	3.57	3.56	3.54	3.51	3.49	3.46	3.44	3.41	3.37	3.33	3.29	3.23	3.19	3.15	3.08	2.99	2.92	2.84	2.73	2.61	2.45	2.23	1.92	1.72	1.93	2.51	3.01	3.27	3.42	3.76	4.06	4.01	3.97	5.78	4.04	4.13	4.25	5.60	7.55	8.08	8.85	9.41	10.08	11.88	13.12	13.12	
2.19	2.07	1.81	1.57	1.42	1.35	4.82	10.76	6.22	5.02	4.59	4.70	4.32	4.08	3.97	3.95	3.86	3.73	3.61	3.51	3.51	3.65	4.39	4.42	5.70	5.94	5.98	6.06	6.25	6.45	6.69	7.06	7.26	7.87	6.31	4.03	3.87	4.01	4.48	5.06	4.79	4.62	3.93	4.62	5.22	3.93	3.55	3.55	3.62	3.96	4.14	4.21	3.90	3.43	2.87	2.73	2.90	3.07	2.98	2.36	2.05	3.04	4.33	5.30	5.38	4.53	3.50	3.04	2.72	3.03	3.23	2.95	2.45	2.07	2.02	1.97	1.57	1.08	0.77	0.66	1.72	1.37	1.15	0.93	2.51	2.48	2.45	2.28	1.97	1.63	1.52	1.68	1.93	2.17	2.33	2.45	2.56	2.68	2.75	2.79	2.84	2.93	2.97	2.99	3.05	3.10	3.11	3.12	3.15	3.20	3.35	3.54	3.63	3.63	3.58	3.51	3.46	3.45	3.46	3.50	3.53	3.55	3.53	3.53	3.53	3.55	3.56	3.57	3.57	3.58	3.58	3.58	3.58	3.56	3.55	3.53	3.51	3.48	3.46	3.43	3.39	3.36	3.32	3.27	3.23	3.19	3.14	3.06	3.00	2.93	2.84	2.73	2.58	2.38	2.09	1.90	2.03	2.42	2.77	3.04	3.26	3.54	3.79	3.84	3.85	5.57	5.59	5.72	5.88	5.83	7.88	8.04	8.72	9.48	10.18	11.75	13.34	13.34	
2.24	2.13	1.88	1.61	1.31	1.48	3.97	9.95	5.81	4.57	4.89	4.77	4.45	4.14	3.94	3.91	3.85	3.75	3.62	3.54	3.50	3.62	4.37	5.43	5.74	5.67	6.02	6.17	6.48	6.89	7.15	7.43	7.65	8.67	4.38	4.16	4.22	3.99	3.69	4.10	3.39	4.39	3.54	4.45	4.59	4.22	4.27	4.21	4.27	4.33	4.53	4.54	4.46	4.69	3.96	3.26	2.85	2.56	2.54	2.41	3.11	3.85	4.52	5.25	5.54	5.78	5.56	5.29	5.03	3.99	3.63	3.49	3.35	2.92	2.88	2.90	2.57	1.90	1.33	1.06	0.96	2.15	1.74	1.33	1.01	2.48	2.44	2.37	2.20	1.93	1.71	1.71	1.83	2.00	2.18	2.32	2.45	2.56	2.66	2.72	2.77	2.86	2.93	2.95	3.00	3.06	3.08	3.10	3.12	3.13	3.20	3.38	3.56	3.62	3.61	3.60	3.59	3.54	3.47	3.47	3.53	3.56	3.56	3.54	3.54	3.54	3.55	3.56	3.57	3.57	3.57	3.57	3.58	3.59	3.58	3.55	3.53	3.50	3.48	3.45	3.41	3.38	3.35	3.31	3.27	3.23	3.19	3.13	3.08	3.02	2.94	2.84	2.72	2.54	2.30	2.12	2.17	2.36	2.55	2.79	3.03	3.28	3.50	3.60	3.66	5.62	5.69	5.90	6.10	6.17	5.99	8.06	8.46	9.29	10.05	11.72	13.33	13.33	
2.32	2.22	1.96	1.67	1.36	1.45	1.41	8.93	5.89	5.21	4.83	4.69	4.41	4.16	3.93	3.86	3.78	3.67	3.50	3.33	3.20	3.33	4.31	5.92	5.98	6.05	6.26	6.55	6.80	7.19	7.62	7.95	8.74	5.08	4.06	3.99	3.99	3.46	2.93	3.11	3.68	3.63	3.24	2.99	4.63	4.51	4.46	5.09	4.97	4.77	4.90	4.90	4.69	4.86	5.15	4.78	4.32	4.01	3.90	4.31	4.31	4.04	4.15	4.70	5.01	5.48	5.72	5.54	6.08	5.80	6.18	5.45	4.45	3.69	2.68	2.79	3.02	2.83	2.06	1.52	1.24	1.16	2.66	2.10	1.57	1.16	2.54	2.44	2.32	2.12	1.93	1.91	1.93	1.95	2.06	2.21	2.35	2.45	2.52	2.59	2.66	2.76	2.84	2.89	2.94	2.99	3.02	3.07	3.10	3.10	3.13	3.23	3.41	3.57	3.59	3.55	3.61	3.63	3.53	3.47	3.50	3.54	3.57	3.59	3.58	3.56	3.55	3.56	3.57	3.58	3.59	3.58	3.58	3.60	3.61	3.60	3.57	3.54	3.51	3.48	3.45	3.41	3.38	3.35	3.32	3.29	3.25	3.19	3.15	3.09	3.02	2.93	2.83	2.70	2.54	2.39	2.34	2.37	2.47	2.63	2.79	3.00	3.21	3.36	3.51	3.58	5.61	5.87	6.14	6.29	6.23	5.96	8.23	8.97	9.99	11.94	13.46	13.46	
2.37	2.29	2.03	1.73	1.49	1.37	0.91	8.63	6.55	5.54	4.96	4.65	4.39	4.18	3.93	3.83	3.73	3.64	3.45	3.08	2.75	3.86	3.88	6.09	6.38	6.78	6.79	6.87	7.10	7.51	7.98	8.70	5.46	5.61	4.58	4.17	3.61	3.23	2.68	2.49	3.90	2.93	3.80	3.74	3.19	3.78	4.26	4.58	4.67	4.56	4.44	4.36	5.09	5.12	5.34	5.25	4.80	4.93	5.07	5.08	5.08	4.72	4.79	5.09	4.93	5.03	5.25	5.08	4.79	5.20	5.32	5.77	5.86	5.34	5.80	5.95	4.97	3.84	3.06	2.37	2.03	1.88	1.84	2.84	2.24	1.66	2.78	2.59	2.40	2.19	2.03	2.03	2.07	2.03	2.03	2.13	2.28	2.39	2.45	2.48	2.53	2.62	2.72	2.80	2.87	2.91	2.93	3.01	3.09	3.08	3.10	3.15	3.23	3.42	3.56	3.53	3.54	3.62	3.59	3.50	3.47	3.49	3.53	3.58	3.60	3.59	3.57	3.56	3.57	3.59	3.60	3.60	3.58	3.57	3.60	3.62	3.60	3.58	3.55	3.52	3.50	3.46	3.41	3.37	3.35	3.35	3.31	3.27	3.23	3.17	3.08	2.99	2.90	2.82	2.74	2.64	2.51	2.44	2.46	2.51	2.58	2.75	2.95	3.10	3.29	3.46	5.58	5.77	6.12	6.30	6.18	5.94	8.01	8.35	9.34	11.78	13.55	13.55	
2.45	2.37	2.11	1.83	1.53	1.32	1.01	7.52	6.94	5.49	5.01	4.71	4.42	4.21	3.96	3.81	3.71	3.67	3.48	3.00	2.46	3.57	3.36	5.92	6.49	7.17	6.91	6.93	7.30	7.77	8.22	5.94	5.75	5.53	4.54	3.83	3.42	3.26	3.36	3.58	3.71	3.44	3.43	3.97	3.83	3.54	3.84	4.19	4.38	4.43	4.53	4.57	4.57	4.43	4.42	4.85	4.60	4.51	4.99	5.05	4.99	4.99	4.30	4.43	4.39	4.38	4.64	4.62	4.53	4.73	4.62	4.76	4.90	4.73	4.90	4.94	5.84	5.16	3.98	3.09	2.64	2.59	2.74	3.22	2.83	2.22	1.63	2.85	2.58	2.33	2.16	2.11	2.12	2.09	2.03	2.06	2.17	2.29	2.39	2.45	2.44	2.45	2.58	2.68	2.76	2.82	2.85	2.92	3.02	3.05	3.08	3.12	3.14	3.23	3.42	3.55	3.58	3.61	3.60	3.56	3.51	3.48	3.49	3.53	3.57	3.58	3.58	3.57	3.56	3.56	3.59	3.62	3.60	3.55	3.57	3.60	3.60	3.58	3.56	3.53	3.52	3.51	3.45	3.40	3.39	3.39	3.35	3.32	3.31	3.25	3.15	3.06	2.98	2.92	2.88	2.81	2.68	2.55	2.46	2.39	2.40	2.55	2.74	2.85	2.98	3.23	3.46	5.58	5.95	6.17	6.04	5.88	5.79	5.89	8.31	10.94	13.31	13.31	
2.56	2.49	2.25	1.99	1.61	1.28	1.17	7.68	6.70	5.41	4.94	4.68	4.43	4.26	4.06	3.94	3.88	3.91	3.67	3.12	2.50	3.45	3.12	5.32	6.14	7.05	7.19	7.25	7.45	6.85	6.50	6.35	6.01	4.73	3.49	3.06	3.00	3.33	3.63	3.95	3.94	3.90	4.18	4.11	4.21	3.75	3.65	3.87	4.01	4.07	4.12	4.26	4.30	4.24	4.30	4.59	4.86	4.90	4.51	4.80	4.37	4.39	3.94	4.18	4.22	4.07	4.25	4.31	4.14	4.28	4.20	4.13	4.25	4.25	4.06	4.08	4.69	5.08	4.65	3.93	3.39	3.12	2.95	3.24	3.07	2.75	2.12	3.15	2.81	2.54	2.39	2.31	2.23	2.14	2.05	2.06	2.13	2.17	2.23	2.34	2.37	2.29	2.37	2.52	2.63	2.72	2.78	2.84	2.93	3.00	3.05	3.10	3.12	3.14	3.23	3.41	3.58	3.65	3.62	3.57	3.56	3.53	3.50	3.51	3.54	3.56	3.57	3.59	3.57	3.55	3.56	3.61	3.61	3.56	3.55	3.58	3.59	3.57	3.56	3.54	3.54	3.53	3.48	3.43	3.43	3.42	3.38	3.35	3.35	3.31	3.21	3.13	3.07	3.03	3.00	2.94	2.84	2.70	2.56	2.40	2.32	2.40	2.57	2.66	2.76	3.00	3.24	3.45	5.67	5.98	6.09	6.08	6.08	6.17	6.25	10.50	13.29	13.29	
2.66	2.60	2.40	2.15	1.76	1.22	1.20	5.67	6.53	5.43	4.95	4.67	4.43	4.30	4.19	4.19	4.24	4.30	4.17	3.49	3.04	2.80	2.96	2.58	5.57	3.31	3.62	3.57	4.26	3.84	6.78	6.60	5.24	4.16	3.18	2.96	3.33	3.70	4.09	4.10	3.74	4.09	4.46	4.13	4.00	3.94	3.80	3.74	3.67	4.01	4.00	4.13	4.18	4.13	4.19	4.43	4.59	4.52	4.30	4.49	4.11	3.75	3.47	3.69	3.78	3.50	3.54	3.78	3.84	3.89	3.82	3.92	3.97	3.95	3.82	3.79	4.44	4.59	4.75	4.61	4.12	3.74	3.19	4.01	4.03	3.21	2.66	3.49	3.14	2.85	2.63	2.47	2.40	2.27	2.10	2.13	2.19	2.19	2.17	2.26	2.33	2.18	2.11	2.30	2.50	2.62	2.70	2.78	2.85	2.93	3.01	3.08	3.10	3.11	3.13	3.22	3.41	3.61	3.67	3.61	3.58	3.57	3.53	3.51	3.54	3.57	3.57	3.58	3.58	3.56	3.55	3.60	3.62	3.59	3.57	3.60	3.60	3.57	3.57	3.57	3.56	3.56	3.50	3.45	3.46	3.46	3.43	3.40	3.40	3.37	3.28	3.19	3.14	3.12	3.10	3.06	2.97	2.85	2.72	2.57	2.41	2.36	2.44	2.50	2.64	2.91	3.11	3.28	3.69	4.11	6.24	6.31	6.32	6.37	6.39	10.54	13.13	13.13	
2.75	2.71	2.54	2.32	1.96	1.30	1.44	5.39	6.23	5.30	4.91	4.68	4.42	4.28	4.18	4.18	4.24	4.92	4.53	3.92	3.27	3.06	2.28	4.55	5.20	2.91	3.43	3.52	3.56	4.03	4.15	6.76	6.83	3.82	3.49	3.91	4.06	4.40	4.74	4.16	3.98	3.76	3.80	3.94	3.85	3.88	3.81	3.62	3.54	3.31	3.97	4.09	4.16	4.13	4.19	4.38	4.09	3.99	3.89	3.99	3.61	2.75	2.52	2.88	3.38	3.52	3.65	3.67	3.70	3.76	3.54	3.52	3.45	3.35	3.38	4.51	4.29	4.33	4.44	4.37	4.05	4.15	4.04	3.86	3.67	3.74	3.71	3.55	3.45	3.30	3.02	2.66	2.52	2.41	2.24	2.23	2.28	2.28	2.26	2.31	2.42	2.19	1.89	2.03	2.33	2.51	2.61	2.70	2.79	2.86	2.96	3.05	3.09	3.10	3.11	3.13	3.23	3.42	3.59	3.68	3.67	3.61	3.56	3.52	3.52	3.56	3.58	3.58	3.56	3.56	3.58	3.59	3.61	3.60	3.60	3.61	3.60	3.58	3.58	3.57	3.56	3.57	3.54	3.48	3.48	3.49	3.47	3.45	3.45	3.45	3.37	3.26	3.20	3.18	3.18	3.15	3.08	2.97	2.86	2.74	2.59	2.47	2.41	2.37	2.50	2.83	3.08	3.22	3.53	3.89	4.23	6.35	6.52	6.61	6.66	8.68	12.94	12.94	
2.83	2.80	2.68	2.52	2.23	1.62	1.86	5.22	5.98	5.20	4.81	4.65	4.48	4.36	4.26	4.15	4.19	4.66	4.51	4.80	4.05	3.08	2.39	4.26	4.94	2.60	3.21	3.43	3.59	4.09	4.02	4.44	5.06	4.81	3.96	4.27	4.62	4.60	4.15	4.12	4.25	4.13	4.26	3.97	3.91	4.13	4.06	4.09	4.13	4.02	4.03	4.14	4.18	4.19	4.29	3.64	3.54	3.27	3.12	3.33	2.30	1.11	1.63	2.49	3.04	3.31	3.35	3.28	3.35	4.05	4.19	4.29	4.39	4.52	3.00	2.91	4.21	4.16	4.27	4.58	4.38	4.02	3.89	2.44	2.01	1.73	1.57	2.26	2.73	2.22	1.89	3.03	2.72	2.56	2.45	2.37	2.35	2.35	2.34	2.39	2.53	2.31	1.80	1.76	2.09	2.35	2.49	2.60	2.70	2.78	2.88	2.99	3.06	3.08	3.11	3.13	3.16	3.24	3.37	3.59	3.74	3.71	3.61	3.56	3.52	3.52	3.57	3.59	3.56	3.56	3.59	3.61	3.59	3.59	3.61	3.61	3.60	3.58	3.58	3.57	3.55	3.57	3.57	3.53	3.51	3.51	3.50	3.47	3.48	3.50	3.44	3.33	3.27	3.26	3.25	3.22	3.18	3.10	3.00	2.90	2.78	2.67	2.54	2.37	2.37	2.68	3.03	3.19	3.38	3.65	4.02	4.38	6.64	6.75	6.94	8.88	12.94	12.94	
2.90	2.87	2.79	2.69	2.50	2.07	2.34	4.64	5.71	5.18	4.76	4.59	4.48	4.45	4.34	4.26	4.55	4.62	5.14	4.88	3.99	3.42	2.77	2.07	4.86	2.33	2.97	3.32	3.61	4.23	3.93	4.32	5.03	5.52	4.78	4.96	4.50	4.38	4.24	4.05	4.33	4.36	4.21	4.01	3.99	3.19	2.55	2.73	3.20	4.01	4.12	4.29	4.33	4.33	3.10	2.95	2.70	2.35	1.47	1.07	0.51	0.23	0.64	1.73	2.02	1.30	1.22	1.72	2.40	2.78	3.98	3.99	4.14	4.33	4.45	4.37	4.12	4.02	4.45	2.58	2.38	2.11	2.62	4.15	4.04	2.64	2.23	2.34	2.46	2.28	2.14	1.85	2.93	2.69	2.60	2.50	2.43	2.44	2.43	2.44	2.55	2.39	1.85	1.62	1.83	2.13	2.35	2.50	2.59	2.69	2.79	2.88	2.96	3.04	3.09	3.14	3.17	3.19	3.22	3.36	3.62	3.76	3.72	3.62	3.57	3.55	3.56	3.58	3.57	3.55	3.57	3.60	3.58	3.57	3.59	3.60	3.60	3.61	3.59	3.58	3.57	3.57	3.60	3.57	3.55	3.55	3.53	3.49	3.50	3.52	3.48	3.38	3.33	3.34	3.32	3.28	3.25	3.20	3.13	3.04	2.94	2.85	2.71	2.49	2.37	2.59	2.99	3.17	3.26	3.43	3.73	4.14	4.57	6.73	7.02	8.89	12.71	12.71	
2.96	2.93	2.89	2.83	2.71	2.46	2.73	4.40	5.43	5.16	4.75	4.58	4.51	4.50	4.47	4.57	4.56	5.66	5.56	4.89	4.05	3.59	3.16	2.61	3.99	2.15	2.69	3.17	3.57	3.82	3.96	4.30	5.03	5.37	4.98	4.34	4.40	4.51	4.43	4.42	4.35	4.32	3.94	3.70	2.75	1.38	2.24	3.60	4.18	4.10	4.16	4.41	4.62	2.90	2.28	1.91	1.35	0.80	4.18	4.04	4.41	1.24	0.53	0.58	3.57	1.33	0.59	1.41	1.65	1.43	1.38	1.45	1.72	2.14	4.31	4.15	3.92	3.98	4.35	2.55	2.05	0.98	4.30	4.41	2.16	2.80	2.33	2.12	2.10	2.31	2.41	2.28	2.05	2.86	2.68	2.58	2.50	2.52	2.58	2.54	2.52	2.37	1.93	1.61	1.67	1.91	2.16	2.37	2.50	2.61	2.74	2.82	2.87	2.96	3.05	3.11	3.16	3.18	3.19	3.23	3.38	3.62	3.77	3.72	3.63	3.58	3.57	3.57	3.55	3.55	3.56	3.57	3.59	3.58	3.57	3.56	3.59	3.62	3.61	3.60	3.59	3.60	3.61	3.60	3.59	3.58	3.55	3.52	3.53	3.54	3.52	3.44	3.38	3.38	3.38	3.33	3.30	3.26	3.21	3.14	3.07	2.98	2.87	2.66	2.47	2.59	3.01	3.23	3.22	3.22	3.43	3.82	4.32	6.61	7.14	8.89	10.22	10.22	
2.98	2.97	2.95	2.92	2.87	2.71	2.91	4.23	5.31	5.14	4.71	4.60	4.54	4.61	4.87	4.76	5.36	5.63	6.07	4.10	4.08	3.54	3.29	3.04	2.54	4.57	2.46	3.01	3.48	3.85	4.06	4.36	4.98	5.28	4.56	4.04	4.09	4.13	4.26	4.30	4.25	4.12	3.76	3.85	4.20	4.61	4.69	4.48	4.29	4.16	4.10	4.35	2.56	1.74	1.08	0.61	4.18	4.25	4.29	4.10	4.21	1.20	0.84	4.25	1.10	0.92	0.83	1.47	1.80	1.46	1.34	1.04	0.97	1.04	1.39	4.25	3.86	3.86	4.23	2.15	1.00	4.42	4.56	4.62	2.50	2.16	1.82	2.21	1.96	2.08	2.44	2.53	2.41	2.06	1.59	2.69	2.64	2.65	2.73	2.74	2.57	2.33	1.99	1.62	1.55	1.73	1.95	2.18	2.35	2.50	2.68	2.78	2.81	2.89	2.98	3.06	3.12	3.17	3.20	3.21	3.24	3.39	3.64	3.78	3.75	3.65	3.59	3.59	3.56	3.55	3.56	3.56	3.58	3.61	3.60	3.56	3.56	3.60	3.61	3.60	3.59	3.61	3.61	3.60	3.60	3.59	3.57	3.55	3.55	3.55	3.54	3.50	3.45	3.44	3.42	3.36	3.34	3.32	3.27	3.23	3.18	3.09	2.99	2.84	2.61	2.63	3.03	3.33	3.26	3.14	3.24	3.52	4.03	6.56	7.37	9.02	10.12	10.12	
2.98	2.98	2.98	2.97	2.97	2.89	2.98	3.89	5.27	5.21	4.70	4.48	4.41	4.84	5.00	6.08	5.76	6.24	6.61	4.13	4.18	3.49	3.30	3.23	2.93	4.70	2.40	2.94	3.46	3.88	4.18	4.45	4.84	4.81	4.45	4.40	4.09	3.99	4.12	4.20	4.12	4.03	4.06	3.91	4.02	4.25	4.35	4.28	4.18	4.08	4.03	2.40	2.36	2.18	1.23	0.46	4.51	4.42	4.51	4.44	4.13	0.98	0.81	0.51	0.61	0.53	0.46	0.58	0.82	1.09	0.89	0.88	1.18	1.30	1.80	2.28	2.26	2.22	1.69	1.06	4.57	4.55	4.72	4.62	4.37	2.50	2.11	1.78	2.27	2.03	2.38	2.65	2.44	2.03	1.61	1.43	1.64	1.80	2.90	2.91	2.69	2.35	2.11	1.76	1.49	1.54	1.78	2.03	2.22	2.36	2.54	2.70	2.77	2.83	2.92	3.00	3.07	3.15	3.19	3.22	3.23	3.26	3.41	3.66	3.80	3.75	3.65	3.63	3.62	3.58	3.56	3.56	3.56	3.61	3.64	3.60	3.56	3.58	3.60	3.61	3.60	3.61	3.61	3.61	3.62	3.61	3.60	3.59	3.57	3.56	3.55	3.53	3.51	3.51	3.49	3.41	3.39	3.38	3.32	3.29	3.26	3.18	3.09	2.98	2.77	2.70	3.02	3.37	3.31	3.19	3.23	3.33	3.79	6.51	7.43	9.15	10.21	10.21	
2.96	2.97	3.00	3.01	3.02	3.00	3.08	3.80	5.34	5.44	4.84	4.95	4.81	5.61	6.34	6.65	6.41	7.01	7.54	4.48	4.38	3.64	3.47	3.37	3.15	4.21	5.26	3.04	3.56	3.97	4.31	4.56	4.37	4.54	4.49	4.41	4.19	3.99	4.00	4.09	4.12	4.15	4.12	4.08	4.14	4.19	4.15	4.17	4.11	3.89	3.87	4.05	4.43	1.71	4.73	4.60	4.58	4.55	4.67	4.78	0.99	0.85	1.12	0.85	0.55	0.37	0.34	0.37	0.46	0.52	0.39	0.95	1.60	2.00	4.47	4.47	4.48	1.87	1.97	4.51	4.53	4.47	4.35	4.73	3.31	2.59	2.17	1.90	1.47	1.23	2.28	2.70	2.67	2.34	1.82	1.53	1.74	1.86	2.05	3.08	2.74	2.37	2.23	2.05	1.66	1.41	1.53	1.86	2.12	2.30	2.43	2.57	2.70	2.80	2.89	2.95	3.02	3.10	3.17	3.22	3.25	3.25	3.30	3.46	3.69	3.80	3.74	3.66	3.64	3.62	3.59	3.57	3.56	3.58	3.65	3.63	3.56	3.56	3.59	3.61	3.61	3.62	3.62	3.63	3.64	3.64	3.63	3.63	3.60	3.58	3.56	3.55	3.54	3.57	3.57	3.51	3.46	3.43	3.37	3.34	3.31	3.25	3.18	3.08	2.90	2.80	3.00	3.32	3.31	3.21	3.30	3.29	3.58	4.36	7.17	9.06	10.28	10.28	
2.93	2.95	2.99	3.02	3.04	3.04	3.14	3.64	5.18	5.42	5.52	5.20	5.75	5.93	6.42	6.29	5.92	6.48	7.16	4.52	4.46	3.77	3.62	3.51	3.28	4.45	5.39	3.15	3.64	4.08	4.40	4.23	3.90	4.35	4.33	4.35	4.24	4.06	3.97	3.95	3.96	4.01	4.06	4.14	4.30	4.35	4.16	4.11	4.21	3.94	3.74	3.92	4.25	4.57	4.58	4.47	4.42	4.41	4.56	4.90	0.95	1.01	1.24	0.82	0.60	0.42	0.56	0.66	0.61	0.54	0.71	1.51	3.90	4.13	4.43	4.48	4.49	0.42	4.46	4.56	4.58	4.31	4.30	4.67	4.90	2.91	2.03	1.38	0.94	0.87	1.56	2.14	1.89	1.53	2.23	1.85	1.96	2.04	2.41	2.38	2.87	2.32	2.14	2.15	1.96	1.49	1.32	1.55	1.90	2.20	2.41	2.49	2.58	2.74	2.86	2.91	2.97	3.05	3.14	3.21	3.24	3.27	3.29	3.35	3.52	3.74	3.84	3.75	3.64	3.63	3.62	3.58	3.57	3.59	3.64	3.66	3.60	3.56	3.58	3.61	3.62	3.63	3.64	3.64	3.65	3.66	3.65	3.65	3.63	3.60	3.58	3.56	3.55	3.57	3.60	3.57	3.53	3.49	3.44	3.41	3.37	3.31	3.27	3.17	3.00	2.88	2.98	3.23	3.27	3.20	3.34	3.36	3.39	3.96	4.96	8.81	10.15	10.15	
2.89	2.91	2.96	2.99	3.02	3.03	3.12	3.50	5.12	6.19	5.70	5.36	6.29	6.47	6.75	6.80	6.44	6.52	7.09	5.06	4.40	3.83	3.70	3.60	3.38	4.87	2.92	3.27	3.69	4.15	4.41	4.46	4.43	4.31	4.24	4.28	4.25	4.12	4.02	3.95	3.88	3.89	3.94	4.04	4.28	4.54	4.42	4.05	2.37	1.35	3.98	3.99	4.15	4.30	4.44	4.49	4.41	4.36	4.44	4.83	1.65	4.66	1.26	0.77	0.69	0.43	0.76	1.09	1.04	0.98	1.09	1.75	3.90	3.99	4.29	4.49	0.99	4.40	4.45	4.50	4.54	4.52	4.46	4.73	4.13	3.09	2.10	1.21	0.91	0.96	1.13	1.48	1.97	1.85	1.47	2.19	2.10	2.13	2.48	2.71	2.45	2.59	2.13	2.09	2.07	1.73	1.34	1.28	1.53	1.91	2.29	2.47	2.49	2.65	2.82	2.89	2.94	3.00	3.10	3.19	3.24	3.27	3.30	3.30	3.36	3.57	3.83	3.87	3.69	3.63	3.64	3.60	3.57	3.60	3.63	3.66	3.65	3.59	3.58	3.60	3.62	3.63	3.65	3.65	3.66	3.67	3.67	3.67	3.66	3.63	3.60	3.59	3.57	3.58	3.61	3.59	3.56	3.52	3.49	3.48	3.45	3.40	3.34	3.27	3.13	2.97	2.96	3.14	3.25	3.24	3.39	3.43	3.30	3.61	4.66	6.85	9.99	9.99	
2.84	2.86	2.91	2.95	2.98	3.01	3.05	3.35	5.99	6.56	5.75	6.25	6.23	6.56	6.98	7.28	7.32	7.23	6.93	4.98	4.23	3.82	3.78	3.68	3.50	4.67	5.75	3.48	3.87	4.21	4.28	4.20	4.22	4.20	4.13	4.15	4.17	4.12	4.01	3.92	3.87	3.90	3.87	3.81	4.01	4.55	1.78	1.34	3.90	4.18	4.28	4.24	4.21	4.20	4.26	4.37	4.37	4.36	4.45	4.76	2.70	1.16	1.08	1.64	1.03	0.40	0.58	0.92	1.02	1.33	1.73	4.12	4.05	4.03	4.16	1.45	4.48	4.64	4.65	4.52	4.44	4.48	4.50	4.65	4.01	2.82	1.85	1.11	0.92	1.00	1.05	1.52	2.30	2.59	2.14	1.58	1.25	2.21	2.43	2.63	2.57	2.25	1.65	2.34	2.18	1.96	1.59	1.29	1.26	1.50	1.94	2.32	2.42	2.55	2.77	2.87	2.91	2.96	3.05	3.16	3.22	3.26	3.29	3.29	3.29	3.39	3.68	3.91	3.83	3.67	3.65	3.60	3.54	3.56	3.60	3.63	3.65	3.63	3.59	3.60	3.62	3.64	3.65	3.66	3.67	3.69	3.69	3.69	3.68	3.66	3.64	3.64	3.61	3.61	3.65	3.63	3.58	3.54	3.51	3.51	3.51	3.47	3.43	3.36	3.26	3.10	3.00	3.08	3.23	3.29	3.45	3.50	3.30	3.41	4.42	6.73	9.76	9.76	
2.80	2.81	2.85	2.90	2.93	2.96	3.00	3.19	4.59	6.55	5.84	6.56	6.51	6.57	6.82	7.08	7.20	7.19	5.80	5.02	4.10	3.73	3.79	3.78	3.66	4.41	3.36	3.63	4.17	4.49	4.12	3.86	3.98	4.02	4.03	4.05	4.05	4.04	3.99	3.88	3.74	3.83	3.95	3.65	3.69	1.95	1.05	4.27	3.95	4.06	4.26	4.36	4.37	4.35	4.31	4.27	4.22	4.23	4.35	2.83	1.19	1.05	2.30	1.17	0.66	0.21	0.67	0.67	0.89	1.64	3.90	4.09	4.16	4.17	1.65	4.20	4.37	4.75	4.95	4.84	4.64	4.60	4.06	4.07	3.77	2.50	1.50	0.98	0.83	0.86	0.98	1.67	2.29	2.73	2.39	1.52	0.81	0.60	1.07	2.57	2.55	2.43	2.12	1.75	2.74	2.37	2.01	1.66	1.37	1.34	1.58	2.00	2.27	2.42	2.67	2.85	2.89	2.93	3.01	3.12	3.20	3.25	3.27	3.30	3.29	3.30	3.48	3.78	3.91	3.81	3.70	3.63	3.55	3.53	3.57	3.61	3.63	3.63	3.62	3.60	3.62	3.63	3.65	3.67	3.68	3.69	3.70	3.70	3.70	3.67	3.67	3.69	3.65	3.63	3.66	3.68	3.65	3.58	3.55	3.54	3.54	3.52	3.50	3.46	3.38	3.26	3.13	3.11	3.21	3.32	3.51	3.58	3.41	3.40	4.18	6.43	7.92	7.92	
2.75	2.77	2.81	2.84	2.86	2.88	2.95	3.22	4.52	6.19	6.93	6.82	6.91	6.81	6.85	7.03	7.13	7.50	4.19	5.02	4.16	3.77	3.74	4.04	3.83	3.62	6.01	3.79	4.48	1.02	4.15	3.53	3.68	3.87	3.99	3.94	3.82	3.90	3.94	4.03	3.86	3.69	1.78	3.76	3.63	4.11	4.33	4.13	3.98	4.05	4.14	4.28	4.41	4.48	4.49	4.34	4.18	4.19	3.28	2.93	2.76	2.79	1.60	0.68	0.45	1.00	0.91	0.90	1.59	2.77	3.84	4.02	4.19	4.29	1.50	4.37	4.32	4.60	4.94	4.99	4.20	4.23	4.16	3.78	3.37	2.50	1.95	1.67	1.32	1.06	0.99	1.50	2.53	2.98	2.02	0.58	0.96	1.31	0.28	0.42	2.66	2.59	2.45	2.17	2.09	3.15	2.68	2.31	1.98	1.68	1.59	1.79	2.07	2.29	2.57	2.82	2.89	2.91	2.97	3.06	3.17	3.23	3.27	3.29	3.30	3.27	3.33	3.56	3.82	3.91	3.82	3.70	3.60	3.53	3.55	3.59	3.61	3.62	3.62	3.61	3.62	3.64	3.66	3.67	3.69	3.70	3.71	3.71	3.70	3.68	3.69	3.72	3.70	3.67	3.65	3.68	3.71	3.65	3.61	3.60	3.57	3.55	3.54	3.52	3.48	3.39	3.31	3.26	3.23	3.30	3.57	3.72	3.66	3.62	4.03	5.97	7.44	7.44	
2.70	2.73	2.77	2.79	2.80	2.83	2.87	3.22	4.15	6.82	6.87	6.69	6.76	6.78	7.02	7.30	7.28	7.34	5.24	4.76	4.20	3.91	3.68	3.76	3.94	3.87	5.57	5.97	4.84	3.99	4.29	3.28	3.31	3.72	4.11	4.00	3.67	3.66	3.73	4.04	1.66	3.79	3.75	3.79	3.76	3.92	3.96	3.92	3.93	3.99	4.05	4.19	4.41	4.54	4.57	3.85	3.58	3.40	3.04	2.99	2.87	2.73	1.65	0.33	0.82	1.38	1.37	1.67	3.19	3.93	3.88	3.99	4.18	0.84	4.49	4.56	4.53	4.62	4.85	4.35	4.31	4.32	4.12	3.58	3.09	2.52	2.21	1.93	1.42	1.03	0.93	1.25	2.15	2.76	0.96	1.23	2.06	2.34	1.72	1.49	1.83	2.67	2.58	2.25	2.25	2.22	3.40	2.95	2.60	2.34	2.11	2.00	2.04	2.19	2.50	2.79	2.88	2.94	2.99	3.03	3.13	3.21	3.26	3.28	3.30	3.30	3.30	3.40	3.64	3.86	3.89	3.78	3.65	3.56	3.54	3.58	3.60	3.60	3.61	3.62	3.62	3.64	3.66	3.67	3.69	3.70	3.72	3.73	3.71	3.69	3.70	3.72	3.72	3.71	3.67	3.66	3.70	3.69	3.66	3.65	3.63	3.59	3.57	3.57	3.55	3.50	3.46	3.43	3.35	3.29	3.52	3.84	4.00	4.04	4.15	5.48	6.77	6.77	
2.65	2.68	2.72	2.74	2.75	2.79	2.87	3.16	3.46	6.56	7.34	7.02	7.08	7.12	7.29	7.36	6.86	6.14	5.11	4.41	4.12	3.99	3.73	3.71	3.35	5.54	4.06	6.38	5.14	0.75	1.28	3.30	3.10	3.45	1.59	1.38	1.64	3.44	3.49	3.84	4.14	3.99	3.73	3.74	3.87	3.92	3.83	3.81	3.86	3.91	3.91	4.08	4.47	4.71	4.43	4.07	3.73	3.41	1.90	1.57	1.43	1.28	0.41	0.42	1.32	1.85	1.98	3.60	4.13	3.99	3.98	4.05	0.41	4.31	4.44	4.55	4.66	4.73	4.46	4.55	4.49	4.25	4.11	3.84	3.44	2.89	2.36	1.77	1.28	1.07	1.03	0.95	1.36	1.47	1.23	2.12	2.45	2.45	1.82	1.97	2.06	2.57	2.38	2.57	2.72	2.60	2.32	3.35	2.96	2.66	2.53	2.42	2.24	2.21	2.46	2.76	2.84	2.93	3.02	3.03	3.09	3.18	3.24	3.28	3.30	3.32	3.32	3.34	3.49	3.74	3.89	3.84	3.71	3.61	3.56	3.59	3.61	3.59	3.60	3.62	3.62	3.63	3.65	3.68	3.69	3.70	3.71	3.74	3.74	3.72	3.73	3.73	3.73	3.75	3.74	3.69	3.68	3.71	3.70	3.70	3.70	3.66	3.62	3.62	3.62	3.59	3.54	3.53	3.49	3.35	3.36	3.69	4.14	4.47	4.57	5.31	6.07	6.07	
2.60	2.63	2.67	2.70	2.71	2.75	2.89	3.22	3.27	6.55	7.81	7.45	7.62	7.67	7.65	7.59	7.64	4.88	5.13	4.18	4.04	4.03	3.88	3.76	3.66	3.69	3.99	4.59	5.46	1.16	4.39	3.73	3.26	3.31	3.93	4.28	3.98	3.46	3.43	3.84	4.12	4.10	3.96	3.93	4.07	4.16	4.02	3.89	3.94	3.65	3.33	3.86	4.41	4.81	4.81	3.55	3.15	2.48	1.92	1.65	1.49	0.76	0.90	1.74	2.43	2.16	3.90	3.72	4.21	4.11	4.14	1.28	4.29	4.50	4.64	4.60	4.66	4.32	4.50	4.71	4.69	4.48	4.27	4.04	3.52	2.85	2.34	2.05	1.75	1.38	0.98	0.59	0.92	1.26	2.05	2.37	2.41	2.43	2.32	2.83	3.12	2.66	2.37	2.61	2.99	2.71	3.51	3.38	3.11	2.71	2.54	2.56	2.46	2.32	2.49	2.75	2.79	2.86	3.00	3.02	3.06	3.14	3.22	3.27	3.29	3.31	3.34	3.33	3.40	3.62	3.85	3.90	3.77	3.65	3.58	3.59	3.62	3.60	3.60	3.62	3.63	3.62	3.64	3.67	3.70	3.71	3.71	3.73	3.75	3.74	3.75	3.75	3.74	3.78	3.81	3.76	3.71	3.72	3.71	3.72	3.76	3.74	3.68	3.67	3.68	3.66	3.61	3.58	3.59	3.50	3.35	3.41	3.86	4.49	4.90	5.36	5.70	5.70	
2.57	2.60	2.63	2.66	2.68	2.72	2.84	3.28	3.32	6.58	8.16	7.58	7.65	7.75	7.95	7.92	8.44	5.85	5.05	4.05	4.01	4.01	3.95	3.84	3.65	3.62	3.90	4.95	0.41	5.10	4.07	1.92	3.58	3.57	4.00	4.27	4.25	3.97	3.76	3.90	4.11	4.12	4.03	4.00	4.08	4.22	4.27	4.20	4.23	4.23	3.79	3.69	4.26	4.80	4.23	3.74	3.01	2.09	1.55	0.80	0.64	1.21	2.19	3.06	3.06	2.94	4.39	4.01	4.44	4.37	4.33	0.22	4.52	4.73	4.97	4.64	4.45	4.44	4.56	4.76	4.67	4.58	4.31	3.89	3.20	2.51	2.15	1.95	1.73	1.34	0.68	0.36	0.85	1.25	1.96	2.47	2.37	2.23	2.59	2.84	2.57	2.47	2.20	2.20	2.67	2.70	3.29	3.27	3.15	2.78	2.48	2.46	2.45	2.39	2.54	2.79	2.81	2.83	2.95	3.01	3.05	3.11	3.19	3.25	3.28	3.31	3.34	3.34	3.35	3.47	3.74	3.93	3.85	3.69	3.59	3.58	3.61	3.63	3.62	3.64	3.65	3.64	3.65	3.66	3.69	3.72	3.72	3.74	3.75	3.74	3.74	3.74	3.74	3.77	3.80	3.79	3.76	3.74	3.71	3.71	3.76	3.77	3.73	3.71	3.72	3.71	3.68	3.66	3.67	3.65	3.52	3.39	3.57	4.11	4.74	5.35	5.67	5.67	
2.54	2.56	2.60	2.63	2.64	2.67	2.76	3.17	3.21	6.64	8.56	7.88	7.92	8.04	8.20	8.03	8.52	5.85	4.84	3.98	3.98	3.96	3.95	3.90	3.70	3.60	3.81	5.17	0.56	5.22	3.92	1.73	3.64	3.75	4.10	4.40	4.55	4.49	4.25	4.09	4.11	4.09	4.01	4.03	4.07	4.08	4.11	4.15	4.27	4.44	4.31	4.07	4.21	4.35	4.29	3.95	2.83	1.86	0.08	0.97	1.61	2.18	3.20	3.47	3.61	4.73	4.65	4.79	4.72	4.58	4.41	4.36	4.37	4.54	4.88	4.85	4.69	4.78	4.88	4.85	4.83	4.63	4.27	3.84	3.30	2.69	2.11	1.61	1.31	0.97	0.29	0.60	1.15	1.63	2.13	2.50	2.47	1.98	2.00	2.24	2.10	2.07	1.83	1.67	1.95	2.33	3.09	3.15	3.09	2.82	2.54	2.37	2.32	2.34	2.51	2.76	2.84	2.85	2.92	3.00	3.04	3.10	3.17	3.23	3.26	3.29	3.32	3.34	3.33	3.36	3.56	3.87	3.94	3.77	3.63	3.58	3.58	3.61	3.63	3.65	3.67	3.67	3.67	3.66	3.67	3.70	3.71	3.75	3.78	3.75	3.73	3.73	3.75	3.78	3.77	3.76	3.79	3.78	3.73	3.72	3.75	3.76	3.76	3.78	3.78	3.76	3.74	3.73	3.73	3.74	3.72	3.62	3.61	3.84	4.32	5.14	5.64	5.64	
2.51	2.53	2.56	2.59	2.59	2.61	2.70	2.82	2.84	6.61	9.43	8.34	8.53	8.84	8.84	8.50	8.63	5.99	4.66	3.93	4.01	3.98	3.59	3.97	3.74	3.58	3.74	5.00	0.80	4.97	0.94	3.73	3.57	3.62	3.81	4.16	4.50	4.65	4.51	4.28	4.16	4.02	3.92	4.09	4.29	2.76	4.03	3.92	4.02	4.35	3.63	4.33	3.90	3.91	4.11	3.11	1.65	0.98	1.74	2.09	2.45	3.01	3.62	3.88	4.85	4.78	4.76	4.83	4.76	4.60	4.39	4.23	4.16	4.23	4.57	4.74	4.73	4.88	5.32	5.36	5.23	4.92	4.43	3.75	3.23	2.83	2.33	1.66	0.73	0.34	0.84	0.89	1.05	1.46	1.94	2.32	2.52	2.03	1.59	1.77	1.91	1.95	1.83	1.64	1.69	2.04	2.89	3.00	2.98	2.77	2.57	2.34	2.21	2.25	2.44	2.69	2.79	2.81	2.88	2.96	3.01	3.07	3.15	3.20	3.24	3.28	3.31	3.33	3.33	3.32	3.41	3.71	3.94	3.86	3.70	3.61	3.56	3.57	3.61	3.63	3.64	3.68	3.69	3.67	3.68	3.71	3.71	3.74	3.80	3.78	3.75	3.75	3.78	3.82	3.80	3.76	3.79	3.83	3.80	3.76	3.77	3.77	3.78	3.83	3.84	3.81	3.80	3.79	3.79	3.79	3.83	3.84	3.80	3.78	4.05	4.91	5.51	5.51	
2.49	2.50	2.53	2.54	2.55	2.57	2.65	2.57	2.50	4.96	8.89	9.25	8.49	8.80	9.32	9.26	9.10	6.12	4.56	3.89	4.07	3.66	4.02	3.91	3.74	3.64	3.83	4.72	5.93	0.73	3.73	3.87	3.55	3.37	3.42	3.73	4.21	4.62	4.61	3.39	2.84	2.14	3.75	3.97	4.34	3.07	2.72	2.34	2.65	4.12	4.26	4.10	3.64	2.00	2.30	6.58	4.18	3.73	3.58	3.46	3.48	3.88	4.00	4.63	4.81	4.79	4.74	4.79	4.74	4.58	4.35	4.17	4.09	4.12	4.36	4.64	4.77	4.81	5.16	5.24	5.17	4.96	4.42	3.58	2.90	2.59	2.32	1.36	0.37	0.96	1.40	1.32	1.16	1.23	1.54	2.01	2.49	2.44	1.90	1.74	1.73	1.74	1.75	1.59	1.61	1.85	2.77	2.86	2.85	2.71	2.56	2.33	2.15	2.14	2.35	2.63	2.75	2.77	2.84	2.92	2.97	3.04	3.12	3.18	3.23	3.27	3.32	3.34	3.33	3.31	3.33	3.54	3.84	3.87	3.73	3.66	3.58	3.55	3.59	3.62	3.63	3.67	3.70	3.69	3.69	3.73	3.72	3.74	3.78	3.78	3.76	3.78	3.81	3.83	3.84	3.81	3.79	3.82	3.84	3.82	3.81	3.80	3.80	3.84	3.86	3.85	3.86	3.85	3.83	3.83	3.86	3.95	3.95	3.84	3.94	4.73	5.34	5.34	
2.47	2.48	2.49	2.49	2.51	2.54	2.61	2.63	2.80	4.45	8.44	9.79	8.34	8.16	8.91	9.77	11.06	6.07	4.51	3.82	4.04	4.24	4.21	3.93	3.68	3.59	3.88	4.56	6.28	5.92	4.42	4.02	3.62	3.20	3.09	3.34	3.90	4.56	4.48	3.74	0.70	1.68	3.65	3.90	4.34	3.76	2.96	1.47	2.37	3.78	4.41	4.12	1.46	2.02	4.41	5.05	5.22	5.26	5.04	4.63	4.47	4.15	4.13	4.48	4.60	4.47	4.47	4.65	4.72	4.60	4.39	4.15	4.01	4.02	4.12	4.38	4.68	5.06	5.19	5.23	5.05	4.72	4.18	3.57	2.89	2.40	1.90	1.19	0.76	0.55	1.00	1.35	1.16	0.88	1.13	1.73	2.19	2.30	2.11	1.77	1.61	1.52	1.40	1.40	1.51	2.70	2.73	2.80	2.75	2.63	2.52	2.35	2.14	2.06	2.22	2.54	2.71	2.75	2.80	2.87	2.94	3.01	3.09	3.16	3.22	3.26	3.31	3.34	3.34	3.31	3.30	3.42	3.71	3.85	3.75	3.67	3.62	3.55	3.57	3.61	3.62	3.66	3.69	3.68	3.66	3.70	3.72	3.73	3.78	3.78	3.77	3.79	3.81	3.81	3.82	3.84	3.83	3.81	3.82	3.84	3.84	3.83	3.82	3.84	3.85	3.87	3.89	3.90	3.89	3.87	3.88	3.96	4.02	3.92	3.93	4.59	5.16	5.16	
2.45	2.46	2.48	2.47	2.48	2.51	2.60	2.63	3.08	3.40	8.38	9.89	8.67	7.99	8.14	5.02	6.23	6.04	4.44	3.65	3.82	4.23	4.38	4.22	3.77	3.57	3.81	4.36	5.40	6.00	5.25	4.20	3.57	2.71	2.97	3.04	3.58	4.38	4.77	1.91	0.60	0.94	3.44	3.75	4.24	4.55	2.64	1.67	2.60	3.51	4.46	3.19	2.15	3.03	3.87	4.59	5.27	5.57	5.39	4.79	4.59	4.46	4.58	4.54	4.52	4.36	4.19	4.35	4.52	4.51	4.46	4.30	4.09	3.92	4.00	4.19	4.53	5.10	5.24	5.44	5.42	4.71	3.85	3.12	2.58	2.22	1.79	1.54	1.08	0.57	0.43	0.37	0.46	0.36	0.52	1.03	1.46	1.54	1.65	1.52	1.49	1.38	1.29	1.43	1.45	2.59	2.66	2.77	2.73	2.60	2.46	2.34	2.17	2.01	2.10	2.40	2.62	2.69	2.76	2.82	2.90	2.98	3.05	3.11	3.19	3.24	3.28	3.33	3.34	3.32	3.31	3.36	3.57	3.81	3.83	3.71	3.63	3.57	3.55	3.57	3.59	3.64	3.68	3.68	3.66	3.69	3.71	3.73	3.77	3.80	3.79	3.80	3.82	3.81	3.80	3.83	3.86	3.84	3.82	3.82	3.85	3.86	3.85	3.84	3.86	3.87	3.90	3.92	3.93	3.92	3.91	3.95	4.02	3.98	3.94	4.49	5.01	5.01	
2.43	2.44	2.46	2.46	2.46	2.50	2.60	2.63	3.15	3.27	8.22	8.22	9.10	3.86	8.05	4.67	5.91	6.03	4.58	3.55	3.59	3.97	4.39	4.41	3.98	4.37	3.82	4.12	5.05	6.64	4.71	3.08	3.97	3.62	2.68	3.09	3.52	4.24	4.03	2.53	1.61	2.98	2.98	3.52	4.58	3.87	1.99	1.54	1.85	3.81	4.17	6.37	4.33	4.09	4.39	4.28	4.71	4.78	4.53	4.49	4.37	4.54	4.55	4.54	4.54	4.40	4.16	4.11	4.20	4.27	4.34	4.35	4.17	4.16	4.23	4.22	4.61	4.95	5.02	5.39	5.39	4.71	3.34	2.29	1.69	1.29	1.32	1.76	1.51	0.98	0.70	0.52	0.38	0.19	0.12	0.48	0.94	1.21	1.29	1.37	1.41	1.30	1.28	1.47	1.39	2.50	2.52	2.65	2.69	2.63	2.49	2.33	2.11	1.90	1.93	2.22	2.50	2.62	2.72	2.80	2.86	2.94	3.01	3.07	3.13	3.19	3.23	3.28	3.32	3.33	3.33	3.34	3.43	3.68	3.86	3.80	3.66	3.59	3.57	3.56	3.59	3.64	3.68	3.69	3.69	3.69	3.72	3.73	3.75	3.77	3.79	3.82	3.83	3.83	3.82	3.81	3.84	3.84	3.83	3.83	3.85	3.89	3.89	3.87	3.88	3.90	3.91	3.93	3.95	3.95	3.94	3.96	4.01	4.01	3.96	4.42	4.90	4.90	
2.42	2.42	2.44	2.44	2.44	2.47	2.57	2.70	3.37	3.31	8.32	7.29	4.97	7.26	7.58	8.46	9.71	5.78	4.67	3.57	3.48	3.79	4.23	4.34	4.03	3.75	3.72	3.86	4.49	5.73	5.77	2.93	2.04	1.44	3.32	3.23	3.59	4.15	4.07	2.12	2.56	2.66	2.92	3.34	4.27	4.99	4.52	4.35	5.17	6.34	4.31	6.50	5.56	4.57	4.71	4.97	4.96	4.40	4.43	4.43	4.54	4.40	4.43	4.36	4.32	4.30	4.23	4.11	4.06	4.12	4.23	4.28	4.32	4.25	4.06	4.32	4.56	4.93	5.11	5.46	5.24	4.61	3.32	2.15	1.15	0.96	1.75	1.97	1.81	1.45	1.04	0.81	0.71	0.47	0.15	0.42	0.73	0.79	0.83	0.87	1.29	1.16	1.17	1.44	1.37	2.52	2.42	2.51	2.57	2.61	2.63	2.52	2.21	1.83	1.73	1.99	2.34	2.53	2.64	2.76	2.84	2.91	2.99	3.05	3.11	3.17	3.20	3.24	3.29	3.31	3.32	3.33	3.34	3.51	3.77	3.83	3.73	3.63	3.60	3.59	3.61	3.66	3.67	3.69	3.70	3.69	3.71	3.75	3.76	3.75	3.78	3.81	3.80	3.81	3.83	3.83	3.83	3.82	3.83	3.85	3.87	3.90	3.92	3.91	3.91	3.93	3.93	3.95	3.96	3.95	3.95	3.98	4.00	4.01	3.94	4.33	4.77	4.77	
2.41	2.41	2.43	2.42	2.41	2.43	2.53	2.71	3.59	3.76	8.59	7.50	6.02	6.27	6.66	6.89	7.46	5.40	4.48	3.58	3.50	3.74	4.15	4.27	4.04	3.72	3.54	3.58	4.05	5.16	6.97	3.86	3.69	2.73	3.24	3.10	3.17	3.30	1.17	4.81	4.88	1.31	2.17	4.12	3.84	6.17	6.00	5.97	4.46	4.27	4.46	4.98	5.05	4.79	4.84	4.40	4.45	4.33	4.41	4.64	4.51	4.36	4.35	4.33	4.18	4.20	4.31	4.27	4.21	4.22	4.24	4.23	4.24	3.79	3.91	4.27	4.49	4.83	5.15	5.87	5.54	4.64	2.70	1.53	0.88	1.45	2.13	2.12	1.84	1.82	1.49	0.99	0.79	0.65	0.42	0.46	0.71	0.78	0.85	1.12	1.29	1.01	0.98	1.18	1.18	0.97	2.47	2.45	2.50	2.56	2.70	2.80	2.63	2.07	1.66	1.79	2.18	2.43	2.54	2.67	2.78	2.87	2.95	3.01	3.09	3.17	3.20	3.22	3.26	3.29	3.30	3.31	3.31	3.41	3.63	3.77	3.75	3.65	3.60	3.60	3.61	3.64	3.66	3.68	3.70	3.69	3.70	3.75	3.78	3.77	3.79	3.82	3.79	3.79	3.82	3.85	3.85	3.83	3.83	3.85	3.88	3.90	3.91	3.91	3.93	3.94	3.95	3.98	3.99	3.97	3.98	4.00	3.99	3.99	3.94	4.23	4.59	4.59	
2.41	2.41	2.41	2.41	2.40	2.40	2.48	2.65	3.43	3.61	8.97	8.03	5.96	6.18	6.51	5.04	5.19	4.98	4.07	3.46	3.47	3.66	4.03	4.25	4.11	3.79	4.31	3.45	3.78	4.60	5.88	5.42	4.60	4.00	3.70	3.83	1.74	3.58	5.15	4.71	5.17	5.42	5.85	3.96	3.80	4.15	4.37	4.40	4.51	4.55	4.72	5.06	5.14	4.98	4.45	4.30	4.32	4.28	4.53	4.54	4.45	4.34	4.48	0.48	4.38	4.30	4.36	4.35	4.28	4.19	4.12	4.08	4.07	3.79	3.90	4.00	4.25	4.59	4.86	5.63	5.16	4.13	1.34	1.03	1.57	2.03	2.10	2.11	1.86	1.85	1.93	1.45	1.16	1.03	0.85	0.61	0.66	1.22	1.62	1.68	1.14	0.87	0.96	1.09	1.16	1.08	2.57	2.47	2.45	2.47	2.61	2.82	2.93	2.53	1.82	1.70	2.05	2.37	2.50	2.59	2.70	2.79	2.89	2.95	3.03	3.13	3.16	3.18	3.22	3.25	3.27	3.29	3.30	3.36	3.53	3.71	3.76	3.67	3.60	3.60	3.62	3.62	3.63	3.67	3.70	3.70	3.70	3.73	3.77	3.79	3.83	3.85	3.82	3.81	3.82	3.85	3.87	3.85	3.84	3.86	3.88	3.89	3.88	3.90	3.93	3.94	3.96	4.00	4.01	3.99	4.02	4.04	4.01	4.00	4.00	4.19	4.40	4.40	
2.39	2.39	2.40	2.38	2.37	2.38	2.43	2.56	2.76	2.77	9.06	11.09	7.31	6.82	6.89	5.40	5.22	4.60	3.70	3.23	3.30	3.50	3.85	4.18	4.17	3.81	3.71	3.52	3.64	4.16	5.19	5.84	5.42	3.72	2.35	1.54	3.55	3.58	3.68	3.29	3.48	4.98	3.82	3.88	4.02	4.22	4.33	4.32	4.31	4.40	4.03	4.22	4.54	4.54	4.25	4.18	4.32	4.45	4.55	4.60	4.49	4.38	0.48	4.66	4.59	4.56	4.50	4.42	4.32	4.17	4.03	3.74	3.58	3.67	3.84	3.84	4.07	4.35	5.38	5.51	4.81	2.69	1.01	2.02	2.77	2.86	2.26	1.90	1.84	2.00	2.20	1.84	1.49	1.34	1.26	1.09	1.26	1.64	1.50	0.74	1.03	1.28	0.98	0.96	1.11	1.14	2.63	2.50	2.42	2.38	2.48	2.71	2.94	2.73	2.00	1.68	1.89	2.25	2.48	2.57	2.65	2.75	2.84	2.90	2.99	3.08	3.14	3.18	3.19	3.21	3.25	3.28	3.29	3.31	3.42	3.62	3.75	3.71	3.61	3.60	3.61	3.60	3.61	3.66	3.69	3.70	3.70	3.72	3.75	3.78	3.83	3.87	3.86	3.84	3.82	3.82	3.86	3.87	3.85	3.87	3.90	3.90	3.89	3.91	3.94	3.94	3.95	3.99	4.00	3.98	4.02	4.07	4.05	4.03	4.07	4.18	4.28	4.28	
2.37	2.37	2.37	2.36	2.34	2.34	2.37	2.45	2.03	1.88	6.34	10.93	8.13	7.70	7.53	5.72	5.06	4.30	3.48	3.11	3.11	3.31	3.62	4.01	4.10	3.80	3.94	3.64	3.64	3.98	4.59	5.26	5.30	5.87	5.54	4.88	4.00	3.40	3.21	4.35	3.47	3.68	3.71	3.57	3.63	3.82	4.02	4.38	4.09	4.10	4.13	4.23	4.39	4.33	4.08	4.15	4.11	4.21	4.34	4.46	4.39	4.23	4.34	4.50	4.56	4.53	4.48	4.44	4.42	3.91	3.64	3.53	3.42	3.42	3.49	3.61	3.84	4.99	5.51	5.76	4.54	1.22	2.38	3.11	3.81	3.90	3.11	2.25	2.17	2.72	2.82	2.54	2.42	2.34	2.10	1.76	1.60	1.59	0.91	2.23	1.35	0.86	1.18	0.85	0.88	0.99	0.90	2.52	2.43	2.37	2.43	2.67	2.91	2.72	2.06	1.66	1.75	2.07	2.37	2.54	2.62	2.72	2.80	2.86	2.94	3.04	3.13	3.18	3.17	3.18	3.22	3.26	3.28	3.27	3.32	3.48	3.65	3.70	3.62	3.59	3.62	3.61	3.61	3.65	3.70	3.73	3.71	3.71	3.73	3.74	3.77	3.84	3.89	3.88	3.83	3.79	3.83	3.88	3.86	3.87	3.91	3.92	3.91	3.94	3.96	3.95	3.95	3.99	4.00	3.99	4.02	4.07	4.07	4.07	4.09	4.16	4.21	4.21	
2.37	2.37	2.34	2.33	2.32	2.31	2.33	2.33	1.96	2.27	4.56	9.05	7.49	6.78	6.68	5.84	5.14	4.06	3.36	3.16	3.10	3.15	3.40	3.80	3.18	3.73	3.67	3.63	3.61	3.79	4.69	4.71	4.89	4.78	4.57	5.16	4.95	4.18	3.53	4.09	3.46	3.56	3.49	3.58	3.50	3.68	3.93	4.07	4.08	4.12	4.18	4.19	4.34	4.52	4.38	4.15	4.04	4.05	4.07	4.15	4.17	4.15	4.24	4.38	4.47	4.51	4.46	4.36	4.23	4.09	3.74	3.54	3.68	3.66	3.81	4.18	4.50	5.12	5.86	6.76	3.25	3.37	3.64	4.13	3.92	4.23	3.57	2.65	2.55	2.95	2.98	2.45	2.34	2.45	2.01	1.20	0.51	0.39	1.51	1.85	1.04	0.50	0.29	0.91	0.76	0.76	0.79	0.75	2.42	2.34	2.38	2.65	2.93	2.76	2.10	1.61	1.64	1.92	2.22	2.43	2.56	2.67	2.75	2.80	2.85	2.94	3.06	3.16	3.14	3.11	3.14	3.19	3.24	3.24	3.27	3.40	3.57	3.66	3.61	3.57	3.62	3.62	3.61	3.64	3.70	3.75	3.75	3.73	3.72	3.71	3.69	3.75	3.86	3.92	3.87	3.79	3.82	3.87	3.85	3.86	3.90	3.91	3.91	3.94	3.98	3.97	3.96	3.98	4.01	4.01	4.02	4.04	4.07	4.09	4.10	4.13	4.15	4.15	
2.37	2.37	2.34	2.31	2.29	2.28	2.28	2.29	2.21	2.68	3.17	8.82	9.17	7.48	6.78	5.04	5.04	3.95	3.35	3.24	3.18	3.06	3.19	3.51	4.08	3.58	3.65	3.64	3.63	3.64	3.78	4.61	4.92	4.25	4.68	4.16	4.49	4.40	4.02	3.70	3.57	3.66	3.52	3.59	3.46	3.54	3.78	3.96	4.02	4.10	4.13	4.16	4.35	4.50	4.41	4.22	4.09	3.99	3.89	3.92	3.99	4.05	4.13	4.24	4.39	4.56	4.38	4.11	4.13	4.09	3.85	3.54	3.35	3.30	3.84	3.53	5.20	5.81	4.51	4.20	5.14	5.22	4.81	4.21	3.79	3.87	3.30	2.53	2.42	2.35	2.18	2.05	1.89	1.61	0.86	1.73	1.77	1.51	1.59	1.43	0.51	0.19	0.22	1.13	0.72	0.68	0.79	0.80	2.47	2.32	2.34	2.58	2.90	2.92	2.29	1.59	1.54	1.82	2.10	2.34	2.51	2.64	2.75	2.82	2.83	2.84	2.93	3.09	3.16	3.10	3.06	3.12	3.19	3.20	3.23	3.35	3.54	3.66	3.62	3.55	3.58	3.62	3.61	3.62	3.68	3.74	3.76	3.79	3.82	3.79	3.70	3.68	3.80	3.94	3.92	3.84	3.83	3.87	3.85	3.86	3.90	3.92	3.90	3.92	3.97	3.99	3.97	3.96	3.99	4.02	4.02	4.03	4.04	4.08	4.11	4.12	4.12	4.12	
2.37	2.37	2.34	2.30	2.26	2.25	2.25	2.28	2.35	2.66	2.74	8.08	11.86	10.62	9.09	5.28	5.41	3.95	3.46	3.35	3.28	2.48	3.14	3.29	4.11	3.37	3.46	3.57	3.57	3.52	3.50	4.18	5.17	4.67	4.86	4.23	4.79	4.51	4.66	3.92	3.77	3.85	3.96	3.79	3.51	3.41	3.62	3.83	3.84	3.90	4.03	4.12	4.28	4.43	4.39	4.18	4.10	4.04	3.78	3.76	3.84	3.84	3.86	3.97	4.19	4.40	4.50	4.42	4.37	4.22	3.77	3.27	2.67	2.53	2.91	4.64	3.90	3.79	4.03	4.43	5.10	4.80	5.37	5.08	4.67	3.47	2.66	2.03	2.08	1.83	1.60	1.66	1.43	0.91	3.26	3.07	2.96	2.50	1.43	0.85	0.22	0.16	0.19	0.27	0.91	0.65	0.70	0.82	0.80	2.38	2.32	2.49	2.78	3.00	2.56	1.71	1.52	1.69	1.96	2.22	2.42	2.59	2.74	2.85	2.90	2.85	2.78	2.89	3.11	3.15	3.05	3.07	3.13	3.14	3.17	3.27	3.47	3.66	3.66	3.57	3.55	3.61	3.62	3.62	3.68	3.74	3.77	3.83	3.91	3.96	3.89	3.74	3.76	3.90	3.94	3.88	3.86	3.86	3.86	3.87	3.89	3.91	3.91	3.91	3.94	3.99	3.99	3.96	3.97	4.01	4.04	4.04	4.04	4.06	4.08	4.10	4.11	4.11	
2.37	2.37	2.34	2.29	2.25	2.22	2.22	2.27	2.38	2.61	2.56	6.93	11.34	11.22	11.43	6.11	6.25	4.12	3.54	3.08	2.98	3.29	3.33	3.69	3.01	3.23	3.25	3.38	3.59	3.56	3.24	3.71	4.79	5.04	4.21	3.88	4.01	4.28	4.27	4.10	4.04	4.10	4.17	4.07	3.70	3.42	3.56	3.73	3.60	3.58	3.80	4.05	4.24	4.32	4.43	4.25	4.04	1.61	3.86	3.57	3.65	3.68	3.64	3.72	4.00	4.29	4.35	4.44	4.69	4.24	3.55	2.69	1.92	1.87	1.93	2.95	4.05	3.78	4.01	4.37	4.94	5.10	5.22	3.54	4.58	1.30	0.41	1.93	2.76	2.52	1.81	1.75	1.73	1.82	3.87	3.12	2.08	1.38	0.69	0.38	0.33	0.33	0.48	0.36	0.38	0.93	0.75	0.91	0.90	0.75	2.33	2.41	2.64	2.93	2.67	1.93	1.58	1.59	1.80	2.05	2.24	2.42	2.59	2.75	2.88	2.93	2.76	2.62	2.85	3.09	3.07	3.04	3.08	3.09	3.11	3.19	3.35	3.57	3.67	3.61	3.55	3.58	3.62	3.62	3.67	3.74	3.76	3.77	3.82	3.92	3.98	3.85	3.77	3.87	3.91	3.89	3.87	3.87	3.86	3.88	3.90	3.91	3.91	3.92	3.93	3.98	4.01	3.99	3.98	4.01	4.04	4.07	4.08	4.07	4.06	4.08	4.08	4.08	
2.37	2.37	2.34	2.29	2.23	2.19	2.19	2.24	2.34	2.55	2.46	6.46	10.61	10.43	11.82	7.99	7.48	4.76	3.70	3.55	2.47	3.47	2.96	3.45	3.38	3.20	3.19	3.46	3.74	3.53	2.94	3.17	4.34	4.68	4.31	3.84	3.80	3.90	3.88	3.83	3.89	4.08	4.28	4.29	4.04	3.70	3.51	3.44	3.59	3.44	3.63	3.94	4.17	4.16	4.37	1.28	4.06	3.99	3.87	3.51	3.43	3.46	3.41	3.50	3.96	4.25	4.41	4.71	4.54	3.99	2.99	1.89	1.37	1.36	4.06	3.86	3.99	3.99	3.80	4.07	4.68	4.96	5.08	1.96	0.85	0.49	2.48	5.36	4.39	3.70	1.50	2.56	2.44	2.96	3.52	2.64	1.42	0.90	0.83	0.74	0.68	0.72	0.91	0.71	0.76	1.28	0.91	1.09	1.08	0.85	2.43	2.43	2.58	2.79	2.62	2.04	1.61	1.50	1.66	1.91	2.10	2.28	2.48	2.64	2.79	2.97	2.87	2.50	2.47	2.81	3.02	3.08	3.08	3.04	3.04	3.12	3.23	3.40	3.56	3.60	3.55	3.56	3.59	3.61	3.65	3.68	3.69	3.70	3.71	3.77	3.90	3.90	3.83	3.88	3.90	3.86	3.85	3.87	3.89	3.89	3.92	3.93	3.94	3.95	3.94	3.97	4.00	3.99	3.99	4.01	4.02	4.05	4.08	4.10	4.09	4.06	4.05	4.05	
2.38	2.36	2.33	2.29	2.23	2.18	2.16	2.20	2.28	2.45	2.39	6.76	10.62	9.52	10.64	12.83	7.58	6.21	3.52	2.60	2.59	2.64	2.16	3.53	3.46	3.29	3.42	3.06	3.84	2.99	2.77	2.81	3.71	4.49	4.52	3.85	3.46	3.70	3.63	3.58	3.64	3.90	4.20	4.29	4.27	1.58	4.01	3.70	3.70	3.53	3.76	3.99	4.16	4.12	4.16	4.36	4.26	4.09	4.02	3.84	3.55	3.35	2.86	3.19	3.73	4.06	5.12	4.96	4.45	3.51	1.49	4.41	4.30	4.34	4.04	3.96	1.24	1.96	3.88	3.94	4.45	2.62	1.57	0.85	1.19	4.74	5.16	5.34	5.47	0.91	3.43	3.64	3.05	3.48	3.20	1.81	1.14	0.90	1.04	0.97	0.82	0.78	0.68	0.80	1.22	1.41	0.97	1.06	1.25	1.12	1.16	1.17	2.69	2.75	2.61	2.15	1.69	1.49	1.57	1.80	1.98	2.16	2.39	2.59	2.75	2.97	3.02	2.61	2.27	2.42	2.76	3.04	3.15	3.08	3.02	3.08	3.19	3.30	3.41	3.50	3.53	3.54	3.55	3.56	3.62	3.66	3.66	3.69	3.72	3.74	3.82	3.86	3.86	3.90	3.91	3.87	3.83	3.86	3.90	3.90	3.91	3.92	3.95	3.98	3.96	3.97	3.99	3.99	3.99	4.01	4.03	4.04	4.05	4.09	4.11	4.07	4.04	4.04	
2.38	2.36	2.32	2.28	2.23	2.17	2.13	2.14	2.23	2.23	2.18	6.30	10.05	9.55	9.07	10.65	12.93	6.70	3.85	2.62	2.24	1.46	3.67	3.65	2.23	4.05	3.84	2.33	2.61	2.40	2.12	2.70	3.13	3.90	4.39	4.26	1.86	2.60	2.23	3.55	3.52	3.69	4.01	4.14	4.24	1.53	0.75	3.99	3.73	3.62	2.40	4.30	4.38	4.36	4.29	4.36	4.45	4.46	4.44	4.13	3.70	3.14	2.67	3.08	3.69	4.59	4.49	4.36	4.37	1.82	1.83	2.66	2.60	2.54	2.62	2.81	2.06	1.11	1.51	2.23	1.97	1.03	1.13	2.36	4.89	4.94	5.25	1.16	1.28	3.02	5.90	4.40	3.82	3.69	2.56	1.44	1.10	1.18	1.24	1.21	1.23	1.03	0.64	0.74	1.08	1.26	0.84	1.00	1.27	1.30	1.18	1.24	1.32	2.83	2.69	2.34	1.93	1.70	1.67	1.82	1.94	2.05	2.29	2.56	2.73	2.92	3.07	2.81	2.35	2.19	2.39	2.78	3.11	3.18	3.09	3.09	3.21	3.31	3.35	3.41	3.47	3.51	3.50	3.51	3.58	3.65	3.67	3.69	3.73	3.76	3.80	3.83	3.86	3.92	3.91	3.88	3.84	3.84	3.89	3.90	3.90	3.89	3.93	3.98	3.97	3.97	4.00	4.00	3.99	4.00	4.05	4.06	4.03	4.04	4.09	4.08	4.04	4.04	
2.38	2.36	2.31	2.27	2.21	2.15	2.10	2.10	2.18	1.98	2.01	3.85	8.63	10.19	8.65	8.56	11.24	10.81	5.08	4.24	4.03	3.61	3.61	3.70	3.63	3.57	2.49	2.72	2.25	1.82	1.74	2.89	2.82	3.26	3.95	4.31	1.39	4.14	3.83	3.75	1.39	3.55	3.81	3.98	4.11	1.18	4.50	4.19	3.71	3.60	4.07	4.50	4.68	4.74	4.73	4.73	4.70	4.66	4.57	4.47	3.13	1.94	2.57	3.16	3.76	4.52	4.17	4.33	3.76	2.87	2.73	2.76	3.16	3.18	2.80	2.70	1.78	0.90	0.67	1.16	1.87	2.22	3.05	5.18	5.06	5.23	0.83	1.16	3.23	5.87	5.81	4.34	6.17	4.06	2.46	1.52	1.16	1.17	1.23	1.37	1.35	0.83	0.35	0.42	0.70	0.87	0.80	1.11	1.20	1.28	1.33	1.62	1.72	1.45	2.75	2.43	2.09	1.92	1.91	2.02	2.06	2.09	2.27	2.56	2.78	2.91	3.01	2.90	2.53	2.19	2.16	2.46	2.86	3.10	3.10	3.08	3.19	3.30	3.34	3.37	3.43	3.49	3.50	3.51	3.56	3.61	3.65	3.68	3.71	3.76	3.82	3.82	3.87	3.93	3.91	3.87	3.84	3.84	3.88	3.90	3.91	3.89	3.92	3.96	3.96	3.96	4.00	4.02	3.99	3.98	4.02	4.07	4.06	4.03	4.05	4.07	4.06	4.06	
2.39	2.36	2.31	2.25	2.20	2.13	2.08	2.08	2.14	1.96	2.33	2.71	7.70	10.80	9.05	8.02	8.78	11.30	9.35	6.63	4.43	3.51	3.47	3.66	1.46	2.58	2.87	3.19	2.42	3.90	3.56	1.39	2.94	3.03	3.50	4.17	1.72	4.61	4.24	0.40	3.72	3.51	3.62	3.85	4.07	4.35	4.47	4.17	3.66	3.50	3.86	4.32	4.61	4.75	4.81	4.88	4.86	4.98	4.93	4.00	2.36	1.85	2.83	3.10	4.46	4.40	4.56	3.27	3.39	3.83	4.16	4.28	4.60	2.47	1.91	1.54	3.97	1.34	1.82	4.00	4.64	5.11	5.42	5.35	5.34	1.75	0.70	5.08	5.41	5.90	4.01	4.44	6.27	3.69	2.16	1.60	1.19	1.07	0.95	0.73	0.30	0.35	0.54	0.18	0.55	1.00	1.00	1.23	1.24	1.14	1.23	1.57	1.83	1.77	1.33	2.46	2.16	2.00	2.02	2.14	2.21	2.22	2.30	2.54	2.82	2.97	2.95	2.88	2.67	2.27	2.13	2.33	2.62	2.89	3.01	3.04	3.13	3.25	3.32	3.35	3.40	3.46	3.50	3.53	3.56	3.59	3.62	3.66	3.68	3.73	3.80	3.81	3.86	3.93	3.92	3.89	3.86	3.86	3.87	3.89	3.91	3.91	3.93	3.96	3.95	3.94	3.98	4.02	3.99	3.96	3.98	4.04	4.08	4.07	4.05	4.05	4.05	4.05	
2.42	2.38	2.32	2.25	2.19	2.13	2.07	2.07	2.13	2.04	2.43	2.74	7.71	11.19	9.27	8.25	7.66	8.58	11.25	6.39	5.28	3.93	3.60	3.62	0.86	1.93	3.58	2.89	3.95	2.39	1.78	3.75	3.41	3.21	1.48	3.70	3.84	0.83	1.28	3.20	3.88	3.56	3.52	3.73	0.68	4.34	4.42	4.10	3.55	3.33	3.58	4.01	4.32	4.49	4.59	4.77	5.05	5.32	5.02	3.51	2.13	1.90	2.70	3.54	3.94	3.65	2.86	2.15	3.51	3.47	3.70	4.00	2.76	1.65	1.68	1.48	1.91	4.13	4.41	4.44	4.46	4.80	5.09	5.24	2.45	0.81	1.98	5.21	5.32	5.60	4.14	6.06	5.17	4.03	2.64	1.88	1.20	0.94	0.58	0.56	0.75	0.76	0.61	0.43	0.42	0.47	0.59	0.82	0.49	1.20	1.04	1.15	1.54	1.80	1.62	2.57	2.29	2.14	2.13	2.23	2.34	2.40	2.38	2.48	2.79	3.00	2.92	2.79	2.64	2.30	2.16	2.31	2.54	2.76	2.91	2.98	3.06	3.19	3.29	3.33	3.39	3.44	3.48	3.52	3.57	3.59	3.61	3.65	3.66	3.70	3.77	3.79	3.84	3.91	3.91	3.90	3.89	3.89	3.88	3.88	3.91	3.92	3.94	3.96	3.95	3.93	3.95	4.00	4.00	3.98	3.97	4.01	4.05	4.07	4.05	4.02	4.02	4.02	
2.42	2.40	2.34	2.26	2.19	2.13	2.07	2.05	2.11	2.09	2.40	2.28	8.04	11.55	9.42	8.26	7.21	7.04	9.66	6.70	4.53	5.15	4.56	4.17	3.82	0.99	3.89	1.61	3.73	3.77	3.98	1.56	1.04	1.47	2.96	3.40	3.92	4.03	4.05	3.58	4.07	3.74	0.75	3.69	4.02	4.32	4.40	4.08	3.52	3.20	3.31	3.71	4.07	4.23	4.31	4.56	5.05	5.60	5.15	2.80	2.39	2.60	2.87	3.28	3.89	2.53	1.45	2.17	3.63	3.48	3.49	3.69	2.37	2.17	3.97	4.13	4.36	4.30	4.23	4.22	4.29	4.46	4.61	4.69	5.13	0.28	5.39	5.18	5.20	5.25	5.41	5.67	5.50	4.15	2.92	2.09	1.37	0.94	0.90	1.09	0.98	0.64	0.39	0.51	0.52	0.45	0.49	0.59	0.44	0.46	1.41	1.32	1.64	1.93	1.80	2.69	2.40	2.30	2.26	2.32	2.48	2.65	2.59	2.52	2.75	2.97	2.90	2.70	2.40	2.11	2.08	2.26	2.48	2.69	2.83	2.92	2.99	3.12	3.25	3.31	3.38	3.44	3.45	3.49	3.57	3.59	3.60	3.65	3.67	3.72	3.79	3.79	3.84	3.89	3.87	3.86	3.88	3.89	3.89	3.89	3.90	3.91	3.93	3.95	3.96	3.95	3.95	3.98	4.01	4.00	3.96	3.98	4.03	4.05	4.03	4.01	3.99	3.99	
2.43	2.40	2.35	2.27	2.20	2.12	2.07	2.03	2.07	2.10	2.42	2.41	8.51	12.37	9.60	7.88	6.53	6.56	9.16	6.00	5.68	4.75	2.34	3.44	4.96	3.51	4.43	1.18	3.74	3.60	3.74	1.86	4.02	3.70	3.29	3.24	3.63	4.21	4.59	4.58	4.27	3.92	0.98	3.74	3.93	4.23	4.36	4.07	3.58	3.20	3.12	3.41	3.83	4.02	3.96	4.09	4.73	6.04	5.46	3.40	3.23	3.09	2.95	3.21	3.04	1.60	1.80	2.23	3.66	3.58	3.54	3.64	4.10	4.33	4.06	3.93	4.16	4.34	4.25	4.10	4.10	4.13	4.31	4.43	4.59	5.07	5.25	5.12	5.10	5.19	5.31	5.49	5.44	3.49	2.79	2.19	1.64	1.50	1.57	1.36	1.09	0.84	0.63	0.57	0.73	0.96	1.13	1.03	0.71	0.51	0.36	1.56	1.57	1.93	2.01	2.82	2.47	2.35	2.29	2.31	2.50	2.77	2.83	2.75	2.84	2.97	2.92	2.66	2.20	1.84	1.88	2.11	2.37	2.59	2.74	2.85	2.94	3.05	3.17	3.27	3.36	3.44	3.46	3.49	3.54	3.56	3.57	3.63	3.67	3.72	3.80	3.81	3.84	3.88	3.86	3.84	3.85	3.87	3.88	3.89	3.91	3.92	3.92	3.94	3.96	3.97	3.98	3.99	4.02	4.02	3.97	3.97	4.01	4.05	4.04	4.00	3.99	3.99	
2.44	2.42	2.37	2.29	2.20	2.12	2.06	2.02	2.03	2.06	2.20	2.12	8.57	10.26	5.94	7.06	6.45	7.13	4.65	5.10	7.66	4.52	8.43	7.66	4.66	4.72	3.50	1.81	3.93	3.67	3.68	3.86	4.05	3.69	3.34	3.16	3.38	3.84	4.27	4.45	4.33	3.99	3.73	3.67	3.79	4.08	4.26	4.04	3.66	3.38	3.20	3.32	3.77	3.96	3.74	3.53	3.91	5.74	6.82	4.51	3.85	3.34	2.85	2.63	3.04	1.64	2.15	3.54	3.61	3.64	3.68	3.82	3.97	4.09	4.08	3.95	3.95	4.16	4.23	4.15	4.21	4.07	3.98	2.51	4.59	4.76	5.09	5.17	5.19	5.29	5.40	5.55	5.51	3.74	2.96	2.47	1.99	1.62	1.47	1.22	0.86	0.73	0.73	0.91	1.17	1.07	0.83	0.76	0.75	0.69	0.42	0.54	1.51	1.75	2.10	3.06	2.63	2.40	2.31	2.31	2.49	2.75	2.89	2.97	3.06	3.06	2.91	2.63	2.22	1.76	1.69	1.94	2.22	2.46	2.64	2.78	2.89	2.99	3.11	3.21	3.30	3.40	3.47	3.52	3.56	3.56	3.55	3.60	3.65	3.70	3.78	3.81	3.86	3.90	3.87	3.84	3.84	3.85	3.87	3.89	3.91	3.94	3.94	3.94	3.96	3.97	3.98	4.00	4.03	4.04	4.01	4.00	4.00	4.01	4.03	4.01	3.99	3.99	
2.45	2.43	2.38	2.31	2.22	2.13	2.06	2.01	2.01	2.02	1.88	1.82	7.82	11.04	6.54	4.31	6.05	8.25	5.03	4.89	6.44	3.14	3.74	7.19	8.15	7.73	5.24	2.62	4.60	2.67	3.95	3.93	4.07	4.05	3.79	2.60	3.37	3.52	3.88	4.22	4.32	4.02	3.67	3.54	3.60	3.84	4.07	3.95	3.62	3.49	3.40	3.38	3.68	3.91	3.75	3.37	3.44	4.94	6.92	5.40	3.90	3.03	2.10	1.20	1.73	2.76	2.11	1.95	3.57	3.64	3.74	3.91	4.01	4.01	4.07	3.98	3.84	3.94	4.15	4.13	4.33	1.10	3.79	3.96	4.43	4.58	4.79	4.98	5.12	5.25	5.45	5.67	5.26	3.76	3.14	2.72	2.24	1.66	1.10	0.93	0.93	1.10	1.29	1.48	1.43	1.01	0.65	0.59	0.63	0.71	0.58	0.41	0.40	1.74	1.89	1.81	1.49	2.57	2.42	2.44	2.64	2.86	2.96	3.12	3.33	3.28	2.93	2.61	2.35	1.91	1.65	1.78	2.06	2.31	2.51	2.68	2.82	2.95	3.08	3.17	3.25	3.32	3.41	3.50	3.56	3.58	3.56	3.58	3.61	3.69	3.76	3.80	3.88	3.94	3.90	3.86	3.85	3.85	3.87	3.89	3.90	3.92	3.93	3.94	3.97	3.98	3.98	3.99	4.02	4.03	4.04	4.05	4.05	4.00	3.97	3.96	3.96	3.96	
2.45	2.44	2.39	2.32	2.23	2.14	2.05	2.01	1.98	2.01	1.67	1.62	5.23	10.23	6.90	4.44	5.25	5.38	4.74	2.06	4.15	7.13	5.71	7.50	5.69	6.27	8.19	4.12	5.92	5.29	4.88	4.54	4.37	4.30	0.94	1.47	0.47	3.62	3.66	4.01	4.38	4.26	3.76	3.55	3.57	3.71	3.90	3.85	3.57	3.38	3.29	3.24	3.40	3.66	3.66	3.37	3.35	4.36	6.35	5.62	1.43	2.85	2.04	2.01	1.69	3.05	2.44	2.31	3.62	3.65	3.76	3.91	4.01	4.04	4.09	3.98	3.76	3.78	3.96	4.02	4.25	1.05	4.01	3.81	4.12	4.40	4.58	4.75	4.94	5.14	5.42	5.49	4.90	3.49	2.74	2.26	1.86	1.44	1.19	1.13	1.14	1.14	1.05	1.01	0.86	0.64	0.55	0.66	0.79	0.92	0.90	0.64	0.38	1.90	3.09	3.05	1.51	1.09	1.42	1.88	2.33	2.25	2.40	2.74	2.75	1.98	3.05	2.68	2.45	2.07	1.72	1.67	1.86	2.09	2.32	2.55	2.74	2.89	3.03	3.15	3.21	3.27	3.35	3.43	3.51	3.57	3.59	3.58	3.60	3.68	3.76	3.77	3.85	3.95	3.94	3.90	3.88	3.87	3.88	3.89	3.89	3.91	3.92	3.94	3.96	3.99	4.00	3.98	3.98	3.99	4.01	4.05	4.12	4.11	4.02	3.93	3.90	3.90	
2.47	2.44	2.38	2.31	2.23	2.14	2.05	2.00	1.98	2.00	1.86	2.06	4.12	8.66	7.89	5.79	6.82	6.06	5.03	3.22	2.89	4.99	6.30	6.12	6.80	6.56	7.15	8.75	6.18	3.97	5.56	5.77	5.50	5.24	4.90	4.51	3.75	0.42	3.76	3.90	4.37	1.33	4.06	3.68	3.68	3.74	3.85	3.87	3.75	3.52	3.29	3.18	3.25	3.46	3.52	3.31	3.44	3.69	5.85	2.35	3.85	3.86	4.74	3.38	2.99	3.55	3.82	3.68	3.63	3.66	3.75	3.86	4.05	4.19	4.17	3.87	3.50	3.60	3.80	3.84	1.60	4.31	4.10	3.93	4.01	4.28	4.47	4.61	4.78	5.05	5.39	5.54	4.57	3.46	2.49	1.93	1.69	1.61	1.43	1.14	0.98	0.90	0.75	0.73	0.58	0.27	0.14	0.13	0.43	0.61	0.75	0.76	0.72	0.92	1.68	1.52	1.15	1.47	1.55	1.81	2.26	2.42	2.69	2.77	2.48	1.99	3.23	2.87	2.57	2.24	1.95	1.75	1.78	1.90	2.09	2.36	2.62	2.81	2.97	3.10	3.17	3.23	3.33	3.40	3.45	3.53	3.59	3.59	3.59	3.66	3.75	3.76	3.79	3.89	3.94	3.94	3.92	3.91	3.91	3.89	3.90	3.92	3.94	3.96	3.97	3.99	3.98	3.95	3.93	3.91	3.89	3.91	4.02	4.16	4.18	4.03	3.92	3.92	
2.49	2.46	2.39	2.32	2.24	2.15	2.05	1.99	1.98	1.99	2.11	2.48	3.12	8.33	7.68	7.24	9.75	9.35	5.36	4.94	3.29	5.02	5.94	6.69	6.60	3.71	4.20	7.67	8.60	7.75	7.96	5.94	5.95	3.68	4.45	3.95	5.44	4.28	4.29	4.02	4.22	4.45	4.16	3.82	3.82	3.87	3.90	3.93	3.94	3.84	3.60	3.45	3.45	3.50	3.57	3.45	3.27	3.25	5.37	1.67	3.38	4.17	4.42	4.75	4.42	4.27	3.91	3.69	3.55	3.51	3.64	3.79	3.96	4.32	4.41	3.94	3.38	3.36	1.99	3.68	3.90	4.17	4.08	3.96	3.99	4.18	4.36	4.44	4.55	4.87	5.28	5.51	4.48	3.02	2.29	1.81	1.83	1.71	1.45	1.23	0.96	0.86	0.85	0.95	0.62	0.17	0.19	0.15	0.07	0.24	0.42	0.54	0.49	0.49	1.56	1.24	1.33	1.68	1.56	1.57	1.92	2.54	3.07	2.72	2.20	2.05	1.68	3.10	2.78	2.46	2.22	2.05	1.97	1.90	1.93	2.18	2.49	2.73	2.92	3.06	3.14	3.20	3.29	3.38	3.44	3.51	3.59	3.62	3.59	3.62	3.74	3.80	3.77	3.81	3.88	3.92	3.92	3.94	3.94	3.92	3.91	3.92	3.93	3.95	4.00	4.05	4.05	4.03	4.02	3.99	3.90	3.79	3.82	3.98	4.15	4.12	4.02	4.02	
2.51	2.48	2.41	2.33	2.26	2.16	2.06	1.99	1.96	2.02	2.07	2.19	2.73	8.08	12.20	10.40	9.57	8.42	8.57	5.62	4.43	3.33	4.61	6.32	5.95	7.51	4.04	4.53	8.31	7.61	7.78	7.59	8.11	7.12	7.62	6.63	6.80	6.57	5.81	5.09	4.79	4.54	4.13	3.94	2.61	3.99	2.12	3.90	3.93	3.91	3.74	3.67	3.71	3.58	3.63	3.55	3.32	4.56	5.12	2.16	3.58	4.16	4.28	4.56	4.64	4.47	4.16	3.95	3.70	3.34	3.49	3.88	3.95	4.25	1.10	4.14	1.49	3.32	3.39	3.46	3.54	3.87	4.07	4.10	4.09	4.18	4.33	4.36	4.37	4.66	5.04	5.30	4.11	1.92	1.76	1.94	2.10	1.75	1.68	1.47	1.15	1.03	1.11	0.90	0.41	0.20	0.31	0.36	0.14	0.10	0.06	0.23	0.38	0.24	0.43	1.81	1.82	1.74	1.63	1.51	1.56	2.08	3.01	2.34	2.11	1.93	1.72	1.61	2.98	2.71	2.45	2.26	2.16	2.00	1.87	2.03	2.36	2.64	2.87	3.05	3.14	3.20	3.27	3.36	3.44	3.50	3.57	3.64	3.63	3.59	3.69	3.84	3.84	3.79	3.83	3.87	3.89	3.93	3.95	3.93	3.92	3.91	3.91	3.93	4.01	4.12	4.16	4.18	4.20	4.22	4.13	3.87	3.75	3.84	3.99	4.07	4.06	4.06	
2.53	2.50	2.43	2.34	2.26	2.17	2.07	1.98	1.96	2.01	2.00	2.13	2.34	8.05	11.37	9.89	8.15	7.72	7.24	7.29	5.20	4.51	3.78	3.57	5.34	6.02	7.39	6.60	7.68	7.59	6.88	5.77	6.83	8.55	8.65	9.55	6.17	9.75	6.93	6.76	6.41	5.62	3.93	3.96	4.06	4.08	3.98	3.93	3.90	3.77	2.55	3.55	3.83	3.65	3.47	3.43	4.43	4.64	7.52	4.16	3.77	4.16	4.14	4.40	4.57	4.60	4.37	4.35	1.41	3.70	3.62	4.18	4.44	4.40	4.37	4.25	3.95	3.63	3.47	3.34	3.18	3.38	3.83	4.10	4.17	4.21	4.34	4.16	4.36	4.58	4.88	5.15	2.86	1.29	1.71	2.19	2.20	1.76	1.85	1.75	1.31	1.34	1.16	0.76	0.65	0.56	0.44	0.29	0.13	0.11	0.29	0.15	0.15	0.38	0.86	1.24	1.09	0.84	1.84	1.95	1.92	1.82	2.20	2.47	2.12	1.81	1.67	1.70	3.16	3.00	2.79	2.51	2.31	2.11	1.91	1.94	2.24	2.55	2.79	3.01	3.14	3.20	3.26	3.33	3.40	3.46	3.53	3.61	3.65	3.61	3.61	3.75	3.87	3.85	3.83	3.85	3.86	3.90	3.92	3.91	3.92	3.93	3.91	3.90	3.94	4.02	4.07	4.10	4.15	4.27	4.32	4.05	3.81	3.84	3.95	4.01	4.02	4.02	
2.55	2.52	2.46	2.37	2.27	2.17	2.07	1.97	1.93	1.97	2.04	2.30	2.44	8.30	11.15	10.01	8.48	7.97	8.11	8.20	7.56	4.85	5.00	4.43	3.74	4.59	5.05	6.18	6.89	7.02	7.17	3.96	3.98	7.80	7.77	8.20	8.68	9.36	6.36	6.79	7.07	4.51	5.27	3.99	3.90	2.52	4.06	4.03	3.95	2.56	2.24	3.33	3.79	3.99	3.66	3.27	4.41	4.66	4.27	4.60	4.34	4.16	4.04	4.25	4.41	4.47	4.32	4.35	1.21	4.27	3.93	4.21	0.97	0.88	4.52	4.41	4.20	3.94	3.88	3.77	3.36	3.21	3.58	3.98	4.14	4.20	4.27	4.34	4.35	4.51	4.84	3.56	1.18	0.87	2.07	2.56	2.39	1.72	1.93	2.03	1.71	1.52	1.27	1.08	0.96	0.82	0.70	0.55	0.29	0.32	0.47	0.35	0.11	0.47	0.98	1.13	0.73	0.52	1.29	2.00	2.07	1.72	2.10	2.28	2.19	1.88	1.63	1.63	1.54	3.24	3.16	2.94	2.61	2.34	2.08	1.92	2.12	2.45	2.69	2.92	3.09	3.18	3.25	3.32	3.39	3.45	3.51	3.58	3.64	3.64	3.60	3.65	3.79	3.86	3.85	3.86	3.88	3.89	3.91	3.91	3.90	3.94	3.93	3.87	3.86	3.90	3.94	3.96	4.00	4.18	4.32	4.15	3.90	3.89	3.97	3.99	3.99	3.99	
2.57	2.54	2.48	2.39	2.29	2.18	2.07	1.96	1.91	1.94	2.03	2.32	2.35	8.54	11.05	9.95	9.58	8.38	7.80	6.99	4.57	4.90	7.53	5.40	4.23	4.75	5.39	5.73	6.19	7.05	6.46	4.19	3.67	7.66	7.45	7.54	5.67	5.73	5.76	5.76	6.62	7.24	6.05	4.21	3.73	3.78	4.08	4.26	3.64	1.51	2.79	3.43	3.82	4.19	4.41	4.09	4.44	4.12	4.51	4.19	4.09	3.97	4.01	4.17	4.18	4.14	4.06	4.03	4.22	4.29	4.12	4.10	4.47	4.74	4.65	4.52	4.29	3.92	3.83	2.20	2.23	3.35	3.38	3.83	4.11	4.20	4.19	4.24	4.31	4.38	4.65	1.92	0.96	2.19	2.94	3.26	2.68	1.78	1.98	2.26	2.27	2.02	1.71	1.43	1.21	0.97	0.85	0.81	0.54	0.46	0.66	0.77	0.45	0.65	1.13	1.16	0.81	0.56	1.30	2.39	2.48	1.76	1.21	1.17	0.91	2.12	1.78	1.63	1.47	1.50	3.40	3.30	2.97	2.68	2.40	2.02	2.02	2.32	2.62	2.86	3.04	3.16	3.24	3.32	3.39	3.45	3.51	3.57	3.63	3.65	3.65	3.65	3.71	3.80	3.84	3.85	3.88	3.90	3.91	3.90	3.85	3.88	3.92	3.90	3.88	3.88	3.93	3.95	3.97	4.14	4.28	4.15	3.96	3.96	4.01	3.99	3.98	3.98	
2.58	2.56	2.50	2.42	2.31	2.18	2.06	1.95	1.87	1.88	1.98	2.22	2.28	7.90	11.34	10.69	10.02	7.61	6.93	5.90	7.55	4.54	5.15	7.56	5.28	5.26	5.48	3.90	5.96	6.34	6.61	3.95	3.82	3.51	7.60	5.68	5.71	5.76	5.70	5.57	6.23	10.48	6.77	4.77	0.69	3.57	3.93	4.31	1.80	3.90	3.71	3.80	4.03	4.77	4.45	3.46	5.49	4.11	4.21	3.95	3.70	3.56	3.95	4.34	4.18	3.87	3.65	3.58	3.73	3.94	4.11	4.18	4.27	4.42	4.55	4.60	4.41	4.05	2.23	3.70	3.56	3.54	3.30	3.64	4.01	4.13	4.22	4.28	4.31	4.33	3.74	0.39	2.07	3.09	3.53	3.32	2.68	2.28	2.22	2.24	2.52	2.34	1.97	1.59	1.56	1.47	1.31	1.16	0.84	0.77	1.01	1.22	0.69	0.86	1.17	1.08	0.84	0.72	1.38	2.31	2.55	1.99	1.36	1.03	0.97	0.88	2.23	1.89	1.58	1.52	1.70	3.46	3.25	3.00	2.78	2.37	2.09	2.22	2.56	2.83	3.02	3.15	3.24	3.32	3.39	3.45	3.50	3.57	3.63	3.66	3.67	3.68	3.71	3.77	3.81	3.81	3.84	3.87	3.90	3.90	3.85	3.84	3.89	3.93	3.93	3.91	3.91	3.92	3.96	4.14	4.26	4.11	3.97	3.99	4.03	4.01	3.98	3.98	
2.60	2.56	2.50	2.42	2.32	2.18	2.05	1.93	1.83	1.80	1.90	1.83	1.69	4.80	10.38	11.60	10.25	8.20	6.46	5.62	7.05	3.56	3.77	7.07	6.59	5.60	4.23	3.98	3.98	6.03	6.91	3.87	3.97	3.76	3.49	6.12	3.56	3.94	4.37	4.92	5.98	7.32	5.22	1.92	3.60	3.66	3.90	4.17	4.13	1.49	3.81	4.00	4.24	5.00	4.87	4.08	3.49	3.99	4.10	3.78	3.41	3.15	3.63	1.57	4.53	4.09	3.36	3.07	3.34	3.67	4.01	4.25	4.31	4.35	4.48	4.67	1.66	1.19	1.56	3.87	2.33	2.38	3.66	3.71	3.98	4.10	4.08	4.05	4.07	4.20	2.22	1.89	2.45	3.56	4.39	4.03	3.12	2.85	2.73	2.79	3.11	2.81	2.35	1.59	1.52	1.80	1.79	1.54	1.26	1.37	1.40	1.09	0.44	1.14	1.19	1.02	0.79	0.95	1.38	1.70	2.31	1.72	1.29	1.11	1.16	1.58	2.91	2.39	1.91	1.75	2.02	3.42	3.35	3.20	3.10	2.80	2.36	2.25	2.49	2.78	2.99	3.13	3.23	3.32	3.39	3.45	3.51	3.56	3.62	3.66	3.68	3.70	3.72	3.77	3.80	3.79	3.80	3.85	3.90	3.93	3.89	3.85	3.87	3.91	3.93	3.92	3.90	3.86	3.90	4.11	4.22	4.09	3.98	3.98	4.01	4.00	3.98	3.98	
2.64	2.60	2.52	2.44	2.33	2.19	2.04	1.92	1.80	1.74	1.78	1.56	1.61	3.27	8.67	12.01	10.47	6.16	5.55	5.50	5.87	6.38	3.63	4.05	7.93	6.46	4.40	4.24	3.79	3.38	7.21	6.71	3.83	3.87	3.63	3.47	3.54	3.82	4.19	4.64	5.63	6.71	7.67	4.64	3.58	4.34	4.20	1.84	3.94	3.66	3.73	3.81	4.05	4.95	5.34	4.42	3.59	4.20	4.39	3.82	2.06	3.05	3.26	4.01	4.60	1.08	3.47	2.70	2.88	3.40	3.89	4.20	4.36	4.48	4.57	1.20	1.20	1.22	1.35	4.20	1.82	4.16	3.94	3.93	4.07	4.18	4.16	4.03	2.91	2.01	4.97	3.98	3.94	4.20	4.70	5.19	4.19	3.07	2.98	3.22	3.36	2.87	2.11	1.59	1.94	2.50	2.42	2.11	1.83	1.96	1.45	0.67	1.03	1.16	1.03	1.05	1.10	1.35	0.97	0.27	0.26	1.46	2.61	2.72	3.00	3.25	2.93	3.03	2.49	2.20	2.27	3.42	3.42	3.37	3.34	3.16	2.71	2.40	2.47	2.75	2.96	3.11	3.21	3.31	3.39	3.45	3.51	3.56	3.62	3.66	3.69	3.70	3.72	3.76	3.82	3.83	3.80	3.83	3.90	3.96	3.92	3.85	3.86	3.88	3.91	3.93	3.91	3.87	3.89	4.03	4.14	4.08	4.02	4.00	4.00	4.01	3.99	3.99	
2.67	2.63	2.54	2.46	2.36	2.21	2.06	1.91	1.77	1.69	1.69	1.56	1.98	2.23	7.83	12.00	7.94	6.27	4.83	4.46	4.86	5.51	3.10	3.66	4.01	4.64	7.92	4.74	4.16	3.81	3.51	3.43	5.93	3.81	3.58	3.41	3.48	3.71	4.02	4.36	5.21	5.66	8.35	6.77	5.26	4.63	2.96	4.37	1.26	3.67	3.70	3.64	3.76	4.77	4.40	4.43	3.94	2.12	0.67	4.51	3.89	3.59	3.54	3.94	4.54	4.78	4.07	3.04	2.80	3.20	3.78	4.14	4.27	4.45	1.07	1.09	1.55	1.85	4.03	4.08	2.54	4.12	3.94	3.96	4.08	4.25	4.40	2.96	1.42	2.63	4.75	4.33	4.48	5.38	4.92	5.07	4.07	2.86	2.50	2.87	2.90	2.18	1.91	2.24	2.52	2.42	2.25	2.08	1.88	1.81	1.59	0.79	1.20	0.92	0.75	1.01	1.31	1.28	0.61	0.88	1.37	3.57	4.04	3.38	3.23	3.59	3.90	3.50	3.16	2.88	2.74	3.57	3.52	3.49	3.47	3.34	2.97	2.59	2.52	2.72	2.95	3.10	3.21	3.31	3.39	3.46	3.51	3.56	3.61	3.66	3.69	3.71	3.73	3.75	3.81	3.85	3.81	3.80	3.86	3.96	3.97	3.89	3.86	3.87	3.91	3.95	3.93	3.91	3.92	3.98	4.04	4.06	4.04	4.01	4.01	4.02	4.01	4.01	
2.70	2.66	2.57	2.48	2.38	2.24	2.07	1.91	1.77	1.65	1.66	1.60	2.04	2.19	7.34	11.58	10.81	8.19	5.61	4.55	4.17	3.86	6.04	2.86	3.42	3.75	3.88	5.65	5.10	3.92	3.59	3.38	7.53	3.75	3.63	3.35	3.35	3.58	3.89	4.13	4.98	4.88	7.78	7.76	7.17	5.17	3.85	4.27	2.26	3.62	4.00	4.13	4.26	9.60	5.11	4.36	4.15	4.44	2.28	1.30	1.47	1.61	4.06	4.18	4.62	4.18	3.67	4.27	3.86	3.62	3.92	4.26	4.24	2.95	1.23	1.06	1.60	3.90	3.96	4.05	4.18	4.22	4.08	4.11	4.33	3.46	2.16	0.94	2.05	2.81	4.12	5.25	4.13	4.95	4.93	4.95	3.01	2.58	2.35	2.43	2.12	1.18	1.55	1.64	1.86	2.12	2.31	2.17	1.79	2.15	2.10	0.99	0.70	0.84	0.88	0.77	1.09	0.85	1.02	1.48	1.98	3.26	4.27	3.47	2.95	3.16	3.25	3.36	3.44	3.45	3.21	3.71	3.57	3.53	3.50	3.38	3.08	2.72	2.56	2.70	2.93	3.10	3.21	3.31	3.40	3.47	3.52	3.57	3.61	3.65	3.70	3.73	3.73	3.74	3.78	3.82	3.81	3.79	3.83	3.93	3.99	3.94	3.88	3.87	3.91	3.95	3.97	3.96	3.95	3.95	3.99	4.02	4.01	3.99	3.99	4.02	4.02	4.02	
2.73	2.69	2.62	2.52	2.40	2.26	2.10	1.91	1.76	1.63	1.60	1.69	2.27	1.99	7.12	11.11	11.03	8.49	6.14	4.11	3.57	2.56	2.75	6.05	2.65	3.09	3.40	3.57	6.54	3.74	3.43	3.32	6.53	3.61	3.34	3.14	3.14	3.42	3.78	4.01	4.92	7.48	7.37	9.45	10.49	11.37	6.88	6.75	3.12	4.88	5.00	5.11	5.22	5.28	4.64	4.12	4.10	4.38	4.78	4.62	4.06	3.83	3.79	3.94	4.26	4.38	4.23	4.36	1.60	4.14	4.13	4.51	3.65	1.73	1.31	1.11	1.52	4.01	4.07	4.26	4.41	4.52	4.57	3.83	3.96	1.98	1.11	2.14	2.75	3.50	3.86	4.21	4.83	4.94	5.48	5.19	3.75	2.58	2.34	2.46	2.23	1.45	1.16	1.44	1.44	1.60	2.07	2.32	2.45	2.98	3.05	1.84	0.66	0.97	1.06	0.98	0.66	1.31	2.05	2.55	2.77	3.22	4.04	3.94	3.33	3.32	3.24	3.16	3.28	3.55	3.47	3.78	3.64	3.65	3.58	3.42	3.18	2.82	2.57	2.65	2.89	3.08	3.21	3.31	3.40	3.47	3.53	3.57	3.62	3.65	3.70	3.74	3.75	3.76	3.78	3.80	3.79	3.80	3.81	3.88	3.95	3.94	3.89	3.88	3.90	3.93	3.98	4.00	3.96	3.95	4.00	4.01	3.98	3.96	3.97	3.99	4.00	4.00	
2.76	2.73	2.65	2.56	2.43	2.29	2.14	1.94	1.76	1.60	1.54	1.68	2.50	2.49	7.07	10.80	10.92	7.73	6.66	6.79	4.94	3.99	3.39	2.86	3.17	5.78	6.21	2.93	6.09	3.46	3.25	3.03	6.77	6.83	6.94	2.83	2.91	3.19	3.55	3.87	5.04	7.36	7.67	8.98	9.48	8.86	9.15	7.06	6.91	9.76	8.43	9.41	5.98	5.59	4.27	3.89	3.87	4.30	1.87	4.57	3.86	3.52	3.51	3.79	4.00	3.76	3.38	3.43	3.72	3.81	3.88	4.36	1.48	1.02	1.28	1.22	3.01	4.63	4.56	3.43	4.48	3.99	4.16	4.13	3.65	4.71	4.67	4.74	4.35	4.78	4.48	4.31	4.90	4.46	5.76	5.46	4.34	3.60	2.69	2.45	2.18	1.89	1.26	0.89	1.14	1.37	1.78	2.48	3.50	3.96	3.78	2.88	1.88	0.88	1.33	2.76	4.27	5.04	4.16	3.74	3.50	3.71	4.32	4.29	3.83	3.76	3.42	3.34	3.27	3.32	3.40	3.72	3.66	3.77	3.76	3.59	3.38	3.03	2.67	2.61	2.81	3.04	3.20	3.32	3.41	3.47	3.53	3.57	3.62	3.65	3.69	3.74	3.78	3.80	3.81	3.80	3.79	3.81	3.82	3.87	3.93	3.92	3.90	3.89	3.90	3.94	4.00	4.01	3.97	3.97	4.02	4.03	3.99	3.97	3.98	3.99	3.98	3.98	
2.79	2.76	2.70	2.60	2.47	2.32	2.18	1.98	1.78	1.58	1.48	1.56	2.42	2.36	6.95	10.33	10.06	11.05	11.54	7.91	6.26	4.70	3.91	3.42	3.11	2.83	2.55	2.73	3.00	5.48	3.12	3.27	6.69	4.01	3.02	2.90	2.83	2.97	3.26	3.60	5.14	7.53	8.23	8.90	7.24	7.09	7.03	7.13	7.03	10.10	9.13	10.53	6.60	5.43	3.96	3.68	3.70	4.08	4.67	4.52	3.89	3.66	3.66	3.96	3.91	3.54	2.85	2.81	3.00	3.24	3.42	3.86	1.51	1.00	1.38	1.18	3.45	0.76	2.46	7.64	3.78	3.85	3.98	5.11	5.04	7.23	4.55	4.95	5.32	5.30	5.47	4.94	4.66	4.79	4.59	3.78	4.92	5.49	4.47	3.09	1.70	0.54	0.77	0.82	1.39	1.67	2.11	2.61	3.41	4.24	4.22	3.95	4.12	5.24	4.96	3.98	4.79	6.13	5.57	4.76	3.98	3.75	4.61	4.92	4.23	3.88	3.49	3.52	3.21	2.99	3.05	3.65	3.63	3.80	3.91	3.82	3.64	3.35	2.99	2.74	2.79	3.02	3.20	3.32	3.41	3.48	3.53	3.58	3.63	3.66	3.69	3.72	3.78	3.82	3.83	3.81	3.80	3.82	3.84	3.90	3.96	3.96	3.92	3.88	3.90	3.97	4.01	3.98	3.97	3.99	4.00	4.01	4.01	4.00	4.01	4.00	3.98	3.98	
2.81	2.79	2.73	2.64	2.51	2.36	2.21	2.02	1.81	1.60	1.43	1.44	1.91	1.80	6.55	9.86	9.72	10.07	11.37	8.05	7.05	5.79	4.52	3.86	3.51	3.27	2.99	2.80	2.77	2.70	2.55	2.60	4.15	3.08	3.18	3.08	2.95	2.97	3.07	3.28	5.41	7.57	8.09	7.57	4.64	4.64	4.73	4.97	7.66	9.00	9.54	10.65	7.20	5.71	3.93	3.56	3.67	4.14	4.50	4.19	3.71	3.68	3.90	4.25	4.44	3.68	2.74	2.51	2.62	2.90	3.13	3.15	1.73	1.32	1.46	4.02	3.73	5.59	5.80	7.74	3.35	3.28	3.31	7.62	7.17	7.09	7.47	7.99	4.75	5.02	5.34	5.60	4.35	3.62	2.67	4.55	5.12	5.19	5.24	2.55	0.67	1.25	1.67	0.84	1.70	2.20	2.69	2.76	2.87	3.58	3.84	3.17	3.67	4.91	5.21	4.56	4.76	5.62	5.57	5.56	4.83	3.98	4.48	5.18	4.60	3.80	3.24	3.31	3.31	3.15	3.12	3.66	3.60	3.71	3.86	3.91	3.81	3.57	3.31	3.03	2.90	3.04	3.23	3.34	3.43	3.50	3.55	3.59	3.64	3.68	3.70	3.71	3.76	3.83	3.84	3.81	3.80	3.82	3.86	3.90	3.95	3.99	3.95	3.88	3.88	3.96	3.98	3.96	3.97	3.99	3.98	3.98	4.00	4.00	4.01	4.01	3.99	3.99	
2.85	2.82	2.75	2.67	2.55	2.40	2.25	2.07	1.85	1.62	1.41	1.34	1.29	0.99	4.65	9.48	9.86	9.66	10.48	7.39	7.55	5.84	3.97	4.28	3.72	3.36	3.20	3.11	3.02	2.88	2.59	2.48	2.64	2.85	3.03	3.10	3.10	3.14	3.09	5.87	5.84	7.44	5.36	5.29	5.21	5.14	5.03	5.10	8.49	9.18	9.17	10.17	7.70	6.69	4.52	3.72	3.74	4.37	5.04	4.42	3.94	3.76	4.07	4.61	4.76	4.07	2.95	2.73	2.61	2.82	3.02	1.18	3.20	1.72	3.89	2.98	5.90	6.44	6.83	3.58	3.31	3.25	3.39	7.30	6.89	6.83	7.15	7.47	7.27	7.79	8.35	5.01	5.41	4.52	4.35	4.63	4.66	4.65	3.81	0.66	1.07	1.47	1.84	1.08	1.89	2.24	2.31	2.33	2.57	2.91	2.54	2.38	3.32	4.23	4.94	4.52	4.57	5.00	5.07	5.54	5.74	4.90	4.54	4.93	4.84	3.85	3.44	3.20	3.30	3.24	3.64	3.61	3.56	3.56	3.66	3.79	3.85	3.65	3.41	3.22	3.07	3.13	3.28	3.37	3.45	3.51	3.56	3.60	3.64	3.68	3.70	3.71	3.74	3.81	3.84	3.82	3.79	3.79	3.83	3.86	3.89	3.95	3.96	3.91	3.91	3.95	3.95	3.97	4.00	4.00	3.96	3.95	3.99	4.01	4.00	4.00	4.00	4.00	
2.91	2.87	2.79	2.71	2.60	2.46	2.30	2.13	1.91	1.67	1.45	1.29	1.14	1.15	4.12	8.68	9.88	9.45	9.86	6.62	7.56	6.41	4.49	4.62	3.98	3.51	3.25	3.17	3.06	2.98	2.76	2.52	4.42	2.69	2.97	3.10	3.16	3.26	3.24	6.66	6.96	5.70	5.63	3.93	4.13	4.19	8.75	5.70	8.50	8.37	8.53	9.40	7.45	7.62	6.13	4.65	4.10	4.39	3.66	5.65	1.90	4.54	4.58	5.12	5.56	5.28	4.76	4.32	3.87	3.55	1.52	3.10	3.03	3.03	3.85	3.94	4.18	6.31	6.96	3.09	3.09	3.32	3.56	3.79	7.39	7.04	6.77	6.76	6.84	7.54	8.11	4.36	4.95	5.47	5.71	5.66	5.63	3.76	2.75	0.50	1.51	3.02	2.43	1.52	1.78	1.90	1.73	1.92	2.59	2.78	2.44	3.39	3.76	3.90	4.44	4.35	4.10	4.31	4.60	5.14	5.49	5.07	4.72	4.85	4.80	3.94	3.92	3.57	3.23	2.96	3.59	3.54	3.53	3.54	3.57	3.66	3.86	3.82	3.47	3.17	3.12	3.22	3.34	3.42	3.48	3.53	3.57	3.60	3.64	3.67	3.70	3.72	3.75	3.80	3.85	3.86	3.83	3.80	3.82	3.84	3.85	3.90	3.92	3.94	3.99	3.96	3.92	3.98	4.03	4.01	3.97	3.95	3.97	4.01	4.01	3.99	3.98	3.98	
2.96	2.92	2.84	2.76	2.66	2.53	2.37	2.20	1.98	1.75	1.51	1.35	1.20	1.52	2.72	7.97	9.94	9.28	9.54	10.28	11.23	6.50	4.90	4.99	4.27	3.76	3.36	3.15	2.97	2.84	2.69	2.53	2.46	2.58	2.87	3.05	3.14	3.68	7.08	3.41	3.24	3.22	3.38	3.64	3.89	4.14	6.42	8.15	5.20	7.50	6.86	8.46	9.36	7.18	7.04	5.85	4.11	3.95	7.13	6.26	4.85	1.06	4.81	5.13	5.62	5.76	5.43	5.23	5.65	0.41	3.99	2.14	2.99	5.13	3.25	3.01	5.87	6.07	6.55	2.68	2.87	3.36	3.45	3.66	7.42	7.64	7.64	7.17	7.41	7.78	8.03	8.01	8.10	4.88	5.42	5.56	5.54	5.82	0.19	5.42	5.42	5.99	3.76	1.74	1.78	1.81	1.99	2.43	2.76	2.88	3.18	3.69	3.87	3.45	3.78	4.06	3.87	3.90	4.24	4.80	5.08	4.82	4.47	4.45	3.53	3.50	3.64	3.66	3.32	2.90	3.66	3.57	3.55	3.55	3.56	3.57	3.80	4.01	3.78	3.30	3.14	3.27	3.40	3.46	3.50	3.54	3.58	3.63	3.66	3.66	3.68	3.72	3.76	3.79	3.82	3.86	3.86	3.83	3.83	3.84	3.85	3.88	3.89	3.93	3.99	3.96	3.90	3.94	4.00	4.00	3.98	3.97	3.96	4.00	4.04	4.01	3.98	3.98	
3.00	2.97	2.90	2.80	2.70	2.59	2.43	2.27	2.06	1.83	1.59	1.41	1.35	1.78	1.72	7.54	9.93	8.98	9.33	5.65	10.99	5.53	5.49	5.57	4.61	4.07	3.51	3.26	2.98	2.77	2.57	2.43	2.38	2.44	2.66	2.90	3.06	4.03	3.85	3.35	3.14	3.15	3.74	3.59	3.80	7.44	6.87	5.86	5.21	7.24	6.79	7.97	8.51	8.94	9.45	6.60	3.90	3.83	5.89	6.58	7.51	8.85	4.11	4.26	5.05	8.45	9.31	9.02	5.95	3.90	3.12	2.67	2.81	3.44	3.98	2.94	3.28	6.19	6.26	2.48	2.68	6.14	2.97	3.37	7.34	3.69	3.69	7.83	7.49	7.56	8.04	4.34	8.29	8.76	9.35	5.12	5.46	0.19	5.63	5.38	5.25	5.69	3.37	1.79	2.01	2.28	3.04	3.43	3.35	3.60	3.72	3.58	3.78	3.48	3.50	3.68	3.73	3.76	3.95	4.37	4.77	4.79	4.32	4.07	3.32	3.11	3.02	3.12	3.30	3.05	3.78	3.60	3.58	3.54	3.49	3.40	3.58	3.98	4.07	3.79	3.43	3.35	3.44	3.49	3.53	3.57	3.60	3.66	3.70	3.67	3.68	3.72	3.75	3.77	3.79	3.83	3.86	3.86	3.86	3.85	3.85	3.86	3.90	3.93	3.95	3.95	3.94	3.94	3.96	3.98	3.98	4.00	4.01	4.00	4.05	4.07	4.04	4.04	
3.02	3.00	2.94	2.85	2.74	2.63	2.49	2.32	2.12	1.91	1.65	1.44	1.47	2.11	1.75	7.48	6.21	8.60	4.57	9.43	6.05	10.51	5.96	4.57	5.12	4.35	3.73	3.03	2.95	2.72	2.47	2.26	2.20	2.27	2.49	2.77	3.00	4.48	3.54	3.30	3.00	2.98	3.25	3.57	7.45	7.07	3.96	4.00	4.95	4.48	6.65	7.63	7.98	8.29	10.00	7.30	3.72	3.20	5.18	6.45	6.49	4.41	4.53	4.72	4.85	5.01	8.92	8.65	7.91	5.75	3.85	3.17	3.33	2.82	3.51	3.17	3.33	3.64	3.32	2.80	5.16	5.01	5.87	2.87	7.06	3.31	3.55	7.68	7.07	7.43	3.81	3.93	8.89	5.39	4.49	6.03	5.36	5.75	5.78	5.63	5.44	5.76	1.37	2.18	2.54	2.96	3.43	3.65	3.53	3.46	3.52	3.45	3.71	3.75	3.78	3.72	3.61	3.75	3.82	3.77	4.02	4.43	4.59	3.74	3.59	3.37	3.18	3.02	3.13	3.17	2.79	3.66	3.60	3.57	3.47	3.23	3.29	3.68	3.93	3.91	3.66	3.48	3.48	3.53	3.56	3.59	3.62	3.68	3.73	3.70	3.69	3.74	3.76	3.76	3.79	3.83	3.85	3.88	3.90	3.88	3.86	3.84	3.91	3.97	3.92	3.93	3.98	3.97	3.95	3.96	3.95	3.98	4.02	4.01	4.03	4.10	4.12	4.12	
3.05	3.03	2.97	2.90	2.79	2.69	2.56	2.39	2.19	1.98	1.70	1.48	1.44	2.22	2.19	7.47	6.46	7.46	4.06	8.44	5.44	10.40	9.06	5.38	3.87	4.65	3.83	2.99	2.88	2.64	2.37	2.10	2.05	2.14	2.34	2.62	2.90	4.79	3.60	3.43	3.07	2.94	4.78	4.66	4.28	3.77	3.92	3.97	4.85	6.94	6.59	7.52	7.84	8.22	10.08	6.95	6.18	4.94	4.42	4.01	3.45	7.28	7.91	4.62	5.15	5.52	5.63	8.94	7.55	5.78	4.34	3.61	3.57	4.16	3.93	3.60	3.49	3.64	3.62	3.48	3.56	3.30	2.76	5.76	6.35	2.67	3.15	7.18	7.43	8.28	3.92	4.26	4.58	5.90	4.73	5.09	5.50	5.81	6.08	6.18	6.01	4.01	1.90	2.70	3.05	3.32	3.19	3.01	2.95	2.87	3.00	3.22	3.42	3.64	4.02	3.99	3.59	3.77	3.99	3.65	3.52	3.96	4.48	3.57	3.72	3.64	3.60	3.41	3.24	3.29	3.05	3.77	3.65	3.59	3.50	3.17	3.07	3.35	3.59	3.67	3.63	3.56	3.52	3.55	3.58	3.60	3.61	3.66	3.72	3.73	3.71	3.74	3.77	3.77	3.80	3.83	3.83	3.86	3.91	3.90	3.87	3.84	3.91	3.99	3.92	3.91	3.98	3.97	3.94	3.92	3.92	3.93	3.97	3.98	4.01	4.09	4.12	4.12	
3.09	3.07	3.01	2.94	2.84	2.73	2.62	2.46	2.27	2.06	1.78	1.50	1.35	1.71	1.74	7.34	6.90	5.17	7.86	8.04	8.83	9.95	10.10	6.12	4.39	3.28	4.01	3.08	2.95	2.63	2.36	2.05	1.85	1.83	2.07	2.45	4.71	4.97	3.51	3.53	3.28	3.14	3.16	3.22	3.38	3.70	3.89	5.12	4.71	7.03	6.62	7.68	8.15	8.82	10.43	6.71	6.47	5.82	5.15	4.65	4.12	3.60	7.07	3.27	3.58	5.93	6.04	9.38	8.71	5.75	4.23	4.58	3.94	4.43	4.24	3.94	3.64	3.60	3.76	3.85	3.88	3.75	3.44	3.15	2.81	5.75	5.92	6.47	3.54	3.67	3.83	4.17	4.56	4.66	4.68	5.03	5.53	5.79	6.02	6.43	4.65	1.64	3.06	3.14	3.21	3.32	3.04	2.70	2.81	2.96	2.89	3.17	3.53	3.63	4.00	4.13	3.48	3.28	3.52	3.58	3.56	3.99	3.37	3.64	3.87	3.81	3.71	3.59	3.33	3.29	3.92	3.80	3.71	3.60	3.44	3.14	3.01	3.19	3.42	3.52	3.57	3.58	3.55	3.55	3.60	3.62	3.62	3.65	3.71	3.74	3.73	3.71	3.75	3.77	3.79	3.83	3.84	3.85	3.89	3.89	3.85	3.83	3.91	3.99	3.91	3.90	3.97	3.97	3.95	3.92	3.91	3.92	3.92	3.93	4.02	4.08	4.07	4.07	
3.14	3.11	3.04	2.98	2.90	2.78	2.67	2.52	2.34	2.13	1.87	1.55	1.29	0.99	1.04	4.02	9.99	6.04	8.09	4.44	8.90	9.67	10.44	6.35	4.45	3.34	4.02	3.13	3.15	2.74	2.43	2.14	1.77	6.26	1.79	2.37	2.75	5.33	3.24	3.38	3.33	3.34	3.34	3.28	3.34	3.62	3.82	5.17	7.04	7.37	7.69	8.14	8.88	9.57	10.59	5.85	6.48	8.03	5.39	5.21	5.05	4.43	3.75	7.38	3.20	3.61	3.96	9.35	9.26	7.96	4.20	5.84	5.41	4.84	4.46	4.18	3.82	3.63	3.74	3.85	3.73	3.93	3.78	3.53	3.33	3.10	2.97	5.95	7.32	3.08	3.42	3.77	4.18	4.47	4.58	4.84	5.30	5.67	5.76	6.19	1.60	4.16	4.00	3.55	3.24	2.95	2.52	2.28	2.57	3.10	2.96	2.71	2.99	3.08	3.37	3.90	3.65	3.36	3.01	2.96	3.12	2.64	3.18	3.03	3.26	3.61	4.02	3.83	3.66	3.60	3.88	3.75	3.70	3.61	3.37	3.15	3.08	3.20	3.37	3.44	3.51	3.56	3.55	3.54	3.59	3.63	3.64	3.64	3.69	3.75	3.77	3.74	3.74	3.77	3.79	3.84	3.85	3.87	3.92	3.91	3.86	3.84	3.92	3.99	3.91	3.89	3.95	3.97	3.98	3.96	3.93	3.92	3.91	3.89	4.03	4.10	4.06	4.06	
3.18	3.15	3.08	3.01	2.95	2.85	2.72	2.58	2.41	2.20	1.95	1.64	1.31	1.03	1.31	1.63	8.67	6.44	8.63	4.66	8.85	5.36	10.23	6.94	4.38	3.17	4.07	3.26	3.46	2.97	2.62	2.38	2.08	1.83	1.88	2.37	2.92	3.11	3.21	3.23	3.23	3.34	3.47	3.49	3.53	3.74	5.57	7.01	7.38	7.79	8.22	8.67	9.33	9.23	10.22	5.49	5.19	5.16	5.37	5.46	6.54	4.95	4.15	6.04	8.26	3.37	4.01	9.23	9.08	9.41	9.16	6.21	6.70	6.00	5.07	4.58	4.17	3.86	3.75	3.77	3.69	3.81	3.95	3.67	3.57	3.33	3.10	2.94	6.63	2.46	2.83	3.34	3.81	4.14	4.38	4.68	5.06	5.46	5.44	5.80	4.95	4.48	3.83	3.18	2.74	2.37	2.18	2.08	2.02	2.21	2.15	1.84	1.84	1.81	1.71	2.07	2.75	3.27	3.32	2.94	2.94	2.47	2.69	3.02	2.94	3.25	3.95	3.92	3.96	3.78	3.80	3.67	3.62	3.57	3.32	3.15	3.13	3.20	3.32	3.37	3.43	3.52	3.55	3.54	3.57	3.62	3.63	3.64	3.66	3.72	3.78	3.79	3.78	3.78	3.79	3.82	3.84	3.88	3.95	3.97	3.90	3.85	3.93	3.98	3.92	3.91	3.94	3.94	3.96	3.96	3.96	3.94	3.91	3.88	3.99	4.09	4.09	4.09	
3.22	3.19	3.12	3.05	2.99	2.90	2.78	2.65	2.49	2.28	2.04	1.74	1.43	1.28	1.58	1.34	8.01	6.51	4.97	4.79	8.90	5.39	10.28	6.72	4.10	3.01	4.11	3.47	2.95	3.24	2.84	2.60	2.33	2.04	2.26	2.34	3.01	3.38	3.51	3.46	3.40	3.48	3.69	3.89	4.01	5.95	6.30	7.65	7.87	8.20	8.53	8.83	9.49	8.82	9.86	5.31	4.69	4.27	4.23	4.38	4.85	7.48	4.60	3.98	7.03	3.26	8.59	8.82	9.31	4.76	4.88	11.05	7.78	6.80	5.61	4.22	3.24	4.27	3.93	3.75	3.55	4.26	3.70	3.87	3.75	3.42	3.06	2.87	2.48	6.42	2.06	2.64	3.27	3.66	3.92	4.24	5.43	5.47	8.87	9.79	9.34	4.66	4.09	3.44	2.94	2.80	3.09	3.03	2.62	2.05	1.57	1.55	1.53	1.32	1.14	0.97	1.52	2.48	3.14	2.68	2.56	2.40	2.60	2.47	2.73	3.08	3.21	3.38	3.38	3.58	3.71	3.54	3.45	3.43	3.24	3.08	3.07	3.17	3.29	3.35	3.40	3.49	3.55	3.56	3.57	3.61	3.63	3.65	3.66	3.68	3.73	3.78	3.79	3.78	3.79	3.81	3.82	3.85	3.92	3.96	3.89	3.86	3.92	3.94	3.91	3.93	3.95	3.92	3.91	3.92	3.94	3.94	3.93	3.92	3.96	4.03	4.07	4.07	
3.25	3.23	3.16	3.09	3.03	2.95	2.84	2.70	2.56	2.36	2.14	1.86	1.57	1.40	1.66	1.39	7.58	6.41	8.95	4.92	8.96	9.38	10.27	6.73	4.18	3.20	4.06	3.52	3.18	3.30	2.92	2.67	2.34	1.98	6.45	2.30	2.95	3.43	3.71	3.80	3.78	3.78	4.27	6.72	7.61	8.00	8.07	8.11	8.13	8.34	8.61	8.99	9.60	10.33	9.24	5.20	4.41	4.10	3.98	4.10	4.53	7.34	4.83	4.38	3.93	8.20	7.85	8.69	4.00	4.86	9.82	9.70	10.20	9.06	5.88	4.49	3.88	3.17	4.22	3.86	3.45	4.34	4.08	3.30	3.94	3.69	3.29	2.95	2.53	1.97	6.59	1.90	2.57	3.08	3.36	3.61	5.16	8.02	8.76	9.30	11.02	8.33	6.75	5.06	4.77	4.48	4.48	4.41	3.76	2.91	2.02	1.81	1.79	1.77	1.78	1.65	1.89	2.33	2.81	2.52	2.20	2.09	2.40	2.62	2.62	2.84	2.96	2.98	3.16	3.46	3.74	3.53	3.25	3.18	3.10	3.01	3.02	3.14	3.27	3.33	3.38	3.46	3.53	3.56	3.58	3.61	3.64	3.66	3.68	3.68	3.71	3.76	3.77	3.76	3.78	3.79	3.79	3.82	3.89	3.92	3.87	3.88	3.95	3.91	3.87	3.91	3.96	3.95	3.92	3.91	3.91	3.92	3.92	3.95	3.98	3.99	3.99	3.99	
3.27	3.26	3.20	3.13	3.07	3.00	2.90	2.77	2.63	2.44	2.23	1.97	1.68	1.45	1.62	1.39	7.18	9.57	8.81	8.52	8.98	9.48	9.96	6.66	4.76	3.59	3.23	3.30	3.00	2.81	2.81	2.58	2.29	2.01	2.79	2.34	2.79	3.19	3.50	3.67	5.34	5.12	7.22	7.85	7.88	7.95	7.96	8.06	8.17	8.39	8.70	9.25	9.85	10.73	6.03	5.14	4.26	4.02	3.82	3.89	4.23	4.59	6.86	4.33	5.98	7.26	7.96	3.59	3.90	4.15	9.38	9.16	9.42	9.42	7.74	5.43	4.11	3.46	2.90	4.20	3.58	3.31	3.99	3.42	3.29	3.84	3.53	3.27	2.83	2.26	1.79	1.71	2.06	2.59	2.95	3.19	5.23	7.35	8.11	8.92	10.28	9.41	9.84	10.07	7.98	6.47	5.63	5.52	4.95	3.76	2.88	2.61	2.43	2.24	2.29	2.36	2.25	2.10	2.33	2.66	2.40	2.19	2.03	2.19	2.26	2.51	2.71	3.08	2.98	3.27	3.69	3.62	3.19	2.96	2.93	2.96	3.02	3.10	3.22	3.30	3.35	3.42	3.51	3.55	3.58	3.61	3.64	3.66	3.69	3.70	3.71	3.76	3.78	3.77	3.78	3.80	3.80	3.85	3.92	3.92	3.85	3.90	4.00	3.94	3.87	3.90	3.96	3.97	3.96	3.95	3.93	3.91	3.91	3.96	4.02	4.00	3.97	3.97	
3.29	3.28	3.24	3.17	3.10	3.04	2.95	2.83	2.70	2.52	2.31	2.06	1.77	1.50	1.46	1.35	6.91	10.11	8.89	8.76	9.22	9.66	9.35	6.41	5.60	3.96	3.32	3.11	2.81	2.64	2.66	2.43	2.14	1.89	2.00	2.21	2.54	2.88	3.13	5.63	5.61	5.37	7.49	7.62	7.60	7.44	7.55	7.90	8.25	8.52	8.86	9.33	9.68	10.90	5.21	3.99	4.24	5.00	3.72	3.62	3.72	3.89	3.96	6.04	6.71	7.16	7.96	3.29	3.58	4.07	9.35	9.24	9.23	9.30	8.61	7.08	4.84	3.81	3.36	3.34	3.89	3.40	3.94	4.00	3.22	3.91	3.60	3.45	3.14	2.52	1.85	5.76	1.51	2.05	2.56	2.93	5.53	5.77	5.89	8.59	9.18	8.79	8.74	9.09	9.31	8.56	7.00	5.99	5.31	4.56	4.35	4.01	3.30	2.93	2.98	2.99	2.69	2.27	1.88	1.91	2.32	2.42	2.03	1.74	1.83	1.97	2.13	3.10	2.92	3.08	3.49	3.56	3.20	2.84	2.70	2.78	2.94	3.07	3.17	3.27	3.33	3.40	3.48	3.54	3.57	3.60	3.63	3.66	3.69	3.71	3.74	3.76	3.77	3.79	3.80	3.80	3.81	3.88	3.97	3.94	3.84	3.87	4.01	4.01	3.90	3.90	3.95	3.94	3.95	3.98	3.96	3.92	3.90	3.94	4.03	4.03	3.99	3.99	
3.32	3.30	3.26	3.21	3.14	3.07	2.99	2.88	2.75	2.59	2.40	2.15	1.86	1.56	1.36	1.32	5.20	9.25	9.10	9.12	9.58	9.98	6.23	6.23	4.79	3.65	2.88	2.72	2.29	2.92	2.61	2.35	1.91	1.62	1.75	1.96	2.26	2.63	2.86	5.81	5.84	6.85	6.99	7.15	6.90	7.07	7.76	8.24	8.30	8.43	8.69	9.00	9.23	10.87	5.53	5.83	3.71	4.22	4.61	3.56	3.46	3.56	3.65	6.01	6.83	6.90	7.28	8.02	2.97	8.68	8.83	8.98	9.08	9.29	9.30	8.33	6.72	4.63	3.77	3.34	4.02	4.34	4.23	3.31	3.31	3.02	3.69	3.52	3.34	2.87	2.21	1.52	6.37	1.58	2.21	2.70	5.64	5.92	6.12	9.04	8.80	8.72	8.45	8.32	8.77	9.02	7.69	6.15	5.13	4.99	5.29	5.12	3.99	3.50	3.44	3.22	2.93	2.59	2.20	2.25	2.53	2.59	2.18	1.96	1.99	1.85	1.68	3.26	3.07	3.14	3.40	3.48	3.25	2.84	2.52	2.54	2.78	3.00	3.15	3.25	3.32	3.39	3.46	3.52	3.57	3.59	3.62	3.64	3.66	3.71	3.75	3.76	3.76	3.78	3.79	3.77	3.77	3.84	3.96	3.95	3.84	3.82	3.95	4.03	3.92	3.89	3.96	3.94	3.93	3.98	3.99	3.95	3.91	3.91	3.98	4.02	4.01	4.01	
3.36	3.33	3.29	3.24	3.18	3.10	3.02	2.95	2.86	2.69	2.47	2.23	1.96	1.63	1.39	1.49	4.44	8.19	9.28	9.51	9.80	9.93	6.82	3.41	2.54	2.03	3.36	2.51	1.91	3.06	2.75	2.47	1.92	1.50	1.56	1.74	1.99	2.34	2.66	6.11	6.17	6.69	6.22	5.70	4.79	6.64	3.96	3.90	8.17	8.16	8.32	8.67	9.15	10.76	7.05	6.66	5.16	4.07	4.28	4.41	3.34	3.42	3.45	5.80	4.47	6.60	6.92	7.83	2.90	8.57	8.63	8.73	9.00	9.35	9.63	9.28	7.81	5.97	4.18	5.01	4.53	4.08	3.79	3.47	3.29	3.05	3.90	3.67	3.40	3.08	2.71	2.16	1.64	1.55	1.96	2.64	2.90	3.24	6.43	8.47	8.44	8.84	8.74	8.46	8.86	9.01	7.66	6.42	5.57	5.33	5.58	5.60	4.13	3.66	3.27	2.78	2.72	2.68	2.68	2.82	2.69	2.62	2.33	2.12	1.92	3.56	3.62	3.52	3.32	3.33	3.55	3.63	3.45	3.06	2.54	2.40	2.63	2.91	3.11	3.24	3.30	3.37	3.44	3.50	3.56	3.61	3.64	3.64	3.65	3.68	3.72	3.74	3.75	3.78	3.80	3.78	3.75	3.81	3.92	3.93	3.86	3.81	3.90	4.02	3.92	3.88	3.97	3.96	3.92	3.96	4.01	3.99	3.96	3.93	3.95	4.00	4.02	4.02	
3.39	3.36	3.31	3.28	3.22	3.14	3.03	2.95	2.88	2.73	2.51	2.30	2.03	1.73	1.42	1.58	2.85	6.00	9.04	9.35	9.93	9.84	7.15	7.36	6.34	4.72	3.54	2.53	2.15	3.27	2.96	2.73	2.28	1.73	1.52	1.56	1.71	2.03	2.77	6.16	6.66	3.39	3.37	3.09	5.05	6.44	7.04	7.51	7.73	7.78	7.95	8.44	9.17	10.47	10.29	5.43	6.32	5.06	3.60	3.17	2.97	5.60	3.23	4.36	6.25	4.47	6.75	7.49	2.88	3.79	4.10	9.27	9.55	7.14	9.75	9.50	8.45	6.95	5.07	4.03	2.91	4.45	3.90	3.44	3.06	2.86	2.70	3.89	3.53	3.02	2.73	2.33	1.65	6.12	1.61	2.30	3.09	3.28	8.17	8.13	8.06	8.51	8.44	8.55	9.25	9.25	7.88	7.15	6.23	5.74	5.76	5.76	4.58	4.04	3.31	2.89	3.21	3.29	3.02	2.64	2.12	1.83	2.50	2.18	3.64	3.68	2.02	1.99	3.60	3.43	3.59	3.81	3.76	3.46	2.86	2.47	2.58	2.88	3.12	3.26	3.34	3.39	3.43	3.48	3.54	3.61	3.67	3.69	3.68	3.69	3.70	3.72	3.73	3.77	3.81	3.82	3.77	3.81	3.90	3.90	3.87	3.83	3.88	4.00	3.93	3.88	3.96	3.98	3.93	3.94	4.00	4.01	3.98	3.98	3.98	3.98	3.98	3.98	
3.42	3.39	3.33	3.30	3.25	3.17	3.05	2.93	5.70	2.74	2.58	2.38	2.11	1.81	1.51	1.51	1.80	5.57	6.73	8.86	9.66	9.95	9.91	7.69	4.44	2.44	1.77	2.90	2.23	2.03	3.12	2.90	2.51	1.99	1.60	1.57	1.62	1.91	3.28	3.58	3.64	3.62	3.70	3.62	3.29	4.92	6.66	6.83	7.09	7.29	7.65	8.41	9.36	10.30	10.63	8.96	7.17	6.49	5.17	4.23	3.85	3.68	3.37	3.32	3.24	3.10	6.08	6.98	7.68	3.25	4.13	9.54	4.26	9.66	9.60	9.33	8.85	7.21	5.54	5.49	4.18	5.03	4.48	4.01	3.51	2.85	4.00	2.50	2.45	3.08	2.68	2.16	1.62	5.52	1.42	1.98	3.12	6.57	7.79	7.96	8.26	8.27	8.14	8.78	9.58	9.33	8.42	8.13	7.49	6.33	6.15	7.39	5.87	4.77	4.31	4.10	4.25	4.23	3.70	2.99	2.42	2.32	2.99	2.63	3.88	2.10	2.08	2.14	2.08	3.60	3.48	3.71	3.92	3.85	3.35	2.72	2.64	2.88	3.12	3.27	3.37	3.44	3.46	3.49	3.53	3.58	3.65	3.69	3.70	3.71	3.71	3.71	3.72	3.73	3.79	3.83	3.81	3.82	3.86	3.85	3.86	3.83	3.86	3.97	3.94	3.87	3.92	3.98	3.97	3.94	3.98	4.00	3.97	3.96	4.01	4.01	3.98	3.98	
3.44	3.42	3.36	3.33	3.29	3.21	3.11	3.04	2.93	2.79	2.60	2.42	2.17	1.89	1.64	1.50	1.60	5.30	6.76	8.44	9.05	9.54	10.23	7.66	3.86	3.01	2.24	2.07	2.62	2.09	3.38	3.09	2.70	2.21	1.78	1.70	1.68	1.94	2.42	2.88	3.51	3.57	3.84	4.07	3.94	3.50	3.12	6.09	6.51	7.09	7.72	8.79	9.64	9.63	10.02	11.01	11.54	7.35	6.97	5.61	4.69	4.22	3.84	3.57	3.36	3.26	3.19	2.78	7.40	7.66	3.41	9.08	9.33	9.47	9.50	9.64	9.64	7.17	5.15	3.83	5.61	3.22	5.30	4.99	4.39	3.59	2.95	2.75	2.87	3.32	2.82	2.27	1.93	1.53	1.49	1.71	3.22	7.34	7.77	8.03	8.10	8.07	8.08	8.72	9.33	9.35	9.01	8.90	8.13	7.05	7.01	8.15	7.26	5.78	5.72	5.76	5.32	4.92	4.28	3.89	3.59	3.18	3.55	3.45	2.92	2.50	2.22	2.18	2.24	2.19	3.51	3.50	3.80	4.01	3.72	3.06	2.78	2.90	3.12	3.26	3.36	3.45	3.49	3.52	3.54	3.57	3.63	3.67	3.69	3.73	3.73	3.72	3.71	3.72	3.76	3.81	3.84	3.87	3.87	3.82	3.82	3.83	3.83	3.90	3.93	3.89	3.89	3.93	3.95	3.94	3.95	3.99	3.99	3.96	3.99	4.05	4.07	4.07	
3.46	3.45	3.40	3.36	3.33	3.26	3.18	3.10	2.96	5.81	2.59	2.44	2.23	1.96	1.69	1.54	1.61	5.16	6.69	8.07	8.46	9.16	10.12	11.54	4.75	3.75	3.05	3.03	2.93	2.77	2.73	3.31	2.92	2.39	2.09	1.79	1.70	1.89	2.34	2.76	3.36	3.48	5.66	5.67	5.16	4.06	3.58	5.86	6.58	7.27	8.24	9.04	8.67	8.89	9.49	10.19	11.20	12.13	7.45	7.42	6.69	5.67	4.81	4.21	3.81	3.59	3.37	3.23	7.00	7.67	2.80	8.86	4.92	4.95	9.93	8.20	10.23	8.17	6.13	5.06	6.71	4.99	4.36	3.85	3.40	4.42	3.76	3.52	3.21	3.04	3.03	2.47	2.18	1.56	5.88	1.48	2.24	4.14	7.95	8.29	8.11	7.74	7.55	7.87	8.29	8.60	8.81	9.19	8.75	7.54	7.52	8.53	7.90	6.57	6.50	6.18	6.01	5.44	4.58	4.11	4.21	4.24	3.08	3.67	3.35	2.93	2.51	2.20	2.33	2.55	3.65	3.41	3.57	3.90	3.88	3.39	2.98	2.98	3.16	3.28	3.36	3.43	3.49	3.52	3.54	3.57	3.63	3.66	3.69	3.73	3.76	3.75	3.73	3.73	3.75	3.79	3.84	3.92	3.94	3.86	3.83	3.85	3.85	3.87	3.90	3.91	3.89	3.90	3.93	3.94	3.96	3.99	4.00	3.99	3.96	4.01	4.07	4.07	
3.48	3.47	3.44	3.39	3.34	3.29	3.22	3.13	3.05	2.92	2.70	2.51	2.30	2.02	1.72	1.52	1.53	5.08	6.60	6.02	7.94	8.76	9.93	10.89	5.53	4.40	3.86	3.80	4.04	4.24	3.62	3.45	2.95	2.60	2.26	1.94	1.89	2.00	2.31	2.67	3.30	3.47	5.59	5.49	5.44	5.09	4.56	6.06	6.60	7.63	8.85	7.89	7.67	8.24	8.83	9.43	10.19	11.09	11.51	11.38	6.60	6.53	5.33	5.26	4.57	4.03	3.49	3.33	3.16	7.66	7.70	8.17	3.78	4.58	5.29	4.96	10.16	9.45	8.39	7.61	8.57	8.43	7.04	6.76	5.50	4.84	4.41	3.97	3.75	3.35	3.58	2.81	2.53	1.77	5.14	1.23	1.69	6.24	7.10	7.91	7.80	7.63	7.13	7.25	7.49	7.87	8.27	8.66	8.71	7.86	8.19	8.88	7.87	7.10	6.99	6.58	5.93	5.82	5.23	4.46	4.36	4.62	4.28	1.80	3.81	3.28	2.66	2.27	2.54	2.83	3.74	3.43	3.43	3.67	3.79	3.55	3.18	3.10	3.22	3.32	3.39	3.43	3.48	3.53	3.54	3.57	3.60	3.62	3.66	3.71	3.75	3.77	3.77	3.76	3.76	3.76	3.80	3.90	3.96	3.91	3.86	3.89	3.90	3.87	3.89	3.90	3.90	3.91	3.93	3.95	3.98	3.98	3.97	3.97	3.96	3.97	4.00	4.00	
3.50	3.49	3.46	3.42	3.37	3.32	3.25	3.18	3.12	3.00	2.80	2.59	2.36	2.10	1.76	1.46	1.44	3.47	6.62	6.06	7.60	8.39	9.67	10.65	5.53	4.20	3.50	3.30	3.35	3.75	3.82	3.86	2.53	2.42	2.05	1.96	2.12	2.27	2.51	3.19	3.29	3.49	5.53	5.59	7.12	7.05	4.84	6.03	6.90	8.73	8.07	7.06	7.65	8.19	8.46	8.83	9.54	10.20	10.28	10.47	10.62	9.79	7.16	5.56	5.19	4.47	3.79	3.40	6.37	7.76	7.84	7.84	8.11	3.65	5.01	9.77	9.64	9.24	9.29	8.66	8.84	9.11	8.73	8.04	7.43	7.23	7.17	5.95	5.52	4.69	3.78	3.57	2.85	2.42	1.68	5.32	5.04	5.46	6.26	7.08	7.81	7.69	7.04	6.87	7.33	7.89	8.21	8.39	8.49	8.07	8.27	8.60	7.54	7.17	7.43	6.96	6.58	6.59	6.21	5.58	5.12	4.48	5.20	5.62	2.30	3.95	3.20	2.72	2.87	3.06	3.79	3.51	3.42	3.48	3.58	3.54	3.30	3.20	3.27	3.36	3.42	3.45	3.49	3.54	3.56	3.58	3.60	3.61	3.64	3.67	3.71	3.76	3.77	3.79	3.78	3.75	3.75	3.84	3.93	3.90	3.85	3.89	3.91	3.88	3.88	3.89	3.90	3.90	3.91	3.92	3.93	3.95	3.95	3.96	3.98	3.98	3.97	3.97	
3.51	3.51	3.49	3.45	3.40	3.35	3.29	3.20	3.10	2.98	2.84	2.65	2.43	2.17	1.83	1.47	1.49	3.29	4.03	6.01	5.80	8.17	9.79	10.59	5.78	4.37	3.53	3.15	2.74	2.41	2.91	3.13	2.03	2.05	1.60	1.65	1.98	2.25	2.49	3.28	3.25	5.57	5.78	7.45	8.13	8.35	8.25	8.27	9.12	8.79	7.13	6.84	7.55	7.99	8.15	8.55	9.21	9.60	9.56	9.62	10.00	9.90	8.14	6.44	5.51	4.68	3.99	3.53	3.36	8.35	8.44	8.32	2.90	8.17	8.46	9.05	9.05	8.45	8.72	8.65	8.86	9.22	9.15	8.41	7.59	7.42	7.30	6.29	6.05	6.45	5.89	5.40	4.71	3.02	2.26	1.57	5.37	5.34	2.37	6.74	7.53	7.49	6.96	6.73	7.12	7.46	7.65	7.86	8.15	8.61	8.64	8.13	7.02	6.81	7.37	7.11	6.89	6.92	6.60	5.68	5.12	4.92	5.07	5.57	3.07	4.68	4.01	3.46	3.23	3.18	3.82	3.62	3.48	3.34	3.32	3.38	3.30	3.23	3.27	3.35	3.41	3.44	3.49	3.53	3.55	3.59	3.61	3.63	3.66	3.65	3.67	3.71	3.74	3.77	3.76	3.74	3.74	3.78	3.88	3.88	3.82	3.84	3.87	3.87	3.88	3.89	3.90	3.89	3.90	3.92	3.91	3.91	3.94	3.96	3.99	3.98	3.97	3.97	
3.54	3.53	3.51	3.48	3.43	3.38	3.31	3.23	3.14	3.02	2.88	2.70	2.50	2.25	1.92	1.56	1.61	3.11	3.86	5.99	5.80	8.25	9.77	11.10	4.94	3.86	3.42	3.25	2.90	2.34	2.38	2.18	1.67	1.66	1.42	1.48	1.77	1.97	2.13	3.14	3.11	5.86	5.90	7.25	7.80	8.12	8.29	9.05	8.92	7.97	7.05	6.54	7.41	7.81	7.75	8.38	8.48	8.69	8.78	8.99	9.95	10.46	8.90	6.80	5.79	4.90	4.27	3.70	3.33	8.06	8.20	8.22	8.29	8.37	3.45	9.00	8.88	7.71	7.74	7.57	7.94	8.50	8.65	8.30	7.39	7.08	7.10	6.34	5.79	5.86	5.32	4.98	4.60	4.45	4.42	2.08	4.83	4.84	1.97	6.26	7.18	7.23	6.80	6.63	6.74	6.83	6.90	7.09	7.42	8.04	8.42	8.12	7.57	7.16	7.22	7.23	7.20	7.22	6.80	5.41	5.26	5.23	5.94	8.40	6.51	5.64	5.01	4.22	3.70	3.32	3.96	3.79	3.59	3.30	3.10	3.13	3.21	3.24	3.28	3.34	3.39	3.43	3.48	3.52	3.55	3.58	3.59	3.63	3.66	3.65	3.66	3.69	3.71	3.76	3.75	3.73	3.73	3.75	3.84	3.89	3.84	3.81	3.82	3.85	3.86	3.87	3.89	3.89	3.90	3.96	3.96	3.92	3.92	3.95	3.97	3.98	3.98	3.98	
3.56	3.54	3.52	3.50	3.46	3.40	3.33	3.25	3.16	3.05	2.92	2.75	2.55	2.32	2.02	1.69	1.72	2.95	3.71	5.92	5.92	8.27	9.49	11.55	4.24	3.26	2.58	2.51	2.36	2.00	1.75	2.46	1.83	2.01	1.73	1.66	1.78	1.83	1.87	2.02	3.10	5.62	6.06	6.56	6.96	7.39	8.03	8.87	8.17	7.79	7.47	6.50	7.69	7.92	7.74	8.16	7.43	7.66	7.89	8.07	9.14	10.69	9.61	7.47	6.44	5.19	4.69	3.99	3.39	7.30	7.60	7.79	8.16	8.34	8.53	8.86	8.54	7.46	7.03	7.01	7.52	8.09	8.55	8.37	7.17	6.45	6.58	6.62	6.02	5.42	4.84	4.55	4.31	4.32	4.58	4.33	4.20	4.94	1.63	2.49	6.51	6.21	6.53	6.35	6.44	6.61	6.69	6.85	7.11	7.32	7.44	7.55	7.77	7.64	7.20	7.37	7.89	8.25	8.18	6.86	5.50	4.78	5.59	5.69	5.61	6.07	6.10	5.16	4.39	3.71	4.29	4.11	3.83	3.41	3.07	3.00	3.13	3.25	3.30	3.36	3.39	3.42	3.48	3.51	3.55	3.59	3.58	3.60	3.64	3.64	3.67	3.70	3.72	3.77	3.80	3.77	3.74	3.75	3.83	3.91	3.91	3.84	3.81	3.83	3.84	3.85	3.88	3.89	3.90	3.95	4.00	3.98	3.94	3.96	3.97	3.97	3.98	3.98	
3.60	3.57	3.53	3.52	3.49	3.43	3.36	3.28	3.20	3.09	2.95	2.80	2.61	2.38	2.10	1.80	1.83	2.67	3.62	5.97	6.04	8.12	9.03	11.24	4.40	3.54	2.24	1.99	2.21	1.97	1.78	3.17	2.56	2.12	2.07	1.79	1.75	1.77	1.73	1.75	3.16	3.20	5.87	6.47	6.73	7.10	8.02	8.48	7.61	7.63	7.74	6.79	7.79	7.70	7.62	7.72	7.08	7.37	7.58	8.12	8.55	10.24	9.80	8.36	6.73	5.40	4.96	4.40	3.90	3.58	7.68	7.91	8.10	8.24	8.27	8.61	8.15	7.30	6.81	6.67	7.10	7.83	8.82	8.75	6.79	5.82	5.67	6.23	6.11	5.14	4.59	4.52	4.34	4.29	4.43	4.31	3.87	4.75	5.06	5.55	6.14	6.20	6.27	5.99	6.11	6.28	6.50	6.64	6.70	6.73	6.77	6.81	7.09	6.97	6.46	6.47	7.18	7.62	7.88	7.75	5.78	5.31	5.35	5.39	5.48	5.97	6.36	5.77	4.96	5.08	4.64	4.43	4.15	3.66	3.19	3.01	3.09	3.22	3.29	3.35	3.39	3.42	3.45	3.47	3.51	3.58	3.59	3.60	3.63	3.63	3.66	3.71	3.72	3.77	3.83	3.82	3.77	3.77	3.83	3.91	3.91	3.86	3.84	3.85	3.85	3.85	3.88	3.89	3.89	3.93	3.99	4.00	3.96	3.97	3.99	3.98	3.97	3.97	
3.64	3.60	3.54	3.54	3.52	3.46	3.38	3.32	3.24	3.13	3.00	2.84	2.66	2.43	2.16	1.83	1.82	2.50	3.57	6.06	6.02	7.98	8.67	10.66	4.90	4.05	2.60	1.93	2.04	2.72	3.03	3.26	2.98	2.43	2.12	1.63	1.43	1.47	1.50	1.52	3.38	3.52	3.46	6.04	6.41	7.22	8.01	8.26	7.41	7.61	7.75	6.70	7.56	7.44	7.36	7.54	6.90	7.07	7.46	8.09	7.48	9.96	9.79	8.14	5.92	5.43	5.06	4.66	4.25	4.09	7.31	8.12	8.21	3.51	8.61	8.80	7.85	7.12	6.27	5.78	6.38	7.20	8.34	8.95	7.63	6.62	5.49	5.54	5.83	5.39	4.74	4.28	4.24	3.94	4.03	4.31	4.16	4.30	4.80	5.01	3.05	6.37	6.19	5.79	5.75	5.96	6.26	6.17	6.05	6.07	6.29	6.36	6.43	6.43	4.94	4.74	4.88	5.12	5.41	5.66	5.63	5.33	5.11	5.08	5.29	5.75	6.09	6.16	5.57	5.41	4.99	4.68	4.40	3.94	3.37	3.11	3.13	3.20	3.27	3.33	3.37	3.42	3.46	3.45	3.46	3.53	3.57	3.61	3.63	3.63	3.65	3.68	3.68	3.74	3.81	3.82	3.78	3.77	3.82	3.88	3.89	3.85	3.86	3.87	3.86	3.87	3.89	3.88	3.87	3.90	3.97	4.00	3.97	3.96	3.99	3.98	3.97	3.97	
3.67	3.63	3.57	3.56	3.56	3.49	3.41	3.35	3.26	3.16	3.04	2.88	2.70	2.47	2.20	1.87	1.72	2.04	3.55	6.08	6.00	7.91	8.51	10.11	8.12	4.63	3.32	2.58	2.89	3.61	3.76	3.69	3.34	2.52	2.24	1.63	1.21	4.77	1.32	1.41	1.70	3.52	3.53	5.61	6.53	7.10	7.47	7.44	7.11	7.26	7.55	7.07	7.62	7.57	7.48	7.34	6.47	6.74	7.09	7.49	5.94	9.80	9.71	8.80	6.31	5.53	5.16	4.68	4.34	6.69	7.84	8.82	3.64	3.81	7.09	8.59	7.76	7.31	6.00	5.03	5.95	7.26	3.72	8.92	7.82	7.41	6.54	5.89	5.67	5.74	5.28	4.77	3.90	4.03	3.95	4.23	4.49	3.89	2.10	2.40	2.55	3.63	5.79	5.77	5.80	5.98	6.14	5.90	4.29	4.34	4.57	4.72	4.77	4.73	4.68	4.62	4.62	4.73	4.92	5.18	5.27	5.15	4.30	4.13	4.10	4.25	4.55	4.92	5.31	5.43	5.22	4.85	4.49	4.05	3.50	3.22	3.21	3.24	3.26	3.31	3.35	3.39	3.47	3.49	3.47	3.50	3.53	3.57	3.62	3.64	3.64	3.64	3.65	3.69	3.77	3.80	3.78	3.79	3.80	3.85	3.89	3.85	3.83	3.85	3.84	3.87	3.92	3.91	3.88	3.88	3.93	3.97	3.97	3.97	3.99	3.98	3.97	3.97	
3.68	3.66	3.60	3.58	3.58	3.52	3.44	3.37	3.29	3.19	3.07	2.92	2.74	2.51	2.23	1.90	1.68	1.87	3.45	6.03	5.98	7.93	8.49	9.76	9.08	5.22	4.11	3.58	3.43	3.49	3.37	3.04	3.09	2.70	2.62	2.01	1.51	1.34	1.35	1.30	1.48	1.88	3.56	5.71	6.53	7.04	6.93	6.71	6.62	6.79	7.08	7.12	7.23	7.12	7.09	7.05	6.45	6.90	7.29	7.08	5.80	9.60	9.19	9.01	9.16	7.77	5.66	4.50	4.30	4.50	9.30	4.34	4.10	4.02	8.92	8.18	7.38	7.07	6.24	5.15	5.77	6.99	7.45	8.98	8.10	7.54	6.87	5.77	5.25	5.26	5.06	4.99	5.22	4.99	4.68	4.48	4.71	3.94	1.98	2.53	2.35	3.62	3.94	4.18	4.26	4.29	4.38	4.43	4.37	4.36	4.53	4.59	4.50	4.32	4.29	4.40	4.42	3.75	3.77	4.03	4.30	4.30	4.16	4.12	4.14	4.24	4.35	4.39	4.62	5.03	5.20	4.98	4.59	4.09	3.57	3.31	3.30	3.30	3.27	3.27	3.31	3.34	3.41	3.50	3.51	3.50	3.51	3.53	3.56	3.62	3.64	3.63	3.64	3.65	3.72	3.77	3.75	3.76	3.79	3.80	3.85	3.85	3.82	3.82	3.81	3.84	3.90	3.91	3.90	3.90	3.92	3.95	3.97	3.98	3.99	4.00	4.00	4.00	
3.69	3.67	3.62	3.60	3.59	3.55	3.47	3.40	3.32	3.22	3.11	2.96	2.78	2.55	2.26	1.90	1.61	1.72	3.29	5.97	6.00	8.10	8.70	9.60	9.13	6.42	5.40	5.02	4.54	4.10	3.61	3.09	3.01	2.89	2.68	2.45	1.96	1.55	1.36	1.23	1.24	1.63	3.76	4.01	6.30	6.67	6.69	6.58	6.50	6.69	6.87	6.84	6.53	6.46	6.54	6.52	6.27	6.76	7.14	3.39	6.06	9.34	8.63	8.66	9.53	8.20	5.36	4.28	3.85	7.61	8.63	8.73	8.81	8.99	8.66	7.54	6.88	6.72	6.36	5.04	5.17	6.49	6.57	8.11	8.59	7.79	7.07	5.95	5.38	5.00	4.47	4.34	4.70	4.69	4.48	4.72	3.31	3.16	2.65	2.32	2.13	2.88	3.98	4.12	4.15	4.30	4.37	4.39	4.39	4.41	4.58	4.60	4.51	4.36	4.02	3.97	3.89	3.71	3.60	3.74	4.02	4.06	3.85	3.86	4.06	4.24	4.35	4.24	4.18	4.50	4.85	4.96	4.80	4.30	3.74	3.44	3.41	3.41	3.31	3.22	3.24	3.29	3.34	3.43	3.50	3.50	3.50	3.54	3.55	3.58	3.62	3.63	3.63	3.63	3.70	3.78	3.75	3.72	3.75	3.78	3.82	3.85	3.83	3.82	3.81	3.82	3.86	3.90	3.91	3.91	3.93	3.96	3.98	3.97	3.97	4.03	4.06	4.06	
3.71	3.69	3.64	3.62	3.61	3.57	3.50	3.43	3.35	3.26	3.15	3.00	2.82	2.58	2.29	1.88	1.45	1.51	3.14	6.11	5.92	8.03	8.53	9.44	9.17	7.65	7.01	6.94	6.44	5.71	5.52	4.82	3.89	3.27	2.98	2.73	2.19	1.66	1.33	1.23	1.15	1.41	3.94	4.51	6.79	6.46	6.34	6.46	6.33	6.51	6.78	6.93	6.17	6.18	6.31	6.05	5.83	6.57	6.56	3.40	6.82	8.14	7.98	8.48	9.76	9.09	5.80	4.41	3.58	7.52	8.15	8.36	8.68	8.78	7.96	7.13	6.71	6.53	6.67	5.47	4.80	6.58	6.40	7.38	8.38	7.84	7.48	6.98	6.73	6.19	5.01	4.23	4.26	4.25	4.15	3.21	3.42	3.32	3.15	1.95	2.62	2.40	4.08	4.26	4.06	4.30	4.29	4.23	4.27	4.35	4.47	4.14	4.24	4.15	4.07	4.10	3.99	3.71	3.51	3.57	3.83	3.92	3.66	3.56	3.77	4.00	4.22	4.19	4.03	4.10	4.28	4.48	4.65	4.47	3.94	3.52	3.42	3.46	3.39	3.22	3.16	3.22	3.27	3.34	3.44	3.47	3.46	3.52	3.56	3.56	3.60	3.64	3.63	3.62	3.70	3.81	3.80	3.72	3.71	3.76	3.82	3.84	3.83	3.83	3.83	3.82	3.84	3.88	3.90	3.89	3.90	3.94	3.98	3.96	3.93	4.00	4.07	4.07	
3.74	3.71	3.66	3.64	3.63	3.60	3.53	3.46	3.39	3.30	3.19	3.06	2.88	2.64	2.32	1.91	1.34	1.28	2.86	3.50	5.86	5.94	7.89	8.82	8.77	7.87	7.24	7.19	7.01	6.75	6.67	6.56	5.38	4.23	3.55	3.11	2.35	1.68	1.19	1.05	1.02	1.25	1.82	4.67	5.50	6.03	5.86	6.09	6.22	6.47	6.76	7.04	5.88	5.50	5.77	5.90	5.85	6.63	2.45	3.76	7.26	7.02	7.11	7.94	9.06	9.75	6.60	4.93	4.01	8.21	4.00	4.31	4.80	8.26	6.98	6.39	6.08	5.81	6.10	5.92	4.89	5.97	6.12	7.09	8.09	7.62	7.36	7.11	7.01	6.59	5.54	4.58	4.32	4.44	3.33	3.37	3.48	3.49	3.07	3.13	2.26	1.99	2.67	4.50	3.79	4.35	4.37	3.98	3.97	3.96	3.96	4.04	4.13	4.11	4.14	4.25	4.09	3.66	3.41	3.49	3.72	3.82	3.64	3.53	3.61	3.71	3.86	3.95	3.92	3.89	3.82	3.80	4.02	4.10	3.84	3.52	3.36	3.37	3.39	3.27	3.15	3.16	3.20	3.26	3.37	3.42	3.43	3.48	3.55	3.56	3.59	3.64	3.62	3.61	3.69	3.80	3.83	3.76	3.70	3.73	3.81	3.84	3.82	3.80	3.82	3.82	3.81	3.85	3.89	3.88	3.88	3.91	3.94	3.96	3.93	3.96	4.01	4.01	
3.77	3.73	3.68	3.67	3.66	3.62	3.56	3.50	3.44	3.35	3.25	3.11	2.95	2.73	2.39	1.93	1.30	1.11	2.25	3.22	5.72	6.03	7.66	8.30	8.08	7.46	6.97	6.87	6.63	6.46	6.24	6.24	6.37	6.14	4.42	3.89	2.88	1.87	1.05	1.48	0.84	1.04	1.46	2.35	5.68	5.18	5.19	5.73	6.26	6.69	6.87	7.09	5.31	2.76	5.06	5.40	5.75	6.05	3.69	6.69	6.56	6.58	6.88	7.41	8.36	8.87	7.19	4.96	4.07	8.12	3.81	5.03	8.49	7.02	6.69	5.96	5.59	5.40	5.57	5.80	4.65	4.86	5.62	6.36	7.44	7.22	7.19	7.06	7.05	6.70	5.73	4.80	4.40	3.67	3.55	3.48	3.57	3.86	3.85	3.11	3.15	2.27	2.34	3.32	3.79	3.68	3.74	3.91	4.00	3.99	3.93	3.94	3.94	3.99	4.20	4.43	4.29	3.73	3.45	3.57	3.69	3.68	3.66	3.72	3.81	3.77	3.59	3.56	3.65	3.70	3.60	3.49	3.52	3.47	3.34	3.30	3.28	3.27	3.30	3.25	3.17	3.15	3.14	3.19	3.29	3.36	3.40	3.44	3.50	3.53	3.56	3.61	3.61	3.61	3.69	3.81	3.87	3.82	3.73	3.70	3.78	3.84	3.81	3.79	3.81	3.83	3.81	3.83	3.86	3.87	3.89	3.91	3.92	3.97	3.99	3.98	3.98	3.98	
3.81	3.77	3.70	3.69	3.69	3.66	3.59	3.54	3.48	3.41	3.31	3.18	3.03	2.83	2.52	2.10	4.55	1.23	1.94	3.06	3.26	5.95	6.80	8.03	7.68	7.25	6.96	6.69	6.16	5.94	5.69	5.44	5.63	6.06	6.39	4.50	3.83	2.64	1.44	0.95	0.80	0.90	1.34	2.14	5.93	5.26	4.35	4.96	5.32	6.52	6.77	6.95	5.18	2.98	4.23	4.69	5.11	5.01	5.69	6.32	5.83	6.06	6.52	6.85	7.86	8.05	6.52	5.80	6.16	7.23	3.24	5.40	7.43	6.45	6.72	6.22	5.75	5.43	5.47	5.82	4.85	4.63	5.54	5.77	7.08	6.93	7.14	7.05	6.89	6.95	6.20	5.10	4.56	3.76	3.65	3.45	3.46	3.85	4.16	4.14	3.33	3.11	2.51	3.08	3.72	3.64	3.61	3.78	3.93	4.01	3.97	3.86	3.72	3.77	4.08	4.43	4.44	3.99	3.74	3.80	3.73	3.58	3.62	3.91	4.15	3.97	3.51	3.30	3.29	3.36	3.48	3.52	3.40	3.12	2.85	2.83	2.99	3.13	3.20	3.16	3.12	3.13	3.13	3.15	3.22	3.29	3.34	3.39	3.43	3.47	3.52	3.56	3.57	3.58	3.64	3.77	3.87	3.86	3.76	3.69	3.74	3.81	3.82	3.80	3.81	3.83	3.83	3.82	3.84	3.86	3.89	3.91	3.91	3.94	4.01	4.02	4.00	4.00	
3.83	3.80	3.73	3.71	3.71	3.67	3.62	3.58	3.52	3.46	3.38	3.27	3.13	2.97	2.74	2.43	1.95	1.57	1.89	2.49	3.14	3.41	6.86	7.93	7.40	7.22	7.06	6.67	6.15	5.89	5.40	4.91	4.89	4.66	5.55	5.99	4.67	3.52	2.24	1.22	0.81	0.84	1.28	2.26	5.96	5.07	4.41	5.16	5.54	5.67	5.61	5.67	5.61	3.35	4.21	5.11	5.41	5.23	6.06	6.10	5.54	5.86	6.25	6.41	7.35	7.76	6.09	5.20	5.56	6.07	2.85	8.29	7.23	6.33	6.45	6.20	5.89	5.42	5.31	5.38	5.14	4.58	5.32	5.82	6.57	6.91	7.30	7.00	6.77	6.61	5.82	5.11	4.18	3.92	3.74	3.49	3.39	3.19	3.42	3.75	4.00	3.78	3.07	3.07	3.61	3.62	3.54	3.66	3.83	3.99	4.02	3.87	3.67	3.67	3.87	4.19	4.33	4.15	4.07	4.06	3.84	3.61	3.65	4.03	4.35	4.11	3.55	3.20	3.04	3.00	3.28	3.59	3.51	3.10	2.67	2.44	2.52	2.80	3.00	3.05	3.04	3.03	3.10	3.17	3.22	3.25	3.31	3.36	3.39	3.44	3.50	3.53	3.54	3.53	3.58	3.68	3.82	3.88	3.80	3.71	3.74	3.81	3.82	3.81	3.83	3.85	3.84	3.84	3.85	3.86	3.87	3.89	3.90	3.90	3.96	4.02	4.03	4.03	
3.84	3.82	3.76	3.73	3.74	3.70	3.64	3.61	3.57	3.51	3.45	3.36	3.26	3.11	2.96	2.74	2.42	4.07	1.98	2.02	2.21	3.42	4.35	7.74	6.94	6.79	6.76	6.33	5.92	5.80	5.52	5.08	4.19	4.35	5.13	5.89	5.58	4.39	2.97	1.78	1.01	0.82	1.35	2.44	5.38	5.34	4.80	5.21	5.70	5.78	5.45	5.48	5.23	4.25	4.22	2.34	5.45	5.50	5.19	4.97	5.07	5.58	5.71	6.61	7.20	7.89	5.94	4.33	4.34	4.57	5.35	7.67	7.31	6.41	6.18	5.99	5.89	5.22	5.13	5.28	5.09	4.26	2.50	5.01	5.85	6.67	7.19	7.33	7.43	6.50	5.19	4.53	4.15	3.97	3.76	3.58	3.44	3.27	3.32	3.54	3.85	4.04	3.67	3.38	3.58	3.64	3.56	3.64	3.79	3.91	3.89	3.83	3.81	3.78	3.75	3.90	4.06	4.07	4.15	4.17	3.97	3.77	3.81	4.13	4.37	4.16	3.67	3.31	3.08	2.95	3.10	3.47	3.62	3.33	2.84	2.39	2.21	2.37	2.64	2.83	2.90	2.89	2.96	3.11	3.20	3.24	3.29	3.33	3.38	3.43	3.49	3.54	3.53	3.52	3.55	3.63	3.75	3.86	3.86	3.74	3.72	3.79	3.80	3.80	3.83	3.87	3.85	3.84	3.87	3.88	3.86	3.87	3.90	3.87	3.90	3.98	4.01	4.01	
3.85	3.84	3.80	3.75	3.76	3.73	3.68	3.65	3.62	3.57	3.52	3.45	3.39	3.29	3.15	3.04	2.95	2.74	2.38	1.53	1.68	3.37	4.28	6.97	6.89	6.94	6.75	6.01	5.64	5.28	5.21	4.69	4.40	4.34	2.93	3.16	3.82	3.92	3.29	2.38	1.44	1.11	1.67	2.70	3.23	3.53	3.31	2.82	2.84	5.71	5.17	5.23	5.30	4.29	2.56	2.58	2.60	5.82	4.85	4.77	5.13	5.51	5.59	5.70	6.91	7.60	6.24	4.03	4.07	4.83	4.69	7.03	7.20	6.40	5.81	5.54	5.72	5.47	5.42	5.24	4.84	3.09	2.60	2.86	3.40	4.06	4.49	4.91	7.67	7.39	5.53	4.88	4.42	4.20	4.09	3.93	3.66	3.47	3.40	3.43	3.65	3.99	3.97	3.75	3.69	3.67	3.65	3.73	3.87	3.79	3.60	3.67	3.91	3.97	3.82	3.80	3.90	3.98	4.03	4.06	4.00	3.86	3.85	4.06	4.26	4.11	3.70	3.42	3.31	3.22	3.14	3.31	3.57	3.48	3.11	2.69	2.25	2.09	2.24	2.48	2.66	2.71	2.78	2.94	3.09	3.17	3.23	3.28	3.34	3.40	3.46	3.54	3.55	3.52	3.55	3.62	3.67	3.79	3.88	3.77	3.70	3.75	3.77	3.76	3.80	3.85	3.84	3.82	3.85	3.87	3.87	3.89	3.90	3.88	3.89	3.95	3.98	3.98	
3.86	3.86	3.83	3.78	3.77	3.76	3.71	3.68	3.66	3.63	3.59	3.55	3.52	3.47	3.37	3.35	3.41	3.35	2.49	2.02	1.21	2.12	4.21	4.99	6.72	7.15	6.89	6.01	5.73	4.89	4.29	4.63	4.45	3.40	3.01	3.16	3.60	3.66	3.30	2.57	1.83	1.66	2.17	2.60	2.82	3.17	3.13	2.79	2.91	3.49	3.57	3.27	3.32	3.14	2.62	2.66	2.95	5.72	3.12	2.57	2.59	2.83	5.38	5.59	5.93	6.44	6.13	4.47	3.90	4.97	5.04	6.38	6.65	6.07	5.38	5.39	5.57	5.24	5.19	3.89	3.95	3.53	2.90	2.97	3.16	3.59	4.06	4.51	5.22	5.77	5.63	5.25	4.89	4.58	4.20	4.02	3.82	3.72	3.66	3.54	3.60	3.86	4.02	4.02	3.86	3.70	3.69	3.85	3.98	3.72	3.33	3.46	3.87	4.05	4.02	3.97	4.00	4.06	4.04	4.02	4.04	3.97	3.84	3.85	3.99	3.95	3.59	3.36	3.39	3.44	3.37	3.36	3.48	3.44	3.25	3.05	2.65	2.17	1.98	2.11	2.37	2.51	2.61	2.79	2.98	3.10	3.18	3.26	3.33	3.37	3.42	3.49	3.53	3.52	3.55	3.61	3.62	3.70	3.86	3.82	3.72	3.72	3.74	3.74	3.77	3.82	3.82	3.81	3.84	3.85	3.86	3.90	3.92	3.90	3.90	3.94	3.96	3.96	
3.87	3.88	3.86	3.80	3.79	3.79	3.74	3.71	3.69	3.69	3.67	3.65	3.64	3.64	3.59	3.62	3.79	3.93	2.98	1.81	0.82	1.81	2.84	4.77	6.59	7.03	6.74	6.03	5.25	4.45	4.19	4.59	3.62	3.41	3.11	3.01	3.40	3.51	3.14	2.62	2.18	2.25	2.65	2.70	2.62	2.72	2.85	2.69	2.64	3.42	3.60	3.19	2.86	2.64	2.21	2.81	3.13	3.46	3.22	2.54	2.44	2.77	3.11	3.33	5.70	6.18	6.31	5.05	3.83	2.37	5.01	6.45	6.62	6.12	5.49	5.15	4.06	3.92	3.68	3.69	3.94	3.95	3.42	2.94	2.69	2.73	3.82	4.32	4.85	5.36	5.35	4.90	4.61	4.27	3.99	3.88	3.80	3.86	3.90	3.76	3.68	3.81	3.98	4.13	4.11	3.83	3.67	3.84	4.06	3.83	3.33	3.34	3.72	4.01	4.13	4.10	4.10	4.14	4.16	4.21	4.26	4.09	3.71	3.34	3.23	2.92	3.43	3.19	3.25	3.38	3.50	3.56	3.50	3.36	3.27	3.25	3.09	2.62	2.09	1.93	2.07	2.27	2.43	2.63	2.85	3.01	3.11	3.22	3.34	3.37	3.39	3.45	3.48	3.49	3.53	3.59	3.59	3.64	3.82	3.89	3.78	3.73	3.74	3.74	3.77	3.81	3.81	3.82	3.85	3.85	3.85	3.88	3.91	3.90	3.90	3.92	3.93	3.93	
3.90	3.90	3.89	3.83	3.81	3.81	3.78	3.74	3.72	3.73	3.75	3.75	3.75	3.76	3.78	3.87	4.11	4.49	3.57	0.72	0.59	1.46	2.33	3.12	5.03	5.73	6.08	5.69	5.57	4.70	4.08	3.32	3.29	3.25	3.01	3.14	3.49	3.53	3.22	2.83	2.60	2.77	2.98	2.83	2.60	2.63	2.87	2.88	2.74	2.98	3.31	3.09	2.69	2.44	2.30	2.56	3.14	3.25	3.21	2.72	2.43	2.66	3.06	3.37	3.70	4.11	4.54	4.50	3.38	2.68	2.99	4.16	6.32	4.89	4.63	4.27	3.98	3.83	3.62	3.62	3.52	3.75	3.75	3.37	2.84	2.54	2.84	3.49	4.07	4.54	4.80	4.79	4.56	4.18	3.87	3.79	3.78	3.88	3.96	3.83	3.75	3.83	3.99	4.20	4.27	4.01	3.71	3.75	3.98	3.91	3.49	3.33	3.55	3.95	4.26	4.15	4.09	4.09	4.21	4.44	4.49	4.07	3.37	2.91	2.94	2.67	2.20	2.07	1.76	3.10	3.40	3.75	3.68	3.39	3.30	3.31	3.24	2.96	2.53	2.13	1.96	2.04	2.23	2.47	2.69	2.87	2.98	3.12	3.27	3.34	3.38	3.44	3.45	3.47	3.53	3.57	3.56	3.58	3.73	3.91	3.90	3.78	3.74	3.74	3.77	3.81	3.82	3.83	3.85	3.87	3.86	3.86	3.89	3.90	3.90	3.91	3.91	3.91	
3.93	3.92	3.90	3.85	3.83	3.84	3.81	3.78	3.75	3.74	3.80	3.87	3.88	3.86	3.93	2.54	2.82	3.33	4.10	1.05	0.68	1.13	1.76	2.56	3.10	3.75	5.99	5.80	5.78	5.11	4.12	3.31	3.13	2.96	2.96	3.30	3.62	3.55	3.36	3.16	3.07	3.16	3.15	2.97	2.75	2.75	2.96	3.00	2.85	2.86	3.05	2.93	2.64	2.51	2.55	2.82	2.96	2.92	2.95	2.76	2.43	2.38	2.68	3.05	3.59	3.78	4.10	4.39	3.80	3.11	3.37	4.16	4.71	4.62	4.50	4.20	3.78	3.50	3.32	3.31	3.45	3.68	3.87	3.73	3.20	2.70	2.79	3.35	3.88	4.11	4.34	4.57	4.44	4.17	3.96	3.82	3.87	3.98	3.96	3.78	3.67	3.74	4.03	4.33	4.35	4.16	3.88	3.77	3.90	3.86	3.52	3.27	3.33	3.99	4.39	4.40	4.26	4.20	4.27	4.48	4.56	4.05	3.12	2.51	2.69	2.47	2.14	1.90	1.40	1.14	2.92	2.09	2.20	3.72	3.58	3.49	3.27	3.00	2.82	2.56	2.19	1.98	2.09	2.36	2.59	2.76	2.89	3.04	3.19	3.27	3.34	3.44	3.47	3.48	3.55	3.58	3.55	3.54	3.62	3.80	3.94	3.89	3.76	3.73	3.77	3.80	3.81	3.84	3.87	3.87	3.87	3.87	3.89	3.92	3.94	3.93	3.91	3.91	
3.96	3.95	3.92	3.87	3.85	3.86	3.85	3.82	3.79	3.76	3.80	3.95	2.46	3.99	2.48	2.66	2.90	3.54	3.35	1.60	0.75	0.92	1.30	2.09	2.71	3.37	5.58	4.54	4.69	4.68	4.10	3.64	3.31	3.08	3.11	3.46	3.75	3.64	3.52	3.50	3.47	3.44	3.27	3.07	2.97	2.96	3.02	2.99	2.92	2.90	2.91	2.81	2.65	2.68	2.77	2.85	2.86	2.80	2.85	2.80	2.64	2.57	2.72	2.98	3.21	3.34	3.41	3.72	3.71	3.23	3.57	3.98	4.37	4.41	4.51	4.39	3.94	3.43	3.15	3.22	3.45	3.60	3.80	3.88	3.60	3.24	3.14	3.30	3.59	3.79	3.99	4.21	4.05	3.94	3.95	3.86	3.98	4.20	4.12	3.81	3.50	3.46	3.91	4.39	4.46	3.97	4.08	3.84	3.96	3.76	3.21	2.90	3.12	3.67	4.34	4.65	4.53	4.43	4.74	4.94	4.60	3.21	1.93	2.49	3.05	3.08	2.64	2.11	1.54	1.09	2.38	2.80	2.75	3.03	3.12	2.63	3.45	2.97	2.85	2.80	2.52	2.11	2.01	2.26	2.52	2.70	2.86	3.02	3.15	3.23	3.29	3.39	3.45	3.47	3.53	3.58	3.55	3.54	3.58	3.67	3.83	3.93	3.82	3.73	3.77	3.80	3.79	3.82	3.87	3.88	3.86	3.88	3.90	3.92	3.94	3.93	3.93	3.93	
3.99	3.98	3.94	3.89	3.87	3.89	3.88	3.86	3.84	3.79	3.80	3.99	2.60	2.52	2.55	2.67	2.98	3.64	3.68	2.53	0.92	0.89	1.03	1.59	2.34	3.14	3.94	4.30	4.31	4.12	3.89	3.65	3.45	3.39	3.47	3.74	3.95	3.78	3.71	3.80	3.74	3.64	3.46	3.24	3.20	3.19	3.11	2.99	2.98	2.97	2.84	2.70	2.65	2.80	2.88	2.78	2.70	2.76	2.90	2.91	2.84	2.81	2.85	2.93	3.10	3.26	3.20	3.34	3.52	3.40	3.44	3.66	3.83	3.92	4.16	4.35	4.08	3.61	3.35	3.38	3.55	3.57	3.62	3.70	3.75	3.82	3.63	3.29	3.33	3.50	3.72	3.92	3.66	3.51	3.75	3.83	3.97	4.31	4.40	4.06	3.52	3.26	3.64	4.34	4.34	4.13	3.89	4.05	4.23	3.98	3.26	2.61	2.90	3.41	4.06	5.02	4.89	4.73	5.03	5.34	4.34	2.56	1.28	2.45	3.35	3.50	2.97	2.23	1.61	2.38	1.23	2.14	2.48	3.17	3.51	2.54	2.14	3.02	2.79	2.82	2.70	2.28	1.98	2.12	2.41	2.63	2.81	2.97	3.10	3.20	3.28	3.34	3.41	3.46	3.51	3.56	3.56	3.55	3.60	3.64	3.75	3.88	3.84	3.75	3.77	3.81	3.80	3.80	3.85	3.86	3.84	3.84	3.87	3.89	3.90	3.91	3.91	3.91	
4.01	4.00	3.96	3.91	3.89	3.91	3.91	3.89	3.88	3.83	3.81	3.98	2.61	2.58	2.59	2.73	2.99	3.65	3.83	2.60	1.48	1.04	1.00	1.22	1.85	2.82	3.70	4.16	4.08	3.92	3.72	3.53	3.50	3.66	3.89	4.26	4.38	4.08	3.98	4.10	3.94	3.78	3.66	3.48	3.40	3.41	3.29	3.04	2.93	2.92	2.78	2.61	2.61	2.83	2.89	2.71	2.60	2.74	2.92	2.90	2.89	2.97	2.99	2.94	3.04	3.22	3.17	3.18	3.34	3.44	3.53	3.58	3.57	3.62	3.80	4.04	3.97	3.72	3.63	3.70	3.78	3.67	3.48	3.45	3.67	4.03	3.93	3.44	3.22	3.27	3.47	3.71	3.43	3.17	3.52	3.75	3.83	4.22	4.54	3.92	3.23	3.13	3.64	4.18	4.42	4.34	4.13	4.23	4.46	4.30	3.57	2.58	2.46	3.10	4.73	5.27	5.30	5.05	5.21	5.32	4.04	2.14	0.77	2.46	4.05	3.17	2.34	2.35	2.59	1.31	2.26	0.84	1.84	2.29	3.20	2.29	2.45	3.35	2.83	2.81	2.79	2.45	2.03	2.04	2.31	2.55	2.75	2.91	3.03	3.15	3.26	3.32	3.37	3.45	3.49	3.53	3.56	3.53	3.57	3.63	3.73	3.84	3.80	3.74	3.75	3.79	3.81	3.82	3.83	3.83	3.82	3.82	3.85	3.88	3.90	3.89	3.89	3.89	
4.03	4.02	3.98	3.93	3.90	3.93	3.94	3.92	3.92	3.89	3.82	3.94	2.56	2.67	2.66	2.76	3.04	3.58	3.91	2.95	1.97	1.50	1.32	1.22	1.50	2.12	3.10	3.91	3.99	3.80	3.70	3.51	3.46	3.65	4.01	4.48	4.67	4.44	4.33	4.33	4.08	3.88	3.85	3.71	3.60	3.65	3.40	2.90	2.76	2.91	2.85	2.70	2.65	2.80	2.82	2.67	2.60	2.67	2.68	2.68	2.90	3.15	3.13	2.98	3.00	3.17	3.20	3.12	3.13	3.29	3.47	3.49	3.46	3.47	3.53	3.68	3.74	3.58	3.56	3.93	4.17	3.92	3.55	3.41	3.65	4.01	3.96	3.55	3.30	3.25	3.31	3.51	3.35	3.05	3.38	3.75	3.78	4.28	4.50	3.95	3.34	3.12	3.41	3.91	4.32	4.48	4.51	4.74	4.93	4.56	3.68	2.55	2.07	2.48	4.70	5.63	5.88	5.71	5.77	5.24	2.90	1.63	0.21	2.86	4.22	3.40	2.40	1.48	1.64	2.37	1.20	1.98	1.62	1.77	2.48	3.52	2.44	2.12	3.05	2.83	2.85	2.61	2.17	2.03	2.23	2.49	2.71	2.88	3.00	3.10	3.22	3.30	3.35	3.41	3.45	3.49	3.52	3.51	3.51	3.57	3.70	3.81	3.78	3.76	3.75	3.76	3.81	3.85	3.83	3.81	3.82	3.84	3.85	3.87	3.90	3.90	3.89	3.89	
4.01	4.02	4.01	3.95	3.91	3.94	3.96	3.95	3.95	3.94	3.88	3.91	2.63	2.70	2.75	2.81	3.05	3.63	4.03	3.37	1.30	1.69	1.60	1.11	1.54	1.85	2.65	3.46	3.65	3.57	3.57	3.52	3.49	3.63	4.00	4.50	4.84	4.79	4.64	4.51	4.22	3.98	4.02	4.06	4.07	4.01	3.51	2.87	2.91	3.10	2.92	2.78	2.77	2.80	2.70	2.53	2.56	2.46	2.38	2.59	3.07	3.36	3.27	3.08	3.01	3.13	3.21	3.10	2.97	3.04	3.24	3.37	3.42	3.40	3.33	3.38	3.55	3.35	3.16	3.80	4.42	4.20	3.73	3.55	3.71	3.96	3.88	3.56	3.40	3.36	3.28	3.26	3.14	2.89	3.20	3.95	3.89	4.19	4.44	3.95	3.41	3.17	3.23	3.52	3.84	5.14	5.23	5.38	5.55	5.06	3.98	2.78	1.96	2.85	4.11	5.06	5.42	5.62	5.83	4.32	2.31	1.19	0.54	3.54	4.43	3.65	2.82	2.01	2.88	1.79	2.38	2.04	1.62	1.52	1.93	2.75	3.11	2.34	3.32	2.86	2.79	2.67	2.33	2.08	2.16	2.42	2.67	2.85	2.99	3.08	3.19	3.30	3.35	3.40	3.44	3.49	3.53	3.54	3.54	3.57	3.67	3.75	3.75	3.79	3.79	3.76	3.81	3.85	3.85	3.83	3.83	3.84	3.84	3.85	3.87	3.88	3.87	3.87	
4.00	4.02	4.02	3.98	3.93	3.95	3.98	3.99	3.99	3.99	3.96	3.92	4.11	2.69	2.82	2.87	3.11	1.90	2.45	2.86	1.65	1.41	1.78	1.99	1.98	2.06	2.53	3.09	3.30	3.35	3.39	3.42	3.53	3.83	4.26	4.70	5.15	5.35	5.04	4.61	4.05	3.94	4.15	4.30	4.46	3.92	2.74	2.94	3.29	3.47	2.95	2.87	2.89	2.93	2.60	2.11	1.56	2.23	2.35	2.83	3.35	3.52	3.36	3.16	3.09	3.16	3.23	3.12	2.92	2.82	2.91	3.12	3.32	3.36	3.22	3.21	3.45	3.18	2.78	3.51	4.49	4.42	3.91	3.56	3.64	3.65	3.37	3.27	3.32	3.27	3.05	3.23	2.98	2.62	3.20	3.89	4.01	4.15	4.32	3.94	3.57	3.36	3.26	3.32	4.29	4.62	4.96	5.30	5.64	5.26	4.13	3.01	2.06	2.29	3.82	4.88	5.57	6.03	5.45	2.94	4.65	0.92	1.62	3.81	4.66	3.89	2.92	2.07	1.60	2.24	2.49	2.19	1.82	1.50	1.58	2.10	3.07	2.41	3.49	2.96	2.77	2.66	2.43	2.18	2.16	2.36	2.60	2.79	2.93	3.04	3.16	3.28	3.36	3.43	3.48	3.53	3.58	3.60	3.62	3.67	3.70	3.69	3.70	3.77	3.81	3.79	3.81	3.84	3.87	3.87	3.84	3.83	3.83	3.85	3.87	3.87	3.87	3.87	
4.00	4.02	4.03	4.00	3.95	3.96	4.00	4.02	4.02	4.03	4.03	3.99	4.05	2.71	2.88	2.96	1.42	1.68	2.37	3.28	1.53	1.18	1.70	2.04	2.25	2.45	2.74	3.02	3.11	3.23	3.30	3.29	3.43	3.88	4.29	4.69	5.99	6.09	5.63	4.84	3.97	3.82	3.91	4.12	4.53	4.01	2.67	2.70	3.52	3.49	3.06	2.76	2.72	2.38	1.24	2.21	2.05	2.19	2.57	3.21	3.60	3.48	3.22	3.23	3.14	3.20	3.25	3.18	3.01	2.82	2.73	2.87	3.15	3.30	3.20	3.18	3.40	3.02	2.47	3.31	4.61	4.51	4.01	3.66	3.55	3.53	3.44	3.37	3.35	3.23	3.08	3.05	2.53	2.05	2.95	3.89	4.19	4.55	4.43	3.84	3.69	3.62	3.36	3.66	4.25	4.60	5.00	5.45	5.87	5.43	4.46	3.54	2.70	2.02	3.01	4.49	5.98	6.82	4.52	2.53	4.29	0.57	2.44	3.80	4.47	4.09	2.95	1.91	2.95	2.40	2.01	2.35	2.06	1.74	1.55	1.74	2.47	2.65	3.45	3.10	2.89	2.77	2.58	2.32	2.26	2.39	2.60	2.77	2.91	3.01	3.12	3.25	3.34	3.40	3.43	3.49	3.54	3.54	3.58	3.68	3.73	3.70	3.67	3.72	3.79	3.82	3.83	3.83	3.83	3.85	3.86	3.84	3.83	3.86	3.88	3.88	3.87	3.87	
4.02	4.02	4.03	4.02	3.97	3.97	4.02	4.04	4.05	4.06	4.08	4.07	4.04	4.26	2.81	1.28	1.45	1.72	2.57	3.47	1.25	1.21	1.65	1.85	2.12	2.48	2.83	3.00	2.98	3.10	3.23	3.25	3.33	3.66	4.00	4.41	5.82	6.20	6.13	5.13	4.06	4.03	4.05	4.20	4.76	3.68	2.43	2.62	3.29	3.75	3.25	2.57	1.68	0.64	2.67	2.12	1.97	2.34	3.01	3.75	3.96	3.69	3.38	3.07	2.94	3.07	3.11	3.06	2.92	2.94	2.78	2.82	3.02	3.21	3.20	3.24	3.24	2.38	2.19	3.26	4.55	4.74	4.35	3.92	3.69	3.56	3.52	3.43	3.36	3.26	3.17	3.13	2.44	1.64	2.64	3.73	5.07	4.42	4.19	3.96	3.92	3.78	3.18	3.02	3.63	4.57	5.26	6.03	6.61	6.24	4.80	3.82	3.27	2.57	2.38	3.71	5.47	6.78	3.69	2.26	0.87	0.95	2.99	4.02	4.42	3.87	3.24	2.42	1.75	2.72	2.19	1.71	2.17	1.93	1.77	0.31	0.56	2.10	3.19	3.13	2.94	2.84	2.68	2.42	2.33	2.46	2.63	2.79	2.93	3.00	3.09	3.22	3.32	3.34	3.35	3.41	3.46	3.47	3.51	3.58	3.67	3.70	3.67	3.68	3.74	3.79	3.82	3.83	3.81	3.82	3.84	3.86	3.85	3.85	3.88	3.88	3.86	3.86	
4.04	4.02	4.02	4.03	4.00	3.98	4.03	4.06	4.07	4.10	4.13	4.14	4.10	4.16	2.77	1.26	1.29	1.77	2.68	3.62	1.94	1.07	1.43	1.59	1.85	2.23	2.62	2.78	2.76	2.90	3.05	3.13	3.29	3.37	3.55	5.05	5.49	6.40	6.63	5.49	4.35	4.37	4.18	4.39	5.06	2.98	2.19	3.14	3.61	3.52	2.48	1.11	0.30	2.80	2.65	2.22	2.04	2.41	3.21	4.25	4.56	3.97	3.48	3.18	2.98	3.05	3.15	3.12	2.94	2.61	2.57	2.76	2.95	3.09	3.16	3.25	3.16	2.41	1.83	2.77	4.17	4.85	4.66	4.27	3.66	3.66	3.57	3.47	3.48	3.41	3.45	3.27	2.55	1.46	2.12	3.24	5.40	4.68	4.32	4.23	4.16	3.95	3.32	2.99	3.18	3.77	4.56	5.56	6.40	6.72	5.33	4.11	3.86	3.16	2.47	3.54	5.30	6.32	3.64	2.46	1.30	1.33	3.34	4.03	4.26	3.48	2.75	2.50	1.73	1.12	2.49	1.95	0.55	1.99	0.60	0.43	0.19	0.82	2.87	2.99	2.87	2.75	2.62	2.39	2.31	2.44	2.61	2.75	2.89	2.98	3.04	3.18	3.32	3.34	3.32	3.38	3.43	3.47	3.51	3.53	3.58	3.64	3.66	3.66	3.69	3.75	3.80	3.83	3.83	3.81	3.79	3.82	3.83	3.82	3.87	3.88	3.85	3.85	
4.05	4.03	4.02	4.03	4.02	4.00	4.04	4.08	4.09	4.12	4.16	4.18	4.17	4.14	4.43	1.14	1.39	1.84	2.92	3.72	1.76	1.02	1.12	1.43	1.72	2.10	2.44	2.58	2.58	2.74	2.90	3.10	3.28	3.30	3.29	4.54	5.17	6.60	7.10	6.09	4.91	4.69	4.30	4.40	4.75	3.15	2.37	3.55	4.04	2.76	0.73	1.32	1.05	2.80	2.62	2.35	2.20	2.46	3.24	4.52	4.73	3.19	2.98	3.41	3.13	3.12	3.28	3.19	2.94	2.66	2.62	2.79	2.93	3.00	3.09	3.18	3.04	2.45	1.82	2.55	3.88	5.56	4.65	4.31	3.76	3.37	3.38	3.48	3.53	3.73	3.83	3.11	1.82	1.17	1.73	4.18	5.47	5.02	4.50	4.34	4.18	3.95	3.48	3.17	3.38	3.45	4.05	5.07	6.13	6.58	5.75	4.77	4.32	3.83	2.98	3.47	5.29	5.97	3.76	2.50	1.36	1.75	3.52	4.24	3.89	3.28	2.58	1.87	1.54	0.91	2.78	0.16	1.68	0.94	0.59	0.44	0.35	1.01	2.57	2.76	2.79	2.71	2.56	2.31	2.23	2.39	2.59	2.72	2.84	2.94	3.01	3.14	3.29	3.34	3.34	3.37	3.42	3.49	3.54	3.56	3.57	3.61	3.64	3.65	3.66	3.71	3.77	3.82	3.82	3.82	3.79	3.78	3.79	3.77	3.82	3.86	3.85	3.85	
4.05	4.04	4.02	4.03	4.04	4.02	4.04	4.09	4.11	4.14	4.18	4.21	4.22	4.20	4.31	2.99	1.37	2.00	2.89	3.68	2.89	0.82	0.84	1.38	1.78	2.21	2.53	2.63	2.65	2.82	2.91	3.14	3.44	3.86	3.91	4.14	5.24	6.33	7.10	6.61	5.51	5.14	4.87	4.91	4.60	3.08	2.32	3.22	3.64	2.00	0.82	1.58	1.43	2.97	2.72	2.57	1.82	2.65	3.44	4.71	4.84	3.29	3.00	2.88	2.75	3.10	3.23	2.81	3.05	2.90	2.86	2.96	3.05	3.03	2.98	3.02	2.41	2.90	1.84	2.32	3.21	6.26	5.48	4.65	3.84	3.44	3.44	3.59	3.57	3.67	3.86	3.08	2.96	2.19	2.42	2.31	3.54	5.66	5.02	4.64	4.04	3.82	3.64	3.34	3.46	3.28	3.35	4.71	5.63	6.42	6.16	5.26	4.64	4.29	3.58	3.32	4.53	5.23	3.59	2.01	0.66	2.35	3.68	4.31	3.67	2.55	1.82	1.33	0.85	1.19	0.51	0.34	0.61	0.78	0.69	0.43	0.44	0.83	2.34	2.53	2.67	2.68	2.54	2.27	2.18	2.34	2.56	2.71	2.82	2.91	2.99	3.12	3.26	3.31	3.33	3.36	3.42	3.48	3.54	3.59	3.61	3.64	3.66	3.65	3.63	3.66	3.73	3.78	3.78	3.82	3.84	3.81	3.78	3.76	3.79	3.83	3.84	3.84	
4.05	4.05	4.03	4.03	4.04	4.04	4.05	4.09	4.11	4.15	4.20	4.23	4.27	4.29	4.30	4.70	1.24	1.98	2.89	3.70	4.11	0.91	0.93	1.50	2.02	2.45	2.78	2.92	2.89	3.04	3.03	2.99	4.21	4.18	4.12	4.59	5.00	5.90	6.80	6.82	5.87	5.13	5.08	5.22	4.19	2.50	2.47	3.37	2.28	1.01	1.61	2.18	2.18	3.20	2.90	2.72	2.24	2.67	3.20	4.48	5.36	3.81	3.24	2.91	2.93	3.10	3.13	2.85	2.72	2.84	3.13	3.33	3.31	3.13	2.74	2.40	2.26	1.86	1.68	2.08	2.82	5.75	6.13	5.00	4.01	3.78	3.79	3.77	3.73	3.88	3.82	2.74	2.97	2.23	2.01	3.64	2.94	5.74	5.67	5.21	4.25	4.01	3.89	3.47	3.49	3.30	2.80	3.62	4.72	5.99	6.69	5.86	5.20	4.83	4.02	3.55	4.19	4.53	3.12	1.57	1.23	2.84	3.68	3.95	2.96	1.54	1.04	0.78	0.92	0.84	0.80	0.58	0.54	0.35	1.01	0.60	0.38	0.49	2.26	2.36	2.52	2.60	2.49	2.24	2.14	2.29	2.52	2.68	2.81	2.90	2.99	3.11	3.26	3.36	3.37	3.38	3.42	3.44	3.49	3.55	3.59	3.64	3.72	3.74	3.71	3.68	3.71	3.74	3.73	3.78	3.85	3.84	3.82	3.80	3.80	3.82	3.83	3.83	
4.04	4.05	4.04	4.03	4.04	4.05	4.06	4.09	4.12	4.17	4.22	4.25	4.30	4.37	4.35	4.56	1.38	1.96	2.90	3.73	5.33	1.38	1.47	1.72	2.22	2.64	3.02	3.32	3.46	3.51	3.36	3.13	3.58	3.95	4.14	4.88	5.17	5.61	6.27	7.00	6.39	5.28	5.09	4.87	3.73	2.96	2.48	1.75	1.59	2.34	2.74	2.68	3.48	3.35	3.09	2.85	2.81	2.95	3.27	4.17	5.67	4.38	3.46	3.12	3.09	3.01	2.89	2.77	2.76	2.82	3.01	3.22	3.17	2.88	2.16	1.87	2.40	2.24	1.41	2.45	2.69	5.12	5.81	5.40	4.59	4.28	4.09	3.78	3.83	4.33	3.85	2.56	2.85	2.30	1.77	2.89	3.70	4.84	5.45	5.40	4.57	4.32	4.25	3.69	3.63	3.61	3.04	3.02	4.14	5.37	6.72	6.33	5.57	5.11	4.21	3.88	4.38	4.11	2.25	1.36	1.80	3.29	3.78	3.25	2.07	1.07	0.56	0.96	1.34	1.39	1.13	0.90	0.72	0.44	0.41	1.12	0.82	0.74	2.31	2.30	2.40	2.52	2.44	2.20	2.11	2.25	2.47	2.62	2.77	2.89	2.97	3.06	3.21	3.37	3.42	3.42	3.45	3.46	3.47	3.51	3.56	3.62	3.72	3.80	3.83	3.81	3.77	3.74	3.72	3.76	3.83	3.83	3.84	3.85	3.82	3.80	3.80	3.80	
4.03	4.04	4.04	4.03	4.03	4.05	4.07	4.10	4.13	4.18	4.23	4.27	4.33	4.40	4.44	4.49	5.03	1.79	2.91	3.89	5.85	1.87	2.06	2.14	2.24	2.59	3.08	3.50	3.92	3.98	3.69	3.19	3.27	3.66	4.32	4.54	4.92	5.08	5.53	6.64	7.02	5.68	5.53	4.64	3.09	1.94	0.89	0.96	1.75	2.72	2.31	3.19	3.34	3.36	3.23	2.79	3.13	3.53	3.94	4.52	5.27	5.00	4.12	3.52	3.07	2.86	2.80	2.74	2.82	2.98	3.12	3.08	2.83	2.38	1.79	1.72	2.22	2.29	2.79	1.81	3.97	4.76	6.15	6.03	5.22	4.78	4.37	3.80	3.76	4.30	3.58	2.51	2.76	2.30	1.77	2.91	3.95	4.71	5.34	5.57	4.89	4.50	4.43	3.98	3.86	3.72	3.24	2.88	3.84	4.82	5.94	6.72	5.90	4.91	4.21	4.19	4.46	3.60	1.84	0.91	2.29	3.74	3.62	2.39	1.38	0.48	0.66	0.83	0.63	0.47	0.70	1.01	1.02	0.81	0.93	1.57	1.23	1.13	1.15	2.39	2.41	2.50	2.43	2.21	2.08	2.20	2.43	2.59	2.72	2.86	2.96	2.99	3.08	3.25	3.37	3.43	3.47	3.51	3.53	3.53	3.56	3.60	3.65	3.71	3.78	3.87	3.87	3.79	3.72	3.74	3.80	3.79	3.79	3.84	3.85	3.80	3.78	3.78	
4.03	4.03	4.04	4.03	4.03	4.06	4.08	4.11	4.13	4.17	4.23	4.28	4.34	4.41	4.49	4.53	4.85	1.50	2.80	3.98	6.66	2.51	2.52	2.63	2.84	2.92	3.15	3.57	3.96	4.21	4.06	3.52	3.70	4.16	4.57	4.67	4.97	5.16	5.22	6.01	6.87	5.80	5.59	4.02	0.96	1.00	1.45	1.89	1.83	2.71	2.17	3.08	3.17	3.33	3.36	3.21	3.27	3.80	4.56	4.63	5.31	5.29	4.59	3.72	2.96	2.79	2.78	2.79	2.98	3.18	3.26	2.80	2.12	1.88	1.64	1.66	1.76	1.83	2.73	1.51	3.42	4.16	5.61	6.51	6.02	5.38	4.76	4.17	4.17	4.08	2.88	2.65	2.85	2.34	1.27	2.75	2.43	3.37	5.26	5.58	5.50	5.04	4.72	4.22	4.22	3.99	3.21	2.65	3.20	4.09	5.11	6.61	6.48	4.84	4.29	4.40	4.48	2.87	1.50	1.03	2.89	3.57	2.93	2.07	0.89	0.56	0.40	0.34	0.47	0.51	0.83	1.00	0.89	0.94	1.34	1.59	1.56	1.47	1.57	2.52	2.51	2.53	2.42	2.19	2.05	2.15	2.38	2.55	2.67	2.80	2.94	2.98	3.02	3.14	3.27	3.37	3.43	3.48	3.52	3.52	3.51	3.55	3.59	3.62	3.65	3.76	3.87	3.87	3.76	3.72	3.76	3.76	3.74	3.79	3.84	3.81	3.78	3.78	
4.02	4.02	4.03	4.03	4.03	4.06	4.08	4.11	4.13	4.17	4.22	4.28	4.34	4.41	4.51	4.59	4.78	5.35	6.32	5.74	5.92	3.41	3.19	3.18	3.33	3.39	3.18	3.52	3.93	4.30	4.60	3.99	3.65	4.09	4.73	5.14	5.31	5.48	5.58	6.07	6.38	5.16	5.58	2.96	1.06	1.65	2.44	2.44	2.23	3.20	2.71	3.33	3.25	3.42	0.55	3.61	3.63	3.94	4.68	4.92	5.43	5.56	4.79	3.60	2.99	2.78	2.60	2.85	3.12	3.15	2.97	2.31	1.73	1.57	1.49	1.34	3.08	1.56	2.84	1.43	2.55	4.35	5.16	6.04	6.19	5.83	5.09	4.58	4.61	3.48	2.53	2.83	2.05	2.50	0.91	1.88	2.11	3.19	4.79	4.72	5.20	5.35	5.14	4.44	4.54	4.57	3.65	2.67	2.71	3.67	4.54	5.97	6.14	4.79	4.23	4.49	4.36	2.22	1.32	1.69	3.50	3.80	2.37	1.60	0.96	0.88	0.79	0.57	0.55	1.13	1.43	1.22	1.12	1.42	1.80	1.99	1.86	1.82	1.78	2.58	2.56	2.59	2.47	2.18	1.95	2.02	2.24	2.46	2.59	2.72	2.89	2.98	3.04	3.12	3.22	3.31	3.37	3.42	3.46	3.48	3.50	3.54	3.57	3.60	3.63	3.68	3.79	3.90	3.84	3.74	3.74	3.76	3.74	3.77	3.81	3.80	3.78	3.78	
4.02	4.02	4.03	4.03	4.03	4.05	4.08	4.10	4.13	4.16	4.21	4.27	4.34	4.41	4.50	4.62	4.78	5.18	1.96	5.55	5.80	4.11	3.74	3.53	2.84	3.12	3.27	3.63	3.99	4.80	5.18	4.78	3.92	3.74	4.15	4.72	4.91	4.94	5.40	6.03	4.82	3.13	4.98	1.09	1.52	1.97	2.53	2.68	3.65	3.43	3.18	3.62	3.43	3.48	3.64	3.81	4.03	4.23	4.71	5.35	5.50	5.57	4.98	4.12	3.54	2.86	2.38	3.01	3.44	3.31	2.54	1.62	1.25	1.43	1.35	2.93	2.94	1.74	1.37	1.72	2.29	2.74	3.72	5.19	6.83	6.61	5.69	5.03	4.55	3.36	2.78	3.10	2.36	2.62	2.25	1.63	2.05	3.04	5.04	4.70	4.71	4.84	5.22	4.71	4.44	4.83	4.13	2.68	2.47	3.73	4.43	5.66	5.88	4.78	4.28	4.43	4.17	2.60	1.79	2.14	3.60	3.59	1.55	0.68	0.50	0.87	0.82	0.70	1.00	1.37	1.66	1.67	1.66	1.77	1.81	1.87	1.93	2.01	1.86	2.70	2.63	2.68	2.61	2.30	1.96	1.91	2.11	2.37	2.54	2.65	2.81	2.94	3.02	3.09	3.19	3.29	3.36	3.41	3.45	3.47	3.52	3.58	3.59	3.60	3.64	3.66	3.71	3.87	3.92	3.79	3.75	3.77	3.76	3.77	3.79	3.79	3.78	3.78	
4.01	4.01	4.02	4.02	4.03	4.05	4.07	4.10	4.13	4.16	4.20	4.26	4.33	4.40	4.50	4.63	4.78	5.03	5.72	5.32	5.73	5.04	2.49	4.16	3.55	3.61	3.26	3.31	4.14	4.53	5.24	5.64	4.64	4.07	4.28	4.62	4.90	5.09	5.43	5.30	3.67	2.73	3.29	1.40	1.42	1.77	2.10	2.26	3.46	3.23	3.79	3.65	3.44	3.39	3.46	3.74	4.17	4.46	4.82	5.67	5.89	5.95	5.34	4.51	3.97	3.21	2.49	2.91	3.45	3.17	1.62	1.99	1.50	1.29	1.14	2.87	2.83	1.84	2.03	1.82	2.47	2.16	2.91	3.99	5.42	7.98	7.08	5.90	4.59	3.50	2.89	2.20	2.82	2.25	2.38	0.99	2.59	2.65	3.85	5.61	5.21	4.61	5.15	5.18	4.67	4.67	4.17	3.16	2.41	2.82	4.17	5.74	5.97	5.08	4.87	4.64	3.88	2.66	1.97	2.07	2.87	2.61	1.32	1.03	0.63	0.71	1.00	1.57	1.79	1.84	1.79	1.66	1.71	1.88	1.90	2.01	2.11	2.10	1.94	1.79	2.76	2.80	2.79	2.56	2.23	2.02	2.07	2.30	2.52	2.63	2.74	2.88	2.97	3.03	3.13	3.24	3.34	3.41	3.44	3.45	3.52	3.59	3.61	3.61	3.63	3.65	3.64	3.77	3.93	3.84	3.74	3.77	3.78	3.76	3.76	3.78	3.78	3.78	
4.00	4.01	4.01	4.01	4.02	4.04	4.07	4.09	4.12	4.15	4.19	4.25	4.31	4.39	4.48	4.59	4.74	4.91	5.40	4.71	6.97	5.74	4.59	4.55	4.83	4.54	3.90	3.58	4.16	4.55	4.94	5.64	5.10	4.36	4.54	4.87	5.20	5.70	6.21	4.89	2.87	2.09	2.22	1.63	1.01	1.58	2.09	2.28	3.55	3.18	3.67	3.55	3.41	3.40	3.55	3.92	4.36	4.68	5.03	5.79	6.02	6.30	5.84	4.83	4.31	3.51	2.61	2.97	3.40	2.45	1.26	2.08	1.58	1.30	2.73	2.71	2.67	2.17	2.64	2.32	1.52	3.06	2.41	3.20	4.52	6.99	8.21	7.23	4.86	3.89	2.91	2.26	2.00	2.85	2.69	2.28	2.16	2.32	3.28	4.22	6.07	5.01	5.07	5.72	5.56	5.13	4.37	3.55	2.76	2.40	3.44	4.97	5.43	4.98	5.01	4.53	3.26	1.89	1.21	1.05	1.30	0.88	1.51	1.54	1.02	0.96	1.77	2.21	2.38	2.28	1.95	1.60	1.83	2.24	2.29	2.23	2.24	2.15	1.98	1.90	2.88	2.90	2.93	2.77	2.48	2.23	2.13	2.24	2.48	2.63	2.72	2.84	2.95	3.02	3.09	3.18	3.28	3.37	3.41	3.42	3.47	3.55	3.60	3.61	3.64	3.68	3.65	3.68	3.85	3.85	3.73	3.74	3.80	3.77	3.75	3.77	3.78	3.78	
3.99	4.00	4.01	4.01	4.01	4.03	4.06	4.08	4.11	4.14	4.18	4.22	4.28	4.35	4.44	4.55	4.69	4.85	5.19	5.96	6.70	5.84	4.51	4.51	4.90	5.14	4.96	4.14	4.23	4.56	5.01	5.65	5.41	4.66	4.49	4.64	4.94	5.59	6.32	3.50	1.03	0.63	0.53	0.54	1.63	2.76	2.76	2.91	3.78	3.38	3.79	3.58	3.38	0.71	3.25	3.53	4.38	4.81	5.22	6.36	6.41	6.41	6.14	5.48	4.78	3.64	2.58	3.17	3.31	1.83	1.09	0.90	0.96	1.56	1.33	1.19	1.89	2.62	2.77	2.51	2.44	2.23	2.23	2.91	3.96	6.36	7.04	7.77	6.10	4.78	3.34	2.53	2.18	3.27	2.86	2.42	2.18	3.38	2.78	3.63	5.34	5.52	4.81	4.98	5.84	5.87	4.82	3.86	2.90	2.51	3.32	4.35	4.76	4.68	4.48	3.71	2.45	1.11	0.72	1.27	1.92	2.53	2.18	2.03	2.32	2.78	2.95	3.06	3.12	3.05	3.04	3.11	3.07	3.08	3.04	2.63	2.33	2.20	2.06	2.02	2.98	2.94	2.99	2.90	2.63	2.39	2.23	2.18	2.36	2.59	2.72	2.81	2.92	3.01	3.07	3.14	3.25	3.34	3.40	3.42	3.45	3.51	3.56	3.59	3.62	3.68	3.70	3.71	3.80	3.83	3.75	3.72	3.78	3.80	3.78	3.76	3.76	3.76	
3.99	3.99	4.00	4.00	4.00	4.02	4.05	4.07	4.09	4.12	4.16	4.20	4.25	4.31	4.40	4.50	4.63	4.78	5.02	5.55	6.39	5.87	4.30	4.21	4.71	5.18	5.47	4.83	4.24	4.33	5.03	5.73	5.81	5.24	4.97	5.05	5.30	5.55	5.18	1.73	0.57	0.77	1.88	2.84	3.48	3.45	3.47	4.29	3.95	4.10	3.93	3.72	3.42	2.99	2.54	2.43	2.95	4.14	4.65	6.98	7.09	7.39	6.83	6.23	5.36	4.14	3.19	3.33	2.91	1.63	0.99	1.03	1.17	1.92	1.58	1.45	1.73	2.31	2.62	2.01	2.49	1.85	2.28	2.75	3.58	5.83	6.42	7.84	7.04	5.27	3.75	2.90	2.27	3.41	3.00	2.65	2.19	3.06	4.08	3.09	4.71	5.79	5.38	4.67	5.16	5.72	5.17	4.09	2.72	2.24	3.45	4.57	4.88	4.71	3.71	2.15	1.13	0.57	1.58	2.89	4.02	4.81	5.38	4.61	3.92	3.45	2.98	2.73	2.65	2.78	3.02	3.30	3.11	2.91	2.87	2.67	2.23	2.10	2.11	2.26	3.03	2.97	2.98	2.98	2.82	2.58	2.41	2.24	2.25	2.45	2.66	2.77	2.86	2.98	3.05	3.12	3.20	3.29	3.36	3.42	3.45	3.49	3.54	3.56	3.57	3.63	3.70	3.76	3.82	3.82	3.78	3.75	3.75	3.77	3.79	3.76	3.73	3.73	
3.98	3.98	3.99	3.99	3.99	4.01	4.04	4.06	4.07	4.10	4.13	4.17	4.22	4.27	4.34	4.43	4.55	4.69	4.88	5.25	5.04	6.06	4.59	4.03	4.33	4.97	5.55	5.89	5.24	4.56	4.82	5.47	5.98	5.68	5.30	5.39	5.67	5.02	2.39	0.73	1.01	1.93	3.01	3.24	3.56	3.77	4.29	4.15	4.21	4.15	3.89	3.70	0.80	3.20	2.58	1.94	1.90	2.59	3.60	4.23	6.64	7.06	8.18	7.62	6.11	4.55	3.59	3.33	2.47	1.77	1.49	1.58	1.42	1.00	1.85	1.41	1.76	2.23	2.85	2.31	2.61	2.00	2.52	2.91	3.46	5.20	6.58	6.86	7.62	5.98	4.20	2.83	2.43	3.42	3.15	0.64	2.24	3.04	3.43	4.02	3.15	4.59	6.31	5.65	5.17	5.53	5.25	3.02	1.39	1.53	2.77	4.54	5.12	4.34	1.85	0.21	0.49	1.30	1.74	2.48	3.68	4.29	4.21	4.88	5.51	4.03	3.13	2.27	1.77	1.79	1.86	1.95	1.93	1.60	1.37	1.61	1.91	1.78	2.03	2.24	2.99	2.97	2.98	2.94	2.88	2.74	2.62	2.46	2.30	2.33	2.52	2.68	2.79	2.91	3.00	3.09	3.18	3.25	3.32	3.39	3.43	3.47	3.52	3.54	3.56	3.59	3.64	3.73	3.81	3.79	3.76	3.78	3.77	3.76	3.77	3.76	3.73	3.73	
3.97	3.98	3.98	3.98	3.98	3.99	4.03	4.05	4.05	4.08	4.11	4.14	4.18	4.23	4.29	4.37	4.47	4.60	4.75	4.97	5.61	6.14	2.81	4.47	4.12	4.47	5.13	6.41	6.30	5.37	4.89	5.33	5.94	6.18	5.82	5.41	5.16	3.14	1.15	0.70	1.43	1.74	2.61	2.66	3.63	3.84	4.06	4.04	4.04	4.08	3.73	3.41	3.41	3.39	3.03	2.18	1.60	1.76	2.69	3.34	4.10	6.42	8.22	8.63	7.43	5.10	3.95	3.14	2.26	1.74	1.71	1.64	1.21	0.93	0.99	1.40	1.67	2.04	2.55	2.75	2.48	2.88	2.85	4.09	4.72	4.99	6.51	6.94	7.34	6.95	4.80	3.09	2.84	3.43	3.06	2.95	2.71	3.43	4.05	3.67	4.12	3.71	5.77	6.42	5.91	5.39	4.45	0.65	0.51	1.26	2.12	4.20	5.12	3.32	0.79	0.48	1.57	2.42	2.20	2.14	2.51	3.33	4.56	3.63	4.45	5.98	3.93	2.94	2.37	1.93	1.40	1.19	1.30	1.35	1.54	1.61	1.52	1.71	1.90	2.04	1.81	2.94	2.99	2.93	2.85	2.82	2.77	2.66	2.48	2.36	2.41	2.53	2.65	2.80	2.93	3.06	3.16	3.23	3.29	3.35	3.40	3.47	3.52	3.52	3.53	3.56	3.60	3.68	3.76	3.75	3.71	3.73	3.78	3.77	3.75	3.74	3.73	3.73	
3.96	3.96	3.97	3.97	3.96	3.98	4.02	4.03	4.03	4.05	4.09	4.11	4.14	4.18	4.23	4.30	4.38	4.48	4.61	4.77	5.15	5.78	5.94	5.27	4.53	4.38	4.69	5.84	6.40	6.07	5.16	5.26	5.77	6.40	6.87	6.23	3.90	1.49	0.76	1.37	2.17	2.26	2.84	2.53	3.41	3.53	3.78	3.87	3.85	3.95	3.69	3.31	3.29	3.48	3.23	2.71	1.80	1.60	1.75	2.47	3.26	4.07	5.98	8.44	8.51	6.50	5.32	3.86	2.53	1.78	1.65	1.23	1.18	1.11	1.45	1.75	1.92	1.83	2.91	2.68	2.17	2.11	2.57	3.19	3.65	4.85	5.36	7.12	7.67	7.99	5.26	3.46	3.35	3.46	3.00	2.71	2.75	3.11	3.77	4.80	4.19	4.65	4.85	5.56	6.43	6.14	3.51	4.97	1.03	1.96	2.39	3.80	4.66	1.96	0.49	1.25	2.31	3.15	3.35	3.14	2.99	2.92	3.34	4.33	3.18	4.32	6.41	4.66	3.38	2.73	2.31	2.23	2.29	2.32	2.46	2.11	1.58	1.94	1.70	1.62	1.61	3.02	3.05	3.01	2.91	2.89	2.91	2.86	2.71	2.59	2.55	2.49	2.50	2.65	2.83	2.98	3.10	3.19	3.25	3.30	3.36	3.45	3.52	3.51	3.51	3.52	3.56	3.68	3.75	3.70	3.67	3.67	3.72	3.75	3.73	3.72	3.72	3.72	
3.95	3.95	3.95	3.96	3.95	3.97	4.00	4.01	4.01	4.02	4.06	4.07	4.10	4.13	4.17	4.22	4.28	4.37	4.47	4.61	4.81	5.26	5.80	5.72	5.02	4.60	4.56	5.45	5.83	6.60	5.90	5.44	5.67	6.36	7.40	6.69	1.55	1.45	1.44	2.01	2.37	3.27	2.88	3.47	3.32	3.36	3.53	3.71	3.76	3.82	1.72	3.49	3.44	3.71	3.80	3.33	2.47	1.74	1.62	1.94	2.57	3.27	4.12	5.73	8.94	8.31	6.05	4.27	2.81	1.90	1.66	1.34	1.23	1.45	1.65	1.92	1.96	1.16	3.18	2.80	2.27	1.93	2.20	2.83	3.45	4.74	5.20	6.60	7.28	8.42	5.80	3.97	4.04	3.55	3.03	2.63	2.49	2.84	3.45	4.03	4.87	4.40	4.65	5.54	6.14	7.02	4.70	4.45	0.81	3.02	3.35	3.41	2.95	0.78	0.89	2.01	2.61	2.88	2.95	2.95	3.17	3.29	3.06	3.16	3.54	3.14	4.01	4.86	6.49	5.02	4.31	4.15	3.75	3.13	2.70	2.26	1.87	2.44	1.91	1.65	1.72	3.10	3.09	3.05	2.98	2.95	3.01	3.03	2.94	2.89	2.91	2.75	2.50	2.53	2.73	2.92	3.05	3.15	3.22	3.26	3.31	3.40	3.48	3.51	3.53	3.52	3.53	3.66	3.77	3.71	3.65	3.66	3.67	3.70	3.72	3.73	3.73	3.73	
3.94	3.94	3.94	3.95	3.94	3.95	3.98	3.99	3.98	4.00	4.02	4.04	4.05	4.08	4.11	4.15	4.19	4.25	4.32	4.42	4.52	4.81	5.47	5.88	5.37	4.73	4.42	5.08	5.35	6.59	6.59	6.35	6.38	6.68	7.25	5.02	1.85	1.85	1.88	2.00	1.74	3.00	2.57	3.38	3.24	3.26	3.35	3.53	3.70	3.81	3.76	3.57	3.53	3.81	4.10	3.30	3.16	2.41	2.70	1.82	2.11	2.65	3.37	4.84	7.89	9.51	7.95	4.41	3.21	1.96	1.62	1.63	1.89	2.12	1.86	1.56	1.51	3.54	3.41	3.22	1.67	2.19	2.01	2.08	2.61	3.34	4.11	5.26	7.53	8.50	7.32	4.68	4.96	3.71	3.08	2.60	2.84	2.62	3.24	3.93	4.95	5.06	4.67	4.78	5.86	4.95	4.64	4.10	2.28	4.04	3.69	2.58	0.41	0.99	1.75	2.21	2.53	2.46	1.97	1.80	2.10	2.25	2.00	1.79	2.13	3.35	2.98	3.53	4.28	5.00	5.38	4.93	4.75	3.91	3.04	2.76	2.67	2.45	2.21	1.91	1.89	1.95	3.03	3.01	2.98	2.95	3.03	3.13	3.08	3.08	3.22	3.13	2.73	2.53	2.66	2.89	3.03	3.14	3.22	3.24	3.28	3.36	3.44	3.48	3.53	3.55	3.52	3.59	3.75	3.79	3.74	3.72	3.69	3.66	3.69	3.72	3.73	3.73	
3.93	3.93	3.93	3.94	3.93	3.94	3.96	3.97	3.96	3.97	3.99	4.00	4.01	4.03	4.04	4.07	4.10	4.14	4.18	4.24	4.29	4.49	5.10	5.87	5.73	5.03	4.99	4.84	4.84	6.17	6.66	7.10	7.51	7.63	7.60	3.50	2.30	1.62	1.60	1.56	1.56	1.77	2.71	3.51	3.30	3.26	3.38	3.58	3.79	4.05	4.10	3.83	3.71	3.86	4.11	3.54	3.48	2.73	2.16	3.37	1.83	2.12	2.70	4.09	4.70	7.68	9.65	4.94	3.87	2.30	1.74	1.84	2.33	1.99	1.05	0.93	3.71	3.63	3.52	1.52	2.34	1.61	2.63	1.75	1.73	2.27	3.10	4.05	5.05	8.05	9.84	5.20	5.92	4.14	3.31	1.20	2.45	2.27	2.64	3.51	5.02	5.48	5.65	5.32	5.23	2.64	4.65	0.85	2.74	3.36	3.08	1.34	2.61	2.91	3.27	3.33	3.15	3.02	2.84	2.60	3.66	4.85	4.70	4.27	3.78	3.34	1.31	2.62	3.55	4.34	3.86	3.52	3.53	3.36	2.97	2.76	2.72	2.91	2.28	1.64	1.48	1.77	2.91	2.89	2.90	2.87	2.92	3.08	3.07	3.06	3.28	3.36	3.03	2.69	2.66	2.83	2.98	3.10	3.20	3.24	3.26	3.32	3.40	3.43	3.49	3.57	3.56	3.55	3.64	3.72	3.78	3.82	3.76	3.67	3.66	3.69	3.70	3.70	
3.92	3.91	3.92	3.93	3.92	3.92	3.94	3.95	3.94	3.94	3.95	3.96	3.97	3.98	3.98	3.99	4.01	4.03	4.05	4.07	4.08	4.24	4.72	5.70	5.76	5.85	5.25	4.83	5.81	6.16	6.54	6.99	7.64	8.12	7.51	2.84	2.63	1.61	1.13	1.56	2.11	3.47	3.06	3.75	3.49	3.37	3.49	0.54	4.01	4.27	4.43	4.30	4.06	3.96	4.25	3.78	3.73	2.96	2.35	3.00	3.11	3.32	2.16	2.90	4.02	6.97	9.06	7.80	3.97	2.89	1.96	1.63	1.29	1.67	3.82	4.16	3.80	3.53	3.31	2.54	3.60	2.51	2.87	2.39	3.79	1.83	2.41	3.36	4.57	5.19	8.53	5.22	6.21	4.61	3.85	1.35	1.96	2.54	2.28	2.78	3.69	4.71	5.68	6.18	4.55	1.52	5.02	1.18	2.49	3.04	3.44	4.17	4.33	4.48	4.53	4.51	4.29	4.31	4.56	4.26	3.65	4.01	2.30	5.13	4.36	4.21	0.42	3.53	0.34	0.11	0.23	0.75	1.11	1.62	1.97	1.81	1.97	2.30	2.65	2.25	1.82	1.61	2.97	2.83	2.80	2.77	2.80	2.98	3.03	2.99	3.17	3.34	3.19	2.90	2.76	2.81	2.92	3.02	3.14	3.22	3.26	3.30	3.35	3.38	3.42	3.51	3.60	3.64	3.64	3.61	3.63	3.74	3.77	3.71	3.70	3.70	3.69	3.69	
3.90	3.90	3.91	3.91	3.91	3.90	3.91	3.93	3.92	3.92	3.92	3.92	3.92	3.92	3.92	3.92	3.92	3.93	3.92	3.92	3.90	3.97	4.38	5.67	5.82	6.16	5.61	4.78	5.73	6.01	6.49	7.10	7.85	8.58	6.71	2.58	2.94	2.21	1.77	2.49	2.44	3.39	3.07	3.90	3.67	3.45	3.44	3.69	4.06	4.37	4.56	4.55	4.03	4.18	4.53	4.29	3.44	3.21	2.65	2.40	3.00	3.57	4.18	2.50	3.45	4.33	6.64	9.56	3.08	2.99	1.86	2.23	4.81	4.26	4.40	4.16	3.87	3.54	3.14	2.72	3.34	3.78	2.48	2.67	2.10	4.04	2.10	2.90	4.18	7.08	8.24	5.13	5.98	4.74	1.76	2.24	2.46	1.65	2.89	2.49	3.14	4.05	5.26	6.25	3.05	2.11	1.85	1.15	3.19	5.97	5.05	5.02	5.18	5.34	5.17	5.09	5.15	5.38	5.75	5.57	5.18	4.48	3.46	2.77	2.55	2.33	1.68	1.06	0.91	0.99	0.99	1.51	2.03	2.36	2.24	2.19	2.59	2.96	3.02	2.91	2.59	2.09	1.72	3.08	2.89	2.80	2.82	2.97	3.11	3.10	3.12	3.23	3.18	3.01	2.89	2.89	2.93	2.97	3.08	3.19	3.27	3.35	3.39	3.35	3.33	3.39	3.51	3.66	3.76	3.72	3.59	3.60	3.67	3.68	3.70	3.70	3.68	3.68	
3.88	3.89	3.90	3.90	3.90	3.89	3.89	3.91	3.90	3.89	3.89	3.88	3.88	3.86	3.85	3.85	3.83	3.82	3.80	3.78	3.76	3.74	4.03	5.62	7.02	6.15	5.58	5.78	5.44	5.80	6.40	6.95	7.44	8.92	1.96	3.59	3.41	2.98	2.68	3.03	2.51	3.50	3.16	4.04	3.88	3.61	3.36	3.44	3.86	4.35	4.70	4.81	4.40	4.36	4.88	4.79	4.05	3.39	2.83	2.72	2.84	3.27	3.84	4.74	3.03	3.99	7.78	8.97	4.81	5.56	5.07	4.95	4.73	4.51	4.36	4.18	2.49	2.29	1.80	2.06	3.24	3.82	3.28	3.13	2.30	1.81	1.89	2.57	3.70	4.75	7.98	4.25	5.79	1.68	3.26	3.13	2.82	3.00	2.23	2.17	2.96	3.58	5.29	3.79	7.56	6.69	6.14	6.51	6.43	6.27	6.24	5.85	5.64	5.64	5.49	5.58	5.51	5.58	6.16	6.37	6.04	5.48	5.06	4.18	3.74	3.46	2.80	2.14	1.85	1.60	2.36	3.13	3.54	3.72	3.76	3.49	3.23	3.04	2.66	2.78	2.72	2.30	3.53	3.40	3.16	2.96	2.93	2.98	3.14	3.22	3.16	3.16	3.11	2.99	2.94	2.98	3.03	3.01	3.06	3.15	3.23	3.37	3.51	3.45	3.29	3.30	3.38	3.50	3.71	3.84	3.74	3.61	3.60	3.62	3.64	3.66	3.66	3.66	
3.87	3.88	3.89	3.89	3.89	3.87	3.87	3.89	3.88	3.85	3.85	3.84	3.83	3.80	3.78	3.76	3.74	3.71	3.68	3.64	3.61	3.59	3.74	5.05	6.96	6.41	6.57	5.92	5.61	5.51	5.71	6.11	6.82	8.83	4.75	4.47	3.94	3.70	3.39	3.44	2.80	3.73	3.43	4.12	4.00	3.83	3.47	3.30	3.55	4.03	4.56	4.94	4.94	4.94	5.12	5.25	3.53	3.62	2.87	2.78	3.27	4.05	4.40	4.50	5.20	6.08	7.42	6.32	4.17	5.02	4.78	4.86	4.64	4.09	3.70	3.28	2.77	2.56	2.29	2.10	3.49	3.89	3.95	3.59	2.66	2.04	2.08	2.54	3.59	4.57	7.38	5.68	4.43	2.95	3.84	3.79	2.74	1.41	1.46	2.09	2.87	3.28	3.45	6.00	6.27	6.80	6.02	5.80	5.98	6.35	6.77	6.79	6.64	6.38	5.82	5.58	5.30	5.39	5.74	6.21	6.11	5.85	5.96	5.51	4.95	4.94	5.07	4.56	4.35	4.31	3.95	3.75	3.94	4.14	4.33	3.97	3.37	2.75	2.20	1.93	2.01	2.36	2.53	2.47	3.32	3.13	3.04	2.99	3.10	3.24	3.17	3.16	3.09	2.94	2.88	2.93	3.02	3.05	3.07	3.10	3.14	3.25	3.52	3.62	3.40	3.31	3.34	3.37	3.52	3.74	3.82	3.69	3.60	3.62	3.62	3.63	3.64	3.64	
3.87	3.87	3.88	3.88	3.87	3.86	3.85	3.86	3.85	3.82	3.81	3.80	3.78	3.75	3.72	3.69	3.65	3.61	3.56	3.51	3.46	3.48	3.73	4.91	6.46	7.40	7.30	6.34	5.77	5.59	5.58	6.00	7.08	9.61	4.91	4.92	4.75	5.19	4.67	3.91	4.75	3.86	4.14	4.06	3.91	3.82	0.89	3.15	3.18	3.59	4.13	4.63	5.15	5.81	5.73	5.85	3.91	3.88	2.93	2.79	3.53	4.27	4.16	3.72	4.33	5.40	7.04	3.56	4.22	3.03	4.63	2.01	1.43	1.68	4.27	3.67	1.28	1.27	2.52	2.56	3.55	3.91	4.16	3.90	3.14	2.50	2.02	2.64	3.60	4.48	7.55	6.78	3.80	3.72	4.50	4.35	2.68	3.65	1.87	3.22	3.21	3.15	5.96	6.11	6.56	6.95	6.61	5.86	5.80	6.07	6.43	6.66	6.87	6.96	6.61	6.19	5.81	5.46	5.45	5.50	5.59	5.39	5.62	5.40	4.77	4.52	4.90	4.80	4.41	4.70	4.28	3.55	3.35	3.40	3.35	3.06	2.19	1.46	1.90	1.74	1.70	2.14	2.33	2.48	3.30	3.24	3.14	3.05	3.14	3.26	3.19	3.20	3.19	3.03	2.92	2.91	2.91	2.95	3.04	3.07	3.06	3.09	3.32	3.56	3.49	3.38	3.38	3.37	3.41	3.56	3.75	3.76	3.64	3.62	3.61	3.60	3.62	3.62	
3.87	3.87	3.87	3.86	3.86	3.85	3.83	3.84	3.83	3.80	3.78	3.76	3.73	3.70	3.66	3.62	3.57	3.52	3.46	3.39	3.35	3.33	3.67	4.62	6.13	7.22	7.36	6.98	6.03	5.61	5.82	6.75	8.64	5.05	5.50	5.52	5.18	5.09	5.01	5.54	5.02	4.15	4.21	4.05	3.82	1.05	3.48	3.09	2.94	3.20	3.67	4.14	4.77	6.17	6.02	6.17	4.44	4.11	3.00	2.34	3.66	4.36	4.08	3.44	3.76	4.53	5.74	3.48	2.75	3.13	2.38	1.80	1.79	5.08	4.75	4.28	1.69	1.76	3.00	2.25	3.56	4.04	5.04	4.08	3.46	2.88	2.78	2.68	3.47	4.27	5.79	7.79	5.21	4.63	4.07	4.19	2.77	4.46	3.86	5.91	3.47	3.54	3.84	4.27	4.67	5.16	6.87	6.33	5.84	5.39	5.90	6.33	6.71	6.79	6.77	6.58	6.28	5.98	5.64	5.26	5.11	4.94	4.96	4.25	2.92	1.91	1.98	2.59	2.71	2.77	2.62	1.96	1.09	0.65	0.35	0.29	0.44	0.58	0.66	1.88	1.70	1.85	2.18	2.60	3.17	3.20	3.23	3.18	3.25	3.33	3.24	3.22	3.29	3.21	3.12	3.07	2.95	2.90	3.00	3.04	3.02	3.03	3.17	3.37	3.42	3.41	3.42	3.42	3.41	3.44	3.60	3.74	3.72	3.64	3.58	3.57	3.59	3.59	
3.86	3.86	3.86	3.85	3.85	3.84	3.82	3.82	3.81	3.78	3.75	3.72	3.69	3.65	3.60	3.54	3.48	3.42	3.35	3.28	3.25	3.25	3.46	3.78	5.67	7.20	7.18	7.74	7.31	6.70	6.52	7.44	4.56	4.90	5.14	5.08	5.18	5.23	5.47	5.47	5.13	4.64	4.32	4.13	1.65	3.67	1.14	1.20	2.88	2.89	3.19	3.56	4.15	5.97	6.09	6.74	4.99	4.39	3.17	2.06	3.27	4.43	4.32	3.64	3.84	4.52	5.83	3.18	3.85	2.69	2.47	4.37	4.64	4.89	4.85	1.69	3.04	2.37	1.60	2.03	3.69	4.25	4.40	4.29	3.76	3.37	3.10	2.97	3.36	3.91	5.08	7.03	7.02	5.83	3.81	4.69	5.18	5.31	5.23	3.38	3.40	3.68	4.07	4.63	4.96	5.33	5.78	5.92	5.64	5.40	5.67	6.08	6.29	6.38	6.67	6.74	6.38	6.34	6.01	5.79	5.11	4.52	3.98	3.33	2.54	2.27	2.04	1.82	1.74	1.49	1.19	1.03	1.17	1.09	0.76	0.71	0.85	0.86	1.13	1.48	2.12	2.23	2.59	2.76	3.02	3.04	3.18	3.25	3.36	3.41	3.26	3.17	3.23	3.22	3.20	3.20	3.08	3.00	3.04	3.07	3.04	3.06	3.16	3.26	3.32	3.35	3.40	3.43	3.43	3.41	3.46	3.62	3.74	3.72	3.60	3.54	3.54	3.54	
3.86	3.85	3.85	3.84	3.84	3.83	3.80	3.79	3.78	3.75	3.72	3.68	3.64	3.60	3.54	3.47	3.40	3.32	3.24	3.17	3.13	3.23	3.54	3.68	6.29	7.32	7.08	7.58	7.98	8.73	6.16	5.03	4.34	4.42	4.75	4.94	4.97	5.01	5.18	5.29	5.10	4.67	4.35	4.17	4.06	3.82	3.31	2.90	2.74	2.82	3.04	3.36	3.50	3.88	5.59	7.49	3.78	5.10	2.77	2.38	3.18	4.10	4.12	3.69	6.49	8.79	9.03	10.49	4.73	4.11	2.90	2.63	1.97	1.50	2.07	5.05	5.04	2.46	4.19	1.75	3.68	4.18	3.76	4.29	3.92	3.76	3.11	3.77	3.50	3.79	4.55	4.51	6.43	6.87	4.77	4.76	4.92	3.80	3.69	3.62	3.59	2.87	2.88	3.08	3.45	3.80	5.93	6.21	6.04	5.22	4.93	4.01	4.30	4.61	5.06	5.49	5.77	6.04	6.16	6.81	6.62	6.14	5.87	5.55	5.02	4.24	3.67	3.22	2.89	2.36	1.90	1.57	1.55	1.45	1.25	1.28	1.10	1.23	1.79	2.19	2.43	2.46	2.58	3.07	2.99	2.98	3.09	3.24	3.41	3.46	3.27	3.09	3.05	3.04	3.09	3.14	3.07	3.02	3.05	3.09	3.07	3.07	3.15	3.22	3.26	3.29	3.35	3.43	3.44	3.41	3.41	3.49	3.64	3.73	3.66	3.54	3.50	3.50	
3.84	3.84	3.84	3.83	3.82	3.81	3.79	3.77	3.77	3.74	3.69	3.65	3.61	3.56	3.49	3.41	3.33	3.23	3.13	3.04	3.01	3.13	3.72	3.92	6.65	6.92	6.43	6.73	7.20	9.27	4.05	5.31	4.05	4.05	4.33	4.60	4.74	4.77	4.87	5.02	4.98	4.66	4.34	4.18	4.09	3.16	3.44	2.96	2.83	3.00	3.31	3.44	3.41	4.31	4.63	7.13	3.76	5.57	4.48	2.68	3.90	4.72	4.56	6.64	7.50	7.57	7.96	9.03	10.81	7.72	4.27	3.64	2.90	2.52	6.20	6.33	5.28	3.91	2.75	2.24	4.02	4.27	3.17	4.08	3.67	3.50	3.49	3.48	3.68	3.94	4.43	6.14	6.35	4.47	4.24	4.04	3.71	3.60	3.45	3.54	3.48	2.87	2.64	2.70	3.16	3.67	3.95	4.30	4.65	4.63	4.91	3.85	4.00	4.26	4.71	5.23	5.70	6.05	6.33	6.56	6.55	6.62	6.85	6.66	6.12	5.52	4.94	4.63	4.03	2.96	2.53	2.36	2.09	2.00	1.75	1.32	1.15	1.76	2.25	2.52	2.50	2.52	2.53	3.05	3.01	3.00	3.05	3.18	3.39	3.52	3.41	3.23	3.04	2.90	2.94	3.01	2.96	2.89	2.94	3.03	3.05	3.07	3.13	3.19	3.22	3.24	3.29	3.38	3.42	3.40	3.38	3.41	3.51	3.65	3.68	3.58	3.50	3.50	
3.83	3.83	3.84	3.83	3.81	3.80	3.78	3.76	3.75	3.72	3.67	3.62	3.57	3.51	3.44	3.34	3.25	3.13	3.03	2.91	2.87	2.95	3.62	3.86	7.11	6.90	6.01	6.01	6.82	9.05	2.79	2.79	3.54	3.11	4.15	4.42	4.63	4.65	4.68	4.75	4.74	4.58	4.43	4.36	4.22	3.44	3.58	1.42	3.15	3.10	3.35	3.62	4.02	3.93	5.12	6.96	7.37	5.60	5.21	4.91	4.87	8.28	6.78	5.87	6.36	7.26	7.53	8.00	9.14	10.63	9.17	7.22	7.02	1.83	7.08	7.30	3.73	5.92	4.02	3.45	4.81	4.82	3.83	4.22	3.62	3.31	3.36	3.57	3.89	4.31	4.55	6.04	7.77	4.02	3.77	3.53	3.16	3.24	3.38	3.29	3.19	2.91	2.43	2.44	2.83	3.27	3.50	3.79	4.61	4.70	4.52	4.16	3.93	4.05	3.57	3.82	4.20	4.42	4.57	6.31	6.15	6.11	6.55	7.09	7.12	6.83	6.38	6.12	5.30	4.31	3.91	3.54	3.18	2.90	2.35	2.07	2.03	2.00	2.05	2.24	2.31	2.89	2.56	3.02	2.98	2.95	2.97	3.08	3.28	3.49	3.59	3.53	3.27	3.00	2.91	2.98	2.96	2.83	2.82	2.92	2.99	3.04	3.11	3.19	3.19	3.18	3.22	3.29	3.36	3.37	3.35	3.38	3.43	3.53	3.65	3.61	3.53	3.53	
3.82	3.83	3.83	3.82	3.80	3.79	3.77	3.75	3.73	3.70	3.65	3.59	3.54	3.47	3.38	3.28	3.18	3.04	2.91	2.78	2.69	2.74	3.05	3.21	7.53	8.45	6.20	5.73	6.84	8.78	3.57	3.30	1.66	3.51	4.26	4.47	4.64	4.70	4.69	4.66	4.54	3.93	4.58	4.68	2.68	3.94	3.52	2.61	3.31	3.22	3.26	3.42	4.08	5.21	6.07	4.16	6.74	6.90	7.37	7.48	7.29	7.27	7.08	5.88	6.15	7.03	7.34	7.66	8.23	9.06	9.81	8.67	7.28	10.47	10.54	10.56	11.35	12.06	3.90	6.62	6.65	5.44	5.80	5.39	4.54	2.74	3.74	4.27	4.60	4.82	5.60	6.71	3.79	3.30	3.32	3.41	2.90	2.79	2.98	3.30	2.92	2.84	2.61	2.44	2.64	2.99	3.21	3.48	3.98	4.33	4.35	4.24	4.07	3.76	3.48	3.52	3.87	4.16	4.36	4.55	4.59	4.41	4.40	4.80	5.26	5.58	5.78	6.82	6.93	6.46	5.83	4.98	4.43	3.87	3.44	3.28	2.84	2.25	2.03	2.07	2.16	2.75	2.89	2.95	2.96	2.94	2.97	3.06	3.16	3.34	3.60	3.67	3.42	3.14	2.99	3.01	3.07	3.00	2.88	2.82	2.88	2.96	3.04	3.14	3.17	3.16	3.17	3.22	3.28	3.34	3.35	3.37	3.39	3.40	3.54	3.60	3.54	3.54	
3.82	3.82	3.83	3.82	3.80	3.78	3.76	3.74	3.71	3.68	3.62	3.56	3.50	3.42	3.33	3.23	3.11	2.96	2.80	2.64	2.50	2.48	2.40	2.33	5.31	9.05	8.05	8.20	9.35	11.51	6.18	4.14	4.98	4.47	4.27	4.46	4.61	4.69	4.72	4.72	1.38	4.52	4.68	4.78	4.50	3.97	3.57	3.06	3.46	3.51	3.35	3.22	4.07	3.51	3.65	6.60	6.30	6.14	6.50	6.67	6.85	7.06	7.10	4.76	5.28	6.59	6.80	6.80	7.02	8.54	9.06	7.81	6.97	9.05	9.07	8.99	9.44	10.22	10.88	7.98	7.47	10.57	7.33	6.93	6.12	2.93	5.42	5.29	5.34	5.40	5.25	6.67	3.81	3.45	3.50	3.65	3.08	2.79	2.62	2.24	2.38	2.60	2.55	2.53	2.66	2.69	2.87	3.20	3.63	4.09	4.28	4.20	4.04	3.86	3.57	3.38	3.45	3.77	4.16	4.31	4.33	4.12	3.97	3.78	4.70	5.02	5.34	5.66	6.05	6.27	6.22	6.03	6.02	5.20	4.44	3.98	3.37	2.91	2.65	2.33	2.32	2.81	2.83	2.87	2.94	3.00	3.05	3.11	3.10	3.20	3.55	3.75	3.51	3.18	3.04	3.01	3.10	3.22	3.16	2.93	2.80	2.83	2.93	3.03	3.11	3.15	3.15	3.17	3.21	3.28	3.34	3.39	3.38	3.31	3.39	3.50	3.51	3.51	
3.82	3.82	3.82	3.81	3.79	3.77	3.76	3.72	3.69	3.66	3.61	3.54	3.47	3.40	3.30	3.19	3.05	2.90	2.71	2.52	2.34	2.23	2.11	2.22	3.71	7.83	10.40	9.97	9.73	10.49	9.88	5.73	3.34	4.79	4.18	4.22	4.42	4.66	4.73	1.34	4.69	4.59	4.76	3.10	4.52	4.05	3.73	3.43	3.58	3.54	3.28	3.52	2.89	3.09	3.45	6.21	5.83	5.94	6.20	5.61	5.97	6.39	7.10	4.29	3.42	5.88	3.64	6.43	7.27	7.65	8.48	6.90	7.13	8.56	8.68	8.83	8.85	9.08	9.21	9.32	9.58	10.39	10.69	6.89	6.16	9.88	8.53	8.88	9.19	5.09	7.82	9.96	5.28	3.54	3.30	3.91	3.97	2.92	3.36	2.61	3.07	2.79	2.69	2.76	2.21	2.54	2.63	2.95	3.24	3.71	4.13	4.17	3.91	3.74	3.68	3.59	3.40	3.48	3.83	4.04	4.08	3.86	3.47	3.37	3.62	3.85	3.98	4.12	4.39	4.79	6.11	6.18	6.32	6.31	5.92	5.00	4.22	3.56	4.08	2.51	2.69	2.18	1.98	2.86	2.88	2.99	3.10	3.17	3.11	3.19	3.58	3.91	3.73	3.26	3.00	2.91	2.95	3.19	3.36	3.20	2.92	2.79	2.82	2.90	3.00	3.09	3.13	3.13	3.12	3.14	3.23	3.33	3.38	3.34	3.33	3.40	3.43	3.43	
3.83	3.82	3.81	3.81	3.79	3.77	3.75	3.71	3.68	3.65	3.60	3.54	3.46	3.38	3.28	3.16	3.01	2.85	2.64	2.43	2.21	2.05	1.92	2.27	2.28	7.11	9.82	9.39	9.40	9.95	11.35	8.58	5.08	3.17	3.20	2.27	4.14	2.07	1.32	4.54	4.49	4.51	4.75	4.91	4.50	4.07	1.71	3.80	3.77	3.76	3.60	3.01	3.55	2.80	3.20	4.70	5.55	5.46	5.56	5.96	6.24	6.81	7.14	4.54	3.64	2.82	4.21	3.99	6.68	7.46	7.99	6.66	6.55	7.86	8.10	8.28	8.47	8.52	8.68	8.78	8.99	9.34	9.59	8.67	8.93	9.34	4.39	5.68	5.26	8.13	8.40	9.89	7.29	4.03	3.47	2.92	3.30	3.17	2.65	4.22	3.69	3.39	3.18	3.15	3.07	2.70	2.14	2.80	3.07	3.36	3.80	4.07	3.76	3.51	3.55	3.78	3.65	3.31	3.51	3.84	3.93	3.72	3.42	3.30	3.30	3.33	3.28	3.33	3.70	4.10	4.38	4.56	4.71	5.12	5.55	5.79	5.48	4.08	4.47	4.00	3.36	3.39	2.07	2.98	2.86	2.87	3.02	3.16	3.11	3.14	3.48	3.88	3.87	3.42	2.98	2.77	2.75	3.00	3.33	3.40	3.23	3.01	2.86	2.85	2.91	2.99	3.07	3.12	3.06	3.03	3.10	3.20	3.31	3.38	3.38	3.35	3.35	3.35	
3.83	3.82	3.81	3.80	3.79	3.76	3.74	3.71	3.67	3.64	3.59	3.53	3.45	3.36	3.26	3.14	2.98	2.80	2.59	2.36	2.10	1.90	1.80	2.10	2.10	6.65	9.48	9.15	9.30	9.69	10.47	11.99	8.30	4.72	2.88	1.60	4.57	4.29	4.27	4.28	4.36	4.53	3.86	4.79	4.28	3.81	3.71	3.87	4.06	4.13	3.53	3.57	2.38	2.68	2.85	4.61	4.91	5.15	5.31	3.39	3.65	4.00	7.07	4.47	3.69	2.79	4.55	4.33	3.10	7.23	7.93	4.75	4.38	7.44	7.55	7.70	7.89	7.86	8.12	8.56	8.67	9.04	9.01	7.73	7.78	8.29	3.77	4.04	5.86	5.71	8.51	9.49	11.17	6.71	4.49	4.32	3.27	2.62	4.65	4.50	4.16	3.92	3.71	3.61	3.44	3.10	2.85	2.87	1.65	3.18	3.43	3.79	3.68	3.50	3.53	2.76	1.68	3.32	3.27	3.63	3.80	3.65	3.48	3.42	3.33	3.25	3.07	3.00	3.24	3.46	3.70	3.93	4.01	4.36	4.76	5.03	5.56	5.59	4.48	4.26	3.96	3.86	3.28	3.09	2.93	2.79	2.88	3.03	3.03	3.01	3.30	3.73	3.88	3.62	3.12	2.75	2.66	2.85	3.19	3.38	3.41	3.32	3.10	2.92	2.90	2.93	3.01	3.09	3.05	2.99	3.02	3.07	3.17	3.32	3.39	3.33	3.29	3.29	
3.82	3.82	3.81	3.80	3.79	3.76	3.74	3.70	3.67	3.63	3.59	3.52	3.44	3.35	3.24	3.12	2.95	2.77	2.55	2.31	2.03	1.78	1.71	1.98	1.62	6.30	8.97	8.90	9.14	9.41	9.77	10.76	11.49	7.92	4.17	7.16	6.51	5.86	5.22	4.91	4.93	5.09	3.71	4.85	4.34	3.81	3.57	3.73	4.07	4.69	4.46	2.96	2.29	3.98	2.67	2.86	3.21	4.86	3.27	3.67	2.94	4.27	4.63	4.31	3.64	2.79	6.27	2.50	4.82	5.16	7.80	4.95	4.42	7.22	7.45	7.59	7.76	7.64	7.80	8.14	7.97	8.89	8.66	7.01	7.17	7.45	3.33	3.65	6.16	6.21	6.22	9.26	10.28	11.18	5.09	5.92	3.91	5.01	4.81	4.67	4.40	3.91	3.40	3.97	3.89	3.56	3.16	3.12	3.31	3.30	3.34	3.55	3.62	3.63	3.70	3.90	3.92	3.57	3.37	3.56	3.74	3.65	3.52	3.55	3.58	3.50	3.28	2.79	2.89	2.99	3.25	3.46	3.47	3.67	3.88	3.95	4.58	5.20	4.90	4.53	4.30	3.30	3.31	1.26	1.26	2.92	2.89	2.94	2.91	2.90	3.14	3.58	3.89	3.85	3.42	2.91	2.67	2.76	3.05	3.24	3.34	3.42	3.29	2.99	2.87	2.90	2.96	3.04	3.03	2.96	2.95	2.96	3.02	3.20	3.37	3.34	3.28	3.28	
3.82	3.82	3.81	3.80	3.79	3.76	3.73	3.70	3.66	3.63	3.58	3.51	3.43	3.34	3.23	3.11	2.95	2.77	2.54	2.29	2.00	1.71	1.56	1.81	1.57	6.09	8.89	8.85	8.98	9.21	9.45	9.97	10.10	9.86	10.00	7.38	7.46	2.82	2.42	5.66	6.21	4.01	5.09	4.17	1.78	2.59	4.11	4.12	4.33	4.55	3.56	3.21	2.63	3.27	3.58	2.46	2.76	2.97	3.10	2.34	2.62	3.22	4.73	4.26	3.55	2.88	2.64	2.64	2.96	3.58	5.99	4.99	3.84	3.20	7.21	7.30	7.49	7.46	7.54	5.02	4.86	8.55	8.65	5.65	5.62	6.93	2.86	3.37	3.60	6.41	6.59	9.02	9.89	11.27	8.37	5.37	5.67	5.75	5.17	4.96	4.83	4.45	3.74	3.26	2.99	2.44	3.60	3.48	3.54	3.58	3.54	3.52	3.66	3.81	3.83	3.85	3.98	3.96	3.78	3.68	3.69	3.65	3.53	3.62	3.82	3.81	3.56	3.06	2.70	2.85	3.07	3.13	3.17	3.29	3.43	3.42	3.90	4.52	4.22	3.96	3.29	3.68	1.49	1.24	3.06	3.00	2.97	2.96	2.89	2.84	2.91	3.22	3.66	3.92	3.74	3.19	2.76	2.73	2.94	3.07	3.16	3.34	3.34	3.03	2.84	2.85	2.90	2.96	2.96	2.89	2.86	2.84	2.86	3.02	3.26	3.34	3.30	3.30	
3.82	3.82	3.81	3.80	3.79	3.76	3.73	3.70	3.66	3.62	3.58	3.51	3.43	3.34	3.23	3.11	2.96	2.77	2.56	2.31	2.00	1.68	1.42	1.51	1.34	5.76	8.76	8.61	8.63	8.98	9.33	9.63	8.94	8.60	8.98	9.38	7.09	7.38	7.45	6.74	10.90	4.14	6.49	2.61	3.51	4.78	5.17	4.93	4.77	4.25	4.28	3.94	3.63	3.32	3.09	3.05	4.30	2.64	2.86	1.94	2.21	2.92	4.83	5.23	3.38	2.69	5.92	2.63	2.96	3.51	6.21	4.95	3.84	3.11	6.90	6.99	7.27	6.02	3.62	5.25	5.12	8.78	8.46	4.56	3.24	6.44	2.59	2.96	3.64	3.73	6.98	7.16	9.27	10.19	12.11	8.54	5.39	5.79	4.11	3.15	2.49	2.04	1.75	1.58	1.45	2.63	4.01	3.91	3.86	3.82	3.70	3.63	3.80	3.97	3.52	3.75	3.96	4.18	4.18	3.98	3.80	3.71	3.65	3.80	4.04	4.04	3.80	3.29	2.84	2.87	3.00	3.03	3.07	3.16	2.13	3.25	3.49	3.96	3.90	3.75	2.90	2.04	1.31	1.51	2.82	2.83	2.93	3.01	2.98	2.88	2.74	2.78	3.19	3.66	3.81	3.45	2.90	2.72	2.85	2.93	2.97	3.18	3.28	3.06	2.86	2.82	2.83	2.86	2.87	2.81	2.75	2.71	2.71	2.82	3.04	3.23	3.28	3.28	
3.82	3.82	3.82	3.81	3.79	3.77	3.74	3.70	3.66	3.62	3.58	3.52	3.44	3.35	3.25	3.12	2.97	2.79	2.58	2.34	2.04	1.70	1.37	1.11	1.12	4.24	7.96	8.42	8.31	8.75	9.05	8.96	8.14	6.37	6.56	6.64	6.61	6.71	6.85	10.14	10.10	10.50	6.50	4.06	6.30	5.86	5.42	8.74	5.80	4.62	4.25	4.06	3.95	3.96	3.43	2.41	2.07	3.99	1.86	1.61	1.91	2.64	3.50	5.63	3.39	2.62	5.63	2.39	2.84	3.41	6.41	5.09	3.87	3.20	6.46	6.76	6.44	3.49	3.66	3.88	5.36	8.65	8.14	4.31	3.07	5.61	2.47	2.79	3.18	3.96	4.04	7.37	8.69	9.25	10.03	11.80	10.28	5.18	5.69	4.16	2.51	2.17	1.78	1.58	3.28	4.37	4.28	4.27	4.23	4.10	3.88	3.79	3.96	4.08	3.73	3.80	3.94	4.18	3.77	3.52	3.18	3.89	3.88	4.06	4.25	4.19	3.99	3.60	3.15	3.03	3.05	3.11	3.16	3.13	3.16	3.14	3.22	3.55	3.76	3.82	2.30	2.04	2.78	1.44	2.61	2.65	2.83	3.00	3.08	3.05	2.78	2.49	2.70	3.22	3.59	3.52	3.03	2.76	2.82	2.88	2.87	3.02	3.15	3.04	2.89	2.83	2.79	2.75	2.74	2.71	2.65	2.58	2.56	2.62	2.78	3.02	3.14	3.14	
3.83	3.83	3.82	3.81	3.80	3.77	3.74	3.70	3.67	3.62	3.58	3.53	3.45	3.36	3.26	3.14	3.00	2.82	2.63	2.39	2.10	1.77	1.39	1.01	1.09	1.84	6.49	8.31	8.43	8.73	8.77	8.01	6.62	6.49	6.59	6.62	6.64	4.91	9.20	9.47	9.46	9.50	9.66	5.34	6.08	5.85	5.60	8.14	8.02	6.13	4.67	3.95	3.57	3.55	3.66	3.30	2.14	2.05	3.02	1.33	1.61	2.33	3.10	3.60	3.42	2.79	5.59	2.29	2.75	3.36	6.52	4.39	3.81	3.23	3.05	7.09	3.36	3.56	3.73	4.00	5.51	5.95	7.41	4.54	2.85	2.11	2.11	2.47	2.95	4.22	4.19	7.55	8.49	9.27	9.23	10.17	12.35	8.38	6.00	4.33	3.08	2.36	1.95	4.15	3.81	3.53	4.46	4.49	4.51	2.79	2.10	3.99	1.68	4.15	4.18	4.11	3.99	3.94	3.81	3.55	3.23	3.04	3.33	3.70	3.69	3.51	3.27	3.85	3.43	3.23	3.23	3.36	3.43	3.31	3.09	3.02	3.15	3.38	3.65	3.89	1.40	2.40	1.51	1.22	2.45	2.55	2.72	2.93	3.11	3.24	2.95	2.40	2.36	2.78	3.25	3.41	3.09	2.77	2.80	2.85	2.82	2.89	2.98	2.95	2.85	2.80	2.76	2.64	2.55	2.51	2.47	2.40	2.34	2.36	2.47	2.74	2.94	2.94	
3.84	3.83	3.82	3.81	3.80	3.77	3.74	3.71	3.67	3.63	3.59	3.54	3.46	3.37	3.28	3.16	3.03	2.86	2.68	2.45	2.18	1.86	1.49	1.20	1.20	1.23	4.66	8.23	8.46	8.64	8.57	6.82	4.60	4.39	4.26	4.19	4.29	8.17	8.62	9.01	9.14	9.09	4.73	4.68	5.63	5.66	5.79	6.08	8.36	8.06	5.37	3.89	3.05	2.65	2.66	2.43	2.08	2.43	1.79	1.28	1.37	1.92	2.53	3.02	3.11	2.63	2.23	2.27	2.67	3.28	6.67	4.36	3.88	3.27	2.98	3.48	3.24	3.54	3.79	4.12	5.55	6.14	6.19	4.73	2.92	1.94	5.83	2.05	2.66	3.09	4.41	7.38	8.25	8.56	8.35	9.28	10.93	11.14	8.61	5.22	4.13	3.02	2.28	4.76	4.47	4.02	3.92	3.87	3.61	3.03	2.21	1.80	1.62	4.17	4.30	4.45	4.46	4.39	4.06	3.68	3.35	3.36	3.75	3.92	3.87	3.79	3.50	2.98	2.50	2.34	3.51	3.65	3.83	3.73	3.30	2.88	2.86	3.02	3.19	1.68	3.30	2.62	1.86	2.48	2.36	2.45	2.60	2.77	3.04	3.31	3.12	2.50	2.27	2.48	2.91	3.22	3.07	2.77	2.76	2.77	2.71	2.78	2.83	2.78	2.72	2.70	2.67	2.54	2.39	2.26	2.19	2.12	2.04	2.06	2.14	2.43	2.68	2.68	
3.84	3.84	3.83	3.82	3.80	3.78	3.75	3.71	3.68	3.64	3.59	3.55	3.48	3.39	3.30	3.18	3.06	2.91	2.73	2.51	2.26	1.95	1.61	1.33	1.28	1.20	4.63	8.14	8.25	8.52	8.17	4.80	4.43	4.39	4.12	4.08	7.80	8.24	8.50	8.73	8.87	8.63	4.53	4.48	4.34	4.21	4.31	6.39	6.98	8.95	6.99	4.55	3.53	4.27	3.14	3.57	3.16	2.71	2.12	1.52	1.36	1.57	1.90	2.31	2.54	2.26	1.99	2.09	2.50	3.14	6.51	4.28	3.98	3.37	3.05	3.03	3.19	3.45	3.74	5.59	5.67	8.99	6.48	4.41	3.20	2.19	4.77	1.82	2.34	2.83	4.64	7.18	7.37	7.92	7.68	8.68	10.03	10.90	12.20	8.94	6.33	4.87	6.06	5.42	5.06	4.61	4.44	4.14	3.76	1.41	1.15	2.06	1.99	4.22	4.30	4.48	2.88	2.28	1.73	1.33	1.46	3.73	4.12	4.24	4.19	2.91	2.52	3.26	2.72	2.59	2.57	2.61	2.76	2.63	2.35	3.54	3.22	3.16	0.64	0.47	1.21	3.01	2.16	2.64	2.39	2.38	2.46	2.61	2.93	3.28	3.14	2.64	2.34	2.37	2.67	2.99	2.96	2.78	2.76	2.67	2.56	2.67	2.74	2.62	2.56	2.58	2.51	2.41	2.32	2.14	1.97	1.87	1.72	1.66	1.77	2.12	2.38	2.38	
3.85	3.84	3.83	3.82	3.81	3.79	3.76	3.72	3.69	3.65	3.60	3.56	3.50	3.42	3.32	3.21	3.09	2.95	2.78	2.57	2.34	2.04	1.71	1.36	1.24	1.13	4.69	6.19	8.13	8.29	5.31	4.64	3.89	3.77	3.92	4.09	7.94	8.17	5.18	4.80	8.78	4.49	4.32	4.17	6.58	3.74	3.83	4.23	4.80	7.65	9.36	6.94	4.66	5.21	3.90	4.07	3.59	3.17	2.63	2.03	1.67	1.58	1.54	1.64	1.85	1.69	1.59	1.79	2.24	3.12	3.74	6.38	3.80	3.23	4.19	3.11	3.24	3.33	3.56	5.73	5.81	9.49	6.63	4.61	3.59	2.58	1.90	1.72	1.99	2.49	4.68	6.98	7.36	5.51	7.15	8.40	9.48	10.31	11.46	12.97	8.96	6.88	5.71	6.39	5.77	5.36	2.65	1.39	1.04	1.11	1.11	2.51	2.68	4.44	4.44	3.05	3.00	2.42	1.77	1.32	1.67	3.91	4.23	2.97	3.01	2.80	2.52	2.32	2.20	3.13	3.12	2.94	2.83	2.71	2.41	1.24	0.95	0.55	0.61	1.46	2.25	2.18	2.70	1.92	2.60	2.39	2.36	2.52	2.91	3.24	3.06	2.61	2.36	2.39	2.63	2.77	2.71	2.71	2.76	2.68	3.91	2.62	2.72	2.57	2.49	2.50	2.38	2.32	2.38	2.04	1.84	1.72	1.42	1.10	1.13	1.75	2.15	2.15	
3.85	3.85	3.85	3.83	3.81	3.80	3.76	3.73	3.70	3.66	3.61	3.57	3.52	3.45	3.35	3.25	3.14	3.01	2.85	2.65	2.43	2.14	1.80	1.39	1.13	1.07	4.73	6.41	7.95	7.85	5.30	4.45	3.83	3.63	3.76	6.21	4.28	4.43	4.81	5.04	8.82	4.58	6.13	5.68	5.77	3.28	3.39	3.84	4.27	4.97	8.41	9.51	6.20	4.24	5.01	3.73	4.09	3.64	3.17	2.61	2.24	1.96	1.63	1.45	1.34	1.10	1.02	1.29	1.78	3.09	3.76	6.63	3.72	3.21	2.99	3.14	3.33	3.35	3.45	5.79	7.95	9.58	7.60	5.06	4.23	3.03	2.04	1.57	1.71	2.20	2.77	6.42	7.00	5.68	7.16	8.13	8.81	9.51	10.57	11.46	12.47	8.69	7.26	6.52	5.74	4.64	2.98	1.62	1.17	1.05	1.10	3.00	3.37	3.85	3.69	3.20	2.91	1.79	2.21	2.12	2.19	2.78	2.99	2.96	2.87	2.59	2.55	2.47	2.36	2.47	2.72	2.71	2.48	1.60	1.70	1.60	1.76	1.77	1.81	2.30	3.58	3.69	3.24	2.46	2.94	2.50	2.27	2.41	2.87	3.24	3.00	2.48	2.31	2.55	2.81	2.66	2.45	2.56	2.79	2.80	2.64	2.67	2.72	2.59	2.49	2.40	2.31	2.33	2.27	2.04	1.86	1.78	1.40	0.73	0.07	1.19	1.93	1.93	
3.85	3.85	3.85	3.84	3.82	3.80	3.77	3.74	3.71	3.68	3.63	3.58	3.54	3.47	3.39	3.28	3.18	3.06	2.91	2.73	2.51	2.24	1.90	1.46	0.97	0.92	4.66	6.49	6.38	6.00	4.80	4.31	3.86	3.74	6.51	4.12	4.36	4.56	4.96	5.30	5.14	5.03	3.88	4.53	5.05	2.70	2.88	3.25	3.75	4.73	5.35	9.15	9.24	5.38	6.36	5.01	3.74	4.18	3.68	3.18	2.79	2.48	2.13	1.72	1.32	0.92	0.69	0.73	1.08	1.87	2.85	4.29	3.66	3.30	3.08	3.13	3.33	3.44	3.52	6.21	8.19	8.84	8.23	6.01	4.93	3.60	2.37	1.49	1.39	1.89	2.65	3.08	3.21	5.83	5.98	7.67	8.15	8.60	9.38	10.20	11.03	11.94	12.34	6.72	6.65	4.63	3.53	2.29	1.63	1.49	1.77	3.71	4.10	4.31	2.89	2.05	1.80	1.73	2.00	1.93	2.39	2.96	3.12	2.96	2.78	2.60	2.69	2.59	2.65	2.58	2.64	2.57	2.86	3.09	3.17	3.27	3.39	3.24	3.01	3.70	3.42	3.91	3.98	3.72	3.27	2.71	2.28	2.34	2.85	3.19	2.97	2.40	2.23	2.74	3.02	2.63	2.24	2.39	2.80	2.96	2.83	2.89	3.52	3.29	2.65	2.44	2.19	2.12	2.18	2.22	4.10	2.48	2.14	1.62	1.47	1.95	3.10	3.10	
3.86	3.86	3.85	3.84	3.82	3.81	3.79	3.76	3.73	3.70	3.65	3.60	3.56	3.50	3.42	3.32	3.22	3.11	2.97	2.80	2.59	2.34	2.02	1.57	0.98	0.91	2.65	6.41	6.76	6.06	4.68	4.01	3.70	3.81	4.01	4.24	4.49	4.76	5.46	5.47	5.65	5.62	4.76	3.60	3.68	4.64	2.19	2.67	3.19	3.78	5.11	5.83	9.41	10.35	4.68	6.27	4.92	3.66	4.30	3.79	3.37	3.04	2.70	2.26	1.76	1.27	0.84	0.60	0.59	1.11	2.10	4.10	3.31	3.09	2.96	3.03	3.18	3.36	6.43	7.77	8.14	8.28	8.67	7.45	4.92	4.37	2.99	1.69	2.12	1.41	2.08	2.81	3.14	6.29	6.40	7.41	7.89	8.01	8.40	9.06	9.93	10.91	10.93	11.28	12.10	4.64	4.66	3.57	2.60	2.45	2.55	4.46	4.81	3.62	2.47	1.98	2.18	2.15	2.15	1.97	2.17	3.08	2.79	2.63	2.27	2.01	2.50	4.65	5.46	6.13	5.75	6.02	5.94	4.99	4.52	4.44	5.02	4.98	4.59	4.25	3.82	3.62	3.66	3.70	3.48	2.96	2.41	2.39	2.83	3.06	2.88	2.48	4.70	2.98	3.18	2.63	4.74	3.45	2.72	3.14	5.18	3.24	2.97	3.11	3.18	2.33	1.66	0.42	1.72	2.56	2.40	2.63	2.34	1.82	1.73	2.47	3.71	3.71	
3.88	3.87	3.86	3.85	3.83	3.82	3.80	3.77	3.74	3.71	3.67	3.61	3.58	3.53	3.45	3.35	3.26	3.16	3.02	2.87	2.68	2.45	2.14	1.73	1.18	1.01	2.34	3.92	6.78	4.95	4.71	3.97	3.58	3.70	3.92	4.17	4.50	5.57	5.50	5.49	5.93	6.11	5.20	4.03	3.21	2.31	3.11	2.01	2.53	3.08	3.74	5.54	6.20	6.70	10.47	4.78	6.22	5.01	3.73	2.84	4.06	3.70	3.40	2.86	2.46	1.96	1.46	0.97	0.61	0.71	1.40	2.42	4.12	2.83	2.81	2.99	3.60	6.50	6.98	7.22	7.16	7.56	8.28	8.73	6.36	5.30	3.99	2.44	1.38	1.18	1.48	2.23	3.17	6.70	6.59	6.69	7.74	6.39	7.58	8.36	9.49	9.64	9.72	10.12	10.81	12.14	4.68	4.62	4.23	4.16	3.67	3.84	4.29	3.36	2.18	2.05	2.46	2.38	2.48	2.37	2.34	1.97	1.02	3.44	5.29	5.76	5.77	5.94	5.21	5.13	4.98	5.37	6.05	6.10	6.03	5.31	4.88	4.80	4.68	4.33	3.90	3.50	3.46	3.70	3.67	3.23	2.72	2.63	2.79	2.70	2.64	2.79	4.91	3.59	3.40	2.88	2.31	0.77	2.08	3.34	3.38	3.65	3.52	3.22	3.03	2.89	2.55	1.86	1.97	2.25	1.74	4.40	5.23	4.95	4.34	3.40	3.00	3.00	
3.88	3.87	3.87	3.86	3.85	3.83	3.81	3.78	3.75	3.72	3.68	3.63	3.59	3.56	3.48	3.39	3.31	3.21	3.09	2.95	2.77	2.56	2.29	1.93	1.44	1.07	1.56	3.63	4.58	4.79	4.64	3.98	3.51	3.52	3.69	3.94	4.31	5.61	5.51	8.50	9.04	6.48	5.52	4.41	3.63	2.80	1.99	3.66	1.99	2.57	3.14	3.79	5.79	6.31	6.85	10.09	6.06	4.14	5.11	4.06	3.31	4.71	4.39	4.03	3.43	3.00	2.51	1.97	1.26	0.82	1.01	1.87	2.53	2.68	2.71	3.75	3.76	6.93	7.01	6.48	6.44	6.74	7.22	7.96	7.92	6.18	5.06	3.66	2.17	1.44	3.19	1.86	3.50	3.79	3.68	6.94	6.66	5.88	5.59	8.44	9.02	8.76	9.15	9.65	10.05	10.81	11.48	7.57	3.88	3.88	3.85	4.85	5.19	3.72	3.16	2.95	2.84	2.73	2.79	2.24	1.43	2.61	4.35	5.35	6.12	5.35	5.83	5.63	4.85	4.36	4.31	4.76	5.58	6.33	6.37	5.66	4.84	4.51	4.50	4.31	3.86	3.31	3.35	3.99	4.35	5.77	5.44	5.08	3.22	2.66	1.39	2.80	3.33	3.65	3.39	2.95	2.47	1.86	2.52	3.00	2.55	5.84	7.03	7.03	6.94	6.79	6.74	6.38	5.43	4.90	4.75	5.02	5.28	5.06	4.56	3.76	3.26	3.26	
3.88	3.88	3.87	3.87	3.86	3.84	3.82	3.80	3.77	3.74	3.70	3.65	3.61	3.58	3.52	3.44	3.36	3.27	3.16	3.03	2.87	2.69	2.44	2.14	1.71	1.22	1.53	3.50	4.34	4.55	4.40	3.82	3.67	3.44	3.63	3.85	4.16	5.48	5.44	8.91	10.15	5.06	5.96	4.34	3.88	3.14	2.37	1.74	1.66	2.08	2.62	3.20	3.82	5.94	6.38	9.48	9.59	8.44	5.83	4.51	4.55	3.83	3.37	3.24	4.54	3.87	3.15	3.08	2.38	1.52	1.21	1.54	2.11	2.39	2.54	3.93	3.98	6.65	6.62	6.49	6.48	6.67	7.06	7.69	8.19	7.87	6.41	4.41	3.15	2.03	1.73	1.87	2.60	3.09	3.89	3.71	5.94	5.59	7.76	8.45	7.93	8.01	8.59	9.04	9.44	9.98	10.32	10.29	10.13	9.78	9.60	10.75	4.91	3.83	3.50	3.69	3.72	3.36	2.51	2.10	3.85	4.62	4.30	4.51	4.09	4.64	5.51	5.84	5.41	4.41	3.86	4.05	4.94	5.95	6.50	6.22	5.32	4.91	4.97	4.64	4.06	3.09	2.00	3.61	4.61	4.41	4.00	3.45	3.26	2.71	1.77	2.90	2.80	6.30	7.69	7.73	7.82	7.36	6.25	5.73	5.71	6.34	6.93	7.01	6.92	6.81	6.69	6.31	5.65	5.23	4.93	4.54	4.30	4.13	3.85	3.44	3.21	3.21	
3.89	3.89	3.88	3.88	3.87	3.85	3.83	3.81	3.79	3.76	3.72	3.67	3.63	3.60	3.55	3.48	3.40	3.31	3.22	3.10	2.97	2.80	2.59	2.33	1.95	1.47	1.67	3.11	4.16	4.27	4.15	3.70	3.45	3.49	3.66	3.86	4.11	5.36	8.36	9.02	9.85	6.64	6.39	5.00	4.41	3.58	2.81	2.06	3.50	1.58	2.04	2.64	3.23	3.84	6.04	8.31	8.97	8.89	8.54	7.69	6.91	6.28	5.77	5.41	5.49	5.25	3.96	3.51	3.27	2.53	1.76	1.62	1.86	2.13	2.38	4.18	4.29	4.35	4.37	4.25	4.12	4.14	4.30	7.21	7.42	7.46	7.59	4.87	3.62	2.48	1.93	1.93	2.42	3.81	3.78	3.52	6.27	7.40	7.76	5.94	7.45	7.85	8.20	8.60	8.99	9.28	9.37	9.19	9.02	9.15	9.46	9.77	10.11	10.05	9.62	8.14	4.60	3.82	4.83	4.97	4.78	4.58	4.38	4.38	3.98	4.07	4.74	5.71	5.87	4.92	3.81	3.44	4.18	5.13	5.96	6.40	5.78	5.33	5.16	4.55	3.89	2.98	1.94	3.69	3.58	4.68	7.15	7.80	7.95	8.07	7.49	6.33	6.08	6.89	7.57	7.70	7.64	7.19	6.44	6.04	5.80	5.49	5.42	5.47	5.43	5.35	5.20	5.01	4.82	4.58	4.39	4.24	4.05	3.88	3.69	3.47	3.36	3.36	
3.90	3.90	3.89	3.89	3.88	3.86	3.84	3.83	3.80	3.77	3.74	3.70	3.66	3.63	3.58	3.52	3.45	3.37	3.28	3.18	3.05	2.91	2.73	2.50	2.18	1.74	1.83	2.86	3.62	3.87	3.80	3.54	3.47	3.57	3.67	3.82	5.53	7.74	8.58	9.24	9.27	8.66	5.91	5.84	4.46	4.25	3.46	2.67	1.89	3.81	1.61	2.17	2.75	3.33	3.93	6.48	8.07	8.09	7.75	7.67	7.53	7.20	6.19	5.67	5.48	5.48	4.12	3.99	3.83	3.03	2.29	1.81	1.77	2.00	2.31	4.32	4.50	4.54	4.45	4.34	4.19	4.20	4.27	4.56	4.72	4.82	5.12	5.11	3.98	2.68	1.98	1.91	2.13	3.69	3.78	6.23	6.74	6.68	5.93	6.02	6.35	6.50	8.16	8.49	8.82	8.76	8.68	8.47	8.27	8.46	8.79	9.00	9.11	9.24	9.29	9.42	9.68	9.22	7.87	6.71	5.55	5.03	4.84	5.54	5.16	5.02	4.96	5.61	6.22	5.89	4.68	3.75	4.06	4.57	5.24	6.04	5.58	5.35	6.72	7.07	7.31	7.67	7.56	6.87	6.51	6.81	7.46	7.89	8.04	7.99	7.44	6.65	6.17	5.87	5.81	5.87	5.76	5.58	5.42	5.21	5.07	5.01	4.94	4.91	4.88	4.81	4.72	4.61	4.48	4.36	4.23	4.10	3.98	3.84	3.70	3.55	3.47	3.47	
3.91	3.90	3.90	3.89	3.88	3.87	3.86	3.84	3.82	3.79	3.76	3.72	3.68	3.65	3.61	3.56	3.50	3.42	3.34	3.25	3.14	3.01	2.86	2.66	2.40	2.04	2.04	2.72	3.32	3.52	3.48	3.35	3.42	3.58	5.60	5.68	5.62	7.95	8.57	8.91	9.04	9.16	8.64	6.07	5.49	4.14	4.15	3.38	2.53	1.77	1.67	1.79	2.48	3.05	3.60	6.49	6.87	6.77	6.72	6.62	6.72	6.79	6.52	5.89	5.38	4.15	3.90	3.83	3.30	3.07	2.50	1.86	1.63	1.87	2.19	2.52	4.48	4.68	4.55	4.42	4.36	4.38	4.47	4.68	4.79	4.69	4.91	5.10	4.16	2.81	1.93	1.77	1.87	2.29	3.77	3.71	7.10	3.88	3.90	3.92	6.76	7.90	8.10	8.17	8.52	8.34	8.31	8.06	7.80	7.91	8.26	8.56	8.65	8.72	8.76	8.82	9.20	9.63	9.35	8.55	7.15	6.72	6.98	6.58	6.55	6.19	5.98	5.93	6.35	6.61	6.50	6.23	6.09	6.10	6.28	6.67	6.79	6.81	7.03	7.25	7.54	7.78	7.60	7.11	6.75	6.44	6.18	6.12	6.13	6.00	5.82	5.62	5.40	5.30	5.23	5.19	5.15	5.08	4.97	4.88	4.80	4.75	4.73	4.69	4.65	4.59	4.52	4.43	4.33	4.23	4.14	4.04	3.93	3.83	3.72	3.62	3.57	3.57	
3.91	3.91	3.91	3.90	3.89	3.88	3.87	3.86	3.84	3.81	3.78	3.74	3.70	3.67	3.64	3.59	3.54	3.47	3.39	3.31	3.22	3.11	2.97	2.81	2.59	2.30	2.24	2.66	3.14	3.40	3.42	3.34	3.43	3.52	5.92	5.99	6.04	7.76	7.98	8.24	8.50	8.80	9.06	8.59	6.06	4.97	4.90	4.00	3.11	2.25	1.51	1.47	2.09	2.80	3.39	3.92	6.89	6.79	6.69	6.48	6.43	6.38	6.09	4.85	4.57	4.16	3.78	3.23	3.04	2.92	2.56	1.93	1.62	1.80	2.05	2.32	2.71	3.17	3.36	3.29	3.13	3.01	3.14	3.48	3.80	3.80	3.76	4.14	4.08	2.90	1.80	1.55	1.67	1.98	3.64	6.27	3.89	4.04	4.00	3.82	6.90	7.49	8.14	8.20	8.30	8.04	7.91	7.78	7.77	7.91	8.29	8.62	8.74	7.33	6.72	6.68	6.67	7.08	7.69	8.20	8.68	8.01	6.73	6.31	5.81	5.87	6.12	6.07	6.16	6.35	6.60	6.73	6.63	6.51	6.42	6.46	6.51	6.37	6.13	6.04	6.09	6.07	6.00	5.89	5.72	5.61	5.54	5.48	5.42	5.36	5.27	5.16	5.08	5.01	4.98	4.94	4.89	4.83	4.77	4.70	4.64	4.59	4.55	4.51	4.47	4.43	4.37	4.31	4.24	4.16	4.09	4.01	3.93	3.85	3.77	3.68	3.64	3.64	
3.93	3.92	3.91	3.91	3.90	3.89	3.88	3.87	3.85	3.82	3.79	3.76	3.73	3.70	3.67	3.63	3.58	3.52	3.46	3.38	3.29	3.19	3.07	2.93	2.74	2.48	2.34	2.55	2.96	3.32	3.42	3.45	3.38	3.42	6.27	6.16	6.14	6.05	7.48	7.54	7.84	8.29	8.68	8.76	7.81	6.22	4.70	4.86	3.78	2.85	1.97	1.80	1.61	2.36	3.04	3.87	4.34	4.70	6.70	4.94	4.86	4.81	4.88	4.89	4.62	4.11	3.58	3.09	2.86	2.78	2.65	2.22	1.85	1.85	1.97	2.17	2.52	2.96	3.18	3.21	3.06	2.86	3.01	3.31	3.64	3.79	3.63	3.71	3.82	3.02	1.79	1.37	1.53	1.81	3.70	3.90	3.48	3.66	4.20	6.56	6.20	7.38	8.33	8.51	8.69	6.37	6.11	6.01	5.89	5.86	5.19	5.92	6.21	5.81	3.96	4.11	3.85	3.16	3.85	4.67	5.47	6.07	6.04	5.82	5.53	5.41	5.60	5.70	5.73	5.75	5.81	5.85	5.80	5.67	5.56	5.53	5.54	5.56	5.56	5.53	5.51	5.50	5.45	5.37	5.31	5.24	5.20	5.17	5.13	5.08	5.01	4.94	4.87	4.82	4.77	4.73	4.69	4.66	4.62	4.57	4.53	4.49	4.46	4.43	4.39	4.35	4.30	4.25	4.19	4.12	4.06	4.00	3.93	3.87	3.81	3.74	3.71	3.71	
3.94	3.93	3.92	3.92	3.91	3.91	3.90	3.88	3.86	3.84	3.81	3.78	3.75	3.72	3.69	3.66	3.62	3.56	3.51	3.44	3.36	3.27	3.17	3.04	2.88	2.61	2.34	2.31	2.61	3.08	3.27	3.46	3.27	3.38	6.22	6.09	6.00	5.98	6.04	6.19	6.47	6.70	6.77	6.88	7.03	7.12	6.31	4.70	4.76	3.73	2.76	1.86	1.54	2.02	2.75	3.93	4.40	4.65	4.74	4.80	4.77	4.71	4.84	4.97	4.66	4.44	3.85	3.26	2.96	2.88	2.89	2.69	2.26	2.01	1.95	2.11	2.43	2.75	2.94	3.09	3.06	2.84	2.88	3.17	3.51	3.73	3.52	3.28	3.38	2.99	1.93	1.33	1.52	1.93	2.46	2.90	3.15	3.28	3.58	3.28	5.17	4.69	4.82	5.62	5.82	5.49	3.89	3.80	3.39	2.69	3.09	3.61	4.14	4.49	4.29	4.12	3.71	3.34	3.79	4.47	5.02	5.41	5.56	5.55	5.45	5.34	5.31	5.33	5.36	5.39	5.42	5.43	5.39	5.33	5.26	5.22	5.21	5.21	5.21	5.21	5.20	5.18	5.15	5.11	5.06	5.01	4.96	4.93	4.88	4.85	4.81	4.77	4.73	4.69	4.66	4.63	4.60	4.56	4.52	4.49	4.45	4.42	4.38	4.35	4.32	4.28	4.24	4.20	4.15	4.10	4.05	4.00	3.95	3.90	3.85	3.79	3.76	3.76	
3.94	3.94	3.93	3.93	3.92	3.91	3.91	3.89	3.88	3.86	3.83	3.80	3.77	3.74	3.71	3.68	3.65	3.60	3.56	3.50	3.43	3.34	3.24	3.13	2.99	2.75	2.34	2.00	2.13	2.66	3.06	3.55	3.46	3.52	3.48	3.44	3.53	3.62	6.02	6.20	6.43	6.57	6.63	6.77	7.08	7.33	7.11	6.13	4.86	4.67	3.77	2.76	1.96	1.90	2.52	3.29	4.39	4.27	4.66	4.38	4.34	4.26	4.22	4.30	4.46	4.48	4.13	3.58	3.26	3.22	3.27	3.18	2.76	2.31	2.11	2.16	2.41	2.61	2.67	2.89	3.11	2.97	2.82	3.02	3.46	3.82	3.62	3.09	2.75	2.51	2.01	1.47	1.56	2.11	2.58	2.74	2.94	3.14	3.07	3.26	3.42	2.75	2.84	3.39	3.89	4.23	4.04	3.77	3.31	2.91	3.17	3.61	3.98	4.26	4.29	4.17	4.04	3.94	4.03	4.33	4.64	4.87	5.03	5.10	5.12	5.12	5.11	5.11	5.14	5.16	5.17	5.16	5.13	5.09	5.06	5.03	5.02	5.02	5.00	5.00	4.98	4.96	4.94	4.91	4.89	4.85	4.82	4.79	4.77	4.73	4.70	4.66	4.63	4.59	4.55	4.53	4.50	4.47	4.45	4.42	4.39	4.37	4.34	4.31	4.28	4.25	4.21	4.17	4.13	4.09	4.05	4.00	3.96	3.92	3.87	3.83	3.81	3.81	
3.95	3.95	3.94	3.94	3.93	3.93	3.92	3.90	3.89	3.87	3.85	3.82	3.80	3.77	3.73	3.70	3.67	3.63	3.60	3.57	3.50	3.41	3.32	3.22	3.11	2.94	2.52	1.90	1.74	2.20	2.73	2.98	3.66	3.67	3.68	3.63	3.62	3.64	3.66	3.72	3.88	6.51	6.52	6.68	7.05	7.36	7.10	6.66	5.58	5.09	4.30	3.72	2.80	2.18	2.36	3.14	3.77	4.16	4.33	4.26	4.21	4.18	4.09	4.06	4.13	4.19	4.03	3.65	3.47	3.55	3.67	3.64	3.28	2.76	2.47	2.48	2.63	2.72	2.55	2.54	2.76	3.11	2.87	2.75	3.11	3.78	3.77	3.11	2.53	2.25	2.16	1.84	1.81	2.34	2.61	2.70	2.95	3.19	3.20	3.32	3.28	2.88	2.91	3.35	3.73	3.98	3.99	3.82	3.61	3.44	3.41	3.57	3.75	3.88	3.97	4.01	4.02	4.07	4.16	4.30	4.48	4.64	4.76	4.84	4.88	4.91	4.92	4.94	4.95	4.96	4.96	4.96	4.94	4.92	4.89	4.87	4.85	4.86	4.85	4.84	4.84	4.83	4.80	4.78	4.76	4.73	4.70	4.67	4.65	4.63	4.60	4.57	4.55	4.52	4.50	4.47	4.45	4.42	4.40	4.38	4.35	4.33	4.30	4.27	4.24	4.22	4.18	4.15	4.12	4.08	4.04	4.00	3.97	3.93	3.90	3.87	3.85	3.85	
3.96	3.96	3.95	3.95	3.94	3.94	3.93	3.92	3.90	3.89	3.87	3.84	3.82	3.79	3.76	3.73	3.70	3.67	3.64	3.64	3.59	3.50	3.41	3.32	3.24	3.15	2.86	2.13	1.66	1.91	2.35	2.73	3.01	3.18	3.28	3.71	3.70	3.75	3.75	3.80	3.94	4.18	4.35	4.43	4.62	5.08	5.41	5.40	5.32	5.03	4.58	4.13	3.58	2.82	2.50	3.04	3.72	4.10	4.20	4.11	4.11	4.07	3.92	3.82	3.87	3.89	3.71	3.40	3.30	3.52	3.74	3.82	3.70	3.17	2.71	2.69	2.70	2.65	2.44	2.31	2.87	3.14	3.06	2.85	2.78	3.47	3.74	3.50	3.23	2.94	2.74	2.52	2.37	2.55	2.73	2.80	2.96	3.14	3.23	3.28	3.29	3.22	3.21	3.36	3.53	3.64	3.69	3.67	3.62	3.58	3.59	3.64	3.72	3.82	3.89	3.95	4.01	4.07	4.15	4.26	4.38	4.49	4.59	4.66	4.71	4.75	4.76	4.78	4.80	4.80	4.81	4.81	4.80	4.79	4.78	4.76	4.75	4.74	4.74	4.72	4.71	4.70	4.69	4.68	4.66	4.64	4.63	4.60	4.58	4.57	4.54	4.51	4.49	4.47	4.44	4.42	4.40	4.38	4.36	4.34	4.32	4.30	4.27	4.25	4.22	4.20	4.17	4.14	4.11	4.09	4.05	4.02	3.98	3.95	3.92	3.90	3.88	3.88	
3.97	3.97	3.96	3.95	3.95	3.94	3.94	3.93	3.91	3.90	3.88	3.86	3.84	3.81	3.79	3.76	3.73	3.69	3.67	3.68	3.66	3.60	3.51	3.42	3.37	3.37	3.25	2.54	1.74	1.78	2.14	2.48	2.87	3.12	3.23	3.23	3.21	3.25	3.31	3.38	3.99	4.15	4.28	4.42	4.61	4.97	5.17	5.15	5.02	4.83	4.40	4.09	3.86	3.39	2.87	3.05	3.70	4.17	4.25	4.15	4.10	3.92	3.65	3.38	3.43	3.61	3.38	3.18	3.32	3.59	3.77	3.90	4.05	3.71	3.14	3.41	3.78	3.79	3.70	3.49	3.36	3.44	3.63	3.54	3.33	3.51	3.73	3.72	3.59	3.36	3.13	2.94	2.80	2.80	2.89	2.96	3.05	3.16	3.22	3.26	3.29	3.32	3.37	3.40	3.48	3.56	3.61	3.63	3.63	3.62	3.64	3.68	3.74	3.80	3.86	3.92	3.99	4.05	4.12	4.20	4.30	4.38	4.44	4.51	4.57	4.60	4.63	4.65	4.67	4.68	4.69	4.69	4.69	4.68	4.67	4.67	4.66	4.65	4.65	4.64	4.63	4.62	4.62	4.60	4.59	4.57	4.56	4.53	4.51	4.50	4.48	4.46	4.44	4.42	4.41	4.39	4.37	4.35	4.33	4.32	4.29	4.27	4.25	4.23	4.21	4.18	4.16	4.14	4.11	4.09	4.06	4.03	4.00	3.98	3.95	3.93	3.91	3.91	
3.98	3.98	3.97	3.96	3.96	3.95	3.95	3.94	3.92	3.91	3.90	3.88	3.85	3.83	3.81	3.78	3.75	3.70	3.69	3.71	3.71	3.69	3.60	3.51	3.48	3.53	3.62	3.02	1.92	1.79	2.12	2.35	2.71	3.04	3.17	3.15	3.13	3.18	3.25	3.29	3.42	3.56	3.66	3.85	4.17	4.57	4.80	4.83	4.88	4.76	4.38	4.07	3.93	3.60	3.07	2.97	3.49	4.14	4.34	4.36	4.32	3.99	3.67	3.32	3.28	3.53	3.24	3.36	3.94	4.23	4.32	4.41	4.57	3.56	3.31	3.90	4.12	4.20	4.14	3.95	3.69	3.64	3.75	3.76	3.64	3.55	3.55	3.55	3.47	3.35	3.23	3.12	3.05	3.03	3.04	3.09	3.14	3.20	3.25	3.29	3.32	3.36	3.42	3.45	3.47	3.52	3.58	3.61	3.63	3.64	3.66	3.69	3.74	3.79	3.84	3.89	3.95	4.01	4.08	4.14	4.22	4.29	4.34	4.40	4.45	4.49	4.52	4.54	4.56	4.58	4.59	4.59	4.59	4.59	4.59	4.59	4.59	4.59	4.59	4.59	4.57	4.56	4.56	4.55	4.53	4.52	4.51	4.49	4.47	4.45	4.44	4.42	4.40	4.39	4.37	4.36	4.34	4.32	4.31	4.30	4.28	4.26	4.24	4.22	4.20	4.19	4.16	4.15	4.12	4.10	4.07	4.05	4.02	4.00	3.97	3.95	3.95	3.95	
3.99	3.99	3.98	3.97	3.97	3.96	3.95	3.95	3.94	3.92	3.91	3.89	3.87	3.85	3.83	3.80	3.77	3.73	3.70	3.72	3.76	3.74	3.67	3.61	3.59	3.64	3.88	3.49	2.31	1.98	2.22	2.39	2.63	2.93	3.08	3.10	3.10	3.16	3.24	3.26	3.33	3.41	3.47	3.65	3.91	4.22	4.45	4.56	4.65	4.64	4.39	4.20	4.18	3.89	3.39	3.12	3.40	4.02	4.30	4.54	4.81	4.79	4.72	4.65	4.55	4.38	3.99	3.82	4.09	4.36	4.43	4.46	4.47	4.41	4.18	3.94	3.92	3.94	3.91	3.82	3.69	3.61	3.60	3.62	3.62	3.60	3.56	3.52	3.48	3.41	3.34	3.27	3.22	3.20	3.20	3.22	3.25	3.27	3.30	3.35	3.36	3.37	3.44	3.49	3.48	3.51	3.56	3.59	3.62	3.64	3.67	3.69	3.73	3.77	3.82	3.86	3.92	3.98	4.03	4.08	4.15	4.21	4.26	4.30	4.35	4.39	4.42	4.45	4.47	4.49	4.50	4.52	4.52	4.53	4.54	4.53	4.53	4.53	4.53	4.52	4.52	4.51	4.51	4.50	4.48	4.47	4.46	4.45	4.44	4.43	4.42	4.41	4.39	4.37	4.36	4.34	4.33	4.31	4.30	4.29	4.28	4.25	4.24	4.22	4.20	4.19	4.17	4.15	4.13	4.10	4.08	4.06	4.04	4.02	3.99	3.97	3.97	3.97	
4.00	4.00	3.99	3.98	3.98	3.97	3.96	3.96	3.95	3.94	3.92	3.91	3.89	3.87	3.85	3.83	3.80	3.76	3.72	3.73	3.79	3.77	3.71	3.68	3.68	3.75	4.02	3.87	2.92	2.37	2.43	2.56	2.69	2.89	3.05	3.08	3.08	3.16	3.26	3.24	3.22	3.32	3.39	3.53	3.74	3.94	4.12	4.25	4.36	4.43	4.33	4.27	4.39	4.38	4.19	4.00	4.01	4.23	4.41	4.60	4.86	5.01	5.07	5.07	4.95	4.70	4.33	4.00	3.95	4.06	4.13	4.14	4.09	4.02	3.96	3.92	3.92	3.90	3.87	3.83	3.76	3.70	3.66	3.65	3.64	3.63	3.60	3.56	3.52	3.48	3.44	3.39	3.34	3.32	3.31	3.31	3.34	3.35	3.35	3.39	3.40	3.39	3.43	3.50	3.51	3.50	3.54	3.59	3.61	3.63	3.66	3.68	3.71	3.75	3.79	3.83	3.88	3.93	3.98	4.02	4.07	4.13	4.18	4.23	4.27	4.31	4.34	4.37	4.39	4.42	4.44	4.45	4.46	4.47	4.48	4.49	4.49	4.48	4.48	4.48	4.48	4.48	4.47	4.47	4.45	4.45	4.44	4.43	4.43	4.42	4.40	4.39	4.38	4.36	4.35	4.34	4.33	4.31	4.29	4.29	4.28	4.25	4.24	4.22	4.20	4.19	4.17	4.16	4.14	4.11	4.10	4.08	4.06	4.04	4.02	4.00	3.99	3.99	
4.01	4.01	4.00	3.99	3.99	3.98	3.97	3.97	3.96	3.95	3.94	3.92	3.91	3.89	3.88	3.85	3.82	3.78	3.73	3.77	3.82	3.79	3.74	3.72	3.73	3.79	4.04	4.14	3.57	2.88	2.74	2.85	2.90	3.00	3.12	3.12	3.14	3.22	3.29	3.24	3.15	3.25	3.35	3.44	3.61	3.75	3.88	4.01	4.11	4.22	4.22	4.19	4.27	4.35	4.36	4.32	4.27	4.30	4.34	4.39	4.47	4.54	4.59	4.61	4.54	4.41	4.23	4.07	4.02	4.04	4.06	4.06	4.02	3.97	3.94	3.91	3.91	3.90	3.85	3.82	3.81	3.77	3.74	3.71	3.69	3.69	3.67	3.63	3.58	3.55	3.52	3.48	3.44	3.41	3.40	3.40	3.41	3.41	3.41	3.42	3.44	3.43	3.43	3.48	3.52	3.51	3.52	3.57	3.59	3.61	3.64	3.66	3.69	3.72	3.75	3.79	3.83	3.88	3.93	3.97	4.02	4.06	4.11	4.16	4.20	4.24	4.28	4.31	4.34	4.36	4.38	4.40	4.41	4.43	4.43	4.44	4.45	4.45	4.45	4.45	4.46	4.46	4.46	4.45	4.45	4.44	4.44	4.43	4.42	4.41	4.39	4.38	4.38	4.36	4.34	4.33	4.32	4.31	4.29	4.28	4.27	4.25	4.23	4.22	4.21	4.19	4.18	4.17	4.15	4.13	4.12	4.10	4.08	4.06	4.04	4.02	4.01	4.01	
4.02	4.02	4.01	4.00	4.00	3.99	3.99	3.98	3.97	3.96	3.95	3.94	3.93	3.91	3.90	3.88	3.85	3.81	3.75	3.77	3.82	3.80	3.77	3.76	3.76	3.79	3.95	4.17	4.05	3.58	3.31	3.31	3.26	3.26	3.29	3.26	3.29	3.33	3.33	3.31	3.23	3.26	3.34	3.38	3.48	3.59	3.68	3.78	3.88	3.97	4.02	4.04	4.05	4.08	4.10	4.09	4.08	4.10	4.14	4.20	4.29	4.35	4.40	4.41	4.40	4.34	4.25	4.17	4.11	4.10	4.08	4.06	4.03	3.99	3.98	3.95	3.93	3.92	3.87	3.84	3.82	3.80	3.77	3.74	3.71	3.70	3.70	3.66	3.63	3.61	3.57	3.54	3.51	3.48	3.46	3.46	3.46	3.47	3.46	3.46	3.46	3.46	3.45	3.46	3.51	3.51	3.50	3.54	3.57	3.57	3.60	3.63	3.65	3.68	3.71	3.75	3.78	3.82	3.87	3.91	3.96	4.00	4.04	4.09	4.13	4.17	4.21	4.25	4.28	4.31	4.33	4.35	4.37	4.39	4.40	4.41	4.42	4.43	4.43	4.43	4.44	4.44	4.44	4.43	4.43	4.43	4.42	4.42	4.41	4.41	4.39	4.38	4.38	4.36	4.34	4.34	4.33	4.31	4.30	4.29	4.28	4.27	4.25	4.24	4.22	4.21	4.19	4.18	4.16	4.15	4.13	4.12	4.09	4.08	4.06	4.05	4.04	4.04	
4.03	4.02	4.02	4.01	4.00	3.99	3.99	3.98	3.97	3.96	3.95	3.94	3.93	3.92	3.91	3.89	3.87	3.84	3.77	3.76	3.81	3.81	3.79	3.79	3.78	3.79	3.88	4.11	4.25	4.04	3.73	3.60	3.49	3.44	3.41	3.37	3.38	3.40	3.39	3.38	3.33	3.31	3.35	3.37	3.42	3.50	3.58	3.67	3.76	3.84	3.91	3.96	4.00	4.03	4.05	4.05	4.04	4.05	4.08	4.14	4.22	4.30	4.35	4.37	4.38	4.34	4.27	4.22	4.15	4.12	4.10	4.08	4.05	4.01	3.99	3.97	3.95	3.94	3.90	3.86	3.83	3.80	3.78	3.76	3.72	3.70	3.70	3.68	3.65	3.64	3.60	3.58	3.55	3.51	3.49	3.48	3.48	3.48	3.48	3.47	3.48	3.48	3.46	3.46	3.49	3.51	3.49	3.51	3.55	3.55	3.58	3.61	3.64	3.67	3.69	3.73	3.75	3.79	3.84	3.88	3.93	3.97	4.01	4.06	4.10	4.14	4.18	4.21	4.25	4.28	4.30	4.33	4.35	4.36	4.38	4.40	4.42	4.43	4.43	4.42	4.42	4.44	4.44	4.43	4.42	4.42	4.41	4.41	4.41	4.41	4.39	4.38	4.37	4.36	4.35	4.34	4.33	4.32	4.30	4.29	4.29	4.28	4.26	4.24	4.23	4.21	4.20	4.18	4.17	4.15	4.13	4.12	4.10	4.08	4.07	4.05	4.05	4.05	
