ncols	178
nrows	225
xllcorner	1669333.329241
yllcorner	496308.452995
cellsize	90.000000
NODATA_value	nan
234	234	232	230	228	225	222	219	216	213	211	210	209	210	211	213	217	222	225	230	183	178	172	172	170	160	149	14	293	299	305	286	283	279	272	265	257	249	243	238	235	231	228	227	226	225	225	225	226	227	228	229	231	232	234	233	233	169	161	144	124	87	59	45	35	27	25	22	18	17	17	14	11	312	308	303	299	294	284	279	276	272	268	263	258	253	249	246	244	242	241	240	239	239	239	238	238	237	237	237	236	236	236	236	235	235	236	236	236	236	236	236	236	236	235	235	235	234	234	234	234	233	233	232	232	231	231	230	230	229	228	227	226	225	224	222	220	218	216	215	214	213	212	212	211	210	209	209	208	208	208	208	208	209	209	209	209	210	210	211	211	211	211	211	212	213	215	217	220	223	226	228	230	232	235	242	234	234	
234	234	232	230	228	225	222	219	216	213	211	210	209	210	211	213	217	222	225	230	183	178	172	172	170	160	149	14	293	299	305	286	283	279	272	265	257	249	243	238	235	231	228	227	226	225	225	225	226	227	228	229	231	232	234	233	233	169	161	144	124	87	59	45	35	27	25	22	18	17	17	14	11	312	308	303	299	294	284	279	276	272	268	263	258	253	249	246	244	242	241	240	239	239	239	238	238	237	237	237	236	236	236	236	235	235	236	236	236	236	236	236	236	236	235	235	235	234	234	234	234	233	233	232	232	231	231	230	230	229	228	227	226	225	224	222	220	218	216	215	214	213	212	212	211	210	209	209	208	208	208	208	208	209	209	209	209	210	210	211	211	211	211	211	212	213	215	217	220	223	226	228	230	232	235	242	234	234	
234	233	231	229	227	224	221	218	216	213	211	211	211	212	225	224	224	226	229	234	185	185	181	183	183	182	187	193	255	246	275	272	267	266	261	256	250	244	240	236	233	231	229	228	227	227	227	227	228	229	230	231	233	234	235	234	237	165	169	158	153	138	113	91	68	51	49	45	36	40	44	38	37	292	285	278	271	278	275	271	268	265	261	257	253	250	247	244	243	241	240	240	239	239	238	238	238	237	237	236	236	236	236	236	235	235	236	236	236	236	236	236	236	235	235	235	235	234	234	234	233	233	233	232	232	231	231	230	229	229	228	227	226	225	223	222	220	218	216	215	214	213	213	212	211	210	210	209	209	216	215	214	212	210	210	210	211	211	212	222	219	217	215	213	214	215	217	220	223	225	228	229	231	232	233	233	234	234	
233	232	230	228	225	223	220	217	215	213	212	215	214	231	231	246	252	254	235	241	196	194	190	189	186	185	187	232	219	207	254	250	243	248	245	241	238	236	234	233	231	230	229	229	229	229	230	231	231	233	234	235	236	236	236	237	244	179	183	175	173	168	157	152	151	147	143	146	148	145	147	156	161	251	245	241	235	262	260	258	256	253	250	247	245	244	242	241	241	240	239	239	239	238	238	237	237	237	236	236	236	236	236	236	235	236	236	236	236	236	236	235	235	235	235	235	234	234	234	233	233	233	232	232	231	231	230	230	229	228	227	226	225	224	222	221	219	217	216	216	215	214	214	213	212	212	225	223	221	220	218	234	234	235	234	233	232	230	228	226	239	240	240	239	237	236	236	236	236	236	231	232	232	233	232	233	234	234	
232	231	229	227	224	221	219	216	214	213	213	216	217	235	246	252	256	260	258	246	202	198	194	192	188	188	188	221	209	199	246	239	241	239	237	234	232	231	231	230	230	229	229	230	230	230	231	233	234	235	241	240	240	240	239	239	229	189	189	184	181	176	168	166	165	161	159	161	160	158	161	164	239	232	228	226	221	254	253	251	250	247	244	243	241	240	240	239	239	239	239	238	238	238	237	237	237	236	236	236	236	236	236	235	235	236	236	236	236	236	235	235	235	235	235	234	234	234	233	233	233	232	232	231	231	230	230	229	228	228	227	226	224	223	221	220	218	217	216	216	215	215	214	214	213	228	226	225	224	237	237	238	238	238	240	241	242	242	243	243	244	245	245	244	245	247	249	252	254	238	237	234	234	233	233	235	236	236	
230	229	228	225	223	220	217	215	213	213	214	217	237	237	250	256	260	263	262	208	205	199	196	193	190	189	189	214	203	242	239	231	236	234	232	230	229	229	229	229	228	229	230	230	231	231	233	234	236	237	242	242	242	241	240	243	184	197	192	189	186	179	173	172	170	165	165	166	163	162	165	167	225	221	219	216	250	248	248	246	245	243	240	239	238	238	238	238	238	238	238	238	238	237	237	237	236	236	236	236	235	235	235	235	236	236	236	236	236	235	235	235	235	235	234	234	234	233	233	233	233	232	232	231	231	230	229	229	228	227	226	225	224	222	220	218	217	216	216	215	215	215	215	215	213	228	227	226	239	239	240	241	241	242	244	245	245	245	246	247	248	248	248	247	248	251	253	256	257	259	238	238	234	236	233	236	237	237	
229	228	226	224	222	219	216	214	213	213	216	218	239	239	254	258	263	266	248	211	205	200	197	193	191	191	189	209	199	239	233	226	232	230	228	226	226	226	227	227	228	228	230	231	231	233	234	236	237	243	242	242	242	242	242	247	195	201	194	192	188	181	177	175	172	169	169	169	165	165	167	168	218	214	213	210	245	244	244	243	241	239	237	237	236	236	237	237	237	237	237	237	237	237	237	236	236	236	236	235	235	235	235	235	236	236	236	236	235	235	235	235	235	234	234	234	234	233	233	233	232	232	231	231	230	230	229	228	227	227	226	225	223	221	220	218	216	216	216	215	215	215	215	214	230	229	228	227	240	241	242	242	243	245	246	247	247	248	248	249	250	250	250	250	251	254	256	258	259	260	258	237	234	258	238	238	238	238	
228	227	225	223	220	218	215	214	213	214	219	221	240	252	257	261	265	270	230	212	204	200	198	194	192	192	216	205	195	235	229	231	229	227	225	224	224	225	226	226	227	228	230	231	232	233	235	237	238	243	243	243	243	242	242	250	202	203	197	194	189	182	179	177	173	171	172	170	167	167	169	218	213	210	209	206	241	241	241	240	238	236	235	235	235	235	236	236	236	237	237	237	237	237	236	236	236	236	235	235	235	235	235	235	236	236	236	235	235	235	235	235	234	234	234	234	233	233	233	232	232	232	231	231	230	229	229	228	227	226	225	224	222	221	219	217	216	215	215	215	215	215	215	214	230	229	228	227	241	243	243	244	245	247	248	248	249	249	250	251	252	252	251	251	253	255	258	260	261	260	259	237	234	235	240	239	239	239	
227	226	224	222	219	216	214	213	213	215	218	223	241	255	260	263	267	276	217	211	203	200	198	194	192	192	212	201	236	232	224	229	227	225	223	223	223	224	225	226	227	228	230	231	233	234	236	238	244	244	244	244	244	242	244	200	206	202	199	195	189	182	180	178	174	173	173	170	168	169	170	213	209	207	206	240	239	239	238	237	235	233	233	233	233	234	235	235	236	236	236	236	236	236	236	236	236	235	235	235	235	235	235	235	236	236	236	235	235	235	235	235	234	234	234	234	233	233	232	232	232	231	231	230	230	229	228	228	227	226	225	223	222	220	218	216	215	215	215	215	215	215	215	214	230	229	229	242	243	244	244	245	246	248	248	249	250	250	251	252	253	253	252	252	254	257	260	261	261	261	261	235	236	235	240	239	240	240	
226	225	223	221	218	215	214	213	213	216	220	241	242	257	262	265	270	252	217	209	202	200	197	194	192	191	208	198	234	228	221	227	225	223	222	222	222	223	224	225	227	229	230	232	233	235	237	238	244	244	244	244	244	243	247	203	208	202	200	195	188	183	181	178	174	174	173	170	170	171	170	209	206	205	203	238	238	237	237	235	233	231	231	232	232	233	234	235	235	236	236	236	236	236	236	235	235	235	235	235	235	235	235	235	236	236	235	235	235	235	234	234	234	234	234	233	233	233	232	232	231	231	231	230	229	229	228	228	226	225	224	223	221	219	217	216	215	215	215	215	215	216	215	232	230	230	229	243	244	244	244	245	247	248	249	250	250	250	251	253	254	253	251	252	255	258	260	261	261	261	262	234	235	234	236	239	240	240	
224	224	222	219	217	214	213	212	213	219	222	242	254	259	264	267	274	224	215	206	202	199	196	193	193	215	205	196	232	225	227	225	223	221	220	220	221	223	224	225	227	229	231	232	234	236	238	239	244	244	244	244	244	243	250	207	210	203	200	195	188	184	182	177	175	175	173	170	171	171	212	207	204	203	200	236	236	236	235	234	231	230	230	231	231	232	233	234	234	235	236	236	236	235	235	235	235	235	235	235	235	235	235	235	236	235	235	235	234	234	234	234	234	234	233	233	233	232	232	232	231	231	230	230	229	229	228	227	226	225	224	222	221	219	217	215	215	215	215	215	216	216	214	232	230	230	229	243	244	245	245	246	248	249	249	250	249	249	250	253	253	251	250	251	255	259	259	258	259	261	260	233	234	233	236	239	240	240	
223	222	220	218	215	213	212	212	214	219	224	243	256	261	265	269	273	219	212	204	201	199	195	194	193	212	202	193	229	221	226	224	222	220	220	220	221	223	224	225	227	229	231	233	235	237	239	245	245	245	245	245	243	244	280	210	210	205	201	194	188	185	182	177	176	175	172	171	172	172	209	205	203	201	235	234	234	234	234	232	230	229	230	230	231	232	233	233	234	235	235	235	235	235	235	235	235	234	234	234	235	235	235	236	236	235	235	234	234	234	234	234	234	234	233	233	232	232	232	231	231	231	230	230	229	229	228	227	226	225	224	222	220	218	216	215	214	215	215	215	215	215	213	231	230	229	243	244	245	245	245	247	248	248	249	249	247	246	249	251	249	249	248	250	254	257	257	256	261	233	251	236	236	234	220	242	242	242	
222	221	219	217	214	212	211	212	215	220	242	243	258	263	267	272	245	217	208	203	200	198	195	193	192	208	199	232	226	218	224	223	221	219	219	220	221	223	224	226	228	229	231	233	235	238	239	245	245	245	245	245	243	246	214	213	209	206	200	193	188	185	181	177	176	175	172	171	172	171	207	203	202	200	234	234	234	233	232	230	228	228	229	230	231	232	233	234	234	235	235	235	235	235	235	235	234	234	234	234	234	235	235	236	235	235	234	234	234	234	234	234	234	233	233	233	232	232	232	231	231	231	230	230	229	228	228	227	226	225	223	222	219	217	215	214	214	215	215	215	215	214	232	230	229	229	243	244	245	244	244	246	247	247	247	246	243	242	247	249	246	246	246	247	251	251	247	242	211	212	214	211	235	224	217	243	242	242	
221	220	218	215	213	211	210	212	216	221	242	254	260	265	269	280	222	214	205	202	200	197	194	193	216	205	196	231	223	226	223	222	219	218	219	219	221	223	224	226	228	230	232	234	236	238	245	245	245	245	245	245	245	249	212	215	209	206	199	192	188	185	180	178	177	175	172	172	172	210	205	202	201	199	233	233	233	232	230	228	227	227	228	229	230	232	233	233	234	235	235	235	235	235	235	235	234	234	234	234	234	235	235	236	235	234	234	234	234	234	234	234	233	233	233	232	232	232	231	231	231	231	230	230	229	228	228	227	226	225	223	221	219	216	214	213	214	214	214	214	214	213	230	228	228	228	243	243	242	240	241	243	243	242	244	240	235	235	236	229	234	236	237	239	237	230	228	224	214	212	213	211	212	222	217	243	242	242	
219	218	216	214	211	210	210	212	218	223	242	256	262	267	271	266	220	210	203	201	199	196	194	193	212	202	193	228	220	225	223	221	219	218	218	219	221	223	225	227	229	230	232	235	237	239	245	245	246	245	245	245	245	251	215	216	209	205	198	191	188	185	180	178	177	174	172	173	172	208	203	202	200	233	232	232	232	231	229	227	227	227	228	229	230	231	232	233	234	235	235	235	234	234	234	234	234	234	234	234	234	235	236	235	235	234	234	234	234	234	234	234	233	233	233	232	232	232	231	231	231	231	230	230	229	228	228	227	226	224	223	221	218	215	213	212	213	213	213	212	212	210	227	225	224	238	241	240	238	234	233	235	233	231	222	215	219	223	219	217	226	229	230	233	233	230	229	224	212	210	212	213	213	221	214	244	244	244	
218	217	215	212	210	209	209	212	218	241	252	259	264	268	276	228	217	206	202	200	198	195	194	193	209	199	232	225	217	224	222	220	218	218	218	220	222	223	225	227	229	231	233	236	238	240	245	245	246	246	246	244	245	285	218	216	210	205	197	191	188	184	180	179	177	173	172	173	172	205	202	201	199	233	233	233	232	230	227	226	226	227	228	229	230	232	232	233	234	234	234	234	234	234	234	234	234	234	234	234	234	235	236	235	235	234	234	234	234	234	234	234	234	233	233	233	232	232	231	231	231	231	230	230	229	228	228	227	226	224	223	221	218	215	212	211	210	211	210	209	209	226	223	221	219	231	232	230	227	223	223	224	220	214	209	210	217	224	225	227	234	237	237	240	241	237	230	224	214	211	213	215	216	216	214	218	223	223	
217	216	213	211	209	208	209	213	219	241	254	261	266	270	273	223	212	203	201	200	197	195	194	193	206	196	231	222	225	223	221	219	218	218	218	220	222	224	226	228	230	232	234	237	239	245	245	246	246	246	246	245	248	238	221	215	210	204	195	191	188	183	180	179	176	173	173	173	209	204	202	200	198	232	232	232	231	229	226	225	225	226	227	229	230	231	232	233	234	234	234	234	234	234	234	234	234	234	234	234	235	236	236	235	234	234	234	234	234	234	234	234	234	233	233	233	232	232	232	231	231	231	230	230	229	228	228	227	226	225	223	221	218	214	212	209	208	209	209	208	208	207	218	218	218	224	221	221	220	219	222	222	217	212	211	218	230	240	243	245	246	246	248	249	246	239	231	224	216	214	215	214	212	214	215	219	219	219	
215	214	211	209	207	207	209	217	221	241	256	263	268	274	241	219	207	201	200	199	196	194	194	213	203	193	228	220	224	222	221	219	218	218	219	221	222	224	227	228	230	233	235	238	239	246	246	246	246	246	246	246	251	224	222	215	210	202	194	190	187	182	180	179	175	173	174	172	207	203	201	199	233	232	232	232	230	227	225	225	225	227	228	229	230	231	232	233	234	234	234	234	234	234	234	234	234	234	234	234	235	236	236	235	234	234	234	234	234	234	234	234	234	233	233	233	232	232	232	231	231	231	230	230	229	229	228	227	226	225	223	221	218	215	213	210	209	211	211	211	211	210	208	222	221	219	221	221	219	219	223	223	218	213	219	234	244	249	248	246	247	250	251	248	240	234	230	223	216	216	216	213	213	213	216	217	222	222	
213	212	210	207	206	206	209	216	239	251	259	265	270	284	225	214	203	200	199	198	195	194	194	210	199	231	225	217	223	222	220	218	218	218	219	221	223	225	228	229	231	233	236	239	246	246	246	247	247	247	247	247	254	224	224	215	209	200	193	190	187	182	181	178	174	174	174	212	205	202	201	199	233	233	233	232	230	226	225	224	225	227	228	230	231	231	232	233	234	234	234	234	234	234	234	234	233	233	234	235	236	236	235	235	234	234	234	234	234	234	234	234	234	233	233	233	233	232	232	232	231	231	230	230	229	229	228	227	226	225	224	222	219	216	215	213	212	214	215	215	214	212	210	225	224	221	221	222	217	217	222	223	221	224	238	244	245	242	237	237	241	245	245	241	233	229	226	222	219	220	217	215	224	212	218	221	223	223	
212	210	208	206	204	205	210	216	239	253	262	267	273	271	221	208	201	199	199	197	195	194	193	206	196	230	222	225	223	221	219	218	218	219	220	222	224	226	228	230	232	234	237	240	246	246	247	247	247	247	246	248	255	227	223	215	208	198	193	190	186	182	181	177	174	174	174	210	204	202	200	197	233	233	233	232	229	226	224	224	225	227	228	230	231	231	232	234	234	234	234	234	234	234	234	234	233	233	234	235	236	236	235	235	234	234	234	234	234	234	234	234	234	233	233	233	233	232	232	232	231	231	231	230	230	229	228	228	227	226	225	223	220	217	217	215	213	214	215	217	216	212	211	224	225	225	225	224	220	221	225	228	232	240	243	242	240	234	231	233	237	239	236	232	228	225	224	223	224	224	219	227	224	213	219	222	220	220	
210	209	206	204	203	205	211	218	239	256	264	269	280	228	216	203	199	199	199	196	194	194	214	203	193	227	219	224	222	220	219	218	218	219	220	222	225	227	229	231	233	236	238	240	247	247	247	247	247	247	246	249	289	228	222	215	206	197	193	190	185	182	180	176	174	174	173	208	204	201	199	234	233	233	233	231	228	225	224	224	226	227	229	230	231	231	232	234	234	233	233	234	234	234	234	234	233	233	235	236	236	236	235	235	234	234	234	234	234	234	234	234	234	233	233	233	233	232	232	232	231	231	231	230	230	229	229	228	227	226	225	224	222	220	219	217	214	213	214	216	216	214	212	215	224	226	226	227	227	229	232	236	239	240	239	237	233	231	233	234	237	236	231	228	225	222	221	226	230	232	223	228	243	213	222	220	222	222	
208	207	204	202	202	205	214	237	249	259	267	272	291	223	210	200	198	198	198	195	194	194	210	199	230	224	216	223	221	220	219	218	218	219	221	223	226	228	230	231	234	237	240	247	247	247	248	248	248	248	247	252	242	230	222	214	205	196	193	190	184	181	179	175	174	174	215	207	203	201	198	234	234	234	233	231	227	224	223	224	226	228	229	231	231	231	233	234	234	233	233	233	233	233	234	233	233	233	235	237	236	235	235	234	234	234	234	234	234	234	234	234	234	234	233	233	233	233	232	232	232	231	231	231	230	230	229	228	228	227	226	225	224	223	222	220	217	214	214	216	218	216	214	216	219	227	227	229	232	233	238	238	237	234	233	234	234	235	237	236	238	236	230	228	225	222	224	232	237	237	224	229	242	217	223	220	220	220	
206	204	202	200	201	206	213	236	253	263	269	278	231	218	204	198	197	198	197	194	194	193	206	196	229	221	224	222	221	219	219	218	219	220	222	224	227	229	230	232	235	238	241	247	247	248	248	248	248	248	249	256	237	231	221	213	203	196	194	189	184	181	178	175	175	174	213	207	203	201	197	235	235	235	233	230	226	223	223	225	226	228	230	231	231	232	233	234	233	233	233	234	234	234	234	233	233	233	235	236	235	235	235	234	234	234	234	234	234	234	234	234	234	234	233	233	233	233	232	232	232	231	231	231	230	230	229	229	228	227	227	226	225	224	223	222	219	216	216	218	221	220	217	217	219	227	227	229	232	231	238	237	234	231	231	235	235	237	237	236	237	236	232	229	226	227	237	241	239	237	224	226	241	215	222	221	226	226	
203	202	199	198	200	206	215	236	256	266	273	257	224	212	200	196	197	197	196	194	194	214	202	193	226	218	223	222	220	219	219	219	220	221	223	226	228	230	231	234	237	240	248	248	248	248	249	249	248	247	250	257	236	231	221	212	202	197	194	189	184	181	176	175	175	172	213	206	204	200	237	236	236	236	234	230	225	223	223	225	227	229	231	231	231	233	234	233	233	233	233	233	233	234	234	233	233	233	235	236	236	235	235	234	234	234	234	234	234	234	234	234	234	234	233	233	233	233	232	232	232	232	231	231	231	230	230	229	228	228	227	227	226	225	224	223	221	219	217	219	223	223	220	219	220	223	229	230	231	228	229	231	231	230	233	237	238	239	239	236	235	236	234	231	232	241	246	242	238	236	224	248	241	215	222	226	223	223	
200	199	197	197	200	207	233	248	260	269	277	233	218	205	197	195	196	197	194	193	193	210	199	230	223	215	222	221	220	219	219	219	221	223	225	227	230	231	233	235	238	241	249	249	249	249	250	250	249	247	251	300	237	231	222	211	203	199	195	189	184	179	174	175	174	222	212	206	204	200	240	238	237	236	233	229	225	223	224	226	227	229	231	232	232	233	234	233	233	233	233	233	233	233	233	233	233	233	234	236	236	235	235	234	234	234	234	234	234	234	234	234	234	234	233	233	233	233	233	232	232	232	232	231	231	230	230	229	229	228	228	227	227	226	225	224	223	221	219	219	223	224	222	220	220	222	224	230	229	226	226	228	228	229	235	239	241	242	241	237	235	235	237	239	244	247	244	238	237	234	224	247	240	216	222	221	230	230	
198	196	195	195	200	209	233	252	264	272	295	222	211	199	194	194	196	196	193	193	193	206	195	228	220	223	222	221	220	219	219	220	222	224	227	230	231	232	234	237	240	249	250	250	250	250	251	251	250	249	256	263	240	232	223	211	204	200	198	189	180	173	169	170	167	226	216	207	204	246	244	242	240	237	233	228	224	222	224	226	228	229	231	232	232	233	234	233	233	233	233	233	234	234	234	234	233	233	234	236	236	235	235	234	234	234	234	234	234	234	234	234	234	234	233	233	233	233	233	232	232	232	232	231	231	231	230	230	229	229	228	228	227	227	226	225	224	223	221	220	223	225	223	220	219	222	225	230	229	227	228	230	231	233	237	239	239	238	236	233	232	238	243	246	248	248	245	241	236	229	224	246	237	218	219	226	229	229	
195	193	192	194	200	210	233	256	267	277	239	218	204	196	194	195	195	194	192	193	192	202	192	225	217	223	222	221	220	220	220	222	224	226	229	232	233	234	236	239	242	251	252	252	252	253	254	253	251	252	259	245	238	231	224	213	208	211	215	198	162	150	162	168	154	234	228	219	212	246	246	246	244	241	235	229	224	223	225	227	228	229	231	233	232	233	233	233	233	233	233	233	234	234	234	233	233	233	234	235	236	235	234	234	234	234	234	234	234	234	234	234	234	234	234	233	233	233	233	233	232	232	232	231	231	231	230	230	230	229	229	228	228	227	227	226	225	224	223	221	223	226	226	223	222	224	227	229	230	229	230	232	233	236	237	238	237	234	231	229	235	244	247	245	244	247	248	241	231	226	222	241	234	218	220	227	235	235	
191	190	189	193	200	212	245	261	272	295	223	212	199	194	194	194	195	193	193	193	210	198	228	222	214	222	221	221	220	220	221	223	226	229	232	235	236	237	239	241	245	253	254	254	255	257	259	258	255	254	256	281	267	265	266	268	273	272	263	264	287	304	256	204	155	237	235	236	240	236	242	242	243	242	237	230	225	224	226	228	229	229	231	233	232	233	233	233	233	233	234	234	234	234	234	233	234	233	233	234	235	235	234	234	234	234	234	234	234	234	234	234	234	234	234	233	233	233	233	233	232	232	232	232	231	231	231	230	230	230	229	229	229	228	228	227	226	225	224	223	224	228	229	227	225	225	229	231	232	231	231	231	232	235	235	237	237	231	231	234	241	245	245	241	242	246	246	232	226	222	241	235	241	229	221	235	235	235	
187	186	187	191	201	227	250	266	278	241	219	204	195	193	194	195	194	192	192	192	206	195	226	218	222	221	221	221	221	222	223	226	229	233	236	239	240	242	243	244	253	255	256	257	257	260	263	262	260	257	276	279	268	264	264	263	264	264	259	260	270	282	266	217	177	244	239	236	236	225	239	236	237	238	235	227	224	225	227	229	230	230	232	233	233	233	234	233	233	234	234	234	234	234	234	233	234	234	233	234	235	235	234	234	234	234	234	234	234	234	234	234	234	234	234	234	233	233	233	233	233	232	232	232	232	231	231	231	230	230	230	229	229	229	228	228	227	227	226	224	224	227	228	227	225	225	228	230	231	230	234	232	233	234	234	234	232	229	234	239	242	243	242	240	242	246	244	226	223	241	235	244	240	224	226	247	238	238	
183	183	184	190	202	226	256	272	298	224	211	197	193	193	194	194	192	192	192	213	202	192	222	215	221	221	222	222	223	224	227	230	234	237	240	242	244	246	247	246	253	252	252	252	273	277	261	260	259	258	264	197	269	258	255	252	249	254	254	254	258	266	270	270	280	311	250	244	235	220	240	235	234	234	232	223	221	224	227	228	229	231	233	233	233	234	234	233	233	233	234	234	234	234	233	233	234	234	234	235	236	236	235	234	234	234	234	234	234	234	234	234	234	234	234	234	233	233	233	233	233	232	232	232	232	231	231	231	231	231	230	230	230	229	229	229	228	228	227	226	224	225	226	225	223	224	226	228	229	229	234	233	234	235	235	232	233	236	241	244	244	244	242	240	243	245	243	226	241	235	245	244	239	212	242	250	237	237	
177	178	181	190	203	241	264	281	235	219	203	194	192	193	194	193	191	191	192	208	198	224	218	220	220	221	222	223	225	228	232	235	238	240	243	244	244	245	249	246	245	246	263	264	269	273	258	258	256	349	256	254	246	250	241	240	245	252	251	246	244	248	254	260	270	289	297	252	246	227	241	238	237	235	231	222	219	224	227	229	230	231	233	233	233	234	234	233	233	233	234	234	234	234	234	234	234	234	235	235	236	236	235	235	234	234	234	234	234	234	234	234	234	234	234	234	234	233	233	233	233	233	232	232	232	232	231	231	231	231	231	230	230	230	230	229	229	228	228	227	225	224	225	225	224	223	226	228	228	229	232	233	234	235	236	239	243	245	247	248	248	246	243	242	245	247	243	226	238	231	242	240	233	217	246	241	237	237	
171	172	180	190	215	250	274	305	224	212	198	192	191	192	192	191	190	190	191	204	195	221	215	220	220	221	223	225	227	230	233	235	238	240	241	242	248	245	242	240	263	261	259	271	265	255	255	254	333	253	1	153	251	251	215	231	241	245	241	233	229	232	241	246	256	275	278	249	246	229	241	241	241	239	234	225	220	223	227	229	230	231	232	232	233	234	233	233	233	234	234	234	234	234	234	234	235	234	234	235	235	236	236	235	235	234	234	234	234	234	234	234	234	234	234	234	234	233	233	233	233	233	232	232	232	232	232	232	231	231	231	231	231	230	230	230	230	229	229	228	228	227	228	229	227	226	228	229	229	230	230	233	235	236	236	238	243	244	247	249	247	246	246	246	247	246	239	226	234	242	240	236	228	218	242	250	253	253	
164	164	173	184	227	261	289	228	218	205	194	188	187	188	190	189	189	189	209	201	224	218	222	222	222	223	224	226	228	231	233	234	235	242	242	242	240	238	263	262	262	259	268	274	260	261	253	323	248	336	252	251	343	195	205	219	233	236	232	223	219	228	237	237	245	256	254	247	244	231	204	241	241	240	237	230	223	224	228	230	230	232	232	231	233	234	233	233	233	234	234	234	234	234	234	234	234	234	234	235	234	234	235	236	235	234	234	234	234	234	234	234	234	234	234	234	234	233	233	233	233	233	233	232	232	232	232	232	232	231	231	231	231	231	231	231	230	230	230	230	229	230	231	232	231	230	230	230	230	230	230	230	234	235	236	238	240	242	246	247	244	245	246	246	246	243	235	225	230	241	238	233	225	223	237	248	252	252	
157	157	158	169	240	267	287	256	228	209	217	242	201	187	189	191	192	214	206	226	221	221	221	222	223	224	224	226	229	231	234	235	241	240	238	267	265	259	256	255	268	270	272	279	255	256	253	249	247	249	248	249	318	301	255	237	230	230	231	232	240	247	242	225	209	203	218	239	244	238	213	239	238	238	236	232	227	225	229	231	231	233	233	232	234	235	234	233	234	234	234	234	234	234	234	234	234	234	235	235	234	234	235	236	235	234	234	234	234	234	234	234	234	234	234	234	234	234	233	233	233	233	233	232	232	232	232	232	232	232	231	231	231	231	231	231	231	231	231	230	231	231	232	233	232	231	229	229	230	230	231	230	230	232	235	239	242	242	244	243	242	244	245	244	241	237	230	225	229	224	236	230	222	225	236	249	254	254	
151	152	147	153	239	262	277	283	278	270	273	247	198	192	193	195	218	208	230	226	222	220	220	221	223	223	224	226	228	236	236	237	237	261	265	266	262	256	265	266	268	270	279	284	259	213	153	245	245	332	243	325	310	293	283	261	243	238	239	245	252	255	252	237	211	191	203	232	231	233	222	235	236	237	236	235	231	227	228	230	231	233	233	234	236	235	234	234	234	234	234	234	234	234	234	234	234	235	235	235	234	235	236	236	235	234	234	234	234	234	234	234	234	234	234	234	234	234	233	233	233	233	233	233	232	232	232	232	232	232	232	232	232	232	232	231	231	231	231	231	232	232	232	232	231	230	228	228	229	230	231	231	231	234	237	239	237	238	242	245	242	244	244	239	235	233	227	225	227	223	237	229	223	230	240	252	252	252	
147	147	148	159	226	253	277	274	242	204	189	191	195	196	193	193	212	201	226	223	220	218	218	219	221	222	224	226	229	234	233	255	254	256	258	259	266	265	265	266	269	274	288	255	231	227	240	239	311	240	320	314	301	286	281	253	241	243	241	243	244	247	248	244	237	239	246	220	212	228	223	221	233	235	236	236	235	230	229	230	231	233	234	234	236	235	234	234	234	235	235	234	234	234	233	234	235	235	234	234	235	235	236	236	235	235	234	234	234	234	234	234	234	234	234	234	234	234	234	233	233	233	233	233	233	233	232	232	232	232	232	232	232	232	232	232	232	232	232	232	232	232	232	232	232	231	230	229	229	229	230	230	230	231	239	240	239	239	244	246	241	241	240	232	231	231	225	227	223	242	237	229	215	236	239	243	243	243	
144	144	155	170	221	256	271	223	202	193	191	195	196	196	192	216	206	226	219	218	216	215	215	216	218	220	223	229	230	249	250	251	252	271	275	270	265	265	264	265	269	279	277	256	254	248	240	298	310	318	297	297	293	288	259	250	243	241	232	228	233	241	242	238	232	234	240	225	210	206	223	218	231	233	234	234	235	232	229	231	232	233	234	234	235	235	234	234	234	234	234	234	234	234	234	235	235	235	235	235	235	235	235	235	235	235	235	234	234	234	234	234	234	234	234	234	234	234	234	234	233	233	233	233	233	233	232	232	232	233	233	233	232	232	232	232	232	232	232	232	232	232	232	232	233	233	233	232	231	230	230	230	229	231	238	240	243	244	247	246	241	240	239	230	229	230	223	224	221	240	236	227	227	239	233	244	246	246	
142	143	158	166	182	252	254	228	204	194	193	195	194	192	191	212	203	222	217	214	211	211	213	215	216	218	222	223	241	243	243	258	265	272	275	270	266	265	265	266	271	282	263	259	246	242	240	284	83	105	78	293	134	168	215	235	232	229	220	223	240	242	237	230	222	218	225	221	206	190	220	219	228	231	233	233	234	233	231	232	233	234	235	234	235	236	234	234	234	234	234	235	235	234	235	235	235	235	235	235	235	235	235	235	235	235	235	235	234	235	235	235	235	234	234	234	234	234	234	234	234	233	233	233	233	233	233	233	233	233	233	233	233	232	232	232	232	233	233	233	233	233	233	233	233	234	234	235	234	232	232	231	229	232	235	240	245	246	246	244	241	241	238	228	228	230	224	223	242	239	235	228	223	231	235	251	255	255	
141	142	155	156	153	249	235	222	207	194	193	197	196	189	215	207	199	215	213	210	208	210	212	214	216	217	219	239	240	241	257	262	268	273	275	269	265	266	266	267	273	278	253	247	254	327	155	158	121	69	98	141	148	151	167	180	186	190	198	215	237	234	228	224	220	216	218	214	202	187	221	218	218	222	232	234	235	234	232	233	235	236	237	236	235	236	235	235	235	235	235	235	235	235	235	236	235	235	235	235	235	235	235	235	235	235	235	235	234	235	235	235	235	235	234	234	234	234	234	234	234	234	233	233	233	233	233	233	233	233	233	233	233	233	233	233	233	233	233	233	233	233	234	234	234	234	234	235	235	234	233	230	229	232	235	242	247	249	249	245	242	240	234	225	223	228	226	222	241	238	235	230	221	234	241	251	255	255	
141	141	147	142	141	248	220	212	206	197	195	199	195	187	210	203	220	213	210	207	206	208	211	213	216	218	219	240	239	253	259	265	271	276	278	267	266	268	267	268	275	272	250	199	153	138	162	157	136	86	101	150	145	130	179	181	181	181	184	191	197	204	211	214	214	210	214	218	209	198	180	220	212	213	228	233	234	234	232	233	235	238	239	238	236	236	236	236	235	235	235	235	235	235	235	235	235	235	235	235	235	235	235	235	235	235	235	235	235	234	235	235	235	235	234	234	234	234	234	234	234	234	233	233	233	233	233	233	233	233	233	233	233	233	233	233	233	233	233	233	234	234	234	234	234	234	234	234	235	234	233	230	229	232	233	237	249	252	251	248	245	240	231	225	219	224	227	222	240	236	235	228	223	240	243	253	257	257	
142	141	139	128	127	248	217	208	205	198	198	200	196	188	205	197	215	211	208	205	204	207	211	213	217	218	240	240	237	254	260	266	270	273	273	268	269	271	270	271	282	277	211	166	138	137	153	163	186	194	150	158	156	154	184	189	184	180	180	185	197	207	209	208	207	206	212	223	229	226	214	229	225	225	232	232	233	234	234	234	235	239	242	240	238	237	237	236	235	235	235	235	235	235	235	235	235	235	235	236	236	236	235	235	235	235	236	236	235	234	235	235	235	235	234	234	234	234	234	234	234	234	234	233	233	233	233	233	233	233	233	233	233	233	233	233	234	234	234	234	234	234	234	234	234	234	234	234	234	234	233	231	230	232	233	236	248	249	248	247	244	237	229	225	218	222	226	225	240	236	234	229	233	238	247	254	257	257	
144	142	136	120	119	249	228	213	205	199	198	197	195	190	203	217	212	209	206	203	203	206	210	213	216	219	240	238	252	256	262	267	269	270	267	267	271	273	273	275	287	233	191	156	137	128	150	173	182	173	157	148	149	151	161	177	180	177	180	188	220	225	220	213	212	220	228	234	236	232	224	220	228	231	235	234	234	232	232	232	232	236	240	242	240	239	238	237	236	235	235	235	235	235	236	236	236	235	235	236	236	236	235	235	235	235	236	236	235	235	235	235	235	235	235	234	234	234	234	234	234	234	234	234	234	234	233	233	233	233	233	233	233	234	234	234	234	234	234	234	234	234	234	234	234	234	234	234	234	234	233	230	229	232	234	237	245	244	243	242	242	230	225	223	220	222	225	226	245	239	235	227	236	243	249	255	256	256	
148	145	138	125	135	242	245	217	207	203	202	203	197	211	203	216	212	208	204	202	202	205	209	212	216	239	238	250	253	258	263	267	268	269	268	268	271	273	273	277	292	235	190	156	137	121	139	156	157	160	157	153	155	153	151	172	180	178	188	216	231	220	219	217	217	222	227	233	234	229	222	218	221	232	237	235	234	231	230	228	229	232	238	242	242	240	239	238	237	236	236	236	236	236	236	236	235	235	235	236	236	235	235	235	235	235	235	236	235	235	235	235	235	235	235	235	234	234	234	234	234	234	234	234	234	234	234	234	234	234	234	234	234	234	234	234	234	234	234	234	234	234	234	234	234	235	235	235	235	234	234	231	229	231	235	239	242	242	240	237	236	236	234	234	233	224	224	222	242	236	228	238	242	245	251	257	254	254	
152	149	143	148	152	161	252	220	210	207	204	201	197	208	221	215	211	206	202	201	202	206	210	213	216	236	234	250	253	258	261	264	265	266	266	267	271	276	275	279	259	223	197	177	157	137	145	157	160	160	160	160	153	133	134	161	173	175	177	197	212	211	214	216	215	217	225	230	229	227	224	223	233	245	235	235	233	227	231	229	230	233	237	242	244	243	241	238	237	236	236	236	236	236	236	236	235	235	235	236	236	236	235	236	235	235	235	235	235	235	235	235	235	235	235	235	235	234	234	234	234	234	234	234	234	234	234	234	234	234	234	234	234	234	234	234	234	234	234	234	234	235	235	235	235	235	235	235	235	235	234	233	232	234	238	241	243	242	240	236	234	233	232	231	231	232	231	243	240	227	234	239	243	247	251	255	256	256	
159	155	150	154	146	147	254	223	214	210	208	201	214	204	219	214	210	205	201	201	203	207	214	216	219	236	249	250	253	257	258	259	261	262	264	266	273	283	286	294	185	197	180	166	159	153	155	158	159	162	163	160	151	132	220	199	177	169	165	173	192	204	210	214	219	224	232	231	228	227	225	223	230	236	235	232	233	234	233	231	231	233	237	240	243	245	244	241	237	236	236	236	236	236	236	236	235	236	236	236	236	236	236	236	235	235	235	235	235	235	235	235	235	235	235	235	235	234	234	234	234	234	234	234	234	234	234	234	234	234	234	234	234	234	234	234	234	234	234	234	235	235	235	235	235	235	235	235	235	235	235	235	236	240	244	245	246	250	241	238	236	230	229	228	229	230	242	239	230	235	236	239	245	247	250	258	256	256	
165	162	156	152	137	137	255	225	215	216	207	222	211	222	218	213	210	205	202	202	205	209	214	218	239	237	252	252	255	258	257	257	260	264	265	270	284	275	137	196	187	180	174	167	163	162	160	155	159	168	166	159	177	208	249	207	183	173	165	169	181	195	203	211	220	223	230	231	233	232	228	227	230	233	234	233	233	235	235	236	230	231	234	237	239	242	245	243	238	236	236	236	236	236	236	236	236	236	236	237	237	236	236	236	236	235	235	236	235	235	235	235	235	235	235	235	235	235	234	234	234	234	234	234	234	234	234	234	234	234	234	234	234	234	234	234	234	234	235	235	235	235	235	235	235	235	235	235	235	235	236	237	240	244	247	247	248	251	252	240	236	231	227	225	228	229	242	228	236	237	250	244	245	247	257	255	254	254	
171	168	162	152	129	128	255	231	222	215	208	217	226	221	218	213	210	206	205	204	207	212	217	221	241	238	255	254	256	258	256	257	260	264	266	278	333	166	187	193	194	184	174	173	169	165	159	151	159	170	171	203	195	179	167	167	172	170	164	166	173	184	199	210	213	215	223	228	230	228	224	225	229	233	237	240	233	235	234	232	242	228	231	232	233	236	239	241	238	236	237	237	236	237	237	237	237	237	237	237	237	236	236	236	236	236	236	236	235	235	235	235	235	235	235	235	235	235	235	234	234	234	234	234	234	234	234	234	234	234	234	234	234	234	234	235	234	235	235	235	235	235	235	235	235	235	235	235	236	236	237	238	240	243	245	245	249	252	253	250	233	233	225	241	229	230	231	242	238	240	240	245	246	253	251	251	249	249	
177	175	168	155	127	126	254	230	222	217	227	214	225	221	217	213	210	208	207	207	210	215	219	242	243	257	257	256	256	257	256	257	259	262	269	284	190	187	192	193	198	196	185	173	175	168	157	149	158	163	160	159	162	163	164	169	170	167	163	164	168	172	179	192	203	210	217	220	223	222	220	220	223	225	227	232	233	235	231	232	241	247	242	230	230	230	232	234	234	235	237	236	236	236	236	237	237	237	237	237	237	237	236	236	236	236	236	236	235	235	235	235	235	235	235	235	235	235	235	235	235	235	234	234	234	234	234	234	234	234	234	234	234	234	235	235	235	235	235	235	235	235	235	235	235	235	235	236	236	237	238	239	240	242	243	244	249	254	254	250	246	245	225	238	238	237	245	238	241	241	252	251	249	245	245	247	245	245	
183	182	175	162	137	144	254	237	224	234	224	230	224	221	217	214	211	210	210	210	212	216	220	239	254	257	257	257	257	259	259	260	261	260	266	198	203	193	198	198	193	197	201	193	175	171	157	153	159	160	158	162	166	167	168	171	170	166	163	163	164	165	171	175	184	197	206	212	221	223	224	223	222	221	223	230	229	226	229	228	234	240	239	236	232	232	232	231	230	232	236	236	236	236	236	237	237	237	238	238	238	237	237	237	237	237	236	236	235	235	235	235	235	235	235	235	235	235	235	235	235	235	234	234	234	234	234	234	234	234	234	234	235	235	235	235	235	235	235	235	235	235	235	235	235	235	236	236	236	237	238	239	241	242	242	243	250	254	253	249	246	245	242	237	235	244	236	239	241	248	249	246	243	242	244	248	246	246	
189	189	183	171	153	162	252	248	243	230	219	228	222	219	216	214	213	212	212	213	214	216	237	237	254	257	258	257	257	258	260	262	264	264	215	215	205	190	191	198	196	194	219	219	186	171	162	158	161	162	166	164	164	166	170	173	172	168	164	162	167	167	173	183	183	180	188	197	210	217	218	217	217	220	227	231	230	226	223	229	228	235	238	233	235	235	234	232	230	230	233	237	238	239	238	239	239	239	239	238	238	238	238	237	237	237	236	236	235	235	235	235	235	234	234	234	235	235	235	235	235	235	235	235	235	235	234	234	234	235	235	235	235	235	235	235	235	235	235	235	235	235	235	235	235	235	236	236	237	237	238	239	241	242	242	245	251	254	252	249	246	244	241	236	234	244	246	247	247	247	244	241	241	245	249	253	255	255	
195	195	191	181	168	164	247	250	242	223	233	226	221	218	215	214	214	214	214	214	214	215	234	252	256	256	257	256	255	255	258	260	263	268	209	209	199	192	187	193	227	194	212	217	215	180	167	173	175	175	174	173	175	169	169	173	175	172	167	163	169	174	179	185	189	191	189	183	183	188	198	205	205	209	218	221	220	218	214	217	224	227	232	236	235	234	233	231	230	230	231	236	240	241	241	241	241	241	240	239	238	238	238	237	237	237	236	236	236	235	235	235	235	234	234	233	234	234	234	234	234	234	234	234	235	235	235	235	235	235	235	235	235	235	235	235	235	235	235	235	235	235	235	235	235	236	236	236	237	237	238	239	240	241	243	246	251	254	253	250	247	243	239	236	235	241	242	243	243	242	240	240	245	248	251	255	254	254	
200	200	197	190	185	161	193	251	236	233	230	226	222	218	215	215	215	217	218	218	216	214	231	249	254	258	255	253	253	253	254	257	259	207	209	200	184	176	157	142	157	182	206	242	216	209	201	185	184	181	180	180	182	185	187	185	180	172	170	177	181	176	173	178	186	193	197	196	196	213	193	187	190	188	197	205	208	207	201	197	201	213	222	226	227	225	231	231	231	230	229	234	239	242	243	242	242	242	242	241	240	239	239	238	237	237	236	236	236	236	235	235	234	234	234	234	234	234	234	234	234	234	234	234	234	234	234	235	234	234	235	234	234	234	234	235	235	235	235	235	235	235	235	235	235	236	236	236	237	237	238	239	240	241	242	245	248	250	250	248	244	241	238	237	237	237	241	240	240	239	238	242	245	246	249	253	251	251	
204	205	203	199	193	157	195	250	232	231	228	225	222	219	217	217	218	221	225	226	222	239	232	246	249	254	253	251	250	251	251	251	246	214	206	196	181	166	159	145	232	140	149	198	241	241	238	236	232	227	222	221	189	190	193	193	192	192	192	194	192	189	184	186	188	191	195	195	215	215	215	212	195	188	187	188	186	194	194	188	182	184	192	218	219	219	229	231	233	231	231	235	239	241	243	243	243	243	243	243	242	241	240	239	238	237	236	236	236	236	235	235	235	235	234	234	234	235	234	234	235	234	234	234	234	234	234	234	234	234	234	234	234	234	234	235	235	235	235	234	235	235	235	235	235	235	235	236	237	238	239	239	240	240	241	243	245	247	247	245	241	240	240	239	238	238	238	238	239	237	236	238	236	238	243	249	249	249	
208	209	208	206	198	162	216	251	243	232	228	224	222	220	219	220	223	227	232	234	232	248	237	244	244	250	254	252	249	247	247	245	243	212	203	197	182	174	165	155	148	152	153	161	189	238	236	234	231	227	224	223	220	236	236	209	194	198	197	196	196	196	223	222	221	220	221	219	216	216	214	212	210	206	202	232	203	197	191	189	182	180	182	214	217	216	216	231	231	231	233	237	241	243	243	244	245	244	244	244	244	242	241	240	239	238	237	237	236	236	235	236	236	235	234	233	234	235	234	234	234	234	234	235	235	234	234	234	234	234	234	234	235	235	235	235	235	235	235	235	235	235	235	235	235	235	236	236	237	238	239	239	240	240	240	242	244	246	246	245	244	244	244	242	240	241	241	236	238	236	234	236	239	242	242	250	249	249	
212	213	213	212	204	170	220	251	243	231	228	225	223	222	221	223	226	232	238	241	242	264	249	246	244	248	252	250	247	245	245	245	239	207	201	183	179	172	172	175	187	209	205	196	190	233	231	230	230	242	241	241	240	239	239	241	207	200	237	197	196	195	225	225	224	222	220	219	216	215	214	211	209	207	202	200	235	234	197	191	184	182	184	214	215	218	218	230	231	231	234	238	241	244	244	245	248	249	248	247	247	245	243	241	239	238	237	237	236	236	236	236	236	235	234	234	234	234	234	234	234	234	235	235	235	235	234	234	234	234	234	235	235	235	235	235	235	235	235	235	235	235	235	235	235	236	236	237	238	238	238	239	239	239	240	241	243	244	245	246	247	248	247	245	244	245	245	245	238	236	235	237	240	244	249	254	253	253	
215	216	216	216	211	179	220	251	242	231	228	226	223	222	222	224	227	233	257	263	269	278	268	249	248	236	237	238	241	242	246	246	247	207	190	184	178	188	190	191	212	204	204	235	232	229	228	227	226	242	242	242	241	241	242	243	242	241	237	241	199	195	227	227	225	222	219	219	217	215	214	212	210	206	204	202	236	236	234	230	226	223	184	231	232	216	215	229	230	232	236	239	241	243	243	245	247	249	249	250	251	250	246	242	239	238	237	237	236	236	236	236	235	235	235	235	234	234	234	234	234	234	234	234	234	234	234	234	234	235	235	235	235	234	234	235	235	235	234	235	235	235	235	235	236	236	236	237	237	238	238	238	238	238	239	241	242	242	243	245	247	249	249	247	246	248	248	249	249	248	239	240	241	243	249	255	254	254	
217	218	218	219	216	196	227	249	242	232	229	227	225	224	224	226	230	250	254	255	257	295	272	272	254	241	241	240	241	244	245	247	244	209	207	200	199	193	195	219	209	202	198	233	230	228	227	228	182	223	241	241	241	241	242	244	202	201	239	238	201	195	186	226	227	225	223	220	218	216	215	212	210	207	204	239	238	237	235	233	230	236	236	238	240	240	235	230	229	232	236	238	240	241	241	243	245	245	245	247	250	251	247	241	239	238	237	237	236	236	236	235	235	235	235	235	235	234	233	233	234	234	234	234	234	234	234	235	235	235	235	235	235	234	234	235	235	234	235	235	235	235	235	235	236	236	236	236	237	237	238	238	238	238	239	240	241	242	243	244	245	248	249	249	247	248	248	249	249	248	247	239	241	244	250	258	254	254	
219	219	220	220	219	210	230	246	241	233	230	227	226	226	228	230	234	251	251	272	282	246	246	292	263	244	243	242	243	245	245	246	249	212	207	205	197	196	220	212	206	203	234	229	227	239	242	243	243	240	239	240	240	241	243	201	200	198	194	193	188	177	159	228	225	226	224	222	220	246	244	242	240	240	187	186	238	236	235	239	240	239	239	230	247	250	245	256	255	252	249	237	238	238	239	241	242	243	244	245	248	250	246	241	240	239	238	237	237	236	235	235	235	235	235	235	235	235	234	233	233	234	234	234	234	234	235	235	235	234	234	235	235	235	235	235	235	235	235	235	235	235	235	235	235	236	236	236	237	237	238	237	237	238	239	240	240	241	242	243	243	245	247	248	247	248	249	249	249	248	247	246	242	246	252	258	256	256	
220	220	221	221	220	215	228	243	240	234	230	228	227	228	231	233	246	245	267	274	284	244	244	244	274	244	243	242	243	247	247	249	252	229	219	205	233	223	216	208	236	235	232	225	227	178	169	171	177	237	237	238	239	242	200	198	195	164	145	118	278	265	204	148	134	127	144	176	218	218	246	245	244	244	244	241	237	234	237	196	201	191	242	239	241	249	249	253	256	254	252	253	238	238	239	240	240	242	244	247	250	249	245	242	241	240	238	238	237	236	236	236	235	235	235	235	235	235	234	234	234	233	233	234	234	234	235	235	234	234	235	235	235	235	235	235	235	235	235	235	235	235	235	235	235	235	236	236	237	238	237	237	237	237	238	239	240	240	241	241	242	244	245	245	245	247	250	251	251	249	246	245	245	248	252	256	256	256	
220	221	221	220	219	215	221	236	238	234	230	228	228	230	232	245	243	262	265	280	244	242	240	240	299	244	243	242	244	246	248	252	254	224	213	233	226	221	238	237	236	236	230	226	148	149	153	225	235	235	235	236	239	193	195	165	146	345	238	238	241	293	267	291	240	327	225	158	158	166	173	169	173	180	243	241	237	236	237	197	203	249	233	237	268	244	246	251	254	254	252	252	254	239	240	240	240	241	245	249	252	250	246	242	241	240	239	238	236	236	236	236	235	235	235	234	234	234	234	234	234	234	233	234	234	235	235	235	235	235	235	235	235	235	235	235	235	235	235	235	235	235	235	235	235	236	236	236	237	237	237	237	237	237	238	239	239	240	240	241	242	242	243	243	243	245	249	251	251	249	246	245	245	251	253	255	255	255	
221	220	220	219	217	213	214	228	235	234	230	228	228	229	240	241	261	260	269	289	246	242	239	239	241	276	242	243	246	248	251	254	255	251	238	227	242	241	241	240	238	234	231	236	238	239	238	236	235	235	235	237	169	175	179	193	238	238	240	242	246	298	287	239	314	325	168	160	155	180	173	177	184	192	192	238	235	235	238	195	234	228	232	237	265	267	272	249	252	255	254	250	250	251	254	238	238	240	244	248	251	250	248	244	242	241	240	238	237	236	236	236	235	235	235	234	234	234	234	234	234	234	234	233	234	234	235	235	235	235	235	235	235	235	235	235	235	235	235	235	235	235	235	235	236	236	236	236	237	237	237	237	237	237	239	239	239	240	240	240	241	241	241	242	242	244	247	249	249	247	246	245	246	251	251	254	253	253	
220	220	219	217	215	210	207	220	232	236	231	230	229	240	238	259	261	262	269	259	246	241	239	240	240	290	239	243	248	251	254	256	252	243	232	242	241	241	241	240	237	234	237	238	242	243	242	240	238	237	238	176	188	173	174	279	234	237	239	242	247	297	300	290	298	287	235	211	144	153	175	182	178	185	187	187	185	176	180	259	230	229	231	238	241	264	268	271	249	252	255	253	251	249	247	253	260	265	243	247	248	247	245	244	244	242	239	238	237	236	236	236	235	234	234	234	234	234	234	234	234	234	234	234	234	234	234	234	235	235	235	235	234	235	235	235	235	235	235	235	235	235	235	236	236	236	236	236	237	237	237	237	237	237	238	239	239	239	239	240	240	240	240	241	241	242	246	247	245	243	245	245	246	248	248	253	251	251	
219	219	217	215	212	207	201	212	229	232	230	247	245	255	257	259	259	261	266	256	243	238	238	239	238	295	275	242	248	251	254	256	243	250	246	243	242	241	240	239	237	237	238	239	241	243	242	241	241	242	242	242	242	167	239	237	236	236	237	240	280	288	302	304	294	256	240	250	225	239	223	180	169	175	235	233	230	182	277	230	231	232	236	238	271	268	268	268	268	276	249	252	250	249	247	251	259	261	266	249	249	245	241	241	243	242	238	236	235	236	236	236	234	234	234	234	234	234	234	234	234	234	234	235	234	234	234	234	235	234	234	234	234	235	235	235	235	235	235	235	235	235	235	235	236	236	236	236	236	237	237	237	237	237	237	238	238	239	239	239	240	240	240	241	241	242	244	245	243	242	244	246	248	249	247	251	251	251	
218	218	216	213	210	203	195	203	226	231	247	244	256	257	260	261	262	268	270	254	243	238	237	238	237	290	276	243	248	252	254	243	237	247	245	243	241	240	239	239	239	239	239	239	240	241	241	242	243	244	242	242	243	242	239	238	238	238	238	240	272	284	298	295	294	260	198	182	186	197	181	174	236	234	233	231	230	234	229	231	233	237	237	240	243	272	274	275	269	271	289	289	281	269	244	248	254	256	259	259	250	248	244	242	242	241	240	237	235	234	234	235	234	233	234	234	233	233	233	234	234	234	234	234	233	233	234	235	234	234	234	234	234	234	235	235	235	235	235	235	235	235	235	235	235	235	236	236	236	236	236	237	237	237	237	238	238	238	238	239	239	240	240	241	241	242	243	244	243	243	246	248	248	249	251	252	252	252	
217	216	214	211	207	200	189	196	225	247	246	244	257	258	261	265	267	270	275	248	243	238	237	237	237	286	238	245	250	253	253	251	248	246	244	242	241	239	239	240	240	240	240	239	239	240	242	243	147	360	238	241	241	240	238	238	238	238	239	242	285	242	292	288	292	276	173	156	153	163	174	172	233	232	232	231	194	229	232	234	235	236	236	238	267	272	272	273	276	280	290	297	290	277	265	243	247	248	252	251	247	242	243	243	243	242	241	240	237	234	234	234	233	233	233	233	233	233	233	234	234	234	234	234	233	233	234	235	234	234	235	234	234	234	234	234	234	234	235	235	235	235	235	235	235	236	236	236	236	236	236	237	237	237	238	238	238	238	238	238	239	240	240	241	241	242	243	244	244	245	248	249	248	249	253	257	252	252	
216	214	212	209	204	197	185	189	231	244	245	257	260	261	262	264	267	269	280	248	243	237	237	237	236	289	279	245	251	255	255	252	249	246	244	243	241	240	241	241	240	240	241	241	239	241	162	120	237	236	236	238	239	239	239	239	239	238	239	241	256	281	285	258	285	270	193	155	152	161	166	233	230	230	231	176	228	229	234	236	237	237	238	240	269	275	269	267	280	288	289	292	287	278	267	261	268	240	243	245	239	233	233	235	239	239	239	240	240	238	236	235	232	232	232	232	232	233	233	233	234	234	233	234	233	233	234	234	234	234	235	235	235	235	235	235	235	234	234	235	235	235	235	235	235	235	236	236	236	236	236	236	236	237	237	238	238	238	238	238	239	239	240	240	241	242	243	244	245	246	248	249	249	251	255	258	250	250	
214	213	210	207	202	194	183	186	217	241	244	257	262	264	265	267	269	271	286	247	242	237	236	235	235	295	240	245	250	256	257	253	250	247	245	243	242	242	242	242	242	242	243	242	242	144	147	237	234	235	236	236	237	238	240	241	240	240	240	259	290	279	251	280	268	228	189	174	169	162	232	229	228	228	172	226	225	228	232	234	235	236	259	264	282	278	268	266	278	295	301	295	284	276	268	254	244	250	267	236	233	225	219	223	228	231	232	233	236	238	237	235	232	230	231	232	233	232	233	233	233	233	233	233	233	233	234	234	234	234	235	235	235	235	235	235	235	235	235	235	235	235	235	235	235	235	236	236	236	236	236	236	236	237	237	237	237	238	238	238	239	239	239	240	240	241	243	245	246	246	248	249	250	253	257	258	258	258	
212	211	209	205	199	191	182	184	213	239	257	258	262	264	266	269	272	274	282	246	240	236	234	294	236	238	278	242	249	36	256	253	249	246	246	246	245	243	241	241	242	243	94	242	244	246	243	237	235	236	236	236	236	238	240	241	240	240	259	259	257	254	284	269	215	191	182	171	166	219	228	227	226	225	271	225	226	229	232	233	251	253	256	270	281	277	271	270	272	283	301	313	297	286	282	240	193	166	205	235	228	220	211	215	225	223	223	223	224	227	230	232	231	229	230	232	232	232	232	233	233	233	233	233	234	234	234	234	234	234	235	235	235	234	235	235	235	235	235	234	235	235	235	235	235	235	236	236	236	235	236	236	236	237	237	237	237	237	237	238	238	239	239	240	240	241	242	244	245	245	245	247	250	254	258	258	257	257	
210	210	207	203	197	189	181	178	203	244	259	260	263	265	265	269	273	277	250	245	238	235	234	235	236	234	277	278	248	258	255	251	247	245	246	247	246	244	241	240	358	244	245	244	244	245	241	238	236	236	236	235	236	238	240	251	252	254	255	254	253	251	261	253	202	177	172	169	222	227	225	225	224	268	222	224	226	229	232	250	251	254	269	280	280	277	274	271	268	272	285	304	304	298	300	184	174	160	156	176	187	215	203	206	217	216	222	221	220	219	220	224	226	225	228	231	231	231	232	232	233	233	233	233	234	234	234	234	235	235	235	235	235	234	234	235	235	235	234	234	234	235	235	235	235	235	235	235	235	235	236	236	236	237	237	237	237	237	237	238	238	239	239	239	240	240	241	242	243	243	243	244	246	251	255	257	257	257	
209	208	205	201	195	187	181	173	185	243	260	260	262	264	265	268	272	284	249	243	238	236	235	235	250	276	233	275	248	293	204	246	244	243	80	63	148	243	241	243	245	244	243	242	242	241	240	238	237	237	235	233	234	237	244	247	249	250	277	277	271	265	264	222	193	199	197	225	227	225	222	222	259	221	223	224	227	229	245	246	247	264	268	277	276	274	274	273	269	270	275	289	317	337	150	175	170	156	151	170	182	216	201	195	201	206	205	223	221	219	218	220	221	221	226	230	231	231	231	232	232	233	233	233	233	234	234	234	235	235	235	235	235	234	234	234	235	235	234	235	235	235	235	235	235	235	235	235	235	236	236	236	236	236	237	237	237	237	237	237	238	238	238	239	239	240	240	241	242	242	243	242	243	245	249	252	253	253	
207	206	203	200	193	185	177	167	177	244	261	259	260	262	265	266	270	288	247	240	237	236	234	234	233	233	235	242	252	226	245	240	239	240	244	245	244	242	241	241	242	240	238	236	236	236	236	236	236	241	240	231	232	236	239	264	266	268	268	270	270	298	189	210	213	201	226	221	224	221	219	161	216	219	223	225	228	243	244	245	246	265	268	270	274	272	271	270	268	269	275	290	25	112	157	170	165	153	157	172	180	213	201	195	200	204	229	227	225	222	220	221	220	218	224	230	231	231	232	232	232	233	233	233	233	234	234	234	234	234	235	235	235	234	234	234	235	234	234	234	235	235	235	235	235	235	235	235	235	236	236	235	235	235	236	236	236	237	237	237	237	237	237	238	239	239	240	240	241	242	243	243	243	244	245	246	247	247	
205	205	202	198	191	183	174	159	165	243	261	258	260	262	264	265	268	249	246	238	236	235	234	234	234	233	235	244	276	252	242	121	234	234	238	238	237	236	236	237	238	237	235	234	234	234	233	231	231	233	234	232	231	233	259	260	262	261	255	283	289	163	199	213	208	199	222	217	220	218	215	219	213	216	221	235	237	239	241	242	262	265	270	278	276	273	271	270	267	267	268	254	127	134	154	163	159	153	163	174	216	212	204	197	200	203	232	230	229	225	223	223	221	218	224	229	230	231	232	232	232	233	233	233	233	234	234	234	234	234	234	235	235	235	234	234	234	234	234	234	234	234	235	235	235	235	235	235	236	236	236	235	235	236	237	236	236	237	237	237	237	237	237	238	239	239	239	240	241	241	242	244	246	246	244	244	245	245	
204	203	200	196	190	181	171	152	157	241	258	256	257	260	263	266	271	250	245	236	235	235	235	235	234	233	234	244	243	247	241	242	231	230	231	230	230	231	233	235	236	236	234	233	233	234	233	230	229	229	229	227	229	254	251	248	253	247	238	176	192	194	215	208	205	225	220	220	219	217	214	213	213	216	221	235	236	235	235	258	262	265	269	275	275	272	272	272	271	264	246	203	158	151	154	156	155	153	160	167	216	212	207	204	201	201	234	233	231	228	225	224	221	220	225	229	230	231	231	232	232	233	233	233	234	234	234	234	234	234	234	235	235	235	234	234	234	234	234	234	234	234	234	234	235	235	235	235	236	236	235	235	236	237	237	236	236	236	237	237	237	237	237	238	238	238	239	239	240	240	241	242	245	245	244	244	245	245	
202	201	199	195	188	180	169	152	155	237	251	257	251	252	258	263	272	249	242	235	235	234	243	236	234	233	236	244	272	243	41	234	231	230	229	228	230	232	234	235	236	235	231	229	231	253	233	231	228	227	252	228	250	248	244	260	240	205	202	198	193	191	210	206	227	223	222	221	220	219	216	215	216	218	223	235	235	234	259	262	266	268	271	276	274	271	270	271	269	227	209	200	174	154	146	145	150	153	160	164	216	210	208	208	205	201	236	236	234	230	228	224	221	221	226	230	232	231	231	232	232	233	233	234	234	234	234	234	234	234	234	235	236	235	234	234	234	234	234	234	234	234	234	234	234	235	235	235	235	235	235	235	236	236	236	236	236	236	236	236	237	237	237	237	238	238	238	239	239	239	240	241	242	242	241	244	245	245	
201	200	197	193	187	179	168	160	167	231	250	255	246	246	250	257	272	248	240	233	233	241	237	237	234	234	237	242	244	258	240	235	235	233	231	230	231	234	237	248	248	246	229	228	231	251	253	254	256	224	244	243	243	279	158	197	190	197	197	196	193	215	207	229	227	224	222	222	221	220	219	218	219	221	224	233	233	233	260	263	267	270	276	281	277	274	272	265	242	202	191	188	181	160	136	132	143	154	161	163	217	210	208	211	208	202	238	237	235	232	230	226	223	223	227	231	232	231	232	232	232	233	233	233	233	234	234	234	234	234	234	235	236	235	234	234	234	234	234	234	234	234	234	234	234	235	235	235	235	235	235	235	236	236	235	235	236	236	236	236	236	236	236	237	237	237	238	238	238	238	239	239	240	239	239	243	245	245	
200	199	196	192	187	178	168	166	173	230	252	255	249	245	245	250	251	250	240	232	233	235	238	238	236	236	236	238	280	244	243	239	239	236	233	230	230	234	242	243	265	44	227	227	232	250	252	280	253	221	235	259	268	173	185	214	214	209	203	197	221	214	206	229	228	226	224	223	222	221	221	222	223	225	233	233	231	258	258	259	265	269	275	280	278	276	273	250	239	226	201	182	180	172	139	126	127	145	157	160	219	212	215	218	211	238	237	237	236	234	231	228	226	225	227	231	231	231	232	232	232	232	233	233	233	233	234	234	234	234	234	235	236	236	235	235	234	234	234	234	234	234	235	235	235	235	235	235	235	235	235	235	236	235	235	235	236	236	236	236	236	236	237	237	237	237	237	237	238	238	238	238	238	238	238	242	244	244	
199	198	195	191	186	177	168	167	168	213	251	266	252	248	248	250	251	249	240	234	234	235	288	237	237	235	234	234	238	241	242	241	241	242	232	229	230	235	239	269	268	278	227	226	237	235	251	251	234	229	224	268	194	188	184	202	208	208	205	227	220	213	229	228	228	226	225	224	224	222	223	225	226	232	232	230	227	257	257	258	266	271	279	279	276	274	266	246	241	240	236	225	217	236	208	107	71	104	139	150	221	213	219	223	214	238	237	237	236	234	232	230	228	226	227	231	232	232	232	232	232	232	233	233	233	234	234	234	234	234	234	235	235	235	235	235	235	234	234	234	234	235	235	235	235	235	235	235	235	235	235	235	235	235	235	235	235	235	236	236	236	237	237	237	237	237	237	237	237	237	237	237	238	237	237	240	243	243	
198	197	195	190	185	176	167	167	161	168	253	282	258	255	257	257	254	249	242	235	234	235	237	238	235	287	232	231	232	269	250	255	237	234	233	226	230	236	263	262	260	236	234	227	220	244	235	226	245	220	225	199	199	194	189	197	197	202	231	225	218	232	230	228	228	226	225	225	225	225	226	227	230	228	226	258	256	254	256	263	267	274	282	279	274	261	245	237	238	239	241	247	256	256	237	231	47	82	113	139	221	214	219	224	218	240	239	238	236	234	233	234	233	230	228	231	232	232	231	232	232	232	233	233	234	235	235	235	234	234	234	234	234	235	235	235	234	234	234	234	234	235	235	234	234	234	234	235	235	235	235	235	235	235	235	235	236	236	235	236	236	236	236	236	236	236	236	237	237	237	237	237	237	237	236	239	241	241	
197	196	194	189	184	175	166	165	151	156	256	257	254	275	273	271	265	252	245	236	234	235	238	237	234	232	231	229	229	234	245	256	253	261	228	225	228	247	244	246	230	234	242	241	245	178	181	175	173	192	225	211	205	212	202	199	199	232	226	223	234	231	230	230	229	227	227	227	227	227	227	228	227	226	258	255	254	252	251	263	267	274	280	277	267	228	213	219	230	236	238	242	248	248	237	209	143	55	23	123	225	218	222	224	220	240	239	238	235	233	232	234	236	234	230	231	232	232	231	231	232	232	233	233	234	235	235	234	234	234	234	235	234	235	235	235	234	234	234	234	234	234	234	234	234	234	234	235	235	235	235	236	235	235	235	236	236	236	235	235	236	236	236	235	235	236	236	236	237	237	236	237	237	236	235	238	241	241	
196	195	193	189	183	174	166	161	141	140	257	258	285	276	276	281	284	254	247	236	233	235	237	237	236	235	231	227	227	231	269	256	248	251	231	226	238	267	88	222	216	140	120	216	225	206	201	196	221	220	220	225	220	210	201	234	232	228	223	237	233	230	230	231	228	226	227	227	227	228	227	227	227	259	258	255	253	250	249	263	269	277	280	266	247	212	200	207	223	233	232	233	237	237	232	210	165	131	130	147	225	225	235	233	228	225	236	235	233	230	230	231	234	234	229	228	230	231	232	232	232	232	233	233	234	234	234	234	235	235	235	234	234	235	236	235	235	234	234	234	234	234	234	234	234	234	234	234	235	235	235	236	235	235	235	235	235	235	235	235	235	235	235	235	235	236	236	236	236	236	236	236	236	236	236	239	241	241	
196	195	193	188	183	174	165	158	134	133	250	250	274	273	277	253	257	255	247	236	233	234	236	237	237	234	289	226	226	229	234	253	248	230	224	246	268	166	189	205	200	200	199	229	232	233	230	222	219	217	217	218	215	207	236	232	229	225	237	235	231	228	228	254	226	226	227	228	228	229	229	229	229	259	257	255	253	249	246	263	270	281	269	230	212	203	197	199	210	223	224	226	230	231	228	217	183	151	155	155	228	241	245	237	230	226	234	233	231	229	229	230	233	233	226	223	227	230	231	232	233	233	234	234	234	235	235	235	235	235	235	234	234	234	235	235	235	234	234	234	234	234	234	234	234	234	234	235	234	234	235	235	235	235	235	235	235	235	235	235	235	235	235	235	235	235	235	236	236	235	235	236	236	236	237	238	239	239	
195	194	192	188	183	175	165	156	134	133	241	263	270	273	277	254	257	255	246	237	235	235	236	237	236	231	290	225	226	228	232	243	234	243	240	118	176	182	200	233	235	202	235	230	227	226	223	218	215	212	242	243	243	240	234	230	240	238	236	233	229	225	245	225	224	226	227	229	230	231	232	260	261	260	257	256	252	246	259	262	272	287	236	200	191	193	194	199	203	207	211	212	212	215	214	204	178	162	150	11	315	255	250	234	221	217	234	232	231	230	229	232	236	236	228	221	225	229	231	232	233	233	234	234	235	235	235	235	235	235	234	234	234	234	234	234	235	234	234	234	234	234	234	234	234	234	234	234	234	234	234	235	235	235	235	235	235	235	235	235	235	235	235	235	235	235	235	236	235	235	235	236	235	236	236	236	237	237	
194	194	192	188	183	175	166	155	148	158	228	254	275	275	278	255	258	253	244	238	237	236	236	236	235	228	287	226	226	227	229	234	231	189	187	190	189	180	187	186	235	233	226	239	240	240	241	216	240	240	241	242	241	237	232	241	240	239	236	232	228	225	225	225	226	227	229	230	231	253	255	257	259	258	256	253	248	262	260	262	286	216	206	206	202	186	187	194	197	193	197	202	197	194	199	196	178	155	18	242	287	292	251	240	224	216	219	233	231	229	230	234	240	240	232	223	225	229	232	232	232	233	234	234	234	235	235	235	235	235	235	235	235	234	234	235	236	235	234	234	234	234	233	233	234	234	234	234	234	235	235	234	234	235	235	234	234	235	235	234	235	235	234	235	235	235	235	235	235	235	235	235	235	235	235	235	236	236	
194	194	192	189	183	176	167	157	169	181	220	251	254	270	276	256	256	251	242	237	236	236	235	236	249	293	226	228	227	227	241	236	197	199	207	201	194	188	191	182	228	226	222	217	241	242	242	242	241	241	242	239	237	243	241	240	239	238	236	233	229	226	225	225	227	229	231	231	252	252	254	256	279	281	277	270	266	264	262	261	208	202	218	226	217	185	214	193	197	215	240	207	203	245	209	221	216	269	291	289	286	275	266	237	227	229	233	229	232	230	232	237	241	241	236	225	225	230	232	232	233	234	235	235	235	235	235	236	236	236	236	235	235	234	234	235	236	236	235	234	233	233	233	233	233	234	234	234	235	236	235	234	235	235	235	234	235	235	234	234	234	235	234	234	235	235	235	235	235	235	235	235	235	235	235	235	235	235	
195	194	192	188	183	177	168	160	172	178	193	242	260	262	248	272	252	246	238	236	237	236	236	235	298	228	229	228	228	231	235	239	203	197	194	225	218	207	194	226	221	222	219	241	242	243	243	243	242	242	242	242	243	243	241	239	238	237	235	231	228	225	225	226	226	228	246	248	249	250	250	277	284	293	284	245	265	264	242	245	252	244	235	225	217	216	188	223	220	241	242	245	246	244	253	262	242	230	263	282	278	253	235	235	226	226	230	234	233	233	235	238	240	240	238	227	224	229	231	232	233	233	234	235	236	237	236	236	236	237	236	236	235	234	234	234	235	235	234	233	233	233	233	233	234	234	234	234	234	235	235	234	234	235	234	234	234	234	234	234	234	234	234	235	235	235	235	235	235	235	235	235	235	235	235	234	234	234	
195	194	192	188	183	177	170	162	167	170	169	240	248	254	266	256	247	242	237	236	237	261	236	235	301	232	230	229	233	239	242	245	228	207	196	216	211	235	196	224	219	218	239	242	243	244	245	245	245	244	243	243	243	243	241	239	238	236	233	229	228	228	227	226	227	229	245	243	243	267	270	278	290	300	299	271	239	236	243	248	249	238	242	240	239	182	187	195	206	213	221	228	242	245	250	238	233	224	248	269	260	247	233	224	231	225	225	236	236	235	236	238	238	240	238	227	224	227	229	231	232	233	234	235	237	238	238	237	237	237	236	236	235	234	233	233	234	234	234	233	233	233	233	233	233	233	233	232	232	232	233	233	233	234	234	234	234	234	234	234	234	235	235	235	235	235	235	235	235	235	235	235	235	235	234	234	234	234	
195	195	193	189	184	178	171	162	161	161	166	243	243	245	256	251	244	240	237	240	240	300	233	301	241	234	232	235	243	248	246	247	246	208	217	237	238	239	237	235	235	237	239	242	242	243	245	248	248	246	244	243	243	242	240	239	236	332	233	230	230	230	229	227	228	242	242	241	265	270	275	282	289	293	319	298	245	244	247	247	247	244	243	188	240	183	223	219	198	237	239	244	242	251	242	249	237	227	235	243	236	222	203	213	205	222	234	244	236	225	237	237	239	242	240	229	224	226	230	233	234	235	236	237	238	240	241	240	238	237	236	235	235	234	233	233	234	234	233	233	233	233	233	232	232	232	232	232	232	233	233	233	233	235	235	234	234	234	234	234	234	235	234	234	234	234	234	234	234	234	234	234	234	234	234	234	234	234	
195	195	193	189	185	179	172	162	157	154	158	249	243	240	245	250	241	239	235	234	279	232	288	235	237	235	235	244	251	251	247	248	248	228	238	238	243	244	242	239	238	238	240	240	239	239	241	244	245	243	242	243	243	240	238	316	236	236	236	234	234	233	231	227	240	238	236	261	265	268	278	291	305	316	229	232	241	249	249	246	244	243	243	186	184	217	179	237	194	194	231	253	245	245	250	233	237	220	213	212	211	198	171	172	177	213	225	243	237	234	235	237	242	245	242	235	229	228	231	235	236	237	238	239	239	242	244	244	241	238	235	235	235	234	233	234	234	234	234	233	233	233	232	232	232	233	234	234	234	234	234	233	233	235	235	234	234	233	234	234	234	234	234	234	234	234	234	234	234	234	234	234	234	234	234	234	234	234	
196	195	194	190	186	180	172	163	155	150	155	251	247	240	237	242	239	237	237	248	278	282	260	236	235	232	239	209	254	240	249	250	249	244	239	235	235	245	244	242	240	240	241	239	236	203	240	241	239	236	237	239	239	238	237	236	235	235	235	235	236	235	248	243	238	236	262	261	259	270	303	230	231	234	235	236	76	141	245	242	241	173	180	197	179	235	237	239	239	220	270	262	250	249	256	251	237	219	208	206	205	201	186	160	160	209	210	234	233	239	251	257	240	243	242	238	232	229	232	236	237	238	238	239	240	242	244	244	242	238	235	234	234	233	233	233	234	235	235	234	233	233	232	232	233	234	234	234	234	234	234	234	234	235	234	234	233	233	234	234	234	233	233	234	234	234	234	234	234	234	234	234	234	234	234	233	233	233	
196	196	194	191	187	181	173	164	155	148	155	251	246	242	235	237	245	237	242	257	268	281	234	233	261	300	243	195	198	227	203	249	248	244	238	237	200	230	225	241	241	241	241	237	235	211	227	238	235	229	226	232	233	233	233	232	230	229	231	240	242	242	238	235	232	263	265	261	268	304	161	173	170	145	141	137	179	128	123	170	189	183	220	174	234	234	236	197	263	271	231	269	259	260	238	250	230	210	199	198	190	189	191	176	163	215	224	237	234	236	241	248	252	239	239	235	228	225	229	235	237	237	237	238	240	242	243	242	240	237	235	233	233	232	232	232	234	234	234	234	233	233	233	234	234	234	233	233	233	234	234	234	234	235	234	233	233	233	234	234	234	233	234	234	234	234	234	234	234	233	234	234	234	234	234	233	233	233	
197	196	195	192	188	182	174	165	156	154	166	237	252	244	237	237	236	257	248	242	237	235	233	232	234	241	187	205	193	187	200	243	244	242	240	236	206	238	238	240	224	240	239	236	235	222	239	237	230	224	225	227	227	227	226	226	227	228	236	237	272	304	233	227	227	261	264	276	291	150	161	145	146	153	150	137	92	12	227	129	180	167	178	234	230	232	196	268	274	230	232	273	233	262	260	250	231	213	199	194	185	188	216	212	183	139	24	236	237	234	238	247	249	249	239	234	226	222	224	229	232	233	234	237	240	242	243	242	239	236	233	233	233	233	232	232	233	234	233	233	233	233	233	234	234	233	233	233	233	233	233	233	234	234	234	234	233	234	234	234	233	233	234	234	234	233	234	234	234	233	234	234	234	234	234	233	233	233	
198	197	196	193	189	184	176	166	157	163	172	235	251	245	240	240	237	238	265	240	239	235	232	234	147	220	207	196	189	238	237	153	238	239	240	238	198	235	236	214	239	238	236	235	237	239	239	235	227	221	222	225	225	225	224	224	229	231	235	267	277	334	229	224	257	261	280	314	246	246	238	233	236	150	181	101	227	57	151	226	232	236	234	230	229	177	258	226	227	230	272	273	235	256	256	244	230	217	210	212	225	256	257	241	198	139	78	233	234	230	235	242	244	243	238	233	225	221	223	227	229	230	233	236	239	243	243	241	239	234	230	232	234	234	233	233	233	233	233	233	233	233	233	233	233	233	233	233	233	233	233	233	234	234	234	233	233	233	233	233	233	233	234	234	234	233	234	234	234	234	234	234	234	233	233	233	233	233	
199	198	196	194	190	185	178	167	159	166	167	169	252	240	236	241	242	242	249	242	236	231	233	237	162	186	242	187	239	186	179	233	233	236	160	236	230	206	206	230	237	235	234	235	228	239	239	234	226	221	222	224	226	225	224	223	224	230	257	264	310	294	271	257	256	283	335	117	246	240	235	233	153	187	119	106	112	236	238	235	234	235	232	229	174	224	282	226	228	229	276	232	276	258	261	248	233	221	226	245	251	255	251	234	214	190	334	323	301	234	236	237	241	240	233	230	223	220	221	224	226	230	234	237	241	244	244	243	240	232	227	230	233	234	234	233	232	233	233	233	233	233	233	232	233	233	233	233	233	233	234	234	234	234	233	233	233	233	233	233	233	233	234	234	234	234	234	234	234	234	234	234	234	234	234	233	233	233	
199	199	197	195	191	187	179	168	159	165	160	159	256	241	236	245	250	251	253	241	229	225	228	232	238	189	236	176	238	234	231	171	150	165	228	233	236	233	233	228	235	232	204	234	237	238	237	233	227	222	222	225	226	226	223	220	222	230	253	292	288	265	263	254	274	334	49	127	238	234	234	235	144	142	231	233	236	238	238	237	235	235	234	233	231	227	229	229	230	232	234	235	254	274	257	246	238	238	247	251	250	247	238	228	217	200	181	350	290	280	239	244	250	247	233	229	221	219	219	220	223	230	235	238	243	246	247	247	243	233	228	230	232	233	233	232	232	232	233	232	233	233	232	232	232	232	232	232	232	233	233	233	234	234	234	233	233	233	233	233	233	234	234	234	234	234	234	234	234	234	233	234	234	234	234	233	233	233	
200	200	198	196	192	188	181	170	160	161	151	150	254	259	265	262	259	256	254	243	199	187	178	219	228	226	233	183	235	233	233	204	236	236	234	234	239	241	240	237	234	232	216	235	237	238	237	233	228	225	224	225	227	227	223	217	218	237	262	266	270	269	269	274	298	36	120	217	234	233	235	238	239	237	235	237	239	239	238	237	237	237	235	234	231	230	230	231	232	234	234	235	255	273	252	244	240	242	247	247	246	239	234	226	210	177	137	114	87	294	270	232	243	245	232	228	222	220	219	219	223	230	235	238	244	248	250	249	244	235	230	230	232	233	232	232	232	232	232	232	232	232	231	232	232	232	232	232	232	232	233	233	234	234	234	234	233	233	233	233	233	234	234	233	233	233	233	234	234	234	233	234	234	234	233	233	233	233	
201	201	199	197	194	189	182	172	162	158	147	147	249	268	252	279	266	263	258	254	199	234	201	195	199	224	226	197	232	231	233	235	237	235	236	240	243	242	240	238	236	236	236	237	237	237	237	233	228	225	224	224	226	227	224	218	216	234	260	262	259	259	266	289	248	115	228	236	234	233	235	237	238	237	238	239	240	239	237	235	236	236	232	316	229	229	230	231	232	232	233	235	254	275	255	248	243	242	243	240	236	225	214	200	193	182	155	119	74	340	203	173	234	236	228	227	222	220	219	220	225	232	235	238	243	248	250	247	241	234	229	230	231	232	231	231	231	232	232	232	231	231	231	231	232	232	232	232	232	232	233	233	233	234	234	233	233	233	233	233	233	233	233	233	233	233	233	233	233	233	233	234	234	234	233	233	233	233	
201	201	200	198	195	190	183	174	164	158	151	158	244	261	253	253	273	276	271	209	193	243	239	208	207	197	223	203	226	224	231	234	235	234	235	235	241	242	240	239	240	240	240	239	238	238	237	234	229	225	223	222	225	227	225	220	218	231	252	259	258	261	282	247	120	236	218	204	233	234	235	236	237	238	240	241	240	238	236	235	235	87	231	230	230	230	231	232	232	232	233	235	267	274	258	250	243	240	235	225	215	203	193	186	184	182	176	161	80	359	111	191	287	234	224	215	207	219	218	219	225	231	233	236	241	246	246	242	238	233	228	229	231	231	230	230	230	230	231	231	231	231	231	231	232	231	231	231	232	232	233	233	233	233	233	233	233	233	233	233	233	233	233	233	233	233	233	233	233	233	233	233	234	234	234	233	233	233	
202	202	201	199	196	191	184	176	167	159	163	179	235	255	254	248	265	259	271	197	180	187	202	192	216	221	201	198	222	221	224	227	229	230	99	52	189	238	239	239	240	240	239	237	237	237	237	234	230	228	226	225	226	227	226	222	219	225	243	266	295	226	146	211	205	228	215	206	233	234	235	236	238	239	241	241	238	236	236	235	235	237	230	230	231	232	232	232	232	231	233	243	269	275	259	248	239	232	222	213	210	207	203	198	191	192	187	157	115	102	106	115	231	230	233	228	207	227	244	251	254	254	255	258	261	252	241	239	237	233	229	230	232	231	230	229	229	230	230	231	231	231	231	232	231	231	231	231	232	232	232	232	233	233	233	232	232	233	233	233	233	233	233	233	233	233	233	234	234	234	233	233	233	233	233	233	232	232	
203	203	202	200	198	193	185	178	169	160	173	190	225	254	274	268	257	243	248	242	235	179	187	190	195	214	218	200	223	189	219	220	220	223	227	230	233	223	236	237	238	333	236	234	234	234	233	231	229	228	228	227	228	228	227	225	234	222	242	309	225	213	239	206	198	224	232	233	233	234	235	237	238	240	242	242	238	236	236	234	350	233	231	230	231	232	232	231	230	230	232	240	273	274	259	245	233	223	220	219	218	218	220	214	205	214	223	231	237	190	23	58	137	161	219	209	216	240	243	251	254	253	251	254	256	242	238	236	235	231	228	229	232	232	229	228	228	229	230	231	231	231	231	231	231	231	231	231	231	232	232	233	233	233	232	232	232	232	233	233	232	232	232	232	233	234	235	235	235	235	234	233	232	232	232	232	231	231	
204	204	203	201	199	194	187	180	172	162	166	179	221	246	268	266	247	217	230	231	229	180	187	189	188	223	229	212	199	199	199	212	218	192	215	219	224	229	232	235	238	239	236	232	231	230	229	227	226	226	225	224	225	226	244	240	233	228	250	233	233	240	239	238	231	234	234	235	236	236	236	237	239	241	243	242	237	235	25	234	233	232	231	231	231	232	232	231	230	230	232	237	274	272	257	241	227	226	228	225	226	228	221	208	204	221	222	225	236	252	274	305	301	180	225	224	240	245	245	250	257	256	253	254	245	235	231	234	231	228	226	226	228	228	226	226	227	228	230	230	230	230	230	230	230	231	231	231	231	231	232	233	233	233	233	232	232	232	232	232	232	232	232	232	233	233	234	234	234	234	235	234	233	233	233	232	231	231	
205	205	204	202	200	195	188	180	173	163	158	174	198	247	248	230	225	219	215	204	228	232	180	187	187	189	222	225	200	201	200	200	199	208	207	221	220	221	224	228	234	237	234	229	236	228	243	226	226	226	224	222	225	227	241	236	229	255	254	225	230	238	238	236	235	234	233	234	236	235	234	237	239	242	268	240	272	237	239	237	234	232	230	230	230	230	231	231	230	231	232	234	279	266	242	227	220	226	230	228	232	228	215	209	217	223	213	209	221	236	230	240	268	253	259	233	235	239	243	246	256	263	259	260	238	233	231	224	229	226	226	226	227	226	222	223	225	227	228	229	229	229	229	229	230	230	230	231	231	231	231	232	232	233	233	233	232	232	232	232	232	232	232	232	231	231	231	231	231	232	233	233	233	233	234	233	233	233	
206	206	205	203	201	196	190	182	175	163	160	175	200	254	228	219	219	214	220	204	223	225	225	228	185	189	191	200	198	200	200	205	200	199	203	204	223	206	220	221	226	232	231	227	227	228	227	227	229	229	248	222	226	242	240	232	260	255	268	240	221	237	235	236	235	234	232	231	120	229	228	232	236	238	238	236	235	236	239	240	236	231	229	229	229	229	230	235	229	230	233	233	291	256	231	221	216	223	229	228	227	220	218	224	231	231	226	222	230	230	214	217	241	247	255	261	264	271	237	241	247	256	264	264	250	239	228	220	226	224	225	226	227	225	220	219	222	225	227	228	228	228	228	229	230	230	231	231	231	231	231	232	232	232	232	232	232	232	232	232	232	232	232	231	231	232	232	231	231	232	234	233	232	233	234	234	233	233	
207	207	206	205	202	198	191	184	175	164	161	167	177	256	230	220	219	216	202	200	196	200	222	224	203	200	199	195	196	201	198	230	224	200	205	207	212	215	220	220	226	231	231	228	228	237	226	229	232	246	248	223	228	236	237	236	258	255	246	248	241	237	235	236	236	235	233	230	186	225	225	230	65	238	234	235	234	234	234	234	230	226	227	229	229	229	230	230	229	230	229	276	284	231	215	208	210	223	227	225	222	222	224	228	230	228	223	217	222	227	224	219	223	251	260	264	259	259	278	272	267	272	250	254	248	239	228	215	212	222	223	224	224	222	219	216	219	223	225	227	227	227	228	229	230	230	231	231	231	231	232	232	233	232	232	232	232	232	232	232	232	232	232	232	233	233	233	233	232	234	235	233	231	232	233	233	233	233	
208	208	207	206	203	199	193	185	176	165	158	156	161	258	230	222	221	221	202	199	234	231	194	191	204	196	194	194	193	195	199	220	231	198	203	207	217	220	222	224	231	236	236	230	228	226	226	230	239	276	238	224	232	234	270	274	261	253	253	246	240	237	236	238	239	238	235	232	228	227	228	233	236	235	235	237	237	235	231	330	334	226	226	228	229	230	233	232	230	228	229	306	199	198	201	203	203	212	218	222	223	223	223	226	227	222	214	204	205	217	217	207	204	253	261	261	252	250	275	271	269	265	268	279	268	235	227	216	212	225	222	224	222	219	219	216	217	221	223	225	226	227	228	229	229	230	230	231	231	231	232	232	232	233	232	232	232	232	232	232	232	233	233	233	233	233	233	232	232	234	235	233	231	232	233	233	232	232	
209	208	208	207	204	200	195	188	177	166	156	146	151	257	237	228	227	228	206	197	193	224	219	196	205	196	193	223	192	195	197	230	229	227	197	210	216	221	225	229	234	222	238	234	290	225	227	231	272	226	221	225	226	251	270	291	288	254	249	245	242	238	237	240	242	243	241	235	230	230	232	236	237	237	237	238	237	234	336	230	233	228	225	227	230	230	230	229	228	226	264	229	192	193	197	190	192	197	208	213	212	212	212	218	223	220	212	205	204	199	190	185	189	257	259	256	247	241	260	263	262	255	244	245	245	225	219	211	211	219	211	224	221	218	219	217	215	217	221	224	225	226	227	228	229	229	230	230	231	231	231	232	232	232	233	232	232	232	233	233	233	233	233	233	232	232	233	232	232	234	235	233	231	232	233	233	232	232	
209	209	209	208	206	202	197	190	179	167	155	143	152	251	248	238	229	212	207	198	189	237	237	201	198	196	223	217	211	194	199	230	228	224	220	206	219	223	225	228	231	234	242	254	232	226	230	233	231	278	222	221	222	236	270	248	250	250	247	245	242	239	238	301	243	246	244	236	232	232	234	236	236	235	235	235	318	268	344	226	317	319	223	226	230	231	231	230	227	226	324	183	191	175	180	183	196	187	199	200	199	197	200	208	214	206	197	192	193	186	179	185	216	254	255	250	242	244	254	262	264	252	224	211	200	194	213	207	207	210	203	224	221	218	219	218	214	213	218	222	224	226	227	228	228	229	230	230	231	231	231	231	232	232	233	232	232	232	232	233	233	232	232	233	232	233	233	233	233	235	235	233	232	233	233	233	232	232	
210	210	210	210	207	203	199	192	182	169	155	155	170	246	253	243	226	215	206	197	191	195	236	237	197	196	220	231	230	229	194	195	227	223	218	215	216	221	225	227	229	229	232	244	242	227	231	285	230	223	221	220	221	234	244	245	239	241	243	243	236	238	239	240	242	325	243	237	233	232	233	233	232	232	234	352	75	49	349	222	324	224	224	226	228	230	231	228	263	358	174	172	170	175	181	184	182	197	186	186	196	188	197	198	192	190	184	186	177	191	182	203	235	240	244	245	239	246	247	197	258	170	178	177	174	175	178	205	206	209	204	222	219	217	218	219	215	211	215	220	223	225	226	227	228	229	229	230	231	231	231	231	232	232	232	232	232	232	232	233	233	232	232	232	233	233	233	233	234	235	234	233	232	233	233	232	232	232	
212	212	212	211	209	205	201	194	185	171	158	163	169	234	250	241	242	216	209	204	191	187	239	240	238	223	195	213	229	227	226	224	199	224	219	214	215	220	224	226	229	227	236	235	234	236	258	232	286	222	223	223	227	242	238	237	229	207	222	235	233	231	231	233	238	239	235	231	229	229	230	231	231	232	341	26	19	344	223	224	310	227	226	226	228	228	224	304	18	148	177	242	236	180	181	181	180	197	187	187	197	185	192	186	184	188	185	175	186	181	183	208	238	225	223	239	239	240	225	176	142	164	176	179	177	174	174	200	201	206	203	219	217	217	220	221	217	212	214	219	222	224	226	227	228	228	229	230	230	231	231	231	232	232	232	232	232	231	232	233	233	232	232	232	233	233	233	233	234	235	234	233	233	233	232	232	232	232	
213	213	213	212	210	207	203	197	189	174	161	164	159	160	253	238	226	213	212	204	195	188	185	247	243	238	236	211	205	229	225	223	195	223	218	214	215	221	225	227	230	227	234	230	222	241	240	227	245	240	235	236	235	243	245	231	227	231	214	140	200	41	225	229	233	235	229	221	220	220	225	229	232	246	337	355	296	224	224	225	227	226	224	224	223	240	295	59	159	162	170	170	237	176	177	173	180	187	189	189	188	199	211	195	189	185	182	175	186	186	173	184	229	201	197	227	237	220	196	177	162	163	174	178	180	173	202	199	200	203	202	219	218	220	223	223	220	215	214	218	221	223	225	226	227	228	229	229	230	230	231	231	232	232	232	232	232	232	232	232	233	232	232	232	232	232	233	234	234	234	233	234	233	232	232	233	233	233	
214	214	214	213	212	209	205	199	192	178	163	161	145	143	256	238	229	229	220	213	231	220	246	187	250	245	241	239	198	233	228	219	199	220	221	216	216	220	225	227	232	238	234	230	223	220	223	220	234	221	222	225	240	247	240	231	230	233	238	238	234	231	232	235	238	236	228	221	83	217	221	227	240	336	342	338	343	221	221	222	221	220	217	229	226	286	125	150	162	165	167	166	167	171	172	229	176	191	192	189	187	193	205	217	212	190	179	170	163	164	162	159	195	199	200	187	194	185	182	177	172	165	169	177	182	176	201	201	202	202	200	220	219	222	224	223	221	218	214	217	220	223	224	226	227	228	229	229	230	230	231	231	231	232	232	232	232	232	232	233	233	233	232	232	232	232	233	234	233	233	233	234	233	233	233	233	233	233	
215	215	215	214	213	211	208	202	196	182	165	154	131	127	256	237	231	242	219	239	239	239	241	243	189	188	196	246	203	234	230	227	194	196	195	219	218	221	225	227	232	237	234	227	219	216	213	218	216	228	238	242	245	246	238	234	233	236	345	241	239	238	238	242	245	243	234	228	226	223	224	227	327	347	274	323	226	215	217	236	218	232	228	225	227	156	232	169	171	167	167	172	172	233	168	171	175	181	189	192	189	184	212	224	215	198	180	166	159	159	156	146	147	175	175	161	159	170	176	180	177	169	170	177	183	178	201	202	204	200	198	221	220	222	223	222	221	219	216	216	219	222	224	226	227	228	228	229	230	230	231	231	231	231	232	231	231	231	232	233	233	233	232	232	232	233	234	234	233	233	233	233	233	232	233	233	233	233	
216	216	216	216	214	212	210	205	199	186	169	150	120	117	255	235	232	231	222	238	236	236	238	239	243	244	237	234	235	194	221	215	195	214	220	217	219	223	226	228	232	232	227	221	218	218	219	219	220	218	227	234	249	246	239	237	236	241	246	245	240	237	237	241	247	245	239	235	231	230	229	230	339	334	335	333	217	324	132	177	221	217	217	209	214	186	235	234	232	227	228	175	174	164	228	165	178	181	183	189	194	217	260	239	213	194	177	169	160	157	153	147	149	164	168	169	169	182	182	183	181	173	172	180	184	181	202	203	205	201	197	221	220	222	222	221	220	219	217	216	217	221	224	225	227	227	228	229	230	230	230	230	231	231	231	231	231	231	232	232	232	232	232	232	232	233	234	233	233	233	233	233	232	232	233	232	232	232	
217	217	218	217	216	214	212	208	202	191	174	151	116	112	253	237	234	234	231	239	236	236	236	237	237	236	235	238	240	239	233	227	208	217	217	218	220	225	228	229	230	225	222	218	230	229	229	229	222	226	234	242	247	246	240	238	238	242	247	247	239	233	233	238	245	246	241	238	234	232	232	237	310	342	29	221	205	184	190	187	223	222	228	191	193	193	192	193	231	229	231	231	172	165	153	173	178	235	183	188	241	261	270	243	206	189	176	169	160	150	146	138	148	166	180	176	175	181	184	185	183	178	175	183	185	181	204	203	204	201	196	221	221	222	222	221	221	219	217	215	215	219	223	225	226	227	228	229	230	230	230	230	231	231	231	231	231	231	231	232	232	232	232	232	233	234	234	233	233	233	233	232	232	232	232	232	232	232	
218	218	219	218	217	216	214	211	205	196	181	157	127	131	252	247	236	237	235	242	211	233	226	236	236	234	234	234	234	232	227	220	216	216	218	219	221	226	229	232	225	221	225	224	224	225	227	229	226	232	238	245	241	242	240	237	234	233	233	235	231	227	228	233	239	240	239	235	234	233	235	302	234	95	235	214	170	185	187	231	223	227	235	191	187	187	190	194	191	196	198	232	229	170	169	172	172	173	176	216	253	259	268	231	206	191	179	168	160	146	130	133	153	163	174	176	176	178	182	187	188	184	181	183	184	208	207	205	204	201	223	222	222	223	223	222	222	221	219	216	214	218	222	224	226	227	228	229	229	230	230	230	231	231	231	231	231	231	232	232	232	233	232	232	233	234	233	233	233	233	233	232	232	232	233	233	232	232	
219	219	220	219	218	218	216	213	208	200	188	166	151	163	253	253	238	240	237	244	243	234	228	237	235	234	234	234	233	229	223	216	191	213	217	219	222	227	231	219	215	220	221	232	232	232	219	230	235	239	242	244	235	235	235	233	227	222	238	227	206	218	219	223	225	223	220	221	224	229	280	234	237	188	182	178	183	181	185	230	226	232	237	238	191	189	185	185	187	195	197	231	231	231	231	230	229	174	174	258	271	277	274	232	212	195	188	177	164	147	133	150	163	167	171	172	172	175	178	182	187	187	185	184	184	207	206	206	205	201	224	223	223	223	222	221	222	222	220	216	214	218	222	224	226	227	228	229	230	230	230	230	231	231	231	231	231	232	232	233	233	233	232	232	233	233	232	233	233	233	232	232	232	233	233	233	233	233	
220	220	220	220	220	219	217	215	210	204	193	174	166	166	242	252	239	241	238	238	232	235	233	237	235	234	234	234	232	229	222	215	210	209	215	219	223	230	219	232	229	229	233	234	234	233	229	234	234	242	242	243	243	230	228	232	229	224	178	175	224	210	215	216	219	215	215	219	221	262	231	182	180	172	245	241	174	179	180	229	229	238	241	242	198	199	193	186	189	194	197	196	194	232	231	230	230	232	228	230	232	236	282	239	214	195	184	179	169	149	149	160	166	167	167	169	172	175	174	177	183	184	183	182	209	206	206	205	205	203	223	223	222	222	222	220	220	222	220	215	214	218	222	224	226	227	228	229	230	230	230	230	231	231	231	231	231	232	233	233	233	232	232	233	233	233	233	233	233	233	232	232	232	233	233	232	232	232	
221	221	221	221	221	220	218	217	213	207	197	179	173	158	177	256	239	239	240	243	241	217	234	237	235	234	233	233	231	227	221	215	208	208	215	220	226	230	229	231	227	227	228	234	234	232	236	238	238	246	246	246	244	243	244	234	193	238	179	183	181	189	218	220	219	197	186	184	186	199	206	188	186	183	176	241	244	183	175	231	242	187	248	245	195	237	232	191	190	192	199	223	201	207	209	231	231	248	233	234	235	239	283	232	207	187	177	177	170	158	160	162	165	168	166	167	174	175	171	173	180	181	179	178	208	208	207	204	203	203	224	223	223	223	223	220	219	221	219	215	215	219	223	225	226	227	228	229	230	230	230	230	231	231	231	231	232	232	232	232	232	232	232	233	233	233	233	233	233	232	232	232	232	232	232	232	232	232	
222	222	222	222	222	221	220	218	215	210	200	184	170	142	153	258	254	235	243	238	241	221	232	231	236	235	234	227	231	227	222	215	208	207	214	222	228	226	235	231	227	228	231	233	230	240	235	235	241	237	248	250	249	246	244	208	204	182	169	175	187	211	215	218	219	219	199	195	193	187	194	189	227	223	237	238	240	239	234	237	170	173	180	247	193	233	232	195	189	188	228	228	204	220	228	225	231	233	233	234	235	239	261	217	198	186	182	178	170	161	160	160	164	168	168	171	177	174	170	169	171	176	178	206	206	207	206	206	201	201	202	223	223	224	224	220	218	221	221	219	218	220	223	225	226	227	228	229	229	229	229	230	230	231	231	232	232	232	232	232	232	232	232	233	233	232	233	233	232	232	232	232	232	231	231	232	233	233	
222	223	223	223	223	222	221	220	217	213	204	189	167	128	130	254	250	217	244	234	245	229	207	227	222	237	235	227	231	228	223	215	207	204	214	223	229	222	234	230	227	230	230	233	235	233	235	236	243	251	248	252	252	249	244	209	240	234	232	227	222	172	190	214	213	215	215	196	191	186	192	187	225	233	233	233	233	232	232	237	242	241	242	176	185	238	241	196	193	194	222	223	224	216	222	224	228	229	229	230	232	287	222	210	195	188	184	175	163	158	157	159	164	167	170	176	179	174	170	167	166	170	175	203	205	205	205	205	201	200	201	224	224	225	225	219	219	223	224	223	222	222	224	225	226	227	228	229	229	229	230	230	230	231	231	232	232	232	232	232	232	232	233	233	233	232	233	233	232	232	232	232	232	231	232	233	234	234	
223	223	223	223	223	223	222	221	218	215	208	194	169	120	118	249	247	242	225	236	239	236	224	212	221	210	235	227	231	228	223	215	207	205	216	226	217	217	234	230	227	230	233	233	233	234	235	246	241	250	247	251	250	248	240	232	236	229	224	222	225	229	170	226	227	211	214	202	194	195	198	227	227	232	232	232	230	231	233	234	234	234	235	237	237	171	181	186	231	222	218	220	221	221	220	222	225	226	226	226	274	228	212	207	196	188	182	172	162	159	161	164	168	170	173	178	177	170	166	167	168	170	201	202	203	204	204	204	202	201	226	225	226	227	225	220	219	222	224	223	223	224	225	225	227	228	228	228	229	230	230	230	231	231	231	232	232	232	232	232	232	232	233	233	232	232	233	233	233	232	232	232	232	232	233	234	234	234	
224	224	224	224	224	224	223	222	220	216	211	199	176	137	140	246	241	242	221	244	245	245	234	213	224	209	233	226	230	227	222	217	212	178	214	226	233	215	236	232	228	229	231	232	234	235	234	244	249	248	249	248	247	242	228	245	219	186	225	222	225	225	224	175	228	228	230	205	201	189	200	226	228	231	232	231	231	232	234	233	230	234	233	232	235	239	239	169	186	220	218	219	221	220	219	221	223	225	223	225	224	210	209	203	196	187	181	176	166	162	164	167	168	169	169	173	172	166	161	163	165	201	199	227	228	229	206	204	203	201	228	228	229	229	225	220	218	221	223	223	224	225	226	226	227	228	228	229	229	230	230	230	231	231	231	231	231	231	232	232	232	232	233	233	233	232	233	232	232	232	232	232	232	232	233	234	233	233	
225	225	225	225	225	225	224	223	221	218	214	204	187	179	165	221	250	245	226	240	249	246	237	213	226	210	233	226	229	225	220	218	213	201	205	222	230	232	234	232	229	229	230	231	231	231	246	247	246	245	245	244	241	236	221	248	241	227	222	220	193	228	229	162	190	224	231	206	206	203	189	221	225	228	229	230	230	231	233	232	228	229	233	234	236	236	234	232	174	219	217	218	220	219	218	219	221	224	223	228	196	215	211	205	197	190	190	191	184	168	165	174	172	168	161	152	157	160	163	165	164	200	197	196	230	233	208	206	204	230	231	231	231	230	224	219	218	220	223	224	225	226	226	227	228	228	229	229	230	230	230	230	230	231	231	231	231	231	231	232	232	232	233	233	232	232	232	232	232	232	232	232	232	232	233	233	233	233	
225	225	225	225	226	225	225	224	222	220	216	208	197	186	154	173	253	246	238	239	251	246	243	213	229	211	232	225	217	224	220	218	212	201	198	216	224	226	226	226	225	225	224	223	225	246	241	242	241	240	241	241	238	235	218	244	228	234	233	233	235	186	231	224	188	226	205	208	208	226	220	210	181	227	226	222	214	230	231	231	228	182	227	234	236	237	235	233	229	170	216	217	219	218	217	218	225	226	227	220	203	209	214	214	207	194	187	190	192	185	181	187	187	186	190	186	164	153	159	165	164	199	196	196	197	202	205	205	233	234	235	235	233	230	223	219	219	221	223	224	225	226	227	227	228	228	229	229	230	230	230	230	231	231	231	231	231	231	232	233	232	232	233	233	232	232	233	233	233	233	232	232	232	232	233	234	234	234	
226	226	226	226	226	226	225	224	223	221	218	211	202	185	144	152	253	246	244	240	252	252	248	212	227	211	233	224	214	227	223	220	214	205	175	207	216	219	220	219	218	217	227	240	233	231	233	237	238	239	241	242	238	233	215	246	238	235	235	237	238	200	229	222	212	198	199	206	226	222	210	207	206	193	196	198	209	204	231	231	229	180	183	224	236	235	233	232	231	225	176	214	219	219	219	221	225	224	222	223	216	198	195	198	199	193	185	184	188	188	188	194	191	183	181	183	179	161	154	162	168	201	195	197	198	201	204	202	233	234	237	236	234	229	224	219	219	221	223	224	225	226	227	227	228	228	229	229	230	230	230	231	231	231	231	231	231	232	233	233	232	232	233	233	232	232	233	233	233	233	232	232	232	233	233	234	233	233	
226	226	226	226	227	226	226	225	224	222	219	214	205	187	142	150	252	230	250	254	253	249	238	249	215	211	198	223	212	199	227	223	216	203	189	198	210	215	216	216	227	226	227	218	220	226	233	237	239	240	242	242	241	237	249	245	239	239	239	239	238	235	194	222	169	185	189	220	220	226	207	207	208	202	192	196	195	205	200	231	229	224	180	220	224	234	231	231	230	223	210	207	215	218	221	225	225	221	224	225	216	207	204	200	199	195	190	185	184	185	185	189	192	185	179	181	185	171	153	161	170	206	198	197	200	201	203	235	234	235	238	237	233	228	223	219	219	222	224	225	226	226	227	227	228	228	229	229	230	230	230	231	231	231	231	231	231	232	233	233	232	232	233	232	232	233	233	232	232	232	232	232	232	233	233	233	232	232	
226	227	227	227	227	227	226	226	225	223	220	216	208	191	149	158	247	241	251	254	253	247	233	253	214	211	199	223	210	196	230	226	217	199	187	192	206	213	217	223	221	221	215	214	225	236	240	240	239	238	239	241	242	242	212	218	196	191	241	240	239	237	235	197	183	182	183	217	222	229	206	207	208	204	195	187	195	207	199	188	227	227	232	233	224	234	232	231	229	224	217	145	210	216	223	228	222	226	231	226	217	210	208	208	205	199	195	189	184	183	180	183	189	187	180	181	184	177	163	163	170	207	203	207	208	206	205	235	235	238	240	238	233	228	223	220	220	222	224	225	226	226	227	228	228	229	229	229	230	230	230	231	231	231	231	231	231	231	233	233	232	232	232	232	232	232	232	232	232	232	232	232	232	232	233	232	232	232	
227	227	228	228	227	227	227	226	225	224	221	217	210	195	163	175	242	245	250	252	252	247	252	214	215	209	202	223	208	235	231	228	217	195	180	187	202	212	218	218	215	213	212	218	230	237	238	236	236	238	241	244	245	242	212	241	198	191	189	240	240	239	241	200	187	183	181	201	232	213	208	207	208	207	201	192	185	195	200	189	225	229	230	228	224	221	231	231	229	226	223	215	175	208	224	231	221	225	230	222	216	209	206	204	205	203	198	191	186	184	182	183	189	189	182	181	182	176	169	169	172	207	206	208	209	212	218	233	233	236	238	236	233	229	223	219	220	222	224	225	225	226	227	228	228	229	229	230	230	230	231	231	231	231	231	231	231	232	233	233	232	231	232	233	232	232	232	232	232	232	232	232	232	232	233	233	232	232	
227	228	228	228	228	228	227	226	225	225	222	219	212	199	176	181	241	247	245	248	250	254	249	254	239	224	238	228	219	232	229	226	216	192	173	179	197	211	220	212	213	214	220	230	236	236	236	237	236	240	243	245	244	238	240	239	237	233	191	188	241	245	247	200	210	182	179	195	231	215	209	206	209	211	207	199	191	191	199	226	227	228	226	223	219	218	230	231	230	227	222	212	193	196	222	231	235	239	228	220	217	211	207	202	202	201	197	192	189	187	183	183	192	195	185	184	185	179	174	172	172	208	207	209	214	228	230	231	230	230	231	231	230	228	222	217	219	221	223	224	226	226	227	228	228	229	229	230	230	230	231	231	231	231	231	231	231	232	233	233	232	231	232	233	232	231	232	232	232	232	232	232	232	232	232	233	233	233	
228	228	228	228	228	228	227	227	227	227	223	220	214	203	185	179	230	243	241	243	246	254	244	247	248	246	240	228	216	230	226	223	214	194	171	170	190	211	220	212	218	234	236	241	247	242	239	240	241	243	245	244	241	234	208	219	234	236	231	222	214	180	251	206	185	198	180	188	220	227	230	207	213	220	212	203	195	189	189	187	194	229	228	227	225	218	214	232	232	229	224	215	203	178	218	227	233	241	220	217	216	212	208	205	205	203	197	194	198	189	182	183	193	197	189	188	187	181	180	179	177	180	210	213	225	226	224	226	228	227	227	228	227	225	221	214	215	219	222	224	225	226	227	228	228	228	229	230	230	231	231	231	231	231	231	231	232	233	233	232	232	231	232	233	232	231	232	232	232	232	232	232	232	232	233	233	233	233	
228	228	229	229	229	229	228	229	186	227	223	221	215	207	194	177	206	246	242	241	242	247	258	243	251	240	223	229	215	200	225	221	213	200	178	167	183	209	216	225	229	229	233	240	247	256	251	249	249	249	247	244	238	227	216	208	231	232	236	240	243	245	245	245	242	236	170	177	201	224	228	210	227	217	214	205	198	190	188	181	185	227	227	229	229	224	230	219	211	229	225	215	216	153	200	221	234	224	215	214	214	211	206	206	209	205	199	197	194	196	189	186	191	195	187	184	187	182	180	182	182	183	211	219	224	220	219	221	223	226	226	226	225	224	221	213	212	217	221	223	225	226	227	228	228	229	230	230	230	231	231	231	231	231	231	232	232	233	233	232	232	232	232	233	232	232	232	232	232	232	232	232	232	232	232	232	232	232	
229	229	229	229	229	229	229	230	228	226	224	222	217	210	198	175	202	247	241	240	242	246	251	242	237	225	208	202	215	203	224	220	214	204	185	167	177	202	214	220	226	226	230	234	239	243	244	258	253	251	246	239	227	218	217	217	209	229	228	230	234	237	237	237	234	230	225	217	186	208	229	211	216	219	217	213	204	186	190	190	223	202	223	225	226	224	225	219	208	228	223	215	217	197	190	218	232	217	215	214	213	211	207	209	212	208	204	201	197	192	186	192	193	194	188	185	188	184	181	179	178	181	212	219	221	218	215	216	219	215	226	224	223	224	222	214	210	215	220	223	225	226	227	227	228	229	230	230	230	231	231	231	231	231	232	232	232	233	233	233	232	232	233	233	232	232	232	232	232	232	232	232	232	232	232	232	232	232	
229	229	229	230	230	230	230	229	228	205	225	222	218	212	200	176	199	245	239	239	241	245	247	239	223	216	199	189	184	198	188	220	213	199	190	172	175	195	210	216	224	225	245	246	247	236	237	261	254	249	240	224	215	215	217	220	221	215	226	224	225	227	228	228	226	223	218	217	169	198	223	210	225	229	220	223	214	190	179	180	174	183	187	192	197	219	219	216	205	188	221	213	217	204	170	213	232	228	218	215	210	207	205	208	213	212	209	207	203	197	192	197	198	196	192	223	221	184	183	181	178	177	180	216	217	215	211	214	216	210	226	222	223	225	223	216	211	215	220	223	225	226	227	228	229	229	230	230	230	231	231	231	231	231	232	231	231	232	233	232	232	232	233	232	232	232	232	232	232	232	232	232	232	232	232	233	233	233	
229	229	230	230	230	230	230	229	229	228	225	223	220	214	202	179	198	245	236	237	242	245	247	235	220	212	197	189	183	180	186	178	215	199	195	179	178	191	206	213	223	223	244	245	245	244	242	258	255	248	227	211	210	213	217	220	223	219	212	203	198	223	220	224	222	220	218	218	218	190	205	209	224	226	225	226	216	204	194	187	193	190	181	181	184	184	186	193	203	190	218	213	218	212	144	204	228	216	219	217	214	205	201	204	210	213	212	212	208	202	199	203	201	198	194	191	221	218	186	184	180	177	177	206	221	219	215	217	213	208	226	222	224	226	224	218	213	215	220	223	225	226	227	228	229	230	230	230	230	231	231	231	231	231	232	231	231	232	233	232	232	232	232	232	232	232	232	232	232	232	232	232	232	232	233	233	233	233	
229	230	230	230	230	230	230	230	229	227	226	224	221	216	206	184	199	241	238	240	244	247	249	235	221	215	201	191	184	180	182	177	214	198	199	182	177	186	200	220	219	218	241	240	249	252	235	257	255	240	209	201	202	210	218	224	225	220	214	211	206	199	201	209	224	221	219	219	167	190	203	209	218	229	228	221	213	208	206	198	197	200	196	192	188	186	188	186	181	185	182	214	206	213	207	174	202	216	222	221	218	211	204	201	207	214	213	212	209	204	202	205	203	200	197	194	189	189	190	222	218	175	216	220	219	220	216	216	211	206	226	224	225	226	224	219	215	216	220	223	225	226	227	228	229	230	230	230	231	231	231	231	231	231	231	231	232	232	233	232	231	232	232	232	232	232	232	232	232	232	233	233	233	233	233	233	232	232	
230	230	230	231	231	231	231	230	229	228	227	225	223	218	210	191	204	240	242	244	247	251	250	235	220	215	201	192	187	189	174	171	210	190	199	176	171	180	193	214	214	234	233	236	236	237	242	246	235	213	200	194	197	206	218	226	225	219	214	212	211	206	205	209	201	222	222	222	219	195	208	208	226	221	225	223	212	207	209	204	203	205	204	199	196	196	197	194	189	184	180	178	174	192	217	215	192	213	244	224	222	214	206	201	206	213	214	214	213	210	206	204	202	199	198	196	192	192	191	223	219	214	214	219	200	216	214	214	212	206	226	226	227	226	224	220	217	218	221	224	226	227	228	229	230	230	230	230	230	231	231	231	232	232	232	232	232	233	233	233	232	233	233	232	232	232	232	232	232	233	233	233	233	233	233	232	232	232	
230	230	231	231	231	231	231	230	230	229	228	226	224	220	213	199	206	236	241	248	249	252	251	241	226	218	200	191	186	194	174	223	204	214	193	168	162	171	187	213	214	225	225	224	226	230	233	230	213	205	196	188	191	209	222	223	217	216	212	211	217	211	202	207	229	221	224	222	218	195	206	205	211	221	235	228	213	203	205	204	206	209	208	205	202	200	200	195	190	187	186	186	182	172	163	222	171	203	241	225	225	216	208	203	205	211	214	215	216	217	214	210	204	199	196	195	193	193	192	189	220	175	214	207	195	212	213	214	213	207	226	227	228	227	224	221	219	221	223	225	226	227	229	229	230	230	230	230	231	231	231	232	232	233	232	232	232	232	233	233	233	233	232	232	232	232	232	232	232	233	233	233	233	233	232	232	232	232	
231	231	231	231	231	231	231	231	230	230	229	227	225	221	215	203	207	234	240	250	250	252	252	250	236	229	205	192	207	201	183	220	209	207	190	168	158	164	182	200	217	222	225	226	229	233	233	225	211	205	198	186	187	213	226	216	209	215	211	211	223	220	207	207	203	221	225	222	221	184	202	208	214	222	227	224	213	204	199	197	202	210	210	207	201	198	199	198	192	187	184	182	177	172	171	165	158	192	241	250	227	225	211	208	208	210	212	214	216	218	218	215	212	207	203	201	202	203	201	195	189	203	210	217	216	215	215	215	214	208	225	227	228	226	222	219	220	222	224	225	227	228	229	229	229	230	230	231	231	231	231	232	232	232	232	232	232	232	232	233	233	232	232	232	232	232	232	232	232	232	232	232	232	232	232	232	232	232	
231	231	231	231	232	232	232	231	231	230	229	228	226	222	216	205	205	228	239	251	251	253	252	250	234	233	214	196	212	209	195	217	208	190	193	175	159	161	176	197	216	220	227	233	238	239	234	222	210	206	202	190	189	211	220	210	203	211	208	212	229	227	212	204	206	217	227	223	219	218	191	212	219	225	226	222	211	204	197	193	197	209	216	207	198	193	190	193	192	188	184	180	176	172	171	169	155	173	219	223	226	226	213	208	209	212	214	215	216	217	217	215	215	213	207	205	209	211	210	206	216	209	211	217	218	218	220	217	214	226	226	228	228	226	221	218	220	223	225	227	228	229	229	230	230	230	231	231	231	231	231	232	231	231	232	232	231	231	232	233	233	232	231	232	232	232	232	232	232	232	232	232	232	232	232	232	232	232	
232	232	232	232	232	232	232	231	231	231	230	229	227	224	218	208	201	223	238	252	251	253	251	249	223	230	217	203	190	183	184	172	209	194	200	183	161	157	170	193	217	223	230	236	239	238	232	220	207	205	203	191	192	212	219	211	200	205	207	214	232	233	214	204	221	213	228	223	218	220	184	210	220	232	230	220	207	201	193	187	189	207	221	212	203	197	189	185	189	190	186	184	174	168	165	166	165	166	201	218	249	224	215	207	207	212	216	217	217	218	218	217	217	215	229	223	223	227	227	226	222	217	215	218	220	222	223	220	215	229	228	229	229	226	220	218	221	224	226	227	228	229	230	230	230	231	231	231	231	231	232	232	231	232	232	231	231	232	233	233	232	231	231	232	231	232	232	232	232	232	232	232	232	232	232	232	232	232	
232	232	232	232	232	232	232	232	232	231	230	229	228	225	220	211	199	214	238	253	252	254	251	246	211	219	212	200	186	181	182	175	171	196	205	191	165	160	161	186	210	228	234	240	237	232	226	219	210	207	207	197	196	212	217	209	198	201	208	219	237	237	216	205	217	213	228	224	220	177	186	214	221	229	228	214	207	202	191	182	176	203	234	216	207	202	196	193	194	194	190	181	187	170	169	170	175	170	209	230	255	247	219	213	210	213	216	215	237	236	236	236	235	233	229	225	225	227	229	228	225	221	237	237	239	241	241	239	236	233	232	232	231	228	222	219	222	225	227	228	229	229	230	230	231	231	231	231	231	231	232	232	232	232	232	232	232	233	233	233	232	232	232	232	231	231	232	232	232	232	232	232	232	232	232	232	232	232	
232	232	232	232	232	233	233	232	232	232	231	230	229	226	222	213	198	210	238	252	251	254	251	244	213	209	205	197	192	185	180	176	172	194	208	197	178	156	154	174	202	221	235	239	235	229	223	218	212	210	211	205	201	209	214	208	196	197	208	226	242	238	215	208	204	197	208	226	222	220	200	215	222	231	222	213	206	202	195	186	175	200	224	221	208	203	200	198	193	190	189	187	186	189	185	181	184	178	212	218	254	239	238	236	235	235	236	236	234	232	233	233	232	230	227	226	226	248	248	247	245	243	240	239	241	243	244	243	240	238	236	235	233	229	223	221	224	227	228	229	230	230	230	230	231	231	231	231	232	232	232	232	232	232	232	233	233	233	233	232	232	232	232	232	232	231	232	232	232	232	232	232	232	232	232	232	232	232	
232	232	232	232	233	233	233	233	233	232	232	231	230	228	224	215	197	206	238	249	246	250	248	240	214	202	198	193	192	187	183	184	180	193	183	202	189	170	156	165	195	223	234	240	233	227	221	215	210	210	211	208	203	209	214	208	199	198	212	230	246	236	214	209	213	204	234	227	223	193	210	221	228	228	219	208	202	199	195	187	173	198	221	223	215	207	202	197	191	188	188	187	189	192	190	186	220	222	240	210	251	252	233	233	233	234	236	235	233	232	232	232	230	227	246	247	249	249	249	249	249	247	245	244	244	245	245	245	244	242	239	236	233	229	224	222	225	228	230	230	231	231	231	231	231	231	231	232	232	232	232	232	232	231	232	233	233	233	233	232	232	232	232	232	232	232	232	232	232	232	231	232	232	232	231	232	232	232	
232	232	232	233	233	234	233	233	233	233	233	232	232	230	227	220	199	204	240	244	240	236	234	229	215	206	200	195	190	186	182	183	187	195	185	207	198	185	166	164	191	223	235	242	236	226	221	216	210	211	213	212	202	204	212	205	197	201	224	238	243	228	216	212	220	208	234	226	220	194	222	233	232	226	214	208	204	201	200	191	174	192	219	225	221	212	207	202	198	197	195	189	183	183	181	216	218	221	241	213	220	252	234	233	231	233	233	233	231	231	231	250	249	247	247	249	251	251	250	251	252	251	250	251	251	250	249	247	247	247	244	239	235	231	227	226	228	230	231	231	231	231	231	231	232	232	232	232	232	232	232	232	231	231	232	233	233	233	232	232	232	232	232	231	231	232	232	232	232	232	232	232	232	232	232	233	233	233	
232	233	233	233	234	234	234	234	234	234	234	234	233	232	230	225	209	211	244	246	235	235	232	227	218	211	206	202	198	193	189	188	186	199	191	211	207	198	177	166	188	219	238	245	248	215	216	217	213	213	216	218	204	199	208	204	194	208	228	247	232	223	216	218	227	218	210	222	216	195	220	232	240	217	209	206	204	202	203	199	185	188	216	226	224	214	210	207	206	204	201	194	185	182	216	214	217	219	221	242	247	253	254	236	252	233	232	251	250	250	250	250	249	248	249	251	253	252	252	254	255	255	255	257	260	261	259	255	253	252	250	247	243	238	234	231	232	233	233	232	232	232	232	232	232	232	232	232	232	231	231	232	232	232	232	233	233	233	232	232	232	232	232	232	232	232	232	232	232	232	232	232	232	232	232	233	233	233	
233	233	234	233	234	234	234	234	234	234	235	235	235	235	234	233	230	237	252	252	230	234	234	227	219	214	208	204	201	198	196	195	191	185	195	215	214	209	190	165	182	215	237	252	247	208	205	214	217	218	220	220	202	244	201	208	200	216	241	237	225	219	214	225	232	223	209	220	217	201	219	238	216	208	207	202	199	198	199	200	189	186	213	228	225	217	213	210	209	207	204	197	189	218	216	216	217	219	220	220	240	246	254	256	254	253	252	251	251	252	252	252	251	250	250	251	251	250	253	257	260	259	258	260	265	270	271	266	260	257	254	253	253	249	242	237	236	235	235	233	232	233	233	232	233	232	232	232	232	231	232	232	232	231	232	232	232	232	232	232	232	232	232	232	232	232	232	232	232	232	232	232	232	232	232	232	232	232	
233	234	234	234	234	234	234	234	235	235	236	236	237	237	239	243	182	259	264	256	250	234	238	229	219	213	207	202	199	198	196	194	194	193	190	193	219	215	201	176	180	218	244	262	246	213	207	214	224	224	223	222	202	242	192	208	212	230	242	232	221	218	217	228	236	224	211	196	183	208	227	242	213	209	209	205	200	197	196	199	190	179	208	232	226	218	216	213	214	212	207	201	192	218	218	218	216	219	222	221	219	242	249	256	256	254	254	254	254	254	255	255	254	254	254	253	251	249	252	258	261	260	258	259	264	270	273	272	267	260	255	256	257	256	250	244	239	237	237	235	234	233	233	233	233	233	232	232	232	232	232	232	232	231	231	232	232	232	232	232	232	232	232	231	231	232	232	232	232	232	232	232	232	232	232	232	232	232	
234	234	234	234	234	235	235	235	235	236	236	237	238	239	242	246	252	262	270	265	247	252	242	231	219	214	210	206	203	198	194	190	188	196	201	201	190	221	211	195	190	221	253	269	244	221	203	209	225	229	228	228	210	243	187	203	224	240	241	228	215	217	223	233	239	226	211	198	186	210	239	235	217	209	209	208	204	200	197	204	201	185	201	228	227	220	217	213	211	212	210	203	223	220	220	218	216	239	241	241	242	243	247	255	257	256	256	257	257	257	257	256	256	258	259	256	252	250	252	256	257	256	255	257	261	264	265	265	264	258	254	253	255	255	254	250	245	241	238	236	235	233	232	232	232	232	232	232	232	232	232	232	232	231	232	232	232	232	232	232	232	232	231	231	231	232	232	232	232	232	232	232	232	232	232	232	232	232	
234	234	234	234	234	235	235	235	236	236	237	238	239	241	244	247	253	266	277	271	261	251	258	232	217	213	212	209	204	200	198	193	196	188	196	206	200	188	220	212	207	230	263	271	240	224	208	208	228	229	226	226	219	204	190	229	234	238	234	230	219	221	231	237	240	229	212	197	183	212	239	238	221	212	209	209	207	206	200	200	203	193	225	223	227	224	220	217	215	211	208	228	223	221	220	217	236	238	242	245	246	246	247	252	257	257	258	260	262	262	259	256	256	259	259	257	254	252	252	253	252	252	252	255	258	258	257	255	254	253	252	250	250	250	251	252	250	246	242	239	236	234	232	232	232	232	232	232	232	232	232	232	232	231	231	232	232	232	232	232	231	231	231	231	231	232	232	231	232	232	232	232	232	232	232	233	233	233	
234	234	234	234	235	235	236	236	236	237	238	239	240	242	245	249	256	267	156	281	268	251	256	233	219	213	210	207	203	200	198	204	197	189	228	234	237	231	222	224	223	248	275	269	267	259	251	244	252	231	223	224	219	205	228	230	251	235	223	222	222	224	231	238	238	231	216	240	173	216	245	240	227	218	212	215	214	208	203	202	202	232	225	238	248	248	244	241	225	218	233	227	223	221	219	236	236	240	245	249	251	251	250	253	257	258	259	261	264	264	260	255	254	255	256	255	254	254	254	253	253	253	255	256	256	255	252	248	246	247	248	248	248	248	247	248	251	250	246	242	238	235	234	233	233	233	232	232	231	231	231	232	231	231	231	232	232	232	233	232	231	232	232	231	232	232	232	232	232	232	232	232	232	232	232	232	232	232	
234	234	235	235	235	236	236	236	236	237	238	239	241	243	246	250	257	266	276	167	274	271	252	246	222	218	214	208	205	200	202	200	197	230	225	230	236	234	228	235	239	260	277	280	277	260	254	251	257	261	258	254	253	244	227	241	258	231	258	251	252	255	232	237	239	236	225	209	181	213	243	244	234	224	216	212	214	211	208	236	234	231	226	233	242	244	243	244	246	242	236	230	228	225	239	238	239	242	246	250	253	254	253	255	257	258	258	258	260	261	256	251	250	250	250	250	252	253	253	254	255	258	260	261	258	255	250	245	243	243	244	246	248	246	244	244	247	250	249	244	240	236	234	233	233	232	231	231	231	231	232	232	231	231	231	232	232	232	233	232	232	232	232	232	232	232	232	232	232	232	232	232	232	232	232	232	232	232	
234	235	235	235	235	236	236	236	237	237	238	240	241	243	246	250	255	264	275	126	286	275	269	241	224	221	216	209	216	211	201	200	234	228	224	238	245	246	245	246	252	267	276	279	279	277	275	275	277	263	258	253	264	258	255	255	262	260	254	247	247	255	258	262	238	235	227	213	194	232	239	242	233	224	216	212	243	239	235	234	234	233	231	253	259	260	244	246	248	246	240	248	246	245	244	244	244	246	248	250	252	252	252	252	254	255	255	254	254	254	251	249	247	247	248	249	250	250	250	263	264	269	274	278	278	275	251	246	244	242	242	244	246	244	241	241	242	243	244	244	241	237	234	233	232	231	230	230	231	231	231	232	232	231	232	232	232	231	232	232	232	232	232	232	232	232	232	232	232	232	232	232	232	232	232	232	232	232	
234	235	236	236	235	236	236	236	237	237	238	240	241	243	246	249	254	261	269	321	326	284	272	262	234	232	226	220	216	212	204	233	231	227	236	242	248	249	249	252	261	271	276	279	282	284	283	282	283	281	274	269	268	268	271	277	263	260	254	249	248	256	261	262	262	260	255	248	239	232	253	263	234	252	247	243	240	238	234	232	250	251	252	254	259	264	267	267	265	261	256	252	249	247	246	246	247	249	250	250	249	248	248	249	252	253	253	252	252	251	249	247	245	244	246	260	262	262	261	263	267	271	273	274	274	272	272	275	274	244	240	241	242	240	239	241	241	240	237	238	239	236	233	232	231	230	230	231	232	231	231	231	231	231	232	232	231	231	231	232	232	232	232	231	232	232	231	231	231	232	232	232	232	232	232	232	232	232	
235	235	236	236	235	236	236	237	237	237	239	240	241	243	246	249	252	257	260	290	330	295	275	265	259	256	229	223	219	214	234	227	236	236	240	247	251	252	253	257	265	272	276	279	283	287	287	286	286	286	282	277	275	277	280	281	279	276	273	270	273	279	280	277	262	259	255	250	242	237	252	260	257	250	246	243	240	253	252	252	254	255	256	256	258	266	274	275	271	266	261	256	251	247	246	246	247	249	250	250	248	245	245	248	250	251	251	251	251	252	250	247	242	256	254	255	256	256	257	260	266	271	273	272	272	271	274	278	274	276	242	261	249	235	236	240	242	238	235	234	234	232	230	230	229	229	230	231	232	231	231	231	231	231	231	232	231	231	231	232	232	232	231	231	231	231	231	231	232	232	232	231	231	231	231	231	231	231	
235	235	236	236	235	236	236	237	237	237	239	240	241	243	239	241	246	253	255	266	306	299	280	268	262	261	229	253	249	242	232	233	233	235	240	247	251	253	255	259	264	269	273	275	278	283	286	286	286	289	288	285	282	283	284	284	280	278	277	277	280	284	285	283	280	277	273	267	261	261	252	258	255	249	244	254	252	253	254	258	260	261	260	258	258	265	276	279	275	269	265	261	255	249	246	245	244	246	249	251	249	245	243	245	247	260	247	258	259	261	265	265	260	254	252	252	253	253	270	273	280	287	295	269	269	269	274	279	280	285	249	243	265	255	253	253	241	238	234	233	233	229	225	226	227	228	229	230	231	230	230	231	231	231	231	231	231	231	232	232	232	232	231	231	231	231	231	231	232	232	231	231	231	231	231	231	231	231	
235	236	236	236	236	236	236	237	237	237	238	239	235	236	238	240	244	249	253	253	268	292	289	273	263	259	257	252	246	239	237	233	231	233	238	245	251	253	254	258	261	264	267	270	273	277	281	284	285	286	288	287	284	283	285	285	282	279	280	282	284	287	289	288	285	282	280	277	272	270	271	271	268	264	260	256	252	250	254	260	264	265	264	260	258	262	270	275	274	269	265	262	257	250	245	243	242	243	247	249	248	244	242	256	255	255	256	255	257	260	263	264	259	251	248	265	267	269	272	277	285	283	287	262	261	262	267	273	278	255	294	248	239	233	259	245	238	237	234	234	233	229	223	224	226	227	229	230	230	230	230	231	231	231	231	231	231	231	231	231	232	233	232	230	231	231	231	232	232	232	231	231	231	232	232	232	232	232	
236	236	236	236	235	236	236	237	237	238	238	239	237	237	238	240	243	247	251	247	241	259	280	278	268	255	252	248	242	241	236	231	228	229	233	240	246	249	251	255	259	261	263	265	268	271	276	280	281	280	281	281	280	280	282	283	281	280	281	281	281	283	288	290	289	287	286	284	280	276	275	272	270	267	265	260	254	252	253	257	261	264	264	261	259	261	264	265	265	263	259	256	254	247	243	243	242	243	258	260	260	260	256	253	251	250	250	251	253	257	260	263	264	250	264	264	267	269	271	277	283	277	271	254	283	284	285	266	255	278	252	294	244	239	239	233	235	235	233	233	233	229	222	221	224	226	228	229	229	230	230	231	231	231	231	231	231	231	231	231	232	233	232	231	231	231	231	232	232	232	231	232	232	232	232	232	231	231	
236	236	236	235	235	236	236	237	237	238	239	240	240	238	239	240	242	246	248	244	234	234	249	265	268	263	257	251	245	238	233	229	227	228	232	239	243	251	253	257	259	259	261	264	267	272	278	283	286	275	273	273	274	275	276	277	278	279	278	275	273	275	280	285	287	287	288	289	285	279	275	272	270	269	266	262	258	255	251	251	254	258	259	258	259	260	260	259	257	256	255	253	249	242	240	242	242	255	257	259	258	257	256	253	250	246	244	263	265	268	270	276	260	252	265	265	269	270	273	281	281	260	252	287	279	284	283	287	264	251	280	253	249	247	245	242	227	229	233	232	232	228	221	219	222	224	226	228	229	229	230	230	231	231	231	231	232	232	231	231	232	233	232	231	231	231	231	232	232	232	231	231	231	231	231	231	231	231	
236	236	235	236	236	236	237	237	238	238	239	240	241	240	240	240	242	246	251	247	187	229	230	234	252	256	256	251	243	236	231	227	227	230	234	239	246	249	253	255	256	255	254	255	259	266	272	275	273	270	271	275	274	277	281	284	273	272	267	263	266	270	273	276	279	280	283	286	286	281	274	270	269	268	265	261	259	257	250	247	251	255	256	255	256	257	257	254	253	254	254	253	248	241	237	254	254	254	255	256	255	254	255	252	249	268	264	263	264	268	270	270	285	293	269	264	265	267	277	289	266	244	281	280	277	280	279	279	254	267	254	254	254	253	248	244	212	224	235	233	232	229	223	218	219	222	225	227	228	228	229	230	230	231	231	231	231	231	230	231	232	232	231	231	231	231	232	232	231	231	231	231	231	231	232	231	231	231	
236	236	236	236	236	236	237	237	238	239	239	240	241	242	240	240	242	235	245	247	236	223	225	232	235	242	248	247	240	234	230	227	226	229	237	237	239	243	266	274	279	282	280	277	277	283	289	262	279	258	264	268	267	270	276	279	271	258	253	255	261	266	269	270	271	272	274	276	279	278	273	267	264	263	262	258	258	256	248	244	249	253	254	265	267	268	267	265	264	264	264	250	248	240	251	250	253	254	255	254	252	251	252	250	275	266	262	260	262	268	273	273	279	302	274	262	263	270	284	287	256	242	291	275	277	279	276	274	276	256	251	250	251	252	250	246	243	219	237	233	231	229	224	217	216	220	224	226	228	228	229	229	229	230	230	229	229	229	229	231	232	232	231	231	231	231	232	231	231	231	231	231	231	231	231	231	231	231	
236	236	236	236	236	236	236	237	238	238	239	240	240	247	241	242	229	232	245	254	224	209	219	228	229	232	238	239	234	230	229	227	226	233	233	232	254	258	262	267	271	273	271	270	271	274	278	283	275	277	280	282	291	298	303	263	252	242	243	251	267	272	275	266	266	265	265	266	267	268	268	265	261	259	258	256	257	255	244	239	252	255	258	261	263	264	263	262	262	262	261	260	259	258	246	244	248	276	280	281	279	278	283	285	276	266	260	257	260	265	267	267	265	276	288	267	264	276	288	274	251	259	277	268	273	277	274	274	251	251	252	247	245	244	245	245	245	211	238	232	228	226	223	216	214	218	223	226	227	228	228	228	229	230	229	229	229	229	230	231	232	231	231	231	231	231	231	231	231	232	231	231	231	231	231	231	231	231	
236	236	236	236	236	236	237	237	238	238	239	240	240	242	242	232	247	251	245	246	198	200	212	226	229	232	235	235	231	228	228	228	228	233	231	229	251	254	258	269	266	266	272	273	275	275	273	267	262	248	266	282	303	309	257	247	230	227	235	252	261	267	270	272	272	271	271	271	272	261	259	258	257	256	254	253	266	266	242	248	249	253	255	256	258	259	258	258	259	259	259	260	258	258	244	240	268	273	277	276	274	274	277	282	282	272	261	258	260	266	267	266	265	264	290	277	268	280	287	268	261	276	275	234	276	279	266	264	265	249	249	247	243	240	238	190	200	203	238	232	228	226	223	216	212	216	221	224	226	226	227	228	230	230	230	230	231	231	232	232	231	231	230	231	231	231	231	232	232	232	231	231	231	231	231	231	231	231	
236	236	236	236	236	236	236	237	238	238	239	240	240	241	248	233	230	241	249	252	240	198	228	227	232	236	239	237	231	229	230	230	238	236	232	252	249	256	262	267	267	271	275	277	281	281	282	273	269	257	288	299	297	254	248	233	216	218	229	245	255	262	263	264	265	266	266	267	268	269	268	266	265	263	261	260	260	258	258	246	245	249	251	253	281	255	255	286	253	281	253	256	256	254	244	236	265	272	274	274	274	275	276	278	282	282	268	260	260	266	272	272	273	273	283	280	271	284	284	273	266	283	229	237	283	283	275	259	257	256	245	244	182	239	208	194	255	211	237	234	230	228	225	217	212	216	221	224	226	226	227	228	230	230	230	231	231	232	232	232	231	231	231	231	231	232	232	232	232	231	231	231	231	231	231	231	231	231	
236	236	236	236	236	236	236	237	237	238	238	239	240	241	243	244	238	245	251	257	260	235	232	228	233	238	239	237	232	232	232	238	237	236	233	255	249	256	262	267	267	268	270	271	276	275	280	277	280	291	280	245	243	243	236	222	208	213	225	241	274	282	291	257	258	258	259	261	262	262	262	262	262	262	259	259	257	251	249	240	238	268	269	270	275	279	283	284	283	281	280	283	283	309	239	258	262	267	267	268	274	279	281	283	282	286	282	263	260	265	268	267	270	272	273	282	277	287	285	274	259	285	229	274	278	279	276	257	245	241	241	233	239	232	214	194	208	196	238	235	232	229	226	218	213	217	222	224	225	226	227	229	230	230	230	230	231	231	231	231	231	231	231	232	232	232	232	232	231	231	231	232	232	231	231	231	230	230	
236	236	236	236	236	236	236	237	237	237	238	239	240	241	242	245	247	250	252	253	254	190	209	220	227	232	233	233	232	232	237	233	232	262	260	257	259	257	261	266	269	271	270	268	273	264	272	272	278	277	248	233	225	234	225	213	203	209	223	238	271	274	284	289	293	293	292	294	255	253	253	253	255	256	256	256	301	244	245	239	230	261	267	268	272	275	277	277	275	274	277	284	248	235	300	221	229	265	267	268	272	277	278	278	279	286	296	272	260	261	265	265	265	266	266	276	281	287	287	269	261	288	228	276	281	280	267	246	231	233	228	222	195	164	221	203	198	195	237	235	232	230	226	217	212	216	221	223	225	225	227	228	230	230	230	230	230	230	230	230	230	230	231	232	232	232	232	232	231	231	231	231	231	231	231	231	230	230	
236	236	236	236	236	236	236	237	237	237	238	239	239	240	241	243	249	247	250	249	247	138	138	202	216	222	226	228	234	235	235	233	261	260	257	264	264	261	260	263	266	267	268	271	277	269	272	279	295	224	204	215	209	227	218	208	212	212	225	239	271	270	275	280	284	286	289	289	288	288	286	284	285	289	295	302	300	296	306	237	227	258	263	269	271	272	271	271	272	270	275	283	247	235	317	272	228	263	266	270	273	273	273	275	279	282	291	289	266	259	263	268	268	267	268	273	278	283	282	269	273	274	270	282	292	271	252	229	215	214	221	222	215	212	229	223	228	217	235	234	232	230	226	217	211	215	220	223	224	225	226	228	229	229	229	229	230	230	230	230	230	230	231	231	231	232	232	232	231	231	231	231	230	230	230	230	230	230	
236	236	236	236	236	236	236	236	237	237	238	238	239	240	240	242	261	244	247	246	246	136	128	184	208	215	224	226	227	230	234	268	264	258	257	266	267	267	261	260	265	266	266	271	272	259	279	307	203	204	221	210	230	223	214	206	208	220	232	241	265	277	278	276	279	281	283	283	281	279	279	280	283	289	296	305	299	290	292	294	221	255	258	267	266	267	268	273	275	275	282	269	245	233	317	277	263	264	266	270	272	272	273	275	277	280	283	292	278	260	260	265	266	271	275	277	280	286	276	258	280	271	275	286	282	264	236	211	192	188	201	211	213	216	206	214	212	216	232	231	230	229	225	216	210	214	220	222	224	225	227	227	227	228	228	229	229	230	230	230	230	229	229	230	230	231	231	231	231	231	231	230	230	230	230	230	230	230	
236	236	236	236	236	236	236	236	236	237	237	237	238	238	239	241	242	243	245	243	246	142	134	179	210	217	219	221	253	254	258	262	261	255	265	267	267	270	266	261	267	273	274	278	267	271	272	220	212	234	219	233	228	221	212	205	209	221	232	259	261	273	272	275	283	289	290	289	279	274	278	282	291	289	289	292	292	292	230	307	260	251	257	262	261	261	264	267	269	274	284	264	243	232	331	271	262	265	268	269	271	270	271	273	272	275	283	297	290	268	259	262	269	275	278	279	281	286	267	254	285	277	287	293	272	253	224	211	212	220	215	205	195	193	188	209	201	204	202	227	227	227	224	216	210	213	219	222	224	225	227	227	227	228	229	229	229	229	229	229	229	229	230	230	230	230	231	231	231	231	231	230	230	230	230	230	230	230	
236	236	236	236	236	236	236	236	236	236	236	237	237	238	238	239	240	241	243	242	242	153	147	185	206	212	216	253	251	252	255	258	270	266	265	266	266	268	267	266	273	282	283	290	266	227	215	217	209	229	220	228	223	216	209	206	211	221	246	252	265	269	268	269	275	282	285	283	281	280	285	294	302	304	297	291	282	290	229	308	261	252	255	257	262	263	265	265	266	276	283	257	241	230	325	289	213	226	270	270	270	270	270	272	271	272	277	289	297	277	261	261	273	280	281	280	282	282	259	264	276	274	286	285	269	243	233	238	241	231	213	207	204	193	183	170	199	198	194	224	224	225	223	217	210	213	218	222	223	225	226	227	227	229	229	229	229	229	229	229	229	230	231	231	231	231	231	231	231	231	231	231	230	231	231	230	230	230	
236	236	236	235	235	235	235	235	236	236	236	236	236	237	237	237	237	238	240	239	237	181	159	188	205	211	251	250	248	247	259	263	269	271	267	266	267	267	267	272	284	296	293	292	250	219	219	208	200	224	217	222	216	209	194	206	213	221	243	247	263	269	272	273	275	279	283	282	276	276	284	293	300	305	305	310	230	310	227	300	209	252	251	252	256	258	262	267	274	283	273	252	245	228	306	317	209	222	268	272	271	271	271	272	273	273	273	278	298	281	264	264	275	280	280	282	286	277	256	280	273	277	274	273	264	251	253	245	223	199	191	196	200	188	178	167	196	195	193	223	224	224	224	219	212	213	219	222	224	225	226	226	227	228	229	229	229	229	230	230	230	231	231	231	231	231	231	231	231	231	231	231	230	230	231	230	230	230	
236	235	235	235	235	235	235	235	235	235	235	235	236	236	236	236	235	235	237	236	233	194	175	191	207	248	251	251	248	257	256	259	264	270	269	266	266	265	269	280	299	318	308	290	232	216	213	201	229	221	214	219	211	204	200	205	214	234	238	256	259	265	268	268	269	274	283	283	279	281	287	293	287	257	261	233	231	310	309	311	206	206	213	230	251	256	258	262	272	276	270	249	244	229	219	347	203	214	261	265	268	271	269	269	270	273	279	284	304	286	266	266	276	281	278	278	281	273	260	275	275	283	260	248	246	249	243	221	207	198	185	180	187	190	182	169	198	193	193	222	222	223	223	220	214	213	218	221	223	224	226	226	226	227	228	229	229	229	229	230	230	230	230	230	230	230	230	231	231	231	230	230	230	230	230	230	229	229	
235	235	235	235	235	235	235	235	235	235	235	235	235	235	234	234	234	233	234	232	227	208	167	194	208	239	246	249	259	258	255	259	266	271	268	265	264	264	269	283	296	300	308	299	230	214	211	199	229	220	225	218	209	201	199	205	213	231	234	254	258	262	265	264	265	264	267	276	281	292	293	250	247	244	246	233	230	313	298	294	295	202	208	215	228	252	259	262	267	270	266	260	242	235	221	354	285	207	228	260	264	269	268	266	263	267	274	275	279	291	274	269	279	283	279	277	276	263	254	262	273	278	245	233	244	243	216	197	189	192	187	181	188	193	185	172	199	191	193	194	220	221	222	219	214	212	215	219	222	224	225	226	226	227	228	228	229	229	229	229	229	230	230	229	230	230	230	230	231	231	229	230	230	230	230	230	230	230	
235	235	235	235	235	235	235	235	235	234	234	234	234	234	233	233	232	232	232	233	230	216	190	195	208	233	253	259	259	258	255	258	266	269	268	267	266	267	275	288	284	298	307	301	239	215	211	198	226	219	223	218	207	197	196	202	222	226	227	250	255	260	266	266	266	264	264	276	284	294	282	251	251	247	237	234	229	314	290	283	305	281	205	216	228	245	256	267	269	266	263	260	270	231	220	209	304	204	222	222	262	269	270	266	265	265	267	265	264	282	283	275	281	281	278	279	277	258	245	260	278	243	224	228	234	218	200	190	183	184	188	188	189	190	185	177	199	190	193	196	220	220	221	219	215	213	214	217	221	223	224	225	226	227	228	228	229	229	229	229	229	230	229	229	230	230	230	231	232	231	230	230	230	230	230	230	230	230	
235	235	235	235	235	234	234	234	234	234	234	233	233	233	232	232	231	230	230	230	230	221	196	196	207	229	255	261	262	258	255	257	263	265	264	264	267	273	283	300	280	282	276	243	216	220	206	194	222	216	221	215	205	291	193	198	216	218	219	245	250	255	261	262	264	266	268	280	289	278	272	279	287	250	253	254	332	297	279	283	217	313	203	216	228	247	250	265	268	264	263	265	259	231	222	211	306	271	213	218	247	263	265	268	265	268	269	269	272	286	287	279	279	277	278	282	280	245	199	148	146	167	187	199	194	191	191	185	179	177	177	177	183	186	181	177	201	188	191	197	220	219	221	220	217	215	215	217	220	222	223	224	225	227	227	228	228	229	229	229	229	229	229	229	229	230	230	231	232	231	230	230	230	229	229	230	230	230	
235	235	235	235	234	234	234	234	234	233	233	233	232	232	231	231	230	229	228	228	229	223	201	197	207	215	248	252	255	259	256	256	260	262	263	264	270	281	297	303	258	212	195	198	223	213	202	227	221	223	220	213	206	201	200	198	204	216	216	238	241	250	256	259	260	261	262	274	285	268	266	280	285	245	245	246	310	282	271	285	216	326	204	216	227	249	250	261	266	264	260	258	249	231	221	210	291	274	270	218	241	251	260	264	266	265	264	263	267	287	294	279	275	277	286	293	273	220	177	158	167	178	183	183	190	196	195	187	181	179	181	182	189	187	180	174	201	187	189	194	220	220	221	221	218	215	216	217	219	221	223	224	226	227	227	227	228	229	229	229	229	229	230	230	229	230	230	230	231	231	230	229	229	229	230	230	229	229	
235	235	235	235	234	234	234	234	233	233	233	232	232	231	230	229	228	227	226	225	238	223	208	201	207	213	223	246	251	257	259	255	256	258	260	266	278	297	316	265	229	204	236	226	218	210	231	226	225	224	220	213	277	211	214	209	208	213	217	217	237	238	250	257	261	260	262	272	276	262	264	277	282	266	236	312	292	276	278	228	211	299	222	226	224	250	259	257	265	271	261	257	242	228	217	13	275	262	267	273	220	235	253	262	262	263	268	270	264	289	306	277	271	286	304	261	212	198	189	173	171	188	214	210	188	195	201	199	196	192	183	181	186	187	186	178	205	190	187	192	221	220	221	221	219	216	217	218	219	221	224	225	226	227	227	227	228	228	228	229	229	229	230	230	229	230	230	231	231	231	229	229	229	230	230	229	229	229	
235	235	235	234	234	233	233	233	233	232	232	232	231	230	229	228	227	226	225	223	223	220	234	209	210	214	221	242	249	258	262	256	253	255	259	268	286	300	292	243	219	208	233	222	241	236	232	229	227	226	221	214	212	218	224	222	217	217	221	219	220	235	244	251	263	262	266	274	265	257	262	264	256	257	261	274	268	274	295	225	206	280	206	257	255	244	257	260	262	268	269	256	240	228	216	205	274	204	260	268	274	240	249	253	262	266	283	243	234	294	306	276	273	304	291	230	180	185	189	182	169	165	178	246	240	191	194	200	204	208	212	213	207	200	194	189	177	196	185	188	191	221	222	221	218	217	218	219	219	221	225	227	226	226	226	226	227	228	228	228	229	229	230	230	229	230	230	231	232	231	229	229	230	230	230	229	229	229	
235	235	234	234	234	233	233	233	233	232	232	231	230	229	228	227	226	225	223	221	218	216	215	214	214	216	220	240	246	255	261	258	254	256	264	278	295	283	255	217	211	203	231	220	237	234	232	230	228	227	221	215	216	223	237	231	227	247	223	222	221	221	232	245	257	261	259	263	260	256	263	255	242	256	266	256	252	272	227	224	207	198	204	209	214	239	238	257	258	265	269	253	239	228	217	204	284	202	214	265	272	275	259	250	257	278	247	238	276	296	289	276	284	321	241	179	182	185	184	181	174	170	169	176	247	241	192	186	194	203	206	203	197	190	185	185	187	204	187	189	195	220	221	220	217	216	218	219	219	221	225	227	226	226	226	227	228	228	228	228	229	229	230	230	230	230	230	231	232	231	230	230	231	230	230	229	229	229	
235	234	234	234	233	233	233	233	232	232	231	231	230	229	228	226	225	223	221	218	214	211	214	217	218	221	219	238	235	249	254	254	256	261	269	289	273	243	225	222	207	237	228	239	235	232	231	229	227	225	281	217	218	224	232	234	230	226	235	224	223	222	222	230	248	259	259	254	250	252	256	245	248	264	261	262	272	239	225	221	212	200	199	205	210	233	231	248	252	259	272	250	238	228	217	204	294	202	212	229	265	269	271	267	261	285	244	240	307	295	274	275	298	294	193	180	184	186	184	177	176	177	174	163	185	251	244	237	193	187	189	189	189	189	188	183	187	207	191	187	192	220	220	219	216	215	217	218	218	218	223	226	225	224	225	227	228	228	228	228	229	230	230	230	230	230	230	231	231	231	230	231	231	230	229	229	229	229	
235	234	234	234	233	233	233	233	232	231	231	230	229	228	227	226	224	222	219	216	211	207	211	219	222	222	221	240	235	245	247	251	256	264	276	297	257	231	216	222	209	237	228	237	233	230	229	226	224	222	221	220	220	225	229	281	231	227	296	223	223	222	222	229	243	250	267	251	244	243	242	241	246	238	238	260	233	225	222	216	304	309	201	204	208	211	216	227	246	253	273	246	238	229	219	207	292	201	208	218	247	261	261	266	275	298	244	237	323	274	266	283	274	183	185	182	183	189	194	190	180	176	176	169	143	156	253	252	247	224	202	197	190	190	187	177	178	181	194	184	187	189	221	219	217	216	216	218	217	217	222	225	223	222	224	226	227	227	228	228	229	230	230	230	229	230	230	230	230	230	230	230	230	229	229	229	229	229	
234	234	234	233	233	233	233	232	232	231	230	230	229	228	226	225	223	221	218	214	208	202	207	219	224	224	245	241	234	245	246	249	254	263	279	290	254	232	216	215	211	205	224	231	228	225	222	219	217	218	221	223	222	224	256	273	236	232	228	282	226	225	224	231	230	244	257	264	242	233	231	242	240	239	241	210	223	224	217	295	273	284	308	213	212	212	217	222	228	245	264	248	238	228	220	314	294	202	204	210	237	247	258	261	275	291	237	301	277	261	280	144	163	174	177	177	180	184	189	194	222	231	233	235	237	241	126	156	257	199	200	189	183	182	183	180	180	210	201	197	195	191	222	219	218	217	216	218	217	217	223	226	223	221	222	225	227	227	228	229	229	230	230	229	229	229	229	230	231	229	229	229	229	229	229	229	229	229	
234	234	233	233	233	233	232	232	232	231	230	229	228	227	226	224	222	219	216	212	205	197	202	220	225	243	244	244	250	247	248	250	254	263	283	275	246	234	226	215	205	228	221	228	224	220	214	283	212	215	219	221	222	248	250	272	239	237	232	309	279	258	229	231	234	245	252	272	242	228	226	242	232	197	216	226	227	223	215	288	213	278	221	312	302	211	216	223	231	233	251	248	240	228	220	270	279	300	201	203	212	231	248	260	272	247	224	253	265	286	145	172	176	178	178	176	176	178	181	184	184	213	194	229	229	232	227	240	271	257	245	217	198	191	190	186	182	177	202	203	206	204	221	220	219	217	216	218	219	220	225	227	224	221	222	225	227	228	228	229	229	230	230	229	229	228	229	229	230	230	230	230	229	228	229	229	229	229	
234	234	233	233	233	233	232	232	231	231	230	229	228	226	225	223	221	218	215	210	203	192	196	220	226	244	245	247	258	252	251	251	252	260	289	251	232	223	218	221	204	225	219	226	222	216	209	207	209	213	218	221	244	245	247	269	250	236	229	227	302	286	274	239	238	238	248	259	233	218	206	204	225	225	231	229	226	223	215	297	214	223	286	220	215	300	214	223	232	248	253	248	241	228	280	272	274	305	310	201	211	226	246	253	290	193	176	151	126	169	178	178	182	179	178	178	180	181	181	182	181	181	187	191	190	194	200	209	221	238	228	202	188	185	190	188	181	173	196	195	201	203	206	219	218	216	214	216	219	222	226	228	225	222	222	225	227	228	228	228	228	228	230	230	229	228	228	228	229	230	230	231	230	229	229	229	228	228	
234	234	233	233	233	233	232	231	231	230	229	228	227	226	224	223	220	217	213	208	200	189	191	218	240	244	246	264	267	264	258	255	255	260	276	229	220	214	211	220	204	223	218	224	220	214	207	204	205	210	216	220	239	240	258	266	245	236	227	223	294	276	280	280	239	239	260	267	238	236	231	232	232	232	231	227	225	228	222	299	213	222	285	226	221	213	214	222	230	235	253	267	240	276	267	262	276	224	326	204	231	220	243	229	208	195	182	185	193	197	195	187	183	179	180	183	186	188	188	188	184	184	181	183	185	185	184	189	191	196	190	184	179	179	181	185	184	176	199	193	195	199	219	219	216	213	213	215	220	225	227	228	226	224	223	224	226	226	227	227	227	227	228	230	229	228	229	229	229	230	230	230	229	229	229	229	228	228	
234	233	233	233	233	232	232	231	231	230	229	228	227	226	224	222	219	216	212	206	198	187	189	215	237	239	257	264	268	270	269	267	267	267	236	228	213	209	209	218	203	221	215	223	219	214	208	201	202	208	213	231	231	251	255	263	261	236	225	219	278	265	279	290	270	261	264	292	240	240	235	233	231	229	227	224	225	226	219	293	211	220	283	230	223	215	245	218	228	233	250	280	242	270	263	262	266	264	273	235	222	221	231	211	214	207	198	194	197	201	203	200	196	191	187	184	184	181	185	191	192	187	187	187	190	186	182	182	180	186	191	191	188	188	191	193	185	174	204	197	196	195	194	193	217	213	214	217	223	228	228	227	227	225	224	225	226	226	226	227	226	226	227	229	228	228	229	229	230	230	230	229	229	229	229	228	228	228	
234	233	233	233	233	232	231	231	231	230	229	228	227	225	224	221	219	215	211	205	197	186	187	212	234	246	253	261	268	271	270	271	273	260	230	222	211	230	224	217	228	221	225	223	220	215	332	202	201	206	212	216	227	250	254	262	257	237	223	215	264	260	275	288	275	265	267	296	241	227	232	213	239	230	225	225	245	250	220	296	212	221	268	230	223	214	235	214	224	228	253	272	263	268	222	266	262	220	263	279	217	231	206	209	212	211	203	194	192	198	203	205	204	202	197	192	185	180	178	185	190	191	194	197	194	189	190	192	197	198	199	198	191	187	188	182	179	176	212	208	199	194	193	193	217	214	216	219	225	228	227	226	226	225	224	226	227	226	227	227	226	226	229	230	228	227	229	229	230	230	230	229	229	229	229	228	228	228	
233	233	233	233	232	232	231	231	231	230	229	228	227	225	223	221	218	214	210	203	195	185	181	206	233	248	249	256	262	268	272	274	268	254	252	245	236	227	223	233	229	222	225	224	220	218	214	206	201	205	211	215	223	246	248	260	252	237	221	220	254	255	267	272	265	261	268	277	239	229	216	215	224	226	224	223	253	253	221	295	214	222	284	230	223	217	279	210	220	225	237	264	263	255	258	270	239	220	216	182	218	225	224	224	226	225	211	202	197	202	204	207	207	205	203	200	194	188	180	179	180	181	184	189	192	193	180	179	185	188	191	192	198	203	217	222	219	214	200	213	206	197	194	192	217	216	218	220	224	227	226	225	225	223	224	226	226	226	227	227	227	227	230	230	229	228	228	229	230	230	230	229	229	229	229	228	228	228	
233	233	233	233	232	232	231	231	230	230	229	228	227	225	223	221	218	214	209	202	193	185	177	190	236	253	250	251	256	262	276	285	254	253	248	240	241	240	238	235	230	227	225	223	225	219	293	354	203	207	214	217	220	241	241	259	245	236	220	272	252	253	261	260	259	262	263	263	231	224	221	226	227	227	222	279	273	256	241	294	214	221	285	228	222	216	295	209	219	225	236	250	267	227	282	228	184	186	187	219	215	215	214	217	220	219	220	215	206	198	201	208	210	209	208	205	199	193	189	182	182	179	181	187	199	208	207	203	204	211	219	233	234	232	232	210	196	198	187	173	202	194	191	191	218	218	220	221	225	227	226	225	225	224	225	226	225	225	226	226	227	228	229	229	229	229	229	229	230	229	229	229	229	229	228	228	227	227	
233	233	233	233	232	232	231	231	230	230	229	228	226	225	223	220	217	213	208	201	191	183	173	185	246	263	257	252	251	259	297	255	256	252	249	245	243	241	239	236	232	229	225	221	221	223	221	212	207	210	217	232	225	221	238	255	249	229	220	233	242	247	257	278	181	201	213	214	214	220	218	220	225	238	265	220	224	251	222	273	215	222	292	228	220	213	289	252	220	226	238	233	252	244	213	206	201	229	221	214	207	243	242	242	244	244	216	214	207	199	198	228	229	227	225	223	217	213	209	199	194	188	183	182	186	189	192	193	195	202	211	216	213	212	207	193	190	182	177	172	201	194	191	221	218	218	220	222	226	228	227	227	227	227	227	227	226	225	226	226	227	228	229	229	229	229	229	229	229	229	229	229	229	229	228	227	227	227	
233	233	233	232	232	232	232	231	231	230	229	228	226	225	223	220	217	213	208	200	190	179	163	170	249	271	270	264	258	262	248	256	252	251	249	247	245	242	240	237	233	229	224	222	224	234	222	212	207	210	226	225	224	250	240	252	252	222	212	241	244	209	217	185	189	198	208	215	212	223	213	210	210	233	210	213	225	225	228	271	216	226	251	229	220	214	259	215	221	227	235	256	254	221	215	242	232	223	243	209	201	245	244	247	248	245	243	242	239	234	201	222	221	221	220	220	218	215	212	210	207	204	200	196	193	188	189	186	187	194	202	202	204	207	210	210	193	178	177	174	201	194	191	220	218	218	220	222	226	228	227	228	229	229	229	229	228	227	227	227	227	228	228	229	229	229	229	229	229	229	228	228	229	229	228	227	226	226	
233	233	233	232	232	232	232	231	230	230	229	228	226	225	223	220	217	213	208	199	188	175	151	154	244	265	271	270	263	267	254	237	242	240	245	244	243	241	239	236	233	227	223	225	229	228	218	319	207	212	222	221	249	243	255	252	194	221	208	206	209	205	195	191	189	194	205	214	217	212	199	215	208	221	206	207	243	215	220	239	227	236	236	226	220	216	255	217	223	234	230	252	284	206	204	234	225	217	246	246	246	244	236	250	253	252	251	250	236	232	227	221	216	214	247	246	246	244	243	213	210	208	209	209	205	200	195	187	186	184	188	190	191	195	202	203	194	185	182	179	200	222	189	220	219	220	221	224	227	226	227	229	230	229	229	229	229	228	228	228	227	227	228	229	229	229	229	230	229	229	228	228	229	228	228	227	226	226	
233	233	233	233	232	232	232	231	230	230	229	228	227	225	223	221	218	213	207	198	187	172	145	145	234	255	262	263	258	266	240	232	215	236	239	240	239	238	236	235	230	227	223	228	260	225	215	220	212	216	220	220	240	255	253	232	196	193	194	198	203	205	197	193	187	192	205	215	219	216	209	199	200	195	203	208	208	202	246	217	218	241	222	219	213	226	260	229	225	224	248	263	232	200	180	164	181	207	203	250	248	250	249	252	256	256	254	253	252	250	248	247	247	247	248	249	249	246	245	243	241	236	232	231	230	226	221	200	198	194	188	189	189	190	192	193	194	191	189	187	202	222	222	221	220	221	223	225	226	225	228	231	231	228	227	227	227	227	228	228	228	228	229	229	229	229	229	229	229	228	228	228	228	228	228	228	227	227	
233	233	233	233	232	232	231	231	231	230	229	228	227	226	224	221	218	214	208	199	188	171	151	153	224	243	259	254	246	238	233	230	237	238	237	237	237	236	234	230	290	221	224	230	231	223	215	218	214	219	222	220	237	226	233	206	189	189	192	198	205	208	198	204	186	189	205	215	220	219	212	201	202	198	202	207	210	209	210	215	216	223	220	216	207	249	204	209	213	218	222	244	197	197	180	169	184	201	201	194	244	253	254	257	262	263	259	257	255	253	251	250	249	247	247	252	254	254	246	245	241	237	231	247	232	228	224	219	217	215	211	206	190	189	195	198	195	193	190	190	205	220	221	221	220	221	223	225	225	225	229	233	232	229	227	225	223	225	227	228	229	229	230	230	229	229	229	229	228	227	227	228	229	228	228	228	227	227	
233	233	233	233	232	232	231	231	231	230	230	229	228	226	224	222	219	215	209	201	189	172	161	166	227	240	223	221	224	225	216	229	227	237	238	237	235	233	230	291	222	221	226	268	230	221	215	216	217	224	227	256	231	236	240	207	194	190	192	201	208	214	201	232	224	179	208	215	219	221	212	206	201	200	202	206	210	211	213	217	218	217	206	212	210	214	223	223	223	220	227	222	211	201	178	171	167	200	169	154	244	246	251	258	127	266	266	264	262	259	255	253	252	250	250	253	258	260	259	258	256	255	255	257	256	253	249	245	243	242	218	213	209	207	195	193	199	200	222	193	210	195	189	220	220	221	223	224	223	223	227	231	232	230	227	225	223	225	228	229	229	230	230	230	230	229	229	229	228	228	228	229	228	228	228	228	227	227	
233	233	233	232	232	232	232	231	231	231	230	229	228	226	225	223	220	216	211	203	192	176	168	166	216	242	223	222	222	226	227	219	227	224	231	231	234	225	301	225	223	224	230	234	229	220	263	215	221	228	256	236	205	243	243	217	194	188	191	199	208	215	210	233	224	211	202	217	221	223	214	205	200	202	204	206	209	212	217	220	221	222	211	198	195	202	213	214	218	222	226	223	238	206	216	188	166	158	158	238	235	239	245	252	257	261	122	266	266	265	261	257	255	255	256	258	262	266	265	262	260	259	260	263	265	264	262	260	257	253	249	245	242	240	237	234	196	203	222	218	213	219	193	220	221	222	224	224	222	222	227	233	234	232	229	226	224	226	228	228	228	229	230	230	229	229	228	229	229	228	229	228	227	227	227	227	227	227	
233	233	233	232	232	232	232	232	231	231	230	229	228	227	225	223	221	217	213	206	195	180	172	160	166	245	222	221	222	227	231	228	232	222	225	252	229	231	230	226	224	227	251	236	230	221	215	217	222	242	305	238	200	244	245	212	201	188	185	216	223	231	214	230	227	213	196	214	230	225	217	227	215	200	205	206	210	214	219	221	223	225	212	200	196	200	216	219	219	224	227	225	217	215	220	229	225	218	234	234	234	237	240	244	248	253	258	261	139	266	264	260	257	257	260	254	178	268	269	267	264	263	263	265	268	272	275	275	271	265	260	256	252	249	244	238	235	203	196	190	215	222	221	222	223	224	225	225	224	226	231	235	235	232	229	225	223	224	227	228	227	228	228	228	228	228	228	230	229	228	228	227	226	226	227	227	226	226	
233	233	233	233	232	232	232	232	231	231	230	229	228	227	226	224	222	219	215	209	200	186	172	149	151	249	225	224	227	231	233	230	218	228	217	219	219	220	220	218	220	227	237	233	228	221	217	219	223	268	237	227	207	169	244	243	236	193	212	210	228	229	231	226	229	216	182	217	225	231	220	224	212	196	204	206	210	215	220	225	230	230	215	200	193	196	217	221	220	225	230	226	224	215	208	230	226	232	232	233	234	236	237	240	243	246	248	252	256	258	260	258	256	256	258	259	259	260	264	265	264	264	263	263	265	270	277	282	281	276	272	267	264	261	257	253	250	245	239	235	218	210	225	224	222	223	225	227	228	230	233	234	233	231	229	225	222	223	227	228	227	229	230	229	228	228	229	230	229	228	228	226	225	225	227	226	225	225	
233	233	233	233	233	233	232	232	231	231	230	230	229	228	227	225	224	221	217	213	204	192	172	140	140	250	227	229	234	236	235	230	219	213	208	218	216	216	229	215	214	245	228	228	269	250	217	219	225	235	189	221	207	238	171	229	226	219	204	226	229	236	228	222	230	217	209	215	227	236	230	220	231	221	202	204	209	215	223	232	236	236	214	201	187	191	218	221	225	225	228	226	226	225	231	217	225	229	230	231	233	235	234	235	237	235	241	244	247	250	251	251	250	252	253	252	250	251	253	256	258	257	256	255	258	262	268	276	279	279	277	274	271	268	266	264	262	255	248	246	223	238	225	229	227	225	227	230	233	234	235	233	232	231	230	226	223	224	228	229	229	232	233	230	228	229	230	230	230	229	228	226	225	225	226	226	226	226	
233	233	233	233	233	233	232	232	231	231	231	230	230	229	228	226	225	223	220	216	209	198	178	138	140	249	231	235	239	239	236	228	218	213	211	210	216	216	215	215	223	244	221	245	238	221	213	220	229	189	189	185	182	185	178	172	171	210	196	226	230	240	226	197	231	218	182	215	226	236	231	218	231	220	198	204	211	221	229	234	239	239	214	238	227	182	214	221	224	229	227	228	225	223	218	228	218	225	226	228	222	205	198	205	202	232	237	239	242	245	246	245	246	249	250	247	245	245	247	249	250	249	248	249	253	257	260	263	266	269	271	272	272	270	272	268	264	257	252	250	265	256	235	210	231	229	231	233	236	238	239	236	235	233	232	229	225	225	229	231	232	235	235	232	230	231	231	231	230	229	228	227	226	225	225	226	227	227	
233	233	233	233	233	233	232	232	232	231	231	231	230	229	229	228	226	224	222	219	214	205	188	149	154	244	239	243	244	240	233	224	216	220	217	217	218	219	219	209	211	214	223	250	217	214	216	209	186	195	191	186	183	181	179	222	207	167	237	227	235	244	245	194	231	220	178	216	228	237	230	216	230	220	194	205	219	226	230	236	242	244	216	238	229	176	208	217	224	227	231	229	225	220	220	222	204	210	223	223	207	201	201	209	233	235	235	236	239	241	241	240	243	245	244	242	243	244	248	248	248	242	242	245	249	253	255	256	256	257	259	260	263	264	264	261	257	252	247	245	279	253	242	211	234	232	234	235	237	240	241	239	237	237	236	233	229	228	232	234	236	238	237	235	234	233	233	233	233	231	229	228	228	227	226	227	228	228	
233	233	233	233	233	233	233	232	232	232	231	231	231	230	229	228	227	226	224	221	218	211	198	179	174	221	248	249	247	240	231	221	220	215	213	215	216	229	215	217	217	219	217	228	219	218	221	211	201	194	196	192	187	182	179	178	209	187	163	235	242	248	246	240	232	222	175	214	228	237	229	240	230	219	213	207	219	226	231	236	245	247	212	244	229	209	204	216	224	226	230	229	221	214	221	227	221	229	194	208	207	206	214	233	235	237	233	235	237	244	243	238	249	239	237	239	242	246	246	245	242	242	246	250	253	255	256	248	247	247	247	248	252	255	255	251	246	243	241	243	275	246	237	216	235	235	237	238	239	243	244	241	241	241	240	239	236	234	235	238	239	240	241	241	242	243	243	244	243	240	238	236	234	233	229	227	227	227	
233	233	233	233	233	233	233	233	232	232	232	231	231	231	230	229	228	227	226	224	221	215	206	194	174	201	251	248	243	237	228	219	239	233	231	230	233	217	222	223	222	221	236	234	221	220	222	224	211	202	199	202	198	192	184	217	208	243	243	246	254	254	250	245	235	224	210	214	228	237	224	237	228	217	211	213	220	226	231	235	244	246	209	242	227	210	188	213	222	226	230	225	213	212	222	229	224	214	231	202	219	222	227	233	235	236	239	241	243	241	238	240	238	234	234	236	238	241	243	242	240	241	243	246	247	248	249	248	246	247	237	238	241	244	246	245	243	242	242	287	246	242	234	238	237	238	240	241	243	247	247	245	246	247	246	247	247	247	248	249	248	249	252	254	257	260	263	263	262	261	259	256	251	244	234	223	220	220	
233	233	233	233	233	233	233	233	232	232	232	232	232	231	231	230	229	228	227	225	223	219	212	198	168	189	253	247	240	234	223	242	232	227	231	232	216	223	231	233	229	222	240	238	236	235	234	222	223	213	197	206	210	231	229	239	240	241	244	251	262	265	259	250	240	226	212	216	228	237	217	235	227	217	209	212	221	226	230	242	242	247	209	232	226	214	169	204	218	225	229	219	207	213	226	228	222	221	221	231	228	232	231	232	234	235	236	237	238	237	232	236	241	232	234	236	260	258	258	253	256	235	237	240	242	260	257	242	240	241	243	246	249	248	245	235	235	237	287	274	231	239	233	238	240	244	245	246	250	252	252	251	253	255	257	259	260	263	260	270	269	270	272	273	273	275	277	278	279	280	280	277	272	258	234	209	202	202	
233	233	233	233	233	233	233	233	233	233	233	232	232	232	231	231	230	229	229	227	225	222	216	201	167	180	253	249	240	232	241	234	235	232	232	233	221	232	242	246	235	246	247	246	207	240	237	236	236	222	209	197	208	229	229	235	236	237	240	244	255	265	267	260	248	231	215	219	230	235	237	201	228	217	201	214	222	227	230	241	241	243	208	228	225	216	201	197	214	226	224	211	207	220	229	227	222	226	227	225	228	232	234	229	231	232	253	240	226	220	221	232	241	231	234	255	257	253	250	249	257	232	234	262	259	255	251	244	238	232	234	235	239	239	233	236	241	247	231	198	198	210	231	229	244	249	251	253	256	260	263	263	265	270	276	277	275	273	277	282	269	287	285	285	285	284	285	288	267	291	292	292	293	288	227	178	176	176	
233	233	233	233	233	233	233	233	233	233	233	233	232	232	232	231	231	230	230	229	228	225	220	207	169	180	253	244	236	228	236	239	231	230	232	226	237	240	245	248	238	253	213	209	204	241	238	235	237	237	220	209	199	211	228	229	233	234	236	237	242	250	257	263	260	242	225	225	231	230	232	204	228	214	207	215	224	228	232	241	241	234	209	223	226	220	208	197	210	226	234	210	214	224	227	224	224	228	227	228	231	226	231	229	233	238	239	234	231	221	224	232	239	243	245	246	249	255	246	248	251	256	258	259	258	252	244	235	225	224	226	225	228	225	213	214	219	215	201	195	238	234	231	230	248	256	263	265	268	271	275	278	277	279	285	289	287	281	280	286	291	293	293	294	295	294	293	294	295	298	303	307	317	336	23	100	119	119	
233	233	233	233	233	233	233	233	233	233	233	233	233	233	232	232	232	231	231	230	229	227	223	215	181	189	250	241	239	235	245	237	229	227	224	233	237	241	244	247	250	255	202	197	198	243	238	237	237	234	234	218	205	201	227	228	228	231	232	232	234	238	242	247	251	250	247	241	231	233	235	223	226	212	208	217	225	228	232	241	235	225	213	203	229	224	216	202	207	222	227	227	227	226	226	224	224	226	228	230	231	231	232	230	228	230	228	228	229	233	242	232	235	237	256	253	254	251	252	249	242	246	246	246	244	241	233	221	206	201	201	195	200	198	190	187	195	204	241	242	242	250	250	253	260	270	279	282	282	281	282	286	287	286	289	294	296	290	285	287	293	297	289	289	310	311	310	301	290	288	257	313	331	354	15	86	108	108	
233	233	233	233	233	233	233	234	234	233	233	233	233	233	233	233	232	232	232	231	231	229	227	221	205	209	247	245	238	231	244	234	227	224	226	230	235	239	245	245	248	251	251	249	170	189	242	238	236	235	231	231	218	210	205	226	225	226	228	228	229	231	233	235	236	238	246	248	230	228	234	221	226	214	212	221	227	229	240	234	226	221	215	204	208	226	221	212	185	210	216	222	226	222	225	227	225	229	234	236	235	229	220	217	217	205	223	223	227	236	240	226	227	250	247	246	250	248	249	247	247	236	243	237	229	218	183	178	182	181	209	209	213	201	213	212	240	243	246	251	258	263	264	266	273	283	292	296	293	288	285	287	270	295	296	303	281	272	283	280	276	259	269	273	278	277	278	24	226	240	261	309	330	355	15	48	78	78	
233	233	233	233	234	234	234	234	234	234	233	233	233	233	233	233	233	233	233	232	232	231	230	227	222	218	249	253	235	247	241	231	223	222	226	231	235	242	243	243	245	247	247	244	243	242	193	241	238	237	236	229	228	228	212	204	224	223	221	220	223	224	225	226	226	225	226	227	217	211	225	231	204	215	217	225	233	238	232	221	218	219	218	212	205	227	223	218	205	192	200	220	228	218	226	229	229	238	244	244	238	226	219	220	223	221	198	219	222	224	224	232	241	244	235	238	245	241	242	239	238	239	215	159	176	185	195	196	219	215	228	231	234	219	236	241	247	251	255	260	268	275	275	275	280	289	299	306	305	298	284	273	270	296	302	307	320	118	238	244	258	293	301	305	311	317	327	338	277	255	237	208	200	191	183	164	147	147	
233	233	233	234	234	234	234	234	234	234	234	234	234	234	234	234	234	234	234	233	233	233	233	232	230	225	246	255	252	247	240	228	221	224	230	234	238	243	243	250	251	246	244	242	241	239	239	190	236	236	235	234	228	229	228	209	195	208	219	216	213	217	218	218	216	215	215	214	210	197	207	224	221	216	220	234	234	232	223	217	217	219	221	220	213	200	226	221	208	187	193	214	226	228	234	236	241	245	244	244	230	221	220	224	227	226	216	195	206	213	215	222	230	229	222	227	234	235	236	229	220	160	196	198	203	228	229	226	221	231	234	237	240	241	241	245	252	263	271	278	284	286	278	273	276	283	293	300	317	320	226	230	253	290	297	299	315	326	269	254	240	214	206	201	200	199	197	193	194	199	198	200	199	193	188	178	171	171	
233	233	234	234	234	234	234	234	234	234	234	234	234	234	234	234	234	234	234	234	234	234	234	234	233	230	246	255	252	246	239	228	224	228	235	238	240	245	243	249	241	218	242	237	240	239	237	234	233	234	234	234	234	230	229	217	209	197	191	192	203	201	199	191	215	211	207	212	210	200	195	210	217	219	226	232	234	225	219	215	213	217	221	223	217	208	197	222	214	195	183	204	225	229	235	235	248	247	245	233	221	218	223	228	230	228	219	210	203	197	192	200	172	190	205	218	224	228	223	185	177	186	201	197	230	230	229	227	232	235	241	245	247	248	248	251	259	272	286	301	312	322	280	256	258	265	300	311	313	324	329	249	238	212	204	199	197	192	195	202	202	205	204	201	200	199	198	195	194	197	198	200	202	201	198	196	195	195	
233	234	234	234	234	234	234	234	234	234	234	234	234	234	235	234	234	235	235	235	235	235	235	236	235	234	245	254	248	244	237	228	227	232	237	238	239	244	250	244	230	208	239	235	237	236	235	234	154	234	234	235	236	237	229	221	216	210	202	195	188	185	184	183	181	179	207	202	213	207	196	199	212	224	233	231	233	234	232	231	228	229	233	224	219	214	209	224	211	203	188	197	218	231	232	233	244	242	233	232	219	221	231	235	233	227	220	213	208	205	205	207	208	202	196	188	176	179	185	193	194	208	199	223	222	230	234	235	235	239	250	264	266	262	259	259	259	261	279	298	314	332	328	244	238	214	206	203	200	196	191	195	201	204	203	200	198	195	195	198	200	204	208	208	207	206	205	204	203	203	205	206	206	207	206	206	207	207	
234	234	234	234	234	234	234	234	234	235	235	235	234	235	235	235	235	235	235	235	236	236	236	237	237	238	246	253	251	244	237	230	231	235	236	236	246	248	242	234	225	215	202	233	230	232	231	231	232	159	232	236	239	241	242	227	220	215	211	205	201	198	199	193	190	189	209	203	195	214	205	199	212	228	238	232	233	231	230	228	225	227	232	235	235	231	231	226	215	209	192	196	214	230	234	240	242	237	231	227	226	232	239	240	234	226	221	214	209	207	208	210	211	209	206	204	204	200	197	197	198	205	195	214	212	220	227	234	235	237	243	255	262	260	254	246	239	223	210	210	207	203	198	199	201	200	202	201	199	197	193	194	198	203	206	206	205	205	204	205	207	209	210	211	211	210	209	209	208	209	209	210	211	211	212	213	214	214	
234	234	234	234	234	234	234	234	235	235	235	235	235	235	235	235	235	235	235	236	236	236	237	237	238	239	245	251	249	243	238	234	234	235	250	246	242	238	232	228	223	218	210	199	228	221	230	230	229	228	217	233	239	242	244	228	226	222	218	213	210	208	203	199	194	215	210	204	224	221	216	210	221	237	244	246	232	231	227	224	223	225	229	233	232	229	230	228	217	215	197	199	216	230	240	245	243	251	248	244	235	243	246	242	232	224	220	213	207	205	208	212	212	211	207	205	206	205	201	198	196	205	198	217	217	222	226	231	231	228	225	221	218	217	215	215	212	205	204	206	205	203	199	198	200	202	205	206	205	204	204	204	205	207	209	210	209	209	209	210	211	212	213	213	213	213	212	212	212	213	213	214	214	215	216	218	219	219	
234	234	234	234	234	234	234	235	235	235	235	235	235	235	235	235	235	236	236	236	236	237	237	238	238	239	241	243	242	239	237	234	234	235	244	240	236	230	227	223	221	219	217	210	200	220	230	230	229	228	206	231	239	242	244	246	225	221	216	211	208	208	206	225	220	216	210	229	228	228	227	228	240	253	255	255	254	252	249	246	244	243	246	248	248	247	246	245	237	222	203	205	222	236	246	249	250	248	243	242	250	254	251	244	232	224	217	209	203	201	206	212	213	204	208	213	215	217	219	218	217	217	229	234	238	236	232	230	227	224	221	217	214	211	210	210	209	209	209	210	210	208	207	206	207	208	209	209	209	209	208	209	210	210	211	212	212	212	212	213	214	214	215	215	215	215	215	215	215	216	216	217	217	218	219	221	222	222	
234	234	234	234	234	234	235	235	235	235	235	235	235	235	235	235	236	236	236	236	237	237	238	238	239	238	237	236	234	234	234	234	234	237	233	232	231	230	223	221	221	222	220	217	208	199	216	229	228	228	228	200	237	243	245	244	247	246	217	240	235	231	227	223	220	216	233	231	232	233	237	245	258	267	268	267	265	260	254	251	250	251	252	253	252	251	249	247	242	231	212	211	232	248	253	251	255	250	245	256	256	256	253	247	235	206	209	214	214	213	220	219	223	220	245	253	259	276	283	281	275	263	252	246	241	238	234	230	227	225	223	221	218	216	215	215	215	214	214	213	213	212	211	211	211	211	212	212	212	212	212	212	213	213	214	214	215	215	215	216	216	216	217	217	217	217	218	218	218	218	219	219	220	221	222	223	224	224	
234	234	234	234	234	235	235	235	235	235	235	235	235	235	235	235	236	236	236	236	237	237	238	239	239	239	237	233	232	234	236	236	239	242	225	227	226	226	226	225	227	229	228	226	222	218	212	212	227	225	226	227	233	243	247	242	244	242	240	237	233	228	225	224	237	235	232	230	231	236	244	254	265	275	281	281	277	270	263	259	258	259	260	261	261	259	257	257	251	243	231	231	251	266	271	267	260	256	250	253	231	231	235	230	230	225	244	250	258	275	282	282	280	270	262	259	260	270	278	278	273	264	253	244	238	235	232	230	228	227	225	223	221	219	218	218	217	217	216	216	215	214	214	214	214	214	214	215	215	215	215	215	215	216	216	216	217	217	217	218	218	218	219	219	219	219	220	220	220	220	221	221	222	223	224	225	225	225	
234	234	234	234	235	235	235	235	235	235	235	235	235	235	236	236	236	236	236	237	237	238	238	239	240	241	241	238	237	240	241	237	241	244	245	247	248	247	224	225	227	228	227	225	223	221	217	209	200	226	225	225	230	240	248	251	240	251	238	248	246	244	243	243	240	237	233	229	230	236	245	255	264	276	287	293	294	289	281	273	269	272	276	274	270	269	272	277	276	269	265	271	277	278	281	278	272	266	265	267	265	269	278	281	279	271	262	259	261	271	280	281	278	271	263	258	256	257	259	259	256	252	247	242	238	235	232	231	229	227	225	224	222	221	220	220	219	219	218	218	217	217	216	216	216	216	216	216	216	216	217	217	217	217	218	218	218	219	219	219	220	220	220	220	221	221	221	221	222	222	222	223	224	224	225	226	227	227	
234	234	234	234	235	235	235	235	235	235	235	235	236	236	236	236	236	236	237	237	238	238	239	240	241	243	246	246	248	249	248	246	240	243	243	245	246	246	247	247	249	228	226	224	225	225	220	214	233	228	222	226	229	236	246	252	253	253	252	249	247	246	245	244	243	241	237	232	231	237	245	252	261	271	283	296	305	309	309	299	286	278	282	280	277	271	275	280	283	279	274	281	284	278	277	278	276	271	267	267	265	267	276	280	279	273	265	259	257	259	262	264	263	261	258	256	254	253	252	251	249	246	243	240	237	234	232	231	229	228	226	225	224	223	222	221	221	220	220	219	219	218	218	218	218	218	218	218	218	218	219	219	219	219	219	219	220	220	220	221	221	221	221	222	222	222	223	223	223	224	224	224	225	226	227	227	228	228	
234	234	234	235	235	235	235	235	235	235	235	236	236	236	236	236	236	236	237	237	238	238	239	240	242	245	248	252	256	257	255	253	252	253	253	243	242	243	244	245	248	249	248	246	247	247	245	240	236	231	224	218	231	234	243	252	254	255	255	253	253	251	250	248	246	246	244	242	242	247	251	254	259	264	269	277	288	297	302	297	278	271	271	267	265	253	250	245	241	238	243	252	265	269	268	268	268	267	265	263	262	262	265	267	265	263	260	258	257	256	257	257	256	255	254	252	251	249	248	247	245	243	241	238	236	234	232	231	229	228	227	226	225	224	223	222	222	221	221	221	220	220	220	220	219	219	219	219	220	220	220	220	220	220	221	221	221	221	222	222	222	222	223	223	223	224	224	224	225	225	225	226	226	227	228	228	229	229	
234	234	235	235	235	235	235	235	235	235	236	236	236	236	236	236	236	236	237	237	238	239	239	240	242	245	249	253	257	260	260	259	258	257	256	255	254	254	254	254	247	246	245	244	246	247	244	239	242	239	237	236	236	238	242	249	253	254	255	259	262	265	265	262	256	253	250	247	249	250	250	249	249	245	237	229	228	227	226	226	233	239	239	237	237	241	240	236	234	233	238	246	254	260	261	262	262	262	261	260	260	260	260	260	259	258	256	255	254	253	253	253	252	251	250	249	248	247	245	244	242	241	239	237	235	234	232	231	230	228	227	226	225	225	224	223	223	222	222	222	221	221	221	221	221	221	221	221	221	221	221	221	221	222	222	222	222	223	223	223	223	224	224	224	224	225	225	225	226	226	226	227	227	228	229	229	229	229	
234	235	235	235	235	235	235	235	235	236	236	236	236	236	236	236	237	237	237	237	238	239	240	240	242	244	248	251	253	258	262	263	263	261	259	258	258	258	259	259	258	257	255	254	253	252	248	246	244	241	239	239	242	244	248	252	254	254	254	254	258	262	263	260	254	246	239	231	229	230	231	233	232	240	237	219	222	223	222	223	226	230	232	232	234	237	239	238	238	239	243	247	251	254	256	258	258	258	258	258	257	257	256	256	256	255	254	252	252	251	250	250	249	248	248	247	245	244	243	242	241	239	238	236	235	233	232	231	230	229	228	227	226	225	225	224	224	223	223	223	222	222	222	222	222	222	222	222	222	222	222	222	222	223	223	223	223	224	224	224	224	225	225	225	225	225	226	226	226	227	227	228	228	229	229	230	230	230	
235	235	235	235	235	235	235	235	236	236	236	236	236	236	236	237	237	237	237	238	239	240	240	240	242	243	247	249	248	254	260	263	265	264	262	261	261	261	261	262	261	260	260	259	258	256	253	249	246	243	240	240	242	244	246	248	250	248	244	239	234	231	227	223	223	225	223	222	224	225	226	228	228	224	222	223	226	227	227	228	230	233	235	236	237	238	238	239	240	241	244	246	248	251	252	253	254	254	255	255	255	254	254	254	253	252	252	251	250	249	249	248	247	246	246	245	244	243	242	240	239	238	237	235	234	233	232	231	229	229	228	227	226	226	225	224	224	224	224	223	223	223	223	223	223	223	223	223	223	223	223	223	223	223	224	224	224	224	224	225	225	225	225	226	226	226	227	227	227	227	228	228	229	229	230	230	231	231	
235	235	235	235	235	235	235	236	236	236	236	236	236	236	237	237	237	237	237	238	239	240	240	240	241	242	245	245	244	247	254	258	261	263	264	264	264	265	265	265	265	263	263	262	261	259	255	252	248	244	240	237	236	234	232	232	233	234	232	229	227	224	221	219	219	221	222	224	228	230	230	230	229	228	228	228	228	228	229	230	231	233	235	236	237	238	239	240	241	243	244	246	248	249	250	251	252	253	253	253	253	252	252	251	251	250	250	249	249	248	247	246	246	245	244	243	242	241	240	239	238	237	236	235	233	232	231	230	229	228	228	227	226	226	225	225	225	224	224	224	224	224	223	223	223	223	223	223	223	223	224	224	224	224	224	224	224	225	225	225	225	226	226	226	227	227	227	227	228	228	229	229	229	230	230	231	231	231	
235	235	235	235	235	235	236	236	236	236	236	236	236	237	237	237	237	237	238	239	240	240	240	240	241	241	242	242	241	241	246	251	255	258	261	262	263	265	265	265	264	264	263	262	260	257	253	250	246	242	238	235	233	232	230	229	229	230	229	229	229	227	225	224	224	225	226	228	230	231	231	230	230	229	229	230	230	230	230	231	232	234	235	236	237	238	239	240	241	243	244	246	247	248	249	250	251	251	251	251	251	251	251	250	250	249	249	248	247	247	246	245	245	244	243	242	241	240	239	238	237	236	235	234	233	232	231	230	229	228	228	227	226	226	226	225	225	225	224	224	224	224	224	224	224	223	223	224	224	224	224	224	224	224	225	225	225	225	226	226	226	226	227	227	227	227	228	228	228	228	229	229	230	230	231	231	232	232	
235	235	235	235	235	236	236	236	236	236	236	236	237	237	237	237	238	238	239	240	240	240	240	240	240	241	240	239	236	234	237	244	248	252	254	256	257	258	258	258	258	259	259	258	257	254	251	247	244	240	238	236	235	234	233	232	232	232	231	231	229	228	227	226	226	227	228	229	230	230	231	230	230	230	230	231	231	231	232	233	234	235	236	237	238	239	240	240	241	242	244	245	246	247	249	249	250	250	250	250	250	250	250	250	249	249	248	248	247	246	245	245	244	243	242	241	240	239	238	237	236	235	234	233	232	231	230	229	229	228	227	227	226	226	225	225	225	225	224	224	224	224	224	224	224	224	224	224	224	224	224	224	225	225	225	225	225	226	226	226	226	227	227	227	227	228	228	228	229	229	229	230	230	231	231	232	232	232	
235	235	235	235	235	235	236	236	236	236	236	236	237	237	237	237	238	238	239	240	240	240	240	240	240	240	239	237	233	230	233	240	245	248	251	252	254	254	254	254	255	256	257	256	255	253	250	247	243	241	238	236	235	234	233	233	232	232	231	231	229	228	227	227	227	228	228	229	230	230	230	230	230	230	231	231	231	232	232	234	235	236	237	237	239	240	240	241	242	243	244	245	246	247	248	249	250	250	250	250	250	250	250	250	249	248	248	247	247	246	245	244	243	242	242	241	240	239	238	237	236	235	234	233	232	231	230	229	228	228	227	227	226	226	226	225	225	224	224	224	224	224	224	224	224	224	224	224	224	224	225	225	225	225	225	225	226	226	226	226	226	227	227	227	227	228	228	228	229	229	230	230	231	231	232	232	232	232	
