ncols	178
nrows	225
xllcorner	1669333.329241
yllcorner	496308.452995
cellsize	90.000000
NODATA_value	nan
235	234	233	231	228	226	223	220	216	213	211	210	209	209	210	213	217	223	227	233	189	191	194	209	234	267	291	304	297	300	301	288	285	280	273	266	258	251	244	239	235	232	230	228	226	226	226	226	226	227	229	230	231	233	236	235	236	176	173	163	142	7	359	356	352	350	350	348	346	345	345	341	338	308	304	300	296	291	284	280	276	272	268	263	258	254	250	247	244	243	241	241	240	240	239	239	239	238	238	238	237	237	237	237	237	237	237	237	238	238	238	237	237	237	237	237	236	236	235	235	235	234	234	234	233	233	232	232	231	230	230	229	228	227	225	223	221	219	218	216	215	214	213	212	211	210	210	209	209	209	208	207	208	208	209	210	210	210	210	210	210	211	212	213	213	214	215	217	220	223	226	229	230	233	236	242	235	235	
235	234	233	231	228	226	223	220	216	213	211	210	209	209	210	213	217	223	227	233	189	191	194	209	234	267	291	304	297	300	301	288	285	280	273	266	258	251	244	239	235	232	230	228	226	226	226	226	226	227	229	230	231	233	236	235	236	176	173	163	142	7	359	356	352	350	350	348	346	345	345	341	338	308	304	300	296	291	284	280	276	272	268	263	258	254	250	247	244	243	241	241	240	240	239	239	239	238	238	238	237	237	237	237	237	237	237	237	238	238	238	237	237	237	237	237	236	236	235	235	235	234	234	234	233	233	232	232	231	230	230	229	228	227	225	223	221	219	218	216	215	214	213	212	211	210	210	209	209	209	208	207	208	208	209	210	210	210	210	210	210	211	212	213	213	214	215	217	220	223	226	229	230	233	236	242	235	235	
235	234	232	230	227	225	222	219	216	213	212	211	210	211	226	225	224	228	232	237	202	200	203	212	221	231	244	255	272	270	278	275	271	268	262	256	250	245	240	237	234	232	230	229	228	227	227	227	228	230	231	232	234	236	237	237	240	178	186	187	206	249	293	309	314	317	320	319	316	317	314	307	300	290	285	280	274	278	274	271	268	265	261	257	253	250	247	245	243	242	241	240	240	239	239	239	238	238	238	237	237	237	237	237	237	237	237	238	237	237	237	237	237	237	237	236	236	236	235	235	234	234	234	234	233	233	232	231	231	230	229	228	227	226	225	223	221	219	218	217	216	214	214	213	212	211	211	210	210	218	216	214	212	211	211	211	211	211	212	222	220	218	216	214	214	215	217	220	223	226	229	230	232	234	234	234	235	235	
234	233	231	228	226	223	220	217	215	213	213	215	214	234	233	248	253	255	238	244	210	209	208	210	212	214	219	246	240	233	257	253	247	249	246	243	239	237	235	233	232	231	230	230	230	230	230	231	232	234	235	236	237	239	239	240	247	195	203	202	210	217	222	232	241	244	241	240	238	231	227	227	223	259	254	250	246	262	260	258	256	253	250	248	246	244	243	242	241	240	240	240	239	239	239	238	238	238	237	237	237	237	237	237	237	237	238	237	237	237	237	237	237	237	236	236	236	235	235	235	234	234	234	233	233	232	232	231	231	230	229	228	227	225	224	222	220	218	217	217	216	215	214	214	214	213	226	224	223	221	219	236	237	237	236	234	233	231	229	227	241	241	241	240	238	237	237	237	236	236	232	233	234	234	234	235	235	235	
232	231	229	227	224	222	219	216	214	213	213	216	217	237	248	253	257	262	260	249	216	213	211	211	210	212	214	235	228	221	247	242	243	241	238	236	234	232	231	231	231	230	230	230	230	231	232	233	235	236	242	241	242	242	241	242	241	206	210	210	213	216	217	220	223	221	218	217	214	208	207	207	248	243	240	237	233	254	253	252	250	247	245	243	242	241	240	240	240	239	239	239	239	239	238	238	238	237	237	237	237	237	237	237	237	237	238	237	237	237	237	237	237	236	236	236	235	235	235	234	234	234	234	233	233	232	231	231	230	229	228	227	226	224	223	221	219	218	217	217	216	216	215	215	215	229	228	227	225	239	240	240	240	240	242	243	244	244	244	245	245	246	246	246	246	248	250	252	255	238	238	235	235	234	235	236	237	237	
231	230	228	226	223	220	218	216	214	213	214	217	239	239	252	258	262	265	264	224	219	214	213	211	210	211	212	228	221	243	240	234	236	235	233	231	230	229	229	229	230	230	230	230	231	233	234	235	237	238	243	243	243	243	243	245	204	213	213	213	215	215	214	215	216	213	210	209	204	200	200	200	236	232	230	228	250	249	248	247	245	243	241	240	239	239	238	238	239	239	239	239	238	238	238	238	237	237	237	237	237	237	237	237	237	238	238	237	237	237	237	237	236	236	236	235	235	235	234	234	234	234	233	233	232	231	231	230	230	229	228	227	225	224	222	220	218	217	217	217	216	216	216	216	215	230	229	228	241	241	242	243	243	244	246	246	247	247	247	248	249	249	249	249	250	252	254	257	258	259	239	239	236	238	235	237	238	238	
230	229	227	224	222	219	217	215	213	214	216	219	241	241	256	260	264	267	251	224	219	214	213	211	210	211	211	223	216	240	235	229	232	230	229	228	227	227	228	229	229	230	230	231	232	234	235	237	238	244	243	244	244	244	244	249	212	217	215	216	217	214	212	214	213	208	206	204	200	197	198	196	229	226	224	221	245	245	244	243	241	239	238	237	237	237	237	238	238	238	238	238	238	238	238	237	237	237	237	237	237	237	237	237	237	238	237	237	237	237	237	236	236	236	236	235	235	235	234	234	234	233	233	233	232	231	231	230	229	228	227	226	224	223	221	219	218	217	217	216	216	216	216	216	232	230	230	229	242	243	245	245	245	247	248	249	249	249	250	251	251	251	251	252	253	255	258	259	260	260	259	239	235	258	239	239	239	239	
229	228	226	223	221	218	216	214	213	214	219	220	242	253	258	263	266	270	241	224	218	215	213	211	210	211	227	219	212	237	231	232	229	228	226	225	225	225	226	228	229	230	231	231	233	235	236	238	239	244	244	245	245	244	245	252	217	219	217	218	217	214	213	213	210	206	204	201	196	195	195	229	225	222	220	217	242	241	241	240	238	236	235	235	235	236	237	237	237	238	238	238	238	238	237	237	237	237	237	236	236	237	237	237	237	238	237	237	237	237	236	236	236	236	235	235	235	234	234	234	234	233	233	233	232	231	230	230	229	228	227	226	224	222	221	219	217	217	216	216	216	217	217	216	232	231	230	229	244	245	246	246	247	249	250	250	250	251	251	252	253	253	253	254	255	257	260	261	261	260	259	238	236	236	241	239	240	240	
227	226	224	222	219	217	215	213	213	215	218	223	243	256	261	264	267	276	229	224	217	215	214	211	211	211	224	216	237	233	227	229	228	226	224	224	223	224	225	227	228	230	230	232	234	235	237	239	245	245	245	246	246	245	247	227	221	220	219	219	217	213	213	212	208	205	203	199	195	194	193	224	220	219	217	241	240	240	239	237	235	234	233	233	234	235	235	236	237	237	237	237	237	237	237	237	237	236	236	236	236	236	236	237	237	237	237	237	237	236	236	236	236	236	235	235	234	234	234	234	234	233	233	232	232	231	230	229	229	228	226	225	224	222	220	218	217	216	216	217	217	217	217	216	232	231	231	244	245	246	246	246	248	250	250	250	251	251	252	253	254	254	254	254	256	259	260	261	261	261	261	236	236	236	241	240	240	240	
226	225	223	221	218	216	214	213	213	216	219	243	243	258	263	266	270	254	229	223	217	215	213	211	210	210	220	213	235	230	224	227	226	224	223	223	223	224	225	227	228	230	230	232	234	236	238	240	245	245	246	246	246	246	250	220	223	221	220	220	216	213	213	211	206	204	202	197	194	193	191	219	216	215	214	239	239	239	238	236	234	232	232	232	232	233	234	235	235	236	237	237	237	237	236	236	236	236	236	236	236	236	236	237	237	237	237	237	236	236	236	236	236	235	235	235	234	234	234	234	233	233	233	232	231	230	230	229	228	227	226	225	223	221	219	217	216	216	216	217	217	217	217	234	232	231	231	245	246	247	247	247	249	250	251	251	252	252	253	254	255	254	253	253	256	259	261	261	261	261	261	236	236	235	237	239	240	240	
225	224	222	219	217	215	213	212	214	219	221	244	256	261	265	268	274	237	228	221	217	215	213	211	211	225	218	210	233	227	228	226	224	222	221	221	222	223	225	227	229	230	231	233	235	237	239	241	246	246	246	246	246	246	252	222	225	222	222	220	215	214	213	210	205	203	201	196	194	193	221	217	215	213	211	237	237	237	236	234	233	232	232	232	233	233	234	234	235	236	236	236	236	236	236	236	236	236	236	236	236	236	236	237	237	237	236	236	236	236	236	236	236	235	235	235	234	234	234	233	233	233	232	232	231	230	230	229	228	227	226	224	222	220	218	216	215	216	216	217	217	217	216	234	232	232	231	246	247	247	247	248	250	251	251	252	252	251	252	254	254	252	252	253	257	260	260	259	259	260	259	235	235	234	237	240	240	240	
224	223	220	218	215	213	212	212	214	219	223	244	258	263	267	270	273	232	226	219	217	215	213	212	211	223	215	208	230	224	226	225	223	221	221	221	222	223	225	227	229	230	231	234	236	238	240	246	246	246	247	247	246	247	278	225	226	223	223	219	215	214	213	208	205	203	199	195	194	192	219	215	214	212	236	236	235	235	233	232	230	231	231	232	233	234	234	235	236	236	236	236	236	236	236	236	236	236	236	236	236	236	237	237	237	236	236	236	236	236	236	236	236	235	235	235	234	234	234	233	233	233	232	232	231	230	230	229	228	227	226	224	221	219	217	216	216	216	217	217	218	217	215	233	232	232	246	247	247	247	247	249	251	251	251	251	249	249	251	253	251	250	250	252	256	258	257	257	260	235	251	237	237	235	221	243	242	242	
222	221	219	217	214	212	211	212	215	219	244	245	260	265	268	273	254	231	223	218	217	215	212	211	210	220	212	232	227	221	225	223	222	220	220	221	222	224	226	228	229	230	232	234	237	239	240	246	246	246	247	247	246	249	234	227	226	224	223	219	215	214	212	207	204	202	197	194	193	191	216	213	212	210	235	235	235	234	232	230	229	229	230	230	232	233	234	235	235	236	236	236	236	236	236	236	236	236	236	236	236	236	237	237	237	236	236	236	236	236	236	236	235	235	235	234	234	234	234	233	233	232	232	232	231	231	230	229	228	227	225	223	221	219	217	216	216	217	217	217	217	216	234	232	231	231	246	247	247	246	247	249	249	249	249	248	245	245	249	251	247	248	248	249	252	252	247	243	213	214	216	213	236	225	218	244	243	243	
221	220	218	215	213	211	210	212	216	221	244	257	262	267	270	279	236	228	220	218	216	214	212	212	225	217	210	231	225	226	224	222	221	220	220	220	222	224	226	228	230	231	233	236	238	240	246	246	247	247	247	247	247	251	228	229	226	225	223	218	215	215	210	205	203	201	196	194	193	219	215	213	211	209	233	233	233	232	231	229	229	229	230	230	231	232	233	234	235	236	236	236	236	236	236	236	236	235	235	236	236	236	237	237	236	236	236	235	236	236	236	236	236	235	235	234	234	234	233	233	233	232	232	232	231	231	230	229	228	227	225	223	221	218	216	215	215	216	216	216	216	214	232	230	230	230	246	246	245	243	243	245	245	245	246	242	237	237	237	230	235	237	238	240	238	232	229	225	217	214	215	213	214	223	218	243	242	242	
219	219	216	214	211	210	210	212	219	223	245	259	264	268	272	268	233	225	219	217	216	213	212	212	223	215	207	229	222	225	223	221	220	219	219	220	222	224	227	228	230	231	234	236	239	240	246	247	247	247	247	247	247	253	229	231	227	226	222	217	215	214	209	204	203	199	195	194	192	217	214	212	210	234	234	233	233	231	229	227	227	228	229	231	232	233	234	234	235	236	236	236	236	235	235	235	235	235	235	236	236	236	237	237	236	236	236	235	235	236	236	236	236	235	235	235	234	234	234	233	233	232	232	232	231	231	230	229	228	227	225	223	220	218	215	214	214	215	215	214	213	211	229	227	227	241	244	243	240	236	236	237	235	232	223	215	219	223	219	217	226	229	231	234	234	231	230	225	215	213	214	215	215	222	216	244	244	244	
218	217	215	212	210	209	209	213	218	244	255	261	266	270	276	242	230	221	218	216	215	213	212	211	220	212	232	226	220	224	222	220	219	219	219	220	223	225	227	229	230	232	235	237	240	241	247	247	247	248	248	247	248	282	231	231	228	226	222	217	215	213	207	204	202	197	194	193	191	215	213	211	209	233	233	233	232	230	228	227	226	227	229	230	231	232	233	234	235	236	236	236	236	236	236	236	235	235	235	236	236	237	237	237	236	236	235	235	235	236	236	236	236	235	235	235	234	234	234	233	233	233	232	232	232	231	230	229	228	227	225	223	220	217	214	212	212	212	212	211	211	227	225	223	222	234	234	232	228	224	225	225	221	215	210	210	217	225	226	228	234	237	237	240	242	238	231	225	216	214	215	217	217	217	216	219	224	224	
217	216	213	211	209	208	209	214	220	244	257	263	268	272	274	236	226	219	217	216	214	212	212	211	218	210	231	224	225	223	221	220	219	218	219	221	223	225	228	229	230	232	236	238	240	247	247	247	248	248	248	247	250	249	233	231	229	226	221	217	216	212	206	203	200	196	193	192	218	214	212	210	208	233	233	232	231	229	227	226	226	227	229	230	231	232	233	234	235	235	235	235	235	235	235	235	235	235	235	236	236	237	237	236	236	236	235	235	235	236	236	236	236	235	235	235	234	234	234	234	233	233	232	232	232	231	230	229	228	227	225	223	220	216	214	211	210	211	211	210	210	209	220	220	220	226	222	222	221	221	223	223	217	212	212	218	230	240	244	245	247	247	248	250	248	240	232	226	218	216	217	216	214	216	216	220	220	220	
215	214	211	209	207	207	209	218	221	244	259	265	270	275	252	232	222	217	216	215	213	212	212	223	215	208	228	222	224	222	220	219	218	218	219	221	224	226	228	230	231	233	237	239	241	247	247	248	248	248	248	248	253	237	235	232	229	225	220	217	215	210	205	203	199	195	193	191	216	213	211	209	233	233	233	233	231	228	226	225	226	227	229	230	231	232	233	234	235	235	235	235	235	235	235	235	235	235	235	236	237	237	237	236	236	236	235	235	236	236	236	236	236	235	235	235	235	234	234	234	233	233	232	232	232	231	230	229	228	227	226	224	220	217	215	212	212	214	214	214	214	212	210	223	223	220	222	222	220	220	224	224	219	214	220	234	245	250	250	247	248	251	252	250	242	235	231	225	218	218	217	215	214	214	217	218	223	223	
214	212	210	207	206	206	210	217	243	254	262	267	271	283	238	228	218	216	215	214	213	212	212	221	213	231	226	220	223	221	220	219	218	218	219	222	224	227	229	230	232	234	238	240	247	247	248	248	249	249	249	250	255	237	236	232	229	225	220	217	215	210	205	202	198	195	193	219	215	212	211	208	233	233	233	232	230	227	225	225	226	227	229	230	231	232	233	234	235	235	235	235	235	235	235	235	235	235	236	236	237	237	237	236	236	236	235	236	236	236	236	236	236	235	235	235	235	234	234	234	233	233	233	232	232	231	230	229	228	228	226	224	221	218	217	216	216	217	218	218	217	214	212	226	225	223	222	223	219	218	223	224	222	224	238	246	247	244	238	238	242	246	247	243	234	231	227	223	220	221	218	216	226	213	218	221	225	225	
212	211	208	206	204	205	210	217	242	257	264	269	274	272	234	223	216	215	214	214	212	213	211	218	210	230	224	225	223	221	219	218	218	218	220	222	225	227	229	230	233	236	239	241	247	248	248	249	249	249	248	250	257	239	237	233	230	224	220	218	215	209	204	201	197	194	192	217	214	212	210	207	233	233	233	232	229	226	224	225	226	227	229	231	232	232	233	234	234	234	234	235	235	235	235	235	235	235	236	237	238	237	237	236	236	236	235	236	236	236	236	236	236	235	235	235	235	234	234	234	233	233	233	232	232	231	230	229	229	228	227	225	222	220	219	218	216	216	218	219	218	215	213	225	226	226	226	226	221	222	226	228	233	241	245	244	241	234	232	234	238	240	237	234	229	227	225	224	224	225	220	228	226	214	219	223	222	222	
210	209	206	204	203	205	211	219	242	259	266	271	280	241	229	218	214	214	214	213	212	212	223	216	208	228	221	224	222	220	219	218	218	219	221	223	226	228	229	231	234	237	240	242	248	248	249	249	249	249	248	251	283	240	238	234	229	224	221	218	214	209	203	199	196	194	191	216	213	211	209	234	233	234	233	231	228	225	224	225	226	228	229	231	232	232	234	234	234	235	235	235	235	235	235	235	235	235	236	238	238	237	237	236	236	236	236	236	236	236	236	236	236	235	235	235	235	235	234	234	234	233	233	233	232	231	231	230	229	229	228	226	224	223	222	220	217	215	216	217	218	216	215	218	226	228	228	228	228	230	232	237	241	242	240	238	234	232	234	235	238	237	232	229	226	223	222	226	231	232	224	230	243	214	222	221	223	223	
208	207	204	201	202	205	214	240	253	262	268	273	287	235	224	215	213	213	213	212	212	212	221	213	230	225	219	223	221	220	219	218	218	219	221	224	226	229	230	232	235	238	241	248	248	249	249	250	250	250	250	255	253	242	239	235	229	224	221	219	214	208	202	198	197	194	221	215	213	211	208	234	234	234	233	230	227	224	224	225	226	228	230	231	231	232	234	234	234	234	235	235	235	235	235	235	234	235	236	238	237	237	237	236	236	236	236	236	236	236	236	236	236	236	235	235	235	235	235	234	234	234	233	233	232	232	231	231	230	229	228	227	226	225	225	223	220	217	216	218	220	219	218	219	222	229	229	230	233	234	240	240	238	235	233	234	234	236	238	237	239	236	231	229	226	223	225	233	237	237	225	231	242	217	223	221	222	222	
206	204	201	199	200	205	213	240	256	265	271	278	243	231	219	213	212	213	213	212	212	211	218	211	229	223	224	222	221	219	219	219	219	220	222	225	228	230	232	234	236	240	242	248	249	249	250	251	251	251	253	259	251	246	240	235	229	225	223	220	214	208	202	198	198	195	220	216	213	211	207	234	235	235	233	230	226	223	224	225	227	229	231	231	231	233	234	234	234	234	235	235	235	235	235	234	234	234	236	238	237	237	237	236	236	236	236	236	236	236	236	236	236	236	235	235	235	235	235	234	234	234	233	233	232	232	232	231	230	230	229	228	227	227	226	225	222	220	219	222	224	223	221	221	222	229	228	231	233	233	240	239	236	232	232	235	236	238	238	237	237	237	234	231	227	227	237	241	240	238	225	229	241	216	222	222	227	227	
202	201	199	198	200	206	215	239	259	268	274	259	236	225	215	212	212	212	212	212	212	223	215	208	227	221	223	222	220	219	220	220	220	222	224	227	229	231	233	235	238	241	249	249	250	250	251	252	251	251	254	261	252	247	240	235	230	226	225	221	214	207	201	199	199	194	220	216	215	212	237	235	235	235	233	229	225	223	224	226	227	229	231	232	232	233	234	234	234	234	235	235	235	235	235	235	234	235	237	238	237	237	237	236	236	236	236	236	236	236	236	236	236	236	235	235	235	235	235	234	234	234	234	233	233	232	232	232	231	230	230	229	228	227	227	226	224	222	221	223	226	226	224	223	223	225	231	232	232	229	230	232	232	231	234	238	239	240	240	237	236	237	235	232	233	241	246	242	238	236	225	247	241	217	223	227	224	224	
200	199	197	197	199	206	237	251	263	270	278	246	231	219	212	210	211	212	211	211	211	220	213	229	224	218	223	221	220	219	220	220	221	223	226	229	231	232	234	237	240	243	250	251	251	251	252	253	252	252	256	297	251	254	260	256	233	230	229	224	211	205	202	202	200	228	222	217	216	212	238	237	236	235	233	229	225	223	224	227	228	229	231	232	233	234	234	234	234	234	234	235	235	235	235	235	235	235	236	237	238	237	237	236	236	236	236	236	236	236	236	236	236	236	235	235	235	235	235	235	234	234	234	233	233	233	232	232	231	231	230	230	229	228	228	227	226	224	223	223	226	227	226	223	222	224	226	232	231	227	227	229	229	230	235	240	242	243	242	237	235	236	238	239	244	247	245	239	237	234	225	247	240	218	223	222	231	231	
197	196	195	195	199	209	236	255	266	273	292	235	225	214	209	209	211	211	210	211	211	218	210	228	222	224	222	221	220	219	220	221	223	225	228	231	233	234	236	238	242	251	252	252	252	253	253	254	253	255	261	272	259	264	260	261	262	263	262	260	257	202	208	207	201	232	228	219	217	245	242	240	239	236	232	228	223	223	225	227	228	229	231	233	233	234	234	234	234	234	234	235	235	235	235	235	235	235	235	237	238	237	237	236	236	236	236	236	236	236	236	236	236	236	236	235	235	235	235	235	235	234	234	233	233	233	233	232	232	231	231	230	230	229	229	228	227	226	225	224	226	228	226	223	222	225	228	232	231	229	229	231	232	234	237	240	239	239	237	233	233	238	244	246	248	248	246	242	237	230	226	246	238	219	221	228	229	229	
194	193	191	193	199	209	235	259	269	278	250	231	218	211	208	209	210	210	210	210	210	215	208	225	220	223	221	221	220	220	221	222	225	227	230	233	235	236	238	240	244	253	254	253	254	255	256	256	255	257	263	263	267	266	265	265	266	267	268	268	268	265	257	239	219	239	238	232	226	245	245	244	242	239	234	228	223	223	225	227	228	229	231	233	233	233	234	234	234	234	234	235	235	235	235	235	235	235	235	237	238	237	237	236	236	236	236	236	236	236	236	236	236	236	236	236	235	235	235	235	235	234	234	234	233	233	233	232	232	232	231	231	231	230	230	229	228	227	226	224	226	229	229	227	225	227	230	233	231	230	230	232	234	237	238	239	238	235	232	230	235	245	248	245	244	247	249	242	232	227	225	241	236	219	221	228	235	235	
191	190	188	190	198	210	249	264	273	292	237	225	213	209	208	209	210	209	210	210	220	212	228	223	217	222	221	221	220	221	222	224	227	230	233	236	237	239	240	242	246	254	256	255	256	259	261	260	258	258	260	279	271	264	264	265	264	264	264	265	267	268	266	257	244	242	241	241	242	240	242	241	242	240	236	228	224	224	226	228	229	229	231	233	233	233	234	234	234	234	235	235	235	235	235	235	235	235	235	236	237	237	236	236	236	235	236	236	236	236	236	236	236	236	236	236	235	235	235	235	235	234	234	234	234	233	233	233	232	232	232	232	231	231	230	230	229	228	228	226	227	231	232	231	229	229	231	233	233	231	232	232	233	235	235	238	238	232	232	234	241	246	246	242	242	246	247	233	227	225	242	236	242	230	222	236	236	236	
187	186	186	190	200	230	254	269	279	252	232	218	209	208	208	209	209	209	209	209	217	210	226	220	222	221	221	221	221	222	223	227	230	234	238	240	241	243	244	245	254	256	257	258	259	262	264	264	263	261	277	278	268	256	259	259	257	255	255	256	260	265	264	262	258	254	245	241	239	232	237	234	236	237	233	226	223	225	226	228	229	230	232	234	233	234	234	234	234	235	235	235	235	236	235	235	235	235	235	236	237	237	236	236	236	236	236	236	236	236	236	236	236	236	236	236	235	235	235	235	235	235	234	234	234	234	233	233	233	233	232	232	232	231	231	230	230	230	229	227	227	229	231	231	228	228	230	232	232	231	234	233	234	235	234	234	232	230	234	240	242	243	243	240	242	246	244	228	226	243	237	244	240	225	227	248	239	239	
182	182	183	190	202	228	260	274	295	238	226	212	208	207	208	209	208	208	208	221	214	207	223	217	221	221	221	222	223	225	227	231	235	238	242	244	245	247	248	247	254	253	253	253	275	277	263	263	263	262	265	255	250	249	252	254	252	249	248	249	251	254	255	255	257	262	260	253	244	230	235	232	231	232	230	221	220	224	226	228	229	231	233	233	233	234	234	234	234	235	235	235	235	235	235	235	235	235	236	237	238	237	237	236	236	236	236	236	236	236	236	236	236	236	236	236	236	236	235	235	235	235	234	234	234	234	234	233	233	233	233	233	232	232	231	231	231	230	230	228	226	227	228	228	226	226	228	230	230	230	235	234	235	236	235	232	234	237	242	245	245	244	242	240	243	246	244	228	243	238	246	244	239	213	243	251	238	238	
177	177	181	190	202	245	267	282	248	233	219	209	206	206	208	208	207	207	207	218	211	223	219	220	219	221	222	223	225	229	232	236	239	241	244	245	246	246	251	247	246	247	266	267	271	273	262	261	260	322	259	255	250	247	247	249	248	247	246	246	245	244	245	248	253	260	265	263	262	244	236	232	233	232	229	220	218	223	226	227	229	231	233	233	233	235	235	234	234	235	235	235	236	236	235	235	236	236	236	237	238	238	237	236	236	236	236	236	236	236	236	236	236	236	236	236	236	236	236	235	235	235	235	234	234	234	234	234	234	233	233	233	233	232	232	232	232	231	231	230	228	227	228	228	226	225	227	229	230	231	233	234	235	235	236	239	244	246	248	248	248	246	243	242	245	247	244	228	240	234	243	241	233	217	247	242	238	238	
169	170	178	189	220	255	276	299	237	227	215	207	205	205	206	206	205	205	205	214	207	221	217	220	220	221	223	225	227	230	233	236	238	241	243	244	250	247	244	242	266	264	262	273	266	259	259	258	297	258	256	239	252	250	238	245	246	247	247	246	244	242	241	243	246	252	261	267	267	261	252	235	236	235	232	223	218	222	226	228	229	231	232	232	233	235	234	234	234	235	236	236	235	235	235	236	236	236	236	237	237	238	237	237	236	236	236	236	236	236	236	236	236	236	236	236	236	236	236	235	235	235	235	235	234	234	234	234	234	234	233	233	233	233	232	232	232	232	231	231	230	230	231	231	229	227	229	230	230	231	232	234	235	236	237	239	243	245	248	249	248	247	247	246	247	247	240	228	236	243	241	237	228	218	243	251	253	253	
162	161	168	182	233	265	288	242	231	222	212	206	205	206	207	206	205	204	216	212	223	219	221	222	222	223	225	227	228	231	233	235	237	244	244	243	242	240	267	266	265	262	271	276	262	262	255	254	254	255	254	254	253	253	249	246	245	246	247	247	245	243	244	245	244	246	254	252	265	261	259	253	239	239	237	228	220	222	226	228	229	231	232	231	233	235	234	234	234	235	236	236	235	235	235	235	235	236	236	237	236	236	237	237	237	236	236	236	236	236	236	236	236	236	236	236	236	236	236	235	235	235	235	235	235	234	234	234	234	234	234	234	233	233	233	233	233	232	232	232	231	231	233	233	232	230	231	231	231	231	231	230	234	235	236	239	241	243	246	247	245	246	246	246	247	244	236	227	233	241	239	234	226	224	239	249	253	253	
155	154	153	164	243	270	280	260	244	233	239	250	227	208	203	204	204	218	213	226	222	221	221	222	223	224	225	227	229	232	235	237	243	242	240	269	267	262	259	259	272	273	275	281	258	256	253	251	250	250	250	251	251	251	249	247	245	246	245	245	244	245	247	248	247	246	247	248	249	254	254	253	249	245	241	232	223	221	225	228	230	232	233	232	235	236	235	234	234	235	235	235	235	236	236	235	236	236	237	237	236	236	237	237	237	236	236	236	236	236	236	236	236	236	236	236	236	236	236	236	235	235	235	235	235	235	235	234	234	234	234	234	234	233	233	233	233	233	233	232	232	232	233	234	233	232	231	231	232	232	232	231	231	232	235	240	242	243	244	244	243	245	245	244	242	238	231	227	231	226	237	230	223	227	238	250	254	254	
149	148	142	147	241	263	272	275	270	264	266	251	222	211	205	206	223	214	229	226	222	220	220	222	223	223	224	226	228	236	238	238	239	265	268	268	265	260	268	269	271	274	280	283	261	247	248	248	248	248	247	247	247	247	247	247	246	244	242	240	241	243	247	249	248	247	245	243	246	248	245	239	241	251	246	237	226	219	223	227	230	232	233	234	236	236	235	235	235	236	236	236	236	236	235	235	236	237	237	237	236	236	237	237	237	236	236	236	236	236	236	236	236	236	236	236	236	236	236	236	236	235	235	235	235	235	235	235	234	234	234	234	234	234	233	234	234	234	233	233	233	233	233	234	234	232	230	230	231	231	231	231	232	234	237	240	239	238	243	245	243	244	244	240	236	235	229	227	230	225	237	230	225	231	241	253	252	252	
144	144	145	154	229	255	273	268	251	232	211	208	212	214	209	206	219	213	226	223	221	219	218	220	221	222	224	226	229	234	234	258	258	259	259	261	270	269	269	270	272	277	286	259	254	250	246	245	245	245	245	250	243	243	255	248	243	242	238	237	238	240	244	245	243	242	241	246	248	244	238	233	237	248	251	245	231	220	222	227	230	233	234	235	236	236	235	235	236	236	236	236	236	235	235	235	236	237	236	236	237	237	237	237	237	236	236	236	236	236	236	236	236	236	236	236	236	236	236	236	236	235	235	235	235	235	235	235	235	235	235	234	234	234	234	234	234	234	234	233	233	233	233	234	234	233	231	230	230	229	229	230	231	232	240	241	240	239	245	246	242	242	240	233	232	232	226	229	227	242	238	231	216	237	240	243	244	244	
141	141	158	173	222	258	267	240	224	214	208	210	211	212	209	223	214	224	220	219	217	216	215	217	218	220	223	230	230	252	253	254	255	272	274	273	269	269	268	269	273	281	274	257	253	249	247	246	245	246	246	247	240	249	246	241	239	237	235	235	237	239	241	241	238	237	241	245	245	242	236	224	235	246	250	249	240	223	223	229	232	234	235	235	236	236	235	235	236	236	236	236	236	235	235	236	237	237	236	237	237	237	237	237	237	237	236	236	236	236	236	236	236	236	236	236	236	236	236	236	236	235	235	235	235	235	235	235	235	235	235	234	234	234	234	234	234	234	233	233	233	233	234	234	234	233	232	232	231	230	231	232	231	233	239	241	243	244	248	247	242	241	239	231	230	231	225	227	224	241	237	229	229	240	234	245	246	246	
138	140	162	170	175	253	255	244	228	217	213	215	213	210	207	222	215	221	218	216	213	213	214	215	217	218	223	224	245	246	246	261	266	270	273	273	270	269	269	270	275	282	263	256	246	245	244	246	243	242	241	242	240	240	240	239	237	235	234	234	235	237	239	238	235	235	238	242	244	242	240	232	229	244	248	248	241	222	224	233	235	237	237	236	236	237	236	235	235	235	236	237	236	236	236	237	237	237	237	237	237	236	236	237	237	237	237	236	236	236	236	236	236	236	236	236	236	236	236	236	236	236	235	235	235	235	235	235	235	235	235	235	235	235	235	235	234	234	233	233	234	234	234	234	234	234	234	235	235	234	234	233	232	233	236	241	245	246	246	245	242	241	238	229	229	231	225	225	242	240	236	230	224	231	236	251	255	255	
138	139	155	157	147	250	244	238	230	216	212	219	218	210	225	218	224	216	214	212	210	211	213	215	217	218	219	241	242	243	259	264	268	270	273	271	269	270	270	271	276	277	256	249	247	249	240	235	238	242	240	235	229	229	232	230	238	236	235	233	234	235	236	235	233	233	237	241	243	243	241	236	233	241	245	247	241	218	219	235	239	239	239	238	237	238	237	236	236	236	237	237	236	236	236	237	237	237	236	236	237	237	236	236	236	236	237	236	236	236	236	236	236	236	236	236	236	236	236	236	236	236	235	235	235	235	235	235	235	235	235	235	235	235	235	234	234	233	233	234	234	234	234	234	234	234	235	236	237	236	235	232	230	233	236	243	248	249	250	246	243	240	234	226	225	229	227	224	241	239	236	231	222	234	242	252	256	256	
138	138	145	142	138	250	232	227	227	220	218	224	224	213	220	212	216	211	210	208	207	209	212	214	217	219	220	242	241	256	261	266	271	272	276	270	269	272	271	273	278	270	251	239	238	239	233	233	236	242	240	237	235	239	240	240	239	238	237	236	238	238	238	234	232	232	236	240	243	242	244	244	243	242	250	245	243	226	218	236	241	243	243	241	239	238	237	236	236	237	237	237	237	236	237	237	237	237	237	237	237	237	236	236	236	236	237	237	236	236	236	236	236	236	236	236	236	236	236	236	236	236	235	235	235	235	235	235	235	235	235	235	235	235	235	234	234	234	234	234	235	235	234	234	235	235	236	236	237	236	235	232	231	233	236	239	249	253	253	249	246	240	231	227	222	225	228	224	240	237	235	229	224	241	244	254	257	257	
137	136	136	129	127	251	226	219	219	216	219	223	234	222	217	212	211	210	208	206	205	208	211	214	218	220	242	242	240	257	262	267	270	270	272	271	273	274	274	274	283	261	242	225	224	229	230	234	239	241	238	236	234	235	237	240	240	228	239	239	242	246	244	239	234	233	235	239	240	241	240	240	241	240	237	250	242	238	233	242	244	247	248	245	241	239	238	236	236	236	237	237	237	236	237	237	237	237	237	237	237	237	237	236	236	237	237	237	236	236	236	236	236	236	236	236	236	236	236	236	236	236	236	236	235	235	235	235	235	235	235	235	235	235	235	234	234	234	234	235	235	235	235	235	235	236	236	236	236	236	235	234	233	235	236	237	248	250	249	248	244	237	230	227	221	223	227	226	241	237	235	229	233	239	248	255	257	257	
139	136	132	119	119	253	232	221	216	211	213	212	214	213	214	214	210	208	206	204	203	206	210	214	217	221	242	240	255	258	263	267	269	269	268	270	274	276	277	279	285	250	232	219	217	230	234	235	235	233	229	233	229	225	227	229	239	229	240	240	244	247	247	243	236	234	234	236	238	238	236	236	237	234	237	236	240	232	223	233	246	249	250	248	244	240	238	237	237	237	238	238	238	237	237	237	238	237	237	237	237	237	237	237	236	236	237	237	237	236	236	236	236	236	236	236	236	236	236	236	236	236	236	236	236	235	235	235	235	235	235	235	235	235	235	234	234	235	235	235	235	235	235	235	235	235	235	235	235	235	235	234	232	234	236	238	246	246	244	243	243	230	227	225	221	223	226	227	246	240	235	227	237	243	250	256	256	256	
143	139	132	122	130	246	246	224	216	213	213	214	210	216	210	213	210	207	204	202	202	205	209	213	217	241	241	253	255	260	264	268	269	270	270	270	274	276	276	280	283	249	234	227	231	229	232	226	223	220	220	214	209	205	214	231	238	231	238	239	243	245	246	242	237	233	233	234	236	237	235	234	235	234	232	233	232	225	215	214	238	249	251	249	245	240	238	238	237	238	239	239	238	237	237	238	238	237	237	237	237	237	237	237	236	236	236	237	237	236	236	236	236	236	236	236	236	236	236	236	236	236	236	236	236	235	235	235	235	235	235	235	235	235	235	235	235	235	235	235	235	235	235	235	235	235	235	235	236	236	235	233	231	234	237	241	244	244	242	239	237	237	237	236	234	224	225	224	243	237	228	238	242	246	252	258	255	255	
146	142	136	140	142	148	252	225	218	216	214	213	210	213	218	213	209	205	202	201	202	206	211	214	217	238	236	253	255	259	263	265	266	268	269	270	273	277	276	279	254	242	232	231	227	221	213	211	212	214	218	219	229	229	233	230	238	230	236	237	241	242	241	238	235	234	234	235	237	237	235	233	232	232	230	233	233	220	216	217	234	249	254	252	246	241	239	239	239	239	240	239	238	237	237	238	237	237	237	238	237	237	237	237	237	236	236	237	236	236	236	236	236	236	236	236	236	236	236	236	236	236	236	236	236	235	235	236	236	235	235	235	235	235	235	235	235	235	235	235	235	235	235	235	235	236	236	236	236	237	237	236	235	238	241	244	247	243	241	236	234	233	234	233	231	233	233	244	240	227	234	239	243	248	252	256	256	256	
152	146	140	148	135	128	254	227	221	219	216	212	218	211	216	212	208	204	201	201	203	208	214	216	219	239	251	252	255	258	260	261	263	265	267	269	274	279	282	284	223	225	220	219	218	211	202	202	213	218	218	219	223	234	236	238	232	225	219	223	228	238	235	232	231	230	232	235	237	236	235	232	230	232	233	232	235	233	228	225	236	248	259	262	256	248	245	242	240	240	240	240	239	238	238	238	238	237	238	238	238	237	237	237	237	236	236	237	236	236	236	236	236	236	236	236	236	236	236	236	236	236	236	236	236	236	236	236	236	235	235	235	235	235	235	235	235	235	235	235	235	235	235	235	236	236	236	236	237	237	238	239	241	245	248	247	249	252	242	238	235	232	232	230	229	231	243	240	230	235	235	239	246	248	250	258	257	257	
160	153	145	144	127	121	255	229	222	223	217	224	216	221	216	212	208	205	202	202	205	210	215	218	241	239	254	254	257	260	259	259	262	266	268	272	281	264	180	205	200	207	205	205	204	203	201	202	217	217	212	223	233	234	237	236	231	224	222	219	235	223	231	228	226	224	227	232	235	235	233	231	231	233	234	234	235	233	229	228	238	245	254	264	273	270	258	249	244	241	241	241	240	239	239	238	238	238	238	238	238	238	238	237	237	236	237	237	236	236	236	236	236	236	236	236	236	236	236	236	236	236	236	236	236	236	236	236	236	235	235	235	235	235	235	235	235	235	235	235	235	235	236	236	236	236	236	236	237	238	239	240	243	247	250	250	252	254	253	240	236	233	230	227	229	230	243	229	236	237	251	244	246	248	257	255	254	254	
168	160	151	141	118	113	256	234	227	222	218	221	224	220	217	213	209	206	205	205	208	213	218	222	244	240	257	256	258	260	258	259	263	266	269	279	260	187	199	202	203	194	199	207	203	199	198	203	214	215	218	233	231	230	226	217	224	220	219	233	232	230	228	225	223	221	223	227	231	232	231	229	230	231	230	230	231	231	231	230	228	243	245	248	256	271	270	261	252	245	243	242	241	240	239	238	239	238	238	239	238	238	238	237	237	237	237	237	237	236	236	236	236	236	236	236	236	236	236	236	236	236	236	236	236	236	236	236	236	236	236	235	235	235	235	235	235	235	235	235	235	236	236	236	236	236	236	237	237	238	239	241	243	246	248	249	253	256	254	250	234	235	228	242	229	231	232	242	239	241	241	245	246	254	252	251	249	249	
174	169	157	143	112	106	255	234	227	223	230	220	224	220	217	213	209	208	207	207	210	215	219	245	245	259	259	258	258	258	258	259	262	265	271	278	210	201	200	201	204	202	194	192	206	200	195	193	201	203	210	212	206	211	214	226	220	217	215	212	230	227	225	223	222	221	222	224	228	231	230	229	229	229	228	228	229	229	228	226	223	240	251	236	233	234	241	251	253	250	246	242	240	239	239	239	239	239	239	239	239	238	238	238	237	237	237	237	237	237	236	236	236	236	236	236	236	236	236	236	236	236	236	236	236	236	236	236	236	236	236	236	235	235	235	235	235	235	235	235	236	236	236	236	236	237	237	237	238	239	240	241	242	244	246	249	253	256	254	249	246	247	227	239	238	237	246	239	242	242	252	252	250	245	245	247	245	245	
180	178	167	150	119	113	256	239	231	237	229	230	224	220	216	213	211	210	210	210	213	216	220	241	257	260	259	259	259	260	261	262	263	263	267	212	218	204	204	204	201	203	205	200	191	202	195	195	197	199	195	196	200	207	211	224	220	216	231	231	229	227	200	225	223	219	221	223	225	227	227	227	228	228	228	230	232	230	225	223	221	232	242	234	226	222	223	229	239	247	247	243	240	240	239	239	239	239	240	239	239	239	239	238	237	237	237	237	237	236	236	236	236	236	236	236	237	236	236	236	236	236	236	236	236	236	236	236	236	236	236	236	236	236	235	235	235	235	235	235	236	236	236	236	237	237	237	237	238	239	240	241	242	244	245	248	253	255	253	249	247	247	243	237	234	245	237	239	242	248	249	247	244	243	245	248	246	246	
188	186	178	164	143	153	256	250	246	234	225	228	222	219	216	214	212	212	212	213	215	217	241	239	257	258	260	259	259	260	262	264	266	265	221	225	217	202	199	203	202	200	221	220	195	187	192	191	192	180	183	182	190	206	212	224	219	215	230	213	229	228	189	194	192	222	222	223	222	221	221	222	223	223	224	228	231	229	224	222	220	229	238	231	226	223	222	225	233	241	244	244	243	242	241	241	241	241	241	240	239	239	239	238	238	238	237	237	237	236	236	236	236	236	235	236	236	237	236	236	236	236	236	236	236	236	236	236	236	236	236	236	236	236	236	236	235	235	235	236	236	236	236	237	237	237	237	237	238	239	240	241	242	244	246	249	254	256	253	249	248	246	242	236	234	245	247	248	248	247	245	241	242	245	249	254	255	255	
194	193	188	179	169	165	251	251	245	229	233	226	221	218	215	214	214	214	214	215	215	215	237	255	259	258	259	258	257	257	260	262	265	268	219	220	210	204	199	200	229	201	216	219	217	191	179	183	187	189	187	187	188	186	188	208	218	217	229	229	230	193	192	195	196	195	194	192	215	220	220	220	218	215	217	222	225	224	219	217	218	225	235	236	230	225	225	227	231	235	238	242	245	245	243	243	243	243	242	240	240	240	239	238	238	238	237	237	237	237	237	236	236	236	235	234	235	236	236	236	236	236	236	236	236	236	236	236	236	236	236	236	235	235	235	235	235	235	236	236	236	236	236	237	237	237	237	237	238	240	241	241	242	244	246	250	254	254	252	250	247	244	240	236	235	241	242	243	244	243	241	241	245	249	252	255	254	254	
199	199	196	190	187	161	196	252	240	233	230	226	222	219	216	216	216	217	219	219	216	216	233	251	256	260	257	255	255	255	256	258	261	215	220	213	200	194	179	164	172	192	210	241	218	212	206	192	193	191	190	191	193	195	197	196	194	189	187	189	194	194	189	189	194	198	201	200	199	212	199	196	219	215	217	220	222	222	217	214	214	220	227	230	228	225	227	230	232	233	234	238	243	245	245	245	244	244	244	243	242	241	239	238	238	238	237	237	237	237	237	236	236	235	235	235	235	235	235	235	236	236	235	235	236	236	236	236	236	236	236	235	235	235	235	235	235	235	235	236	236	236	236	236	236	237	237	238	239	240	240	241	241	243	245	247	250	250	249	247	244	241	240	237	237	238	241	240	241	239	238	242	245	246	249	253	251	251	
204	205	202	199	193	154	195	251	236	231	228	225	222	220	217	218	219	222	225	226	223	242	234	248	251	256	254	252	252	252	253	253	248	221	216	207	198	186	201	200	235	192	168	205	242	240	238	236	232	229	225	224	198	198	200	201	202	201	200	201	200	199	194	194	196	198	200	201	216	216	216	213	200	195	194	197	200	219	218	213	213	218	223	225	224	221	227	233	234	233	234	238	242	244	245	245	245	245	245	245	244	242	240	239	239	238	237	237	237	237	237	237	236	236	236	235	236	236	235	235	236	236	235	235	235	236	236	236	235	235	235	235	235	235	235	235	235	235	235	235	235	236	236	236	236	236	237	238	239	239	240	240	241	242	244	245	246	247	247	244	242	242	241	239	237	238	238	238	239	237	236	238	236	238	243	249	249	249	
208	209	208	206	198	154	211	251	243	232	229	224	222	221	220	221	223	228	233	235	234	250	239	246	245	251	255	253	250	249	249	247	245	219	212	207	197	190	179	171	167	172	173	176	199	239	237	235	233	229	227	226	224	237	237	214	204	207	204	204	204	203	224	223	223	222	221	220	218	218	217	215	213	211	208	231	209	205	204	204	197	192	194	215	218	219	220	232	233	233	236	241	244	245	246	246	246	246	245	245	245	243	242	241	240	239	238	238	238	237	237	237	237	237	235	235	235	236	236	235	235	236	236	236	236	236	236	236	235	235	235	235	236	235	235	235	235	235	235	235	236	236	236	236	236	237	237	238	239	239	240	240	241	242	243	243	244	245	245	244	244	246	245	241	240	241	241	236	239	236	234	236	240	243	242	250	250	250	
212	214	213	212	206	162	221	252	243	232	229	225	223	222	222	224	227	233	239	243	245	266	251	248	245	249	253	252	248	246	247	247	241	215	212	199	195	187	185	187	197	214	211	205	200	234	233	233	232	242	242	243	242	240	240	241	214	208	237	205	205	203	226	226	226	224	222	221	220	218	217	216	215	214	210	207	234	231	202	199	196	193	193	212	210	215	223	230	232	233	237	240	243	245	246	247	249	251	250	249	248	246	244	242	240	239	238	238	238	237	237	237	237	237	236	235	235	235	236	235	235	235	236	236	236	236	236	235	235	235	235	236	236	236	235	236	236	236	235	235	236	236	236	236	236	237	238	238	239	239	239	240	240	241	242	243	243	243	243	245	249	250	247	245	245	245	245	246	238	236	236	238	241	244	249	254	254	254	
215	217	217	217	212	177	223	252	243	231	229	226	224	223	223	224	227	233	258	265	272	280	271	251	250	237	239	239	243	244	248	247	248	215	203	199	194	199	199	201	218	211	210	236	233	231	231	230	230	243	243	243	243	242	243	243	243	241	238	240	208	204	228	228	227	225	222	222	221	219	218	217	217	214	212	209	235	234	231	228	224	222	192	225	223	210	213	226	229	233	239	241	243	244	245	247	250	251	252	252	252	250	246	242	240	239	238	238	237	237	237	237	237	236	236	236	236	235	235	235	236	236	236	235	235	235	235	236	236	236	236	236	236	235	235	236	236	235	235	235	236	236	236	236	237	237	237	238	238	239	239	240	241	241	241	241	241	241	242	246	250	251	249	247	247	248	249	249	250	249	240	240	242	244	250	255	254	254	
218	219	219	219	217	196	230	251	243	233	230	227	225	225	225	227	230	252	255	256	258	293	274	274	255	242	243	242	244	246	247	248	245	217	216	209	208	202	202	223	216	210	207	235	231	231	230	230	193	228	242	243	243	243	243	245	211	210	240	238	209	206	199	228	228	227	225	224	222	220	220	219	218	216	213	238	236	235	234	232	229	233	233	234	234	233	229	226	227	233	238	241	242	243	243	246	248	248	248	249	251	251	246	241	240	239	238	237	237	237	237	237	236	236	236	236	237	236	235	234	235	236	235	235	235	235	236	236	236	236	235	236	235	235	235	236	235	235	235	236	236	236	236	236	237	237	237	237	237	238	239	240	240	240	240	240	240	241	243	246	248	249	249	249	248	249	249	250	250	249	248	240	241	245	251	258	254	254	
220	220	220	221	220	211	233	248	242	234	230	228	226	226	228	231	234	252	252	273	281	248	248	292	264	245	245	244	245	248	247	248	250	218	216	213	206	205	224	218	212	210	235	231	230	239	242	244	243	241	241	242	242	242	245	212	211	210	205	202	201	207	194	230	228	228	227	226	224	244	243	242	241	240	203	204	237	236	235	238	238	237	238	231	244	242	236	250	229	248	246	238	238	239	241	244	245	245	246	246	248	249	245	241	240	239	238	238	238	237	236	236	236	236	236	236	237	236	235	235	235	235	235	235	235	236	236	236	236	235	235	235	235	235	235	235	235	235	236	236	236	236	236	237	237	237	237	237	238	239	239	239	239	239	239	239	239	240	242	244	245	246	248	248	248	248	249	250	250	249	247	246	243	247	253	258	257	257	
220	221	221	221	221	216	229	244	241	234	231	229	227	229	232	234	248	246	269	275	282	247	246	245	276	246	246	244	246	249	249	250	252	232	224	212	234	226	221	215	237	236	233	229	229	186	184	187	192	239	239	240	241	243	212	211	208	189	218	242	244	245	235	201	180	199	205	204	225	224	246	245	244	244	243	240	238	236	237	211	219	210	242	240	239	234	236	247	250	248	248	248	239	239	240	242	243	245	247	248	249	248	244	241	241	239	238	238	238	237	237	237	237	236	236	236	236	236	236	236	235	235	235	235	235	236	236	236	235	235	236	236	236	236	236	235	235	236	236	236	236	236	236	236	236	236	237	237	238	239	239	239	239	239	238	238	239	240	242	243	244	244	245	246	246	247	250	252	251	250	247	246	246	249	253	257	256	256	
221	221	221	221	220	215	222	237	239	235	231	229	229	231	234	248	245	264	267	279	246	244	241	242	299	247	245	245	246	248	251	253	254	229	220	235	228	224	238	238	237	237	231	229	163	218	175	230	237	237	237	238	241	208	210	195	215	242	241	242	245	246	247	246	242	249	245	208	197	206	211	207	205	204	244	242	238	237	238	212	221	245	236	239	257	232	232	241	245	248	248	247	247	240	241	242	243	244	247	251	252	250	245	241	241	240	239	238	237	236	237	237	237	236	236	236	236	236	236	236	236	235	235	235	236	236	236	236	236	236	236	236	236	236	236	236	236	236	235	235	235	236	236	236	236	236	237	237	238	239	238	238	238	238	238	238	239	240	242	243	243	243	243	244	244	246	250	252	252	250	247	246	246	251	254	255	255	255	
221	221	220	219	218	213	213	229	236	235	231	229	229	229	242	243	264	262	270	284	247	243	240	240	243	277	245	246	248	250	253	255	255	251	240	231	243	241	241	240	239	235	233	237	238	239	239	238	237	237	237	239	192	205	222	237	239	240	242	244	246	248	246	242	242	248	234	209	192	208	210	216	221	222	220	239	236	236	239	211	235	231	236	240	253	250	254	239	243	248	250	248	246	244	246	240	241	244	247	250	252	250	247	244	242	242	240	239	237	236	237	237	236	236	236	236	236	236	236	236	236	235	235	235	235	236	236	236	236	236	236	236	235	235	236	236	236	236	235	235	236	236	236	236	237	237	237	238	238	238	238	238	238	238	238	239	240	241	241	242	242	242	242	242	242	245	248	250	250	248	247	246	246	251	252	254	253	253	
220	220	219	217	215	210	207	221	233	237	232	231	230	242	240	261	262	264	270	259	247	243	240	241	242	290	243	246	250	253	255	257	253	245	235	243	242	242	242	240	237	235	238	239	241	243	243	241	240	238	239	194	205	197	216	237	237	239	242	245	247	247	245	242	250	249	245	244	232	211	220	221	215	216	214	214	214	200	202	254	232	232	236	242	243	240	238	236	241	246	252	252	250	246	243	249	257	263	247	250	250	247	244	244	245	242	239	238	237	237	237	237	236	236	236	236	236	236	236	236	236	236	235	235	235	235	235	235	236	236	236	236	235	235	236	236	236	235	235	236	236	236	236	237	237	237	237	237	238	238	238	238	238	238	239	239	240	240	240	241	241	240	241	242	242	244	247	248	246	245	246	246	247	248	249	253	251	251	
219	219	217	215	212	207	201	212	229	232	231	250	247	258	259	260	261	262	266	256	245	240	239	240	240	294	276	244	250	253	255	256	245	251	247	244	242	242	241	239	238	238	238	239	242	244	243	242	242	242	242	243	243	194	239	237	238	238	240	243	253	245	258	244	257	244	242	246	241	243	242	220	205	204	237	234	232	205	271	233	234	236	241	243	269	255	244	230	232	250	248	252	250	248	244	249	259	262	267	254	255	251	244	244	245	241	237	235	236	237	238	237	236	235	236	236	236	236	236	236	236	236	236	236	235	235	235	236	236	236	236	235	235	235	236	236	235	235	235	236	236	236	236	236	237	237	237	237	237	238	238	238	237	238	238	239	239	239	240	240	240	240	241	242	242	243	245	246	244	243	246	247	248	249	247	252	251	251	
218	217	216	213	209	203	194	203	227	231	248	246	258	259	262	263	263	269	271	255	244	239	239	239	239	289	276	245	250	253	255	245	240	248	246	244	242	241	240	240	240	240	239	240	241	242	242	243	244	244	243	244	243	242	239	239	240	240	241	243	251	253	256	253	253	243	234	232	231	236	227	211	238	236	235	233	232	237	232	235	237	241	242	244	245	259	242	228	228	243	275	281	273	259	239	246	255	259	264	253	259	261	256	250	248	243	239	236	235	235	236	236	236	235	236	236	236	236	235	235	235	236	236	235	235	234	235	236	236	235	235	235	235	235	236	236	235	235	235	235	236	236	236	236	236	236	237	237	237	237	237	238	238	238	238	238	238	238	239	240	239	240	241	242	242	243	244	244	244	245	248	249	249	250	251	252	252	252	
217	215	213	211	206	199	188	195	225	249	247	246	258	260	263	266	268	270	274	249	244	239	238	239	239	286	241	247	251	254	254	252	249	246	245	243	242	240	239	240	241	241	240	240	240	241	243	245	170	250	241	243	243	241	240	240	240	240	241	243	254	243	254	254	254	246	230	220	218	220	218	208	235	234	234	232	216	232	235	238	240	241	242	244	269	260	234	222	226	245	266	280	280	270	253	243	250	252	258	247	250	254	258	260	259	254	247	242	238	236	236	237	236	236	236	236	235	235	235	235	235	235	235	235	234	235	235	236	235	235	236	235	235	235	235	235	235	235	235	236	236	236	236	236	236	237	237	237	237	237	237	238	238	238	238	238	238	238	239	239	239	240	241	242	242	243	244	245	246	247	249	249	249	250	254	257	252	252	
215	214	211	208	203	196	183	187	232	244	246	259	262	263	263	265	267	269	278	249	244	239	238	238	238	288	278	247	252	255	255	252	249	247	245	243	242	241	241	241	241	241	242	241	240	242	193	215	238	237	239	241	241	241	241	241	240	240	241	243	253	251	252	253	252	247	235	228	223	213	206	234	232	232	232	203	230	232	237	241	242	243	244	247	274	272	241	225	231	248	255	269	275	272	260	237	256	245	248	249	240	239	240	252	261	261	257	251	245	241	240	238	236	236	236	236	235	235	235	235	235	235	235	235	235	235	235	235	235	235	236	236	235	235	236	236	235	235	235	235	236	236	236	236	236	237	237	237	237	237	237	237	238	237	238	238	238	238	240	240	240	240	241	241	241	242	244	246	247	247	249	249	249	251	256	259	251	251	
214	212	209	206	200	193	182	185	217	242	245	259	263	265	266	268	270	271	284	248	243	238	237	237	237	293	242	246	252	256	256	253	249	247	245	244	243	243	243	243	242	242	243	243	242	172	203	237	234	236	238	238	239	240	242	243	242	242	243	258	253	252	252	252	248	240	233	236	228	211	233	231	230	229	201	228	229	232	236	239	241	243	264	270	282	276	246	231	241	252	255	270	271	268	261	233	230	250	261	235	235	232	230	233	241	245	246	246	246	246	245	241	237	235	235	235	235	235	235	235	235	235	235	235	235	235	235	235	235	235	236	236	236	236	236	236	235	235	235	235	236	236	236	236	236	237	237	237	237	237	237	237	237	237	237	237	238	238	240	240	239	240	240	240	241	242	244	246	247	247	248	249	251	253	257	259	258	258	
212	210	207	203	198	190	182	183	213	241	258	260	263	265	267	270	272	274	279	247	241	237	235	291	238	240	277	244	250	269	255	253	249	246	246	245	244	244	243	242	243	243	167	243	245	246	242	237	236	237	237	238	239	240	242	243	243	243	258	257	254	253	253	251	233	228	226	227	215	227	230	229	228	226	256	227	229	232	236	238	255	258	262	273	279	269	245	238	237	233	259	281	282	274	264	231	226	228	231	233	232	228	218	224	228	227	225	223	226	237	242	240	237	234	234	235	235	235	235	234	234	234	235	235	235	235	236	236	235	235	236	236	236	235	235	236	236	236	235	235	235	236	236	236	236	236	236	237	237	237	237	237	237	237	237	237	238	238	239	239	239	239	240	240	240	241	243	244	245	245	246	248	251	255	259	259	258	258	
209	208	205	201	195	187	180	179	203	246	261	262	265	266	267	269	273	276	251	246	239	236	235	237	237	235	276	278	249	258	255	252	248	246	246	246	246	245	243	242	279	246	246	245	245	245	242	239	238	238	237	237	239	240	242	252	253	254	253	252	250	248	252	244	228	218	217	214	228	229	227	227	225	235	224	227	229	233	236	252	255	258	272	278	276	268	247	237	237	233	232	273	285	282	259	231	202	186	223	227	205	219	210	220	222	222	219	215	215	222	229	232	232	230	231	233	234	234	234	234	234	234	235	235	235	236	236	236	236	236	236	236	235	235	235	236	236	236	235	235	235	236	236	236	236	236	236	236	236	237	237	237	237	237	237	237	238	238	239	239	239	239	239	240	240	241	242	243	244	244	244	245	247	252	256	258	257	257	
207	206	204	200	192	183	178	172	185	246	262	262	263	265	266	269	272	282	250	244	239	237	236	237	251	275	234	274	249	263	234	247	246	245	236	254	185	246	243	243	245	245	245	243	242	242	240	239	239	239	237	235	236	238	246	248	250	251	267	266	261	254	246	233	229	219	216	229	230	227	224	223	228	222	224	227	230	232	248	249	251	265	269	274	272	262	253	240	235	229	228	253	285	289	215	203	198	180	177	187	200	221	209	201	206	209	206	216	216	219	223	226	227	226	229	233	233	233	234	233	233	234	235	235	235	235	235	235	235	236	236	236	236	235	235	235	236	235	235	235	236	236	236	236	236	236	236	236	236	237	237	237	237	237	237	237	238	238	238	238	238	238	239	239	240	241	241	242	243	243	244	243	244	246	250	253	254	254	
205	205	202	198	189	180	175	161	172	246	263	260	261	263	265	267	271	284	248	242	238	237	236	236	235	234	236	243	252	239	245	240	240	241	243	246	246	245	242	241	241	240	238	237	236	237	237	237	237	242	242	233	233	238	240	261	261	258	257	259	260	253	223	223	228	222	228	226	226	224	220	191	217	220	224	228	231	245	246	248	250	266	268	269	268	254	249	241	233	228	226	234	257	224	195	200	194	177	178	186	192	219	210	202	204	207	225	222	221	221	222	225	224	222	228	233	233	233	234	233	233	234	235	235	235	235	235	235	235	236	236	236	236	235	235	235	235	235	235	235	236	236	236	236	236	236	236	236	237	237	237	236	236	236	237	237	237	238	238	237	238	238	238	239	239	240	241	241	242	243	244	244	245	245	245	247	248	248	
203	203	200	196	187	178	170	150	152	245	261	259	262	263	264	266	268	250	247	239	237	236	236	236	235	234	236	245	258	250	241	175	235	235	238	239	239	238	238	238	238	237	235	235	234	234	233	232	233	235	235	234	233	235	258	258	258	252	247	246	246	215	215	220	219	215	224	222	222	220	217	215	214	218	223	237	239	241	243	245	262	265	268	272	268	259	241	233	228	228	231	239	243	215	200	194	188	179	182	188	219	218	213	205	205	207	229	227	226	223	223	225	223	222	227	232	232	232	233	233	234	234	235	235	235	235	235	235	235	235	235	236	236	236	235	235	235	235	235	235	235	235	236	236	236	236	236	236	237	237	237	236	236	237	237	237	237	238	237	237	238	238	238	239	239	240	240	240	241	242	243	245	246	246	245	245	245	245	
201	201	198	194	185	176	165	142	143	242	259	257	259	261	263	266	271	251	246	238	236	236	236	236	235	234	237	245	246	246	240	240	233	232	232	231	232	233	234	236	237	236	234	233	234	234	233	231	230	231	230	229	231	255	251	248	249	242	236	221	215	213	221	216	214	224	221	221	220	218	216	214	214	218	223	236	237	238	238	258	261	263	265	267	263	256	243	232	228	230	237	243	247	201	198	187	180	185	187	188	220	219	217	213	208	207	232	230	229	226	225	225	223	223	227	231	232	232	233	233	234	234	235	235	235	235	235	235	235	235	235	236	236	235	235	235	235	235	235	235	235	235	235	236	236	236	236	236	237	237	236	236	237	238	238	237	237	237	237	238	238	238	238	238	239	239	239	240	240	241	242	243	245	245	244	245	246	246	
200	200	197	192	184	174	163	141	141	239	251	258	251	253	259	263	271	250	243	236	236	235	244	237	235	235	239	246	258	244	239	236	234	232	231	230	231	234	236	236	236	234	231	230	232	249	233	231	229	228	250	230	252	249	245	257	239	225	220	218	212	207	217	212	226	223	222	222	221	219	217	216	217	220	225	236	237	237	259	261	264	265	266	265	260	256	240	234	231	226	242	249	254	227	197	180	174	183	196	193	221	219	219	217	213	208	235	234	232	229	228	225	223	224	228	232	233	232	233	234	234	234	234	235	235	235	235	235	235	235	235	236	236	236	235	235	235	235	235	235	235	235	235	235	235	236	236	236	236	236	236	236	237	237	237	237	237	237	237	237	238	237	237	238	238	238	239	239	240	240	241	241	242	242	242	244	246	246	
200	199	196	191	183	174	162	149	154	232	251	255	246	246	251	258	272	249	241	233	234	242	238	238	236	235	239	243	245	247	240	237	237	235	233	231	233	236	239	248	246	242	229	230	233	249	249	249	252	226	245	245	245	272	176	202	201	209	210	211	208	220	213	228	226	224	223	223	222	220	220	220	221	223	226	235	235	235	260	262	265	266	268	268	261	256	248	236	237	235	230	249	255	259	220	173	168	180	194	196	224	220	218	220	217	210	236	236	234	231	229	226	224	225	228	232	232	232	232	233	234	234	234	234	234	234	235	235	235	235	235	236	237	236	235	235	235	235	235	235	235	235	235	235	235	236	236	236	236	236	236	236	237	236	236	236	237	237	236	237	237	237	237	238	238	238	238	239	239	239	240	240	240	240	240	243	246	246	
199	198	195	190	182	174	163	160	166	232	253	255	250	246	246	250	251	250	240	232	233	236	238	239	238	237	238	239	277	243	243	240	240	237	234	232	233	237	244	244	252	241	228	230	235	251	249	265	251	224	238	260	259	201	194	217	218	215	210	208	224	219	214	229	228	227	225	223	223	222	223	223	224	226	235	235	234	259	259	259	263	265	266	266	260	255	246	235	237	245	248	248	258	260	260	261	148	176	191	196	227	222	223	225	220	236	236	236	235	233	230	228	226	226	228	232	232	232	232	233	233	233	234	234	234	234	235	235	235	235	235	235	237	236	236	235	235	235	235	235	235	235	236	236	236	236	236	236	236	236	236	236	236	236	236	236	236	236	237	236	237	237	238	238	238	238	238	238	238	239	239	239	239	238	239	242	245	245	
199	197	195	189	182	174	164	165	164	212	252	265	252	248	248	251	252	249	240	234	235	236	284	238	238	236	235	235	238	242	242	241	241	240	233	231	233	238	243	262	247	257	229	229	240	239	234	228	236	234	229	265	216	208	197	208	213	213	211	229	223	218	228	228	228	227	225	224	224	223	224	226	227	233	234	233	230	258	258	258	264	265	267	263	257	251	241	235	235	239	242	244	247	250	259	254	249	151	195	201	229	222	225	228	223	236	236	236	235	234	232	230	229	227	229	232	232	232	232	233	233	233	234	234	234	235	235	235	235	235	235	235	236	236	236	236	235	235	235	235	235	236	236	236	236	236	236	236	236	236	236	236	236	236	236	236	236	236	236	237	237	237	238	237	237	238	238	238	238	238	238	238	238	238	238	241	243	243	
198	197	195	188	182	175	165	167	157	159	254	279	258	256	258	258	254	249	242	236	235	236	239	239	236	284	233	232	233	269	249	248	238	234	233	229	233	239	263	253	235	232	233	230	224	245	224	222	245	225	229	205	211	208	200	206	206	210	233	228	223	231	229	228	228	227	225	226	226	226	227	228	230	229	229	258	257	255	256	263	265	268	269	262	254	242	236	234	233	234	236	237	242	248	246	249	244	249	214	210	231	223	224	229	227	238	238	237	236	234	233	234	234	230	229	232	232	232	232	232	233	234	234	235	235	235	235	236	235	235	235	235	235	235	236	236	235	235	235	235	235	236	236	235	235	235	235	236	236	236	236	236	236	236	236	236	236	236	236	236	237	237	237	237	237	237	237	237	238	238	238	238	238	238	237	239	242	242	
198	196	194	188	182	175	166	164	147	147	257	257	255	275	273	271	265	252	245	237	235	237	239	239	236	234	233	230	230	236	246	243	248	253	230	229	232	250	245	238	224	227	241	244	246	186	189	182	178	196	229	215	213	219	210	206	207	234	229	226	233	230	230	230	229	227	226	227	228	228	228	229	228	228	258	255	254	253	252	262	265	269	267	260	241	238	235	233	232	232	232	232	235	242	244	242	242	243	246	247	235	225	227	229	230	239	238	238	236	233	232	234	235	233	230	231	231	231	231	232	233	233	234	234	235	235	235	235	235	235	235	235	235	236	236	236	235	235	235	234	235	235	235	235	235	235	235	236	236	236	236	236	236	236	236	236	237	236	236	236	236	237	236	236	236	237	237	237	238	237	237	237	237	237	236	239	242	242	
198	196	194	189	182	175	166	160	140	136	258	259	284	277	277	281	284	255	248	238	235	236	238	238	237	236	232	228	229	233	269	250	242	241	235	232	244	266	226	223	217	187	217	221	230	209	204	200	223	224	224	228	225	217	209	236	234	231	227	236	232	230	230	231	228	226	227	228	228	228	228	228	229	258	257	255	253	251	249	262	267	272	267	243	241	238	235	233	232	232	232	231	232	237	240	241	238	235	232	222	233	228	235	236	234	232	237	236	234	231	230	231	233	232	228	227	229	230	230	232	233	233	234	234	234	235	235	235	235	236	235	235	235	236	236	236	236	235	234	234	235	235	235	235	235	235	235	236	236	236	236	236	236	236	236	236	236	236	236	236	236	236	236	236	236	236	237	237	237	237	237	237	237	237	237	240	242	242	
197	196	194	190	183	176	166	158	137	134	253	252	275	274	278	254	258	257	248	237	235	235	237	238	238	235	286	227	228	231	235	251	235	231	228	249	263	182	195	208	203	201	200	232	236	235	232	225	222	221	221	222	220	214	237	234	231	228	237	234	231	228	227	241	225	225	227	228	229	229	230	230	230	257	255	254	252	249	247	262	268	274	244	241	238	236	234	234	233	233	232	230	231	234	237	238	238	241	189	188	232	237	239	237	234	232	235	234	232	230	230	231	232	232	225	221	226	228	230	232	233	234	235	234	235	236	236	236	236	236	235	235	235	235	236	236	236	235	234	235	235	235	235	235	235	235	235	236	236	235	236	236	236	236	236	236	236	236	236	236	236	236	236	236	236	236	236	237	237	236	236	237	237	237	238	239	240	240	
196	196	193	190	185	177	167	157	141	143	244	264	271	275	279	255	258	256	247	238	235	236	237	238	237	233	287	226	227	230	232	242	232	241	238	201	197	198	206	233	235	205	235	232	230	229	226	222	219	217	244	245	244	241	236	232	240	238	235	232	228	225	226	224	224	226	228	229	230	232	232	258	259	258	255	254	251	246	259	262	269	273	242	237	223	234	234	235	235	236	234	232	232	234	236	238	242	251	255	248	300	255	244	235	228	226	234	233	232	231	231	233	236	234	224	219	223	227	230	232	234	235	235	235	235	236	236	236	236	236	235	234	235	235	235	235	235	235	235	235	235	235	235	235	235	235	235	235	235	235	236	236	236	236	236	236	235	236	236	236	236	236	236	236	236	236	236	237	236	236	236	237	237	237	237	237	238	238	
197	196	194	190	186	179	168	158	156	169	232	255	275	276	278	256	258	253	244	238	236	236	236	237	236	230	284	226	227	228	229	234	231	194	196	200	205	201	199	193	236	234	228	240	241	241	242	220	241	242	242	243	242	239	235	242	240	238	235	232	228	225	225	225	226	227	229	230	231	252	254	255	257	256	253	251	247	261	259	261	278	243	227	223	218	221	219	224	238	225	237	235	235	240	241	243	247	248	245	247	251	248	254	241	231	227	228	234	233	232	233	238	242	239	227	219	222	228	231	232	233	234	235	235	235	235	236	236	236	236	235	235	236	236	235	236	236	236	235	235	235	235	234	234	235	235	235	235	235	236	236	236	235	236	236	236	236	236	236	236	236	236	235	236	236	236	236	236	236	236	236	236	236	236	236	237	237	237	
198	197	194	190	187	181	170	160	172	184	224	252	254	272	277	257	256	250	241	237	237	237	237	237	249	289	227	228	228	229	242	237	203	207	213	207	202	201	203	191	230	229	226	221	241	242	243	242	242	242	242	240	239	243	242	240	239	237	235	233	229	226	225	226	227	229	231	231	251	251	252	254	274	276	273	267	264	262	260	260	216	227	226	233	226	218	220	224	229	241	241	243	246	246	245	247	247	242	247	220	255	254	250	245	236	236	238	236	235	234	237	243	247	245	233	220	223	230	233	233	234	235	236	236	236	236	236	237	237	237	236	236	236	236	235	236	237	236	235	235	234	234	234	234	234	235	235	235	236	237	236	235	235	236	236	235	236	236	235	235	236	235	235	236	236	236	236	236	236	236	236	236	236	236	236	236	236	236	
199	198	195	190	188	182	172	162	170	182	204	243	262	264	250	269	254	246	238	236	238	238	238	237	293	229	229	229	229	232	236	240	210	208	202	227	221	213	204	227	224	225	223	241	243	244	244	243	243	242	243	243	244	243	241	239	237	237	235	232	228	226	225	226	227	229	246	247	249	249	249	272	278	286	280	244	263	262	242	245	250	244	238	231	237	220	238	228	233	243	245	248	248	242	240	241	240	235	241	247	248	247	245	244	238	237	237	239	237	238	241	245	247	247	239	219	224	230	232	234	235	235	236	237	238	238	237	237	238	238	237	236	236	236	235	235	236	236	235	234	234	234	234	234	234	235	235	235	235	236	236	235	235	236	236	235	236	235	235	235	235	235	235	236	236	236	236	236	236	236	236	236	236	236	236	235	235	235	
199	198	195	191	189	183	175	164	164	179	187	243	250	256	267	257	250	242	236	237	238	259	238	237	297	233	231	230	235	241	244	245	230	215	205	220	215	235	204	226	223	222	241	243	245	246	246	246	246	244	243	243	244	243	241	239	238	237	233	230	228	228	228	227	228	230	245	244	243	266	268	272	280	288	292	269	239	237	243	248	249	241	244	240	238	219	239	232	236	241	244	245	241	232	230	233	233	231	235	240	241	241	240	239	240	238	236	242	242	240	243	245	245	244	234	214	221	229	230	233	234	234	235	236	238	239	239	238	238	238	237	236	236	236	235	234	235	235	235	234	234	234	234	234	234	234	234	233	233	233	234	234	234	236	235	235	235	235	235	235	236	236	236	236	236	236	236	236	236	236	236	236	236	236	235	235	235	235	
200	198	196	192	190	184	176	166	164	177	189	246	245	247	257	252	246	240	236	240	241	293	235	296	242	236	234	237	245	249	248	247	246	216	222	237	239	239	237	235	236	239	241	243	243	244	247	249	249	247	244	244	244	242	241	239	237	287	234	231	231	231	230	228	229	244	243	242	266	269	272	275	275	279	300	292	244	243	246	248	248	246	243	230	238	228	237	231	229	238	239	240	234	226	228	234	235	234	235	237	238	239	237	237	235	233	244	250	245	241	244	244	244	241	229	211	216	226	230	234	236	236	237	238	239	241	243	242	240	238	236	236	236	235	234	234	235	235	234	234	234	234	234	233	233	233	233	233	233	234	234	234	234	236	236	235	235	235	235	235	236	236	236	236	235	235	235	235	235	235	235	235	235	235	235	235	235	235	
200	198	196	194	191	185	178	168	164	174	183	251	244	241	246	250	241	238	235	236	272	235	283	237	238	237	238	247	253	252	248	249	248	232	239	239	244	244	242	239	239	240	241	241	240	240	243	245	246	244	243	243	243	241	239	283	237	237	237	235	235	234	232	229	242	239	237	263	266	267	273	277	279	288	230	233	239	245	246	247	247	245	242	232	232	236	238	238	238	236	236	235	231	227	236	237	239	240	238	238	239	238	236	223	226	221	235	250	245	245	244	245	247	245	235	217	218	226	232	237	238	239	240	240	241	243	245	245	242	239	236	235	236	235	234	235	235	235	235	234	234	234	234	233	233	234	235	235	235	235	235	234	234	236	236	235	235	234	235	235	235	235	235	235	235	235	235	235	235	235	235	235	235	235	235	235	235	235	
200	198	197	196	192	186	179	169	164	170	179	253	248	241	238	242	237	236	234	247	273	276	257	238	237	235	242	217	255	243	249	251	250	244	240	237	238	245	244	242	241	241	242	240	237	217	241	242	240	236	238	240	240	239	238	237	236	235	236	236	236	236	248	244	239	237	263	263	261	270	286	232	234	235	235	236	233	212	243	244	244	235	225	229	231	237	238	238	238	236	235	234	233	234	240	240	242	243	240	238	239	238	235	222	222	205	218	243	243	247	256	261	248	250	244	225	219	228	236	239	240	240	240	241	242	244	245	245	243	240	236	234	235	235	234	234	235	236	236	235	235	234	234	233	234	235	235	235	235	235	235	235	235	236	236	235	235	235	235	235	235	235	235	235	235	235	235	235	235	235	235	235	235	235	235	235	234	234	
201	199	197	197	194	186	180	170	163	166	175	253	246	242	236	237	244	236	233	251	263	268	236	235	259	296	245	213	215	234	216	249	249	245	239	239	215	234	230	242	242	243	241	238	236	220	234	240	235	229	228	233	234	234	234	233	231	231	232	241	242	242	238	236	234	265	266	263	270	294	212	203	203	197	199	194	195	232	230	221	236	231	235	230	236	235	236	236	244	233	233	234	234	239	243	244	245	245	242	240	239	237	236	243	225	238	228	246	245	247	252	245	262	250	243	219	209	225	234	239	241	240	240	241	243	245	245	243	241	239	236	234	233	233	233	233	235	236	236	235	235	235	234	235	235	235	235	234	235	235	235	235	235	236	235	234	234	234	235	235	235	235	235	235	235	235	235	235	235	234	235	235	235	235	235	234	234	234	
201	200	198	199	195	187	181	172	162	163	175	239	252	244	237	237	236	256	244	242	239	237	235	235	237	243	203	218	214	214	218	244	245	243	241	237	221	239	239	241	230	241	240	237	236	228	240	238	231	224	225	227	227	227	227	227	228	229	237	238	266	285	234	229	228	262	264	275	285	203	218	207	198	200	185	197	226	247	237	235	234	232	231	236	234	233	227	241	231	232	233	234	236	241	244	244	245	245	243	242	240	243	239	239	239	232	227	249	249	246	240	243	249	261	242	214	202	219	230	235	238	237	238	241	243	245	245	242	240	237	235	234	234	233	233	233	235	235	235	235	235	235	235	235	235	235	234	234	234	234	234	234	235	236	235	234	234	235	235	235	235	234	235	235	235	235	235	235	235	235	235	235	235	235	235	234	234	234	
202	201	200	200	197	189	182	173	162	164	176	238	251	245	240	240	237	238	264	242	241	236	236	237	182	228	217	207	207	239	238	195	239	241	241	240	211	236	238	233	240	238	237	236	238	240	240	236	227	221	223	225	226	225	224	224	230	231	235	265	266	297	231	227	260	263	278	305	243	244	239	236	236	201	207	223	234	236	211	232	236	236	235	233	232	231	236	230	231	233	234	236	239	254	245	244	244	242	240	240	240	234	236	234	236	233	226	248	247	244	246	252	257	253	237	211	199	217	230	234	235	236	238	241	243	245	244	241	240	236	231	233	234	235	234	234	235	235	235	235	235	234	234	234	234	234	234	234	234	234	234	234	235	236	235	234	234	235	235	234	234	234	235	235	235	234	235	235	235	235	235	235	235	235	235	234	234	234	
203	202	201	200	197	191	183	175	164	165	172	181	253	240	237	241	242	243	249	242	235	232	237	241	224	209	243	200	240	204	205	234	235	238	181	237	233	221	220	234	238	236	235	236	234	240	239	235	227	221	222	225	226	226	225	224	225	231	258	261	278	276	270	261	260	282	328	187	244	241	238	236	201	208	203	221	202	237	238	237	236	235	234	231	230	226	229	229	231	233	235	237	256	246	247	245	243	240	237	236	232	235	234	232	227	216	217	294	244	244	248	251	253	245	228	204	197	215	229	232	233	236	240	242	244	246	245	244	241	234	230	231	233	234	235	235	235	235	235	235	234	234	234	234	234	234	234	234	234	234	235	235	235	235	235	234	234	235	234	234	234	234	235	235	235	235	235	235	235	235	235	235	235	235	235	234	234	234	
203	203	203	201	198	192	184	177	166	167	169	175	257	241	237	245	251	252	253	240	229	224	230	235	240	226	238	202	239	235	232	195	201	195	231	235	237	234	235	231	236	234	218	236	238	239	237	233	227	222	223	225	227	227	224	221	223	232	254	270	274	261	264	259	277	319	245	202	241	238	237	236	201	193	233	234	236	238	239	238	237	235	234	232	230	229	229	231	232	235	236	237	254	253	247	244	240	237	233	234	234	234	233	231	224	207	205	225	237	252	244	249	252	243	224	203	199	213	225	228	231	237	241	244	248	249	249	248	244	234	230	231	232	233	235	235	235	235	235	234	234	234	234	234	234	234	234	234	234	234	235	235	235	235	235	234	235	234	234	234	235	235	235	235	235	235	235	235	235	235	234	235	235	235	235	234	234	234	
203	204	204	202	198	194	186	178	168	168	167	168	255	260	265	262	260	258	254	242	205	193	196	224	230	230	235	217	236	234	234	213	237	237	235	236	239	242	240	238	235	233	224	236	238	238	237	233	228	225	224	226	228	228	224	218	219	239	262	251	262	265	269	276	292	255	213	223	239	237	237	237	237	236	235	237	239	239	239	238	238	237	235	234	232	230	230	232	234	235	236	238	254	245	245	242	237	232	231	232	233	232	231	230	224	208	205	193	231	253	247	237	241	233	226	209	204	214	223	227	232	238	241	245	250	253	252	250	244	235	230	231	232	233	235	235	235	235	234	234	234	234	234	234	234	234	234	233	233	233	234	235	235	235	235	235	235	235	234	234	235	235	234	234	234	234	234	235	235	235	234	235	235	235	235	234	234	234	
203	205	205	203	199	195	188	181	170	167	168	172	251	270	253	279	267	263	258	252	202	233	204	199	207	226	229	221	233	233	235	237	238	237	237	240	243	243	241	238	237	236	237	238	238	238	237	233	229	225	224	224	227	228	225	219	217	235	260	254	251	254	263	282	247	227	230	239	237	236	236	237	237	237	238	240	240	240	238	237	237	237	235	233	231	230	231	232	233	234	236	239	253	250	245	241	236	232	231	232	233	233	231	231	227	213	225	212	228	250	231	230	230	230	221	213	207	216	223	227	234	240	242	245	250	254	253	248	242	234	229	230	232	233	235	235	234	234	234	233	233	233	233	234	234	234	233	233	233	234	235	235	235	235	235	235	234	234	234	234	234	234	234	234	234	234	234	234	234	234	234	235	235	235	234	234	234	234	
204	205	206	204	200	196	190	183	173	167	173	185	246	263	254	254	275	277	272	214	197	242	240	210	208	201	226	221	228	228	233	236	237	236	236	236	242	242	241	240	240	240	240	240	239	238	237	234	229	226	224	223	225	227	225	221	219	232	253	257	253	256	268	245	225	236	226	216	236	235	236	236	237	238	240	241	240	238	237	236	236	233	233	232	231	232	233	233	234	234	235	238	264	249	244	240	236	234	234	234	236	237	237	236	232	233	225	216	224	231	228	228	227	226	217	208	202	215	221	225	233	239	241	244	250	255	253	245	239	233	229	231	233	234	235	234	234	234	234	234	234	233	234	234	233	233	233	233	233	234	234	234	234	235	235	234	234	234	234	234	234	234	234	234	234	234	234	234	234	234	234	235	235	235	235	234	234	234	
205	206	207	205	201	197	192	185	176	168	178	194	239	256	254	249	270	262	275	264	187	191	206	199	217	222	204	207	223	223	226	229	231	233	235	298	229	239	239	240	241	241	239	238	238	238	237	234	231	228	227	226	227	228	226	222	219	226	244	264	272	229	205	222	220	230	223	215	234	235	236	237	238	239	241	241	239	236	236	236	235	236	232	231	232	233	234	234	233	234	235	246	263	247	243	241	238	237	237	238	240	241	241	241	240	234	230	218	214	224	204	212	218	223	223	217	203	220	246	257	260	260	261	265	268	261	251	247	241	235	232	234	236	236	235	234	234	234	234	234	233	233	234	234	233	233	233	233	233	233	234	234	234	234	234	234	234	234	234	234	234	234	234	234	234	234	234	235	235	234	234	234	234	234	234	234	233	233	
206	207	208	206	203	198	194	186	178	168	175	192	231	254	273	271	261	246	253	247	238	184	192	195	199	217	219	203	223	197	220	221	222	225	229	231	235	234	237	238	239	290	237	235	235	234	233	231	229	229	229	228	228	229	228	225	235	222	244	295	230	218	238	215	211	228	233	234	234	234	236	237	238	240	243	243	239	236	236	235	260	233	232	231	232	233	234	233	232	233	235	243	265	245	242	241	240	238	238	239	240	241	241	240	237	238	234	233	236	229	222	217	208	203	217	210	212	236	245	256	261	260	258	260	261	250	245	244	241	235	233	234	237	237	235	234	234	234	234	234	233	233	233	234	233	233	233	233	233	233	234	234	234	234	234	233	233	234	234	234	233	233	233	233	234	235	235	235	236	236	235	234	233	233	233	233	232	232	
207	208	209	207	204	199	195	187	180	169	160	177	230	247	268	267	248	220	234	231	229	185	192	195	193	227	231	214	202	202	201	214	219	199	217	220	225	230	233	237	239	240	236	232	231	230	229	228	227	227	226	225	226	227	244	241	234	229	251	239	237	240	239	238	233	235	235	235	236	236	236	238	239	241	243	242	239	237	272	235	233	232	232	232	232	233	234	233	232	233	235	240	265	242	242	242	239	237	237	238	238	239	239	237	237	236	237	235	231	236	230	234	233	220	224	222	233	244	247	255	263	262	260	259	250	241	238	237	232	229	230	231	234	236	233	233	233	233	233	233	232	232	232	233	233	233	232	232	233	233	234	234	234	234	234	234	233	234	234	233	233	233	233	233	234	234	234	234	235	235	236	235	234	234	234	233	232	232	
209	209	209	208	205	200	196	188	182	169	149	174	225	249	249	232	227	222	218	215	228	234	187	191	192	195	223	226	202	202	202	202	202	209	209	221	221	222	225	229	235	239	235	229	235	228	241	227	227	227	225	223	226	228	242	237	230	257	255	234	235	238	238	237	236	235	235	235	235	235	235	237	239	241	253	240	251	237	238	236	234	231	230	230	231	232	233	233	232	233	236	240	266	241	241	239	236	234	235	236	237	238	238	236	237	236	238	236	234	226	224	228	237	233	232	230	234	240	245	250	262	269	264	264	244	236	232	225	224	224	228	231	233	234	231	231	232	232	231	232	232	232	232	232	232	232	232	233	233	232	233	234	234	234	234	234	234	234	233	233	233	233	233	233	233	232	232	232	232	233	234	234	234	234	235	234	234	234	
209	210	210	208	206	201	197	189	184	171	155	189	226	255	230	221	221	217	221	208	224	225	228	231	189	192	196	202	203	203	203	207	202	202	204	205	223	207	220	222	228	233	232	227	227	228	227	228	230	230	247	223	227	243	241	233	262	257	268	244	228	238	236	237	236	234	233	232	214	230	231	233	236	238	238	237	235	235	236	237	233	230	229	230	231	231	232	237	232	233	237	239	240	246	239	237	234	233	234	235	236	237	235	234	235	238	237	230	223	213	210	216	227	230	234	246	248	253	241	246	254	264	270	268	252	238	227	219	221	223	227	231	233	233	229	228	229	230	230	231	231	231	232	232	232	232	232	233	233	232	233	234	234	234	234	234	234	234	233	233	233	233	233	232	233	233	232	232	232	233	235	234	233	234	235	235	234	234	
210	210	211	209	206	202	198	191	185	173	166	192	211	257	231	222	221	218	208	205	199	206	224	226	208	203	202	198	198	203	201	230	225	202	206	208	213	216	221	222	227	233	231	227	227	236	227	230	233	245	247	224	229	237	238	237	260	257	249	249	242	238	236	237	236	235	233	230	215	226	228	232	234	239	235	235	234	232	232	232	230	228	229	230	231	231	232	232	232	234	235	266	251	239	238	235	233	232	233	235	236	236	233	232	233	234	231	224	214	205	199	203	215	234	247	252	246	246	269	272	268	268	261	264	256	243	228	218	214	224	228	231	230	230	228	225	226	228	229	231	231	231	231	231	232	232	233	232	232	233	234	235	234	234	233	233	233	233	233	233	233	233	233	233	234	234	234	234	233	235	236	234	232	233	234	234	234	234	
210	211	212	209	206	204	199	192	186	175	169	184	197	258	231	223	223	223	206	204	234	232	198	198	210	201	199	198	197	198	202	222	231	201	204	208	218	221	223	226	232	237	235	227	226	225	227	231	240	263	238	225	233	236	271	275	263	254	254	246	241	237	236	239	239	238	235	230	227	227	229	233	235	235	236	236	235	234	232	233	266	228	229	230	231	231	234	234	233	233	235	238	238	238	237	235	230	230	232	233	234	234	231	230	231	231	229	221	210	200	196	197	206	240	254	253	241	240	268	274	274	266	267	283	278	249	233	221	218	231	229	229	226	225	227	224	224	227	228	229	230	230	231	231	231	232	232	232	232	233	234	234	234	234	234	233	233	233	233	234	233	234	234	234	234	234	233	233	233	235	236	234	232	233	234	234	233	233	
211	212	212	210	207	205	200	193	186	176	169	171	180	257	237	228	228	230	211	204	197	227	221	201	209	202	198	225	196	198	200	231	230	228	199	211	217	222	226	230	235	224	239	232	256	226	229	233	263	227	222	225	227	254	271	288	288	255	250	244	242	238	238	241	242	242	238	233	229	229	232	235	237	237	236	236	235	234	265	231	233	229	229	230	231	231	231	231	230	231	261	237	237	218	211	233	232	232	232	232	232	231	229	229	230	230	226	220	209	198	195	196	191	250	257	253	243	234	258	268	268	259	241	242	258	239	227	220	220	229	224	227	222	221	224	224	222	224	226	228	229	230	230	230	231	232	232	232	232	233	234	234	234	234	234	234	233	234	234	234	234	234	234	234	233	233	233	233	233	235	236	234	232	233	234	234	233	233	
212	212	213	211	208	206	202	194	186	176	166	162	172	249	248	238	229	220	214	206	194	239	238	204	202	202	226	220	214	197	201	230	228	225	221	208	221	224	226	229	233	236	243	236	230	229	233	235	232	267	223	221	223	238	270	251	253	251	246	244	242	240	240	264	244	246	242	234	231	231	234	236	236	236	235	234	258	250	261	228	266	270	228	230	232	232	232	231	230	230	236	226	220	195	197	199	230	229	230	233	231	229	228	229	231	230	225	219	210	197	193	198	199	248	253	248	242	243	255	266	267	253	232	228	226	215	214	211	213	222	216	226	222	220	222	223	219	218	222	226	228	229	230	230	230	231	231	231	232	233	234	233	233	234	234	234	233	234	234	234	234	233	234	234	233	233	234	233	234	236	236	234	233	234	234	234	233	233	
213	213	214	212	210	207	203	196	187	176	163	166	177	241	252	243	227	220	214	206	198	200	239	238	200	200	222	231	230	230	198	198	228	224	219	216	218	222	226	228	230	231	232	231	228	229	234	275	231	224	222	221	222	236	246	246	241	243	243	242	238	239	240	243	246	266	245	236	231	232	234	234	234	234	235	248	232	236	262	228	265	228	227	228	230	232	232	230	261	252	186	187	187	191	194	195	196	209	205	208	213	208	229	230	232	230	223	220	211	196	191	181	214	232	241	243	239	247	248	236	258	204	201	201	195	188	184	200	208	218	216	224	221	219	221	223	219	215	219	224	226	228	229	229	230	231	231	231	232	233	233	233	233	233	233	233	233	233	233	234	234	234	233	233	234	234	234	234	235	236	235	233	233	234	234	234	233	233	
215	214	214	213	211	208	204	197	189	177	164	168	174	230	250	241	243	222	218	214	201	195	240	239	238	224	200	215	230	228	227	226	201	225	220	215	216	221	226	227	229	227	235	232	230	236	254	234	271	223	224	224	228	244	242	237	231	219	233	236	234	232	233	237	241	242	238	231	228	230	232	233	234	235	252	236	253	269	228	228	262	228	227	228	230	231	229	272	249	174	189	241	236	207	193	194	195	210	208	210	214	209	213	211	210	214	218	204	199	194	188	180	224	221	226	239	240	241	233	218	198	181	191	197	194	184	179	197	201	211	213	221	219	219	222	224	219	215	217	222	226	227	228	229	229	230	231	231	232	233	233	233	233	233	233	233	233	233	233	234	234	233	233	233	234	234	234	234	235	236	235	234	234	234	233	233	233	233	
216	215	214	214	212	209	205	199	191	178	165	166	164	165	253	239	227	218	220	215	208	199	194	244	242	238	236	213	209	230	227	225	199	224	219	215	216	222	226	228	231	227	233	229	222	240	237	227	240	242	237	238	237	244	246	232	228	232	219	215	215	240	228	232	235	234	227	219	219	223	229	232	235	247	251	241	255	227	226	227	227	226	226	227	227	247	267	235	219	184	186	183	236	187	189	187	197	206	210	213	213	219	223	218	211	204	203	195	191	194	180	170	215	206	210	231	239	230	219	214	200	183	186	194	199	187	202	200	201	206	209	220	219	221	224	224	221	217	217	221	225	226	227	228	229	230	231	231	232	233	233	233	233	233	233	233	233	233	233	234	234	233	233	233	233	233	234	235	235	235	234	235	234	234	233	234	234	234	
217	216	215	215	214	210	206	201	193	180	166	163	151	151	256	239	230	231	226	225	236	227	246	191	249	244	241	240	201	234	229	221	201	222	222	217	217	221	226	228	232	238	235	230	224	220	224	220	232	222	224	226	242	248	240	232	231	234	238	238	236	233	234	237	238	234	226	219	183	221	226	232	243	265	252	242	266	224	223	223	222	221	219	233	233	256	221	202	177	182	186	183	179	182	183	231	191	209	212	212	210	215	222	226	221	206	199	187	178	177	171	162	191	203	209	203	213	207	205	206	202	187	182	189	199	192	203	203	204	205	205	220	219	223	225	224	223	220	218	220	224	225	226	228	229	230	231	231	232	233	233	233	233	232	233	233	233	233	233	234	234	234	233	233	233	233	234	235	234	234	234	235	234	234	234	234	234	234	
218	217	216	215	214	211	208	203	195	182	168	158	138	135	257	238	232	243	224	240	240	241	243	246	198	196	198	246	205	235	231	228	196	197	197	220	219	222	226	228	233	237	234	228	220	217	214	219	217	228	239	243	246	246	237	234	235	238	279	242	240	238	240	243	245	240	231	225	224	225	229	234	277	251	252	254	231	219	219	236	220	233	230	228	231	169	229	176	181	179	182	189	184	233	177	180	188	198	209	213	211	207	223	231	225	215	209	185	173	173	168	156	159	189	193	180	169	179	191	200	199	188	181	188	197	192	204	205	208	205	203	221	220	223	224	224	223	221	219	219	222	224	226	227	229	230	231	231	232	233	233	232	232	232	232	232	233	233	233	234	234	233	233	233	233	234	235	235	233	234	234	234	234	233	234	234	234	234	
218	218	217	216	215	213	210	205	198	185	170	154	128	126	256	236	233	232	223	239	237	238	239	240	244	245	240	236	237	197	223	216	198	215	221	219	220	224	228	229	234	233	228	222	220	219	220	220	220	219	227	235	250	247	239	237	238	242	246	246	240	237	238	243	248	245	236	231	230	231	234	237	271	251	272	254	223	243	187	180	224	220	220	213	217	191	232	232	232	229	230	189	188	176	230	179	190	192	198	208	216	230	238	242	226	214	203	205	177	172	166	157	157	169	176	182	178	188	191	195	198	192	182	189	196	194	205	206	210	208	203	221	220	223	223	222	222	221	219	218	219	223	225	227	228	230	230	231	232	232	232	232	232	232	232	232	233	233	233	233	233	233	233	233	233	234	235	234	233	234	234	234	233	233	233	233	233	233	
219	218	218	217	216	215	212	207	200	189	173	153	124	122	254	238	234	235	232	239	237	236	237	238	239	238	238	239	241	239	233	227	209	219	218	219	222	227	229	230	231	226	223	220	231	230	230	230	223	227	234	243	249	247	241	239	239	243	249	248	240	234	236	241	248	249	241	236	234	234	236	242	282	266	244	225	210	187	192	189	226	226	231	194	196	196	195	195	232	230	232	232	187	180	173	185	189	238	196	208	241	238	243	250	227	212	193	191	186	172	163	155	160	173	186	185	184	188	192	193	193	195	186	190	195	194	209	207	208	207	202	221	221	223	223	223	222	220	219	217	217	221	225	226	228	229	230	231	231	232	232	232	231	232	232	232	233	233	233	233	233	233	233	233	233	235	234	234	234	234	234	233	233	233	233	234	233	233	
219	219	219	218	218	217	213	209	203	192	178	155	129	131	251	247	237	238	235	243	215	234	230	237	237	236	235	235	235	233	228	221	217	217	219	220	222	227	231	233	226	222	227	226	225	226	228	230	227	233	238	246	243	244	241	238	237	236	237	236	230	228	231	237	244	245	238	236	236	236	237	277	235	207	234	218	176	188	190	232	226	230	237	194	191	191	194	197	195	199	201	234	230	181	181	185	186	189	195	241	237	240	248	251	234	221	221	211	210	177	161	160	170	174	181	185	186	187	191	193	194	194	192	191	192	212	211	210	208	206	223	222	223	224	225	224	223	222	220	218	216	220	224	226	227	229	230	231	231	231	231	231	232	232	233	232	232	232	233	233	233	233	233	233	234	235	234	233	234	234	233	233	233	233	234	234	234	234	
221	220	220	220	219	217	214	211	206	196	183	159	141	152	252	253	238	240	237	245	243	236	232	237	236	235	235	235	233	230	223	217	192	214	218	220	223	228	232	220	216	221	222	233	232	233	220	230	236	239	242	245	236	236	235	235	232	227	239	227	212	218	222	227	228	225	219	220	227	233	271	237	236	194	188	187	190	185	188	231	229	235	238	239	195	192	189	189	192	199	201	233	232	233	233	232	233	193	200	238	240	239	268	253	242	233	220	208	206	176	165	170	178	180	181	183	185	188	189	190	193	195	194	192	192	211	210	211	210	207	223	223	223	224	224	223	223	223	222	218	216	219	223	226	228	229	231	231	231	231	231	231	232	232	232	232	232	233	233	234	234	234	233	233	234	234	233	233	234	234	233	233	233	234	234	234	234	234	
222	221	221	220	220	218	216	213	208	200	187	166	154	158	240	252	240	242	239	239	233	237	236	238	236	236	236	235	233	229	223	216	210	210	216	220	224	231	220	233	229	230	234	235	234	233	229	234	235	243	243	244	243	229	228	233	232	228	184	182	222	217	217	219	221	216	213	217	222	239	235	204	193	180	243	241	180	184	184	232	233	239	241	242	200	201	196	190	193	197	201	200	198	234	233	233	233	236	245	235	238	243	255	252	239	224	215	206	204	172	172	179	179	185	182	181	187	191	188	186	190	193	193	191	214	211	210	209	210	209	224	223	223	224	223	221	221	223	221	217	216	220	223	226	228	230	230	231	231	231	231	231	232	232	232	232	232	233	233	234	233	233	233	234	234	234	233	234	234	234	233	233	233	234	234	234	233	233	
222	222	221	221	220	219	217	215	210	203	190	170	165	151	168	256	240	240	240	244	242	221	236	237	236	236	235	234	232	228	222	215	209	208	215	221	226	230	230	232	227	228	229	234	234	232	236	238	239	247	247	247	245	243	244	235	210	237	185	187	184	190	219	222	220	199	189	187	190	208	217	206	201	196	188	242	245	187	180	235	244	191	248	245	198	238	234	194	194	196	202	226	204	209	211	234	234	250	237	238	239	243	266	243	231	205	190	207	210	172	179	180	177	184	183	183	191	194	188	185	188	190	189	188	214	213	212	209	207	208	224	224	224	224	224	220	220	222	220	217	216	220	224	226	228	229	230	230	231	230	230	231	232	232	232	232	233	233	233	233	233	233	233	234	234	234	234	234	234	233	233	233	233	233	233	233	233	233	
222	222	222	222	221	220	218	217	212	206	193	175	162	135	139	258	255	236	244	239	242	223	234	234	237	237	236	230	232	228	222	216	209	207	215	223	228	227	235	232	228	229	232	233	230	240	235	236	242	239	249	251	249	246	244	212	220	199	177	179	189	213	216	219	220	220	201	197	197	195	205	204	231	228	239	240	242	241	237	240	175	180	184	248	195	235	234	198	194	192	230	231	206	223	231	228	233	236	237	239	241	245	257	233	218	202	196	188	182	179	179	176	176	182	182	187	195	193	189	186	182	185	187	211	211	212	211	211	207	207	209	224	224	225	224	220	219	222	222	220	220	222	224	226	228	229	230	230	230	230	230	231	232	232	232	232	232	233	233	233	233	233	233	234	234	233	234	234	233	233	233	233	233	233	233	234	234	234	
222	223	223	223	222	221	221	219	214	209	197	180	156	120	119	255	251	219	246	235	245	230	211	230	228	239	237	231	232	229	224	216	209	205	214	224	230	223	235	231	228	230	230	233	235	234	236	237	244	252	249	252	252	249	244	213	240	234	233	228	224	175	192	216	214	216	217	199	195	195	202	200	228	235	236	236	235	235	235	239	243	243	243	180	188	241	243	199	197	196	225	226	226	219	225	227	230	232	234	237	240	267	243	233	221	209	222	218	183	189	183	175	176	179	182	189	198	192	188	185	181	181	184	209	210	211	210	211	207	205	207	224	225	226	225	220	220	224	225	224	223	224	225	226	228	229	230	230	230	230	231	231	232	232	232	232	232	233	233	233	233	233	233	234	233	233	234	234	233	233	233	233	233	233	233	235	235	235	
223	223	224	224	223	223	222	220	216	212	202	185	155	110	105	250	248	243	226	237	240	237	226	217	228	222	238	231	232	229	223	216	208	203	214	226	218	218	234	231	228	230	233	233	233	234	236	248	243	252	248	251	251	248	240	233	236	229	225	223	226	230	174	227	228	213	215	204	197	201	207	229	230	234	234	234	233	234	236	236	236	235	237	238	241	175	185	190	233	224	222	222	223	223	223	225	228	230	232	235	241	248	234	235	240	215	226	222	186	191	190	179	177	179	182	188	196	194	187	185	183	181	208	208	208	209	210	210	207	206	227	226	227	228	226	221	220	224	225	225	225	225	226	227	229	230	230	230	230	230	231	232	232	232	232	232	232	233	233	233	233	233	233	234	233	233	234	234	233	233	233	233	233	233	234	235	235	235	
224	224	225	224	224	224	223	221	218	214	206	192	161	109	107	248	241	243	223	246	246	246	236	218	230	222	237	230	231	227	222	216	209	202	211	225	232	216	235	232	228	229	231	232	234	234	234	245	250	249	249	249	247	243	229	245	221	191	225	223	226	226	226	177	228	229	231	207	203	193	207	227	230	233	234	234	233	234	236	235	232	235	235	235	237	240	241	174	189	224	221	221	223	223	222	224	227	230	231	234	243	237	247	243	240	223	229	231	217	193	195	192	180	180	177	183	189	189	189	188	185	209	207	230	230	230	210	209	207	206	229	229	230	230	225	220	219	222	224	225	225	226	227	228	229	229	230	230	230	230	231	231	232	232	232	232	232	232	233	233	233	233	233	234	233	233	234	233	233	233	233	233	233	233	234	235	234	234	
225	225	226	225	224	224	224	222	220	217	211	199	176	154	143	221	251	246	227	242	250	248	239	218	232	223	235	229	230	225	218	215	209	199	204	221	229	231	233	231	229	229	230	231	232	232	247	248	247	246	245	244	242	237	222	248	241	228	223	221	197	229	230	168	192	226	232	208	207	205	192	223	227	230	231	232	232	234	235	234	230	231	235	236	238	238	237	236	178	223	220	221	223	222	221	222	225	228	230	234	241	244	243	243	237	230	226	233	245	251	240	247	237	248	244	179	182	183	187	192	187	211	208	206	233	235	212	211	209	232	232	232	232	230	224	219	219	222	225	225	226	227	228	228	229	229	230	230	230	230	231	231	232	232	232	232	232	232	233	233	232	232	234	234	233	233	233	233	233	233	233	233	233	233	234	235	234	234	
225	226	226	226	225	225	224	223	222	219	214	205	189	176	143	160	254	247	239	241	252	248	244	219	234	224	234	228	221	223	218	215	209	199	198	215	222	225	226	226	226	225	225	224	226	247	242	243	243	241	241	241	238	235	219	246	231	236	234	234	235	191	232	225	191	228	206	209	210	227	222	212	187	229	228	226	221	232	233	233	230	189	230	236	238	239	239	237	232	173	220	221	223	221	220	222	229	230	230	224	210	239	230	233	228	221	220	228	237	248	262	259	254	249	244	241	235	189	185	196	195	211	208	208	206	209	212	211	234	235	237	236	234	230	224	220	220	222	225	225	226	227	228	228	229	229	230	230	230	231	231	231	232	232	232	232	232	232	233	233	233	233	234	234	233	233	233	234	234	233	233	233	233	234	234	235	235	235	
226	226	227	226	226	225	225	224	223	220	217	209	197	176	133	136	253	247	244	243	253	253	249	218	233	224	235	228	218	225	221	217	209	201	176	206	215	218	219	219	218	217	228	240	233	232	233	237	239	240	242	242	238	234	217	247	240	237	237	239	239	204	230	223	215	199	201	207	228	223	211	209	208	198	204	209	216	214	232	233	232	187	190	227	237	237	235	235	234	229	179	219	222	222	222	225	229	226	225	226	219	208	208	224	220	215	216	212	228	235	244	247	242	237	233	231	229	228	182	196	206	216	207	208	208	209	211	210	235	236	238	237	234	230	224	220	220	223	225	226	227	227	228	229	229	230	230	230	230	231	231	232	232	232	232	232	232	233	234	234	233	233	234	234	233	233	234	234	233	233	233	234	233	234	235	235	235	235	
226	227	227	227	226	226	226	225	224	222	219	213	202	179	126	126	253	232	251	255	254	250	239	250	224	224	214	229	218	206	226	219	210	198	187	196	209	214	216	216	226	226	227	219	220	226	233	238	240	241	242	242	241	237	250	246	241	241	241	241	240	236	198	224	175	187	191	222	222	228	209	208	210	205	198	206	206	214	212	232	231	227	186	224	229	236	233	232	232	227	214	211	217	221	225	229	227	223	226	228	219	212	209	205	205	208	213	202	210	214	219	223	224	222	223	225	223	223	189	192	203	220	212	210	211	211	212	237	236	238	239	238	234	229	224	220	221	223	225	226	227	228	228	229	229	230	230	230	230	231	231	232	232	232	232	232	232	232	233	234	233	233	234	233	233	233	233	233	233	233	233	234	233	234	234	234	234	234	
227	227	227	227	227	227	227	227	225	224	221	216	206	185	128	126	250	243	253	255	255	249	235	255	222	223	216	231	219	205	230	221	208	191	182	191	206	213	217	223	221	221	216	215	225	236	241	241	240	239	240	242	243	242	219	226	204	198	243	242	241	239	236	200	187	185	185	219	225	231	208	209	210	207	200	195	204	215	211	201	228	228	233	235	229	236	233	232	231	227	219	148	212	220	227	231	224	227	233	227	220	214	212	211	209	205	206	202	198	202	201	215	204	216	200	203	219	218	209	204	203	219	215	219	220	218	216	237	237	240	242	239	234	229	223	221	221	223	225	226	226	227	228	229	229	230	230	230	230	231	232	232	232	232	232	232	232	232	233	233	233	233	233	233	233	233	233	233	233	233	233	234	233	233	234	234	233	233	
227	227	227	228	228	228	228	227	226	225	223	218	210	193	151	154	247	247	252	254	253	249	254	220	224	227	221	234	224	240	235	225	204	182	176	187	202	213	220	219	217	215	213	218	230	237	239	237	237	239	242	245	246	242	219	243	209	200	195	242	241	241	241	203	191	186	183	202	235	214	209	209	210	210	204	197	193	205	211	202	227	230	232	231	229	227	233	233	231	228	224	216	176	212	226	233	222	227	231	224	218	213	210	208	209	207	206	203	200	200	197	194	199	207	200	197	201	214	206	205	201	218	217	219	220	222	226	236	236	238	239	238	235	230	224	220	222	223	225	226	226	227	228	229	229	230	230	230	230	231	232	232	231	231	232	232	232	232	234	234	233	233	233	234	233	233	233	233	233	233	233	234	233	234	234	234	234	234	
227	228	228	229	229	229	228	228	227	226	224	220	213	201	180	180	246	249	247	249	251	255	251	257	247	239	245	240	235	240	238	232	201	166	166	179	198	214	223	214	214	216	222	232	236	236	237	238	237	240	244	246	245	240	242	241	239	236	198	195	242	246	247	203	213	186	182	196	234	216	211	208	211	213	210	202	197	200	209	228	228	229	229	227	224	223	233	233	233	229	223	212	194	200	224	231	235	240	230	221	219	214	210	207	206	206	204	202	201	202	196	194	203	222	210	201	212	204	205	202	196	218	217	219	223	231	232	233	233	232	233	233	232	229	223	219	220	223	224	225	226	227	228	229	229	230	230	230	231	231	232	232	231	231	232	232	232	233	234	234	233	233	233	234	233	232	233	233	233	233	233	233	233	233	234	234	234	234	
228	228	229	229	229	229	228	228	228	227	224	221	216	207	191	181	235	246	243	245	247	255	247	250	251	251	247	240	231	237	236	234	202	154	153	169	195	216	224	214	232	234	237	243	249	243	239	240	242	244	245	245	242	236	212	224	236	238	235	227	220	185	251	210	189	202	183	190	223	229	232	209	215	222	214	206	200	196	198	196	202	230	231	231	230	225	222	235	236	231	224	214	202	179	218	227	233	242	222	219	219	215	212	208	208	206	203	201	206	202	195	192	203	215	214	204	209	202	209	211	201	204	219	221	228	228	228	230	230	229	229	229	228	226	221	215	216	220	223	225	226	227	228	229	229	229	230	230	231	231	232	232	232	231	232	232	232	233	234	234	233	232	233	234	233	232	233	233	233	233	233	233	233	233	234	234	234	234	
228	229	229	230	230	229	229	229	229	227	225	223	218	210	199	179	208	249	244	243	244	249	259	246	253	247	240	238	229	218	232	227	203	156	141	159	191	216	220	227	230	230	234	241	248	257	252	250	249	250	249	245	239	228	218	211	232	234	238	242	245	246	246	246	243	238	174	179	202	227	231	211	229	218	216	208	202	196	196	188	192	229	229	231	232	230	235	228	224	231	225	215	212	155	201	221	234	225	217	217	216	214	210	209	211	207	204	203	202	204	197	192	198	206	200	194	208	195	196	203	200	201	218	224	227	225	224	226	227	228	228	227	225	225	221	213	212	218	222	224	225	227	228	228	229	229	230	231	231	231	232	232	232	231	232	232	233	234	234	234	233	233	233	234	233	233	233	233	233	233	233	233	233	233	233	234	233	233	
229	229	230	230	230	229	230	230	229	228	226	224	220	213	202	176	205	250	244	243	244	248	253	246	244	238	228	225	227	217	227	220	206	174	147	153	181	209	219	222	228	227	231	236	240	245	247	260	255	252	247	240	228	220	219	218	211	230	230	232	236	239	240	239	236	233	227	220	187	209	231	212	217	220	219	215	207	192	198	198	225	209	225	227	229	229	232	229	223	229	225	217	211	190	191	220	234	219	217	216	216	214	210	210	213	210	207	205	203	200	193	196	198	202	195	191	197	192	191	191	190	193	216	223	224	223	220	221	223	221	227	225	224	225	222	214	210	216	221	224	225	227	228	228	229	230	231	231	231	231	232	232	231	231	232	232	233	234	234	234	233	233	233	234	233	233	233	233	233	233	233	234	234	233	233	233	233	233	
229	230	230	230	230	230	230	230	229	229	227	225	221	215	204	178	202	249	242	241	244	247	249	241	232	229	216	210	205	208	202	216	205	187	164	158	175	200	214	219	226	227	246	248	249	239	241	264	256	250	242	227	218	216	218	221	222	216	227	225	226	228	230	229	228	225	220	218	171	199	226	212	227	231	222	224	216	194	186	187	179	190	194	199	206	224	225	226	222	211	225	218	214	192	170	220	236	230	220	217	213	211	208	210	214	214	211	209	206	202	197	199	200	202	197	217	216	190	191	193	189	185	189	219	221	220	217	220	222	218	226	223	224	226	223	216	211	216	221	224	226	227	228	229	229	230	230	230	231	231	232	232	231	231	232	232	232	233	234	233	233	233	233	233	233	233	233	233	233	233	233	233	233	233	233	234	235	235	
230	230	230	231	231	230	231	231	230	229	228	226	223	218	207	181	204	248	239	240	244	247	249	238	230	226	212	208	217	204	197	186	205	187	176	169	176	194	210	216	225	225	246	247	247	246	245	261	257	250	230	215	212	215	218	222	224	220	213	205	201	224	222	224	223	222	219	218	218	192	206	210	227	228	227	228	218	206	197	191	196	193	187	187	192	195	199	210	220	213	224	223	220	203	143	215	236	218	221	219	216	209	206	207	212	215	214	213	211	206	201	204	203	203	199	197	218	217	192	194	191	184	182	212	224	223	220	222	220	216	227	223	225	227	224	218	212	215	220	224	226	227	228	229	229	230	230	231	231	231	231	231	231	231	232	232	232	233	234	233	232	233	233	233	233	233	233	233	233	233	233	233	233	234	234	234	235	235	
230	230	230	231	231	231	231	231	230	229	228	227	224	220	210	186	205	245	240	243	246	249	250	237	231	230	223	215	220	189	186	218	208	186	181	173	176	189	204	224	223	221	243	243	251	254	237	258	256	242	212	206	205	212	219	224	226	221	215	211	207	202	206	214	224	222	219	219	171	191	204	210	219	232	230	222	215	210	208	201	199	202	199	195	193	193	196	200	198	199	202	221	218	208	208	175	205	218	223	223	220	214	208	205	210	215	214	213	211	207	204	206	206	204	201	199	195	193	194	221	217	182	217	221	223	223	221	221	218	214	226	224	226	227	224	220	215	216	221	224	226	227	228	229	229	230	230	231	231	232	232	231	231	231	232	232	233	234	234	233	232	233	233	233	233	233	233	233	233	233	234	234	234	234	234	234	234	234	
230	230	231	231	231	231	231	231	231	230	229	228	225	222	213	193	208	243	245	246	249	253	252	238	229	229	221	219	227	241	234	219	213	199	176	164	170	184	199	219	219	237	236	239	238	239	243	246	236	216	205	199	200	208	219	226	225	220	214	212	212	208	209	213	207	222	222	221	218	196	209	210	229	222	226	225	215	210	211	206	204	207	206	203	201	201	203	204	200	193	191	190	187	198	217	221	194	214	246	226	224	217	210	205	208	214	215	215	214	211	208	206	206	203	201	200	196	195	195	223	218	214	215	221	207	220	218	219	219	214	227	226	228	227	224	221	217	219	222	225	226	227	229	230	230	230	230	231	232	232	232	232	232	232	232	233	234	234	234	234	233	234	233	233	233	233	233	233	233	234	234	234	234	234	234	234	234	234	
231	231	231	231	232	232	232	232	231	231	230	229	226	223	216	200	209	239	244	250	252	254	253	243	238	232	224	216	230	249	246	231	226	202	165	147	156	178	195	208	218	228	229	227	227	231	234	231	215	208	202	195	195	211	223	224	218	217	212	212	217	213	206	211	229	222	223	220	218	195	206	207	212	222	236	229	215	207	207	206	207	210	210	208	206	205	205	204	201	196	196	194	190	181	171	224	174	204	244	226	226	218	211	207	207	212	215	217	216	217	215	211	207	203	200	198	197	196	196	195	220	180	215	209	199	215	216	219	219	215	226	228	229	228	225	221	219	221	224	226	227	228	229	230	230	230	230	231	232	232	232	232	232	233	233	234	234	234	234	234	234	234	233	233	233	233	233	233	234	234	234	234	234	234	233	234	234	234	
231	231	231	232	233	232	232	232	232	231	231	229	228	224	218	205	209	237	243	252	252	253	253	251	244	242	230	236	238	251	250	243	225	190	160	144	147	170	193	209	222	226	227	228	231	234	234	226	214	209	202	193	190	214	226	217	211	216	211	211	223	221	210	210	207	221	224	221	220	185	203	209	215	223	227	225	215	207	202	200	203	211	212	210	207	205	204	204	201	199	196	193	189	181	176	173	164	194	242	250	227	226	215	211	210	212	214	216	216	218	218	216	213	209	205	203	204	204	203	199	195	205	211	218	218	216	217	219	219	214	225	228	229	228	223	219	220	222	225	226	228	229	230	230	230	230	231	231	232	232	232	232	232	232	233	233	233	233	233	234	234	233	233	233	233	233	233	233	233	234	233	233	233	233	233	234	234	234	
231	231	232	233	233	233	233	233	232	232	231	230	228	225	219	207	207	231	242	252	252	254	253	251	242	243	240	230	236	239	232	223	211	181	159	146	144	162	187	208	222	226	229	235	239	240	234	223	213	209	205	196	192	212	221	212	205	211	209	213	228	227	214	207	209	218	225	222	218	218	193	212	220	225	227	223	214	208	202	197	199	210	217	210	205	204	200	200	200	201	198	193	190	183	177	176	165	175	220	224	226	227	217	212	211	214	216	217	217	217	218	217	216	214	210	208	211	212	212	208	218	211	212	219	219	219	221	220	218	226	226	228	229	226	221	218	220	224	226	227	228	229	230	230	230	231	231	231	232	232	232	232	231	232	233	233	232	232	233	234	234	233	233	233	233	233	233	233	233	233	233	233	233	233	233	234	234	234	
231	232	233	233	233	233	233	233	233	232	232	231	229	226	220	209	202	226	241	253	253	255	253	250	232	239	235	229	227	211	207	187	206	188	162	141	133	153	182	208	223	227	233	238	241	239	232	221	210	207	206	197	195	213	220	213	203	206	208	214	232	232	216	207	222	215	226	222	218	220	186	211	221	233	231	221	210	205	199	193	192	208	221	214	208	205	200	196	198	200	199	198	190	182	175	174	172	171	203	219	249	224	217	211	210	214	218	219	219	219	220	219	218	217	231	225	225	228	228	226	223	218	217	219	220	222	224	221	217	228	228	229	229	226	220	218	221	225	227	228	229	229	230	230	231	231	231	231	232	232	232	232	231	232	233	232	232	233	234	234	233	232	232	233	233	233	233	233	233	233	233	233	233	233	233	234	234	234	
232	232	233	233	233	233	233	234	233	233	232	232	230	227	222	212	198	215	241	254	254	255	252	247	217	228	227	223	222	204	199	189	182	201	175	141	121	157	169	200	222	233	237	243	240	233	227	221	213	209	209	201	198	214	218	212	202	202	208	219	237	237	217	207	219	215	227	223	220	182	188	216	224	230	229	216	210	206	199	193	182	204	234	218	211	207	204	203	203	201	199	193	197	184	183	180	181	178	214	231	255	247	221	216	213	215	218	217	238	237	237	237	236	234	230	227	226	228	229	228	226	222	236	236	238	240	241	239	235	232	232	232	231	227	221	219	222	226	228	229	229	230	230	231	231	232	232	232	232	232	232	232	232	232	232	232	233	234	234	234	233	233	233	233	233	233	233	233	233	233	233	233	233	233	233	234	234	234	
233	233	233	233	233	233	234	234	234	234	234	233	232	229	224	214	195	210	240	253	252	255	252	245	218	219	219	215	217	213	205	199	192	197	194	157	131	129	149	182	213	228	239	242	238	231	225	220	215	212	213	208	203	211	216	211	200	199	209	226	242	238	216	210	206	201	211	225	222	220	202	217	224	233	224	216	210	206	201	198	181	201	225	222	211	208	207	208	204	200	198	195	192	195	193	188	188	185	219	220	254	241	240	238	236	236	237	237	235	234	235	235	234	231	229	228	228	248	247	247	245	242	240	239	240	242	243	242	240	237	235	234	232	228	223	220	223	227	229	229	230	230	231	231	231	232	232	232	232	232	232	233	232	232	232	234	234	234	234	234	233	233	233	233	233	233	233	233	233	233	233	233	233	233	233	233	234	234	
233	233	233	233	233	234	235	235	235	235	235	234	233	231	227	217	192	203	241	251	248	251	249	241	217	211	209	223	211	212	206	208	212	198	187	180	157	147	149	168	203	233	239	245	236	229	223	217	212	212	213	211	206	211	216	211	202	200	212	230	246	235	215	210	213	207	234	227	223	195	211	222	229	229	221	211	207	204	201	200	182	199	222	224	217	211	208	206	202	200	202	199	195	197	196	191	222	225	241	214	252	253	235	234	233	235	236	236	234	233	234	233	231	228	246	248	249	249	249	249	249	247	245	244	244	244	244	244	242	241	238	235	232	228	223	222	224	228	230	230	230	231	231	231	232	232	232	232	232	232	233	233	233	232	233	234	235	234	234	233	234	233	233	233	233	233	233	233	233	233	233	233	233	233	233	233	234	234	
233	233	233	233	234	235	236	236	235	235	235	235	235	233	231	223	195	202	245	247	243	237	235	231	218	211	207	203	202	200	195	199	213	206	190	193	177	162	155	163	197	238	241	247	238	228	223	218	212	212	214	214	205	206	214	208	200	202	224	240	242	228	218	213	221	211	234	226	221	196	223	234	233	227	217	211	208	206	204	201	187	194	221	226	223	215	211	208	205	204	208	206	195	192	189	218	220	224	241	219	223	252	235	234	232	233	234	234	232	232	233	250	248	247	247	249	251	250	250	251	252	251	249	250	250	249	248	246	246	245	243	238	234	230	226	225	227	230	231	231	231	231	232	232	232	232	232	232	232	232	233	233	232	232	233	234	234	234	233	233	233	233	233	233	233	233	233	233	233	233	233	233	234	233	233	234	235	235	
234	233	233	234	235	236	237	236	236	236	236	236	236	236	235	231	213	219	249	250	237	237	233	230	221	215	211	208	206	201	197	195	197	204	208	206	197	172	154	162	200	238	249	247	249	219	219	218	214	213	217	219	207	201	209	206	196	209	232	249	233	225	218	219	227	219	215	223	217	197	222	234	242	219	213	211	209	207	207	204	195	190	217	227	225	217	214	212	210	210	210	208	197	191	218	216	219	221	224	241	247	252	254	236	251	234	234	250	250	250	250	250	249	248	249	252	253	252	252	254	255	254	254	257	260	260	257	253	251	250	248	245	242	237	232	230	231	232	232	232	232	232	232	232	233	233	232	232	232	232	232	233	232	232	233	234	234	234	234	233	233	233	233	233	233	233	233	233	233	233	233	234	234	233	234	234	235	235	
234	234	234	235	235	236	236	237	236	236	237	237	238	238	239	239	240	251	258	255	232	235	240	230	222	218	213	210	208	205	202	200	196	191	201	216	214	198	159	162	208	239	249	257	249	215	209	215	217	218	220	221	206	241	202	209	202	217	242	238	227	221	216	225	232	224	214	223	219	203	221	239	219	213	212	208	205	203	204	204	199	190	214	228	226	220	217	214	213	212	212	209	200	220	218	219	219	220	222	224	241	247	254	255	254	254	253	251	251	251	252	252	251	250	250	252	251	250	252	257	259	258	258	260	265	270	270	264	259	255	253	252	252	248	241	237	235	234	234	233	232	232	232	233	233	232	232	232	232	232	233	233	232	232	232	233	234	234	233	233	233	233	233	233	233	233	233	234	233	233	233	234	233	233	234	234	234	234	
234	234	235	235	236	236	236	237	236	237	238	239	240	241	242	245	252	262	268	257	250	252	240	231	222	217	212	208	206	204	203	202	199	198	194	199	220	214	190	174	205	236	253	267	247	219	212	215	224	223	223	222	206	239	195	209	212	230	242	232	222	219	218	228	236	225	216	203	188	209	229	243	217	214	213	210	206	203	202	204	199	186	208	231	227	221	219	216	217	215	213	210	202	220	221	221	219	221	223	223	224	243	249	255	256	254	255	254	253	253	255	255	254	254	254	253	250	249	252	258	261	260	258	259	264	269	273	271	265	259	254	255	256	254	249	243	238	236	236	235	234	233	232	233	233	233	233	233	233	233	233	233	232	232	232	232	234	234	233	233	233	233	233	233	233	233	234	234	234	233	233	233	233	233	233	233	233	233	
234	235	235	236	236	236	236	237	237	238	239	240	242	243	245	249	257	269	272	264	255	250	257	232	221	217	213	211	208	204	203	199	195	202	204	203	198	219	207	196	203	232	258	271	245	225	208	210	225	228	227	227	212	240	193	204	223	238	239	228	217	218	223	232	238	227	216	204	189	210	241	236	221	214	213	212	209	207	204	208	206	193	203	229	228	222	219	216	215	216	215	211	225	222	223	222	219	239	241	242	242	243	246	254	257	256	257	257	256	256	256	256	256	258	258	256	252	250	252	256	257	257	256	257	261	263	265	265	263	257	253	253	254	254	252	248	243	239	237	236	235	233	232	232	233	232	233	233	233	233	233	233	232	232	232	233	234	234	233	233	233	233	233	232	233	233	233	233	233	233	233	233	233	233	233	234	234	234	
235	235	235	236	236	236	237	238	238	239	240	241	243	245	247	251	259	271	277	266	256	257	256	233	220	216	215	213	209	206	204	200	204	196	199	208	204	196	218	213	213	244	273	274	241	226	210	209	227	228	225	225	220	210	195	226	232	236	233	230	221	221	230	236	240	230	217	207	188	213	239	238	224	217	213	213	212	212	208	207	208	201	230	225	229	225	222	219	217	215	215	230	225	224	224	222	237	238	242	245	246	246	246	252	257	258	259	261	263	261	259	256	256	259	260	257	254	252	253	253	252	252	252	254	257	258	256	255	254	253	251	250	250	250	251	250	248	244	240	238	236	233	232	232	232	232	232	232	232	233	233	233	232	232	232	233	233	234	234	233	232	233	233	233	233	233	233	233	233	233	233	233	234	233	234	234	234	234	
235	235	235	236	236	237	238	239	239	239	240	242	243	246	248	253	260	270	280	273	259	261	254	250	221	216	214	212	209	207	204	209	206	198	228	234	237	230	223	225	230	261	283	273	270	261	252	245	252	230	259	224	221	210	227	226	246	234	224	224	223	224	230	237	238	232	219	238	183	217	243	240	230	223	218	219	217	213	210	208	207	236	230	241	250	249	244	241	241	220	234	229	226	224	223	236	236	239	244	248	251	250	250	253	257	259	260	262	265	264	259	254	254	255	256	255	254	254	254	253	252	253	254	255	254	253	250	246	245	246	248	248	248	247	246	247	249	249	245	241	238	235	233	233	233	233	232	232	232	232	232	232	232	231	232	233	233	234	234	233	233	233	233	233	233	234	233	233	233	233	233	233	234	233	233	234	234	234	
235	235	236	236	237	237	238	239	239	239	241	242	244	246	249	254	260	269	282	300	270	267	265	247	225	220	217	214	211	208	210	206	206	231	226	230	237	236	231	238	244	267	282	283	278	261	255	252	257	260	256	253	251	242	225	237	254	259	257	251	251	253	231	237	239	236	227	218	193	214	241	243	236	228	221	217	218	216	215	237	236	234	231	236	243	245	244	244	246	243	237	231	229	227	239	238	239	242	246	250	253	254	253	254	257	259	258	259	260	260	255	251	250	250	250	251	252	253	255	255	255	257	260	260	257	253	247	242	240	240	242	245	247	245	243	243	246	249	248	244	239	236	234	234	233	233	232	231	232	233	233	233	232	231	232	233	233	233	234	233	233	233	233	233	234	234	233	233	234	233	233	233	233	233	233	233	233	233	
236	236	236	236	237	238	238	239	239	239	241	243	245	246	250	254	259	267	281	338	299	271	266	259	236	224	220	216	221	218	211	207	236	231	225	239	247	248	247	249	256	272	281	283	280	277	275	275	278	262	257	251	260	254	250	251	259	258	253	247	248	255	259	263	239	236	229	220	204	233	239	242	235	227	220	217	244	242	238	236	236	235	235	253	257	259	244	246	248	246	240	247	246	245	244	244	244	246	248	250	251	252	252	252	253	255	255	254	254	253	250	248	248	248	249	250	251	251	251	264	265	267	270	273	274	269	248	242	240	238	239	242	244	242	240	241	242	243	244	243	241	237	234	234	233	232	231	231	232	233	233	233	232	232	233	233	233	233	233	233	233	233	233	233	233	234	233	233	233	233	233	233	233	233	233	233	233	233	
236	236	236	237	238	238	238	239	239	240	241	243	244	246	249	253	257	264	273	353	1	280	267	260	255	234	229	224	220	220	215	234	235	231	235	243	250	251	251	255	265	276	281	284	287	287	284	281	282	281	275	268	264	263	266	271	260	258	253	248	249	258	263	264	264	261	255	249	241	234	255	263	236	251	247	243	241	240	238	235	250	252	253	255	258	262	266	266	264	260	254	251	249	247	246	247	248	249	250	250	249	248	248	249	252	253	253	252	251	250	248	246	245	244	246	260	262	262	263	265	268	270	268	267	269	266	262	263	260	238	237	239	240	238	238	240	241	239	237	238	238	236	233	232	232	231	231	232	233	233	232	232	232	232	233	234	233	233	233	233	233	233	233	233	233	233	233	233	233	233	233	233	233	233	233	233	233	233	
236	236	237	237	238	238	238	239	239	240	242	243	244	246	249	252	256	261	267	328	14	304	271	264	260	257	232	227	224	221	236	231	239	238	239	247	252	253	255	259	268	276	280	283	289	294	292	287	286	287	283	276	274	274	277	276	274	272	269	267	270	276	279	277	262	259	255	250	243	238	251	260	257	251	246	244	242	253	252	251	254	257	257	256	258	266	274	274	270	264	259	255	251	247	246	246	247	249	251	250	248	245	245	248	251	251	251	251	251	251	248	245	241	255	254	255	257	258	260	264	269	272	270	269	271	270	268	266	256	255	238	253	244	234	236	240	241	237	234	234	234	232	230	230	230	230	231	232	233	232	232	232	232	232	233	233	233	232	233	233	233	233	233	233	233	233	233	233	233	234	233	233	233	233	233	233	233	233	
236	237	237	237	238	238	238	239	240	240	242	243	244	246	249	251	255	259	264	293	359	343	281	264	261	261	259	255	251	244	234	235	235	237	242	248	252	254	256	261	267	273	278	283	288	295	298	294	291	293	293	286	282	282	283	281	276	274	274	275	278	283	285	281	277	274	270	265	260	259	252	257	256	250	246	253	251	252	254	257	260	262	260	257	257	265	277	279	274	268	264	260	254	248	245	244	244	247	250	251	249	245	244	246	247	258	247	258	259	260	260	260	256	252	252	253	254	255	273	276	279	269	266	270	272	273	276	275	266	265	245	240	258	251	250	248	240	236	233	233	233	230	226	227	229	229	231	232	232	232	232	232	232	232	233	233	232	232	233	233	233	233	233	232	233	233	233	233	233	233	233	232	232	233	233	233	232	232	
237	237	237	238	238	238	238	239	240	241	242	243	245	246	248	250	253	256	259	265	330	351	325	275	262	260	259	254	249	242	239	236	234	235	240	247	251	254	256	260	265	269	274	279	286	295	301	300	296	296	299	296	288	286	288	287	281	276	278	280	282	286	289	287	284	282	279	275	271	269	269	270	267	263	260	255	251	250	253	260	264	266	265	260	258	263	271	277	274	269	264	261	256	249	244	242	241	244	247	249	249	245	243	257	255	254	254	256	258	260	258	257	255	249	248	266	268	271	276	280	279	263	258	266	268	269	270	271	272	254	276	245	236	231	254	242	238	235	233	233	233	230	224	225	228	229	230	231	231	231	232	232	232	232	232	232	232	232	232	232	233	234	233	232	232	233	233	233	234	233	233	232	233	233	233	233	233	233	
237	237	238	238	238	238	238	239	240	241	242	243	244	245	247	249	251	253	254	254	265	329	339	301	271	262	254	250	245	243	238	234	232	232	236	242	247	250	254	259	263	265	269	274	279	286	297	303	299	297	299	300	294	288	287	287	285	281	281	281	280	282	287	290	289	288	287	284	278	274	271	270	269	267	265	260	254	252	254	258	261	265	265	262	259	261	264	266	267	264	259	256	253	246	242	242	242	243	258	258	258	259	257	254	252	251	250	252	255	259	258	257	260	249	265	266	269	271	274	279	261	256	243	256	285	279	264	269	268	278	251	267	237	234	237	233	235	234	232	233	234	230	223	222	226	228	229	230	231	231	232	232	232	232	232	232	232	232	232	232	233	234	233	232	233	233	233	233	234	233	233	233	233	233	233	233	233	233	
237	237	238	238	238	237	238	239	240	241	242	243	244	245	246	249	250	252	253	252	238	238	281	290	277	267	259	253	246	239	235	231	230	231	235	240	245	253	256	260	262	263	265	269	273	278	286	298	303	294	296	300	301	295	285	283	285	284	280	275	273	276	282	287	289	289	291	291	284	276	272	269	268	268	267	263	258	255	252	251	255	258	260	259	259	260	260	259	258	257	255	252	247	241	239	241	241	255	256	256	256	256	256	254	252	248	245	266	269	268	256	254	245	253	266	266	270	272	275	280	260	251	235	283	280	273	256	259	264	266	286	254	242	239	241	240	230	231	232	233	233	229	222	219	223	226	228	230	230	231	231	232	231	232	232	233	233	233	232	232	233	234	233	233	233	233	233	234	233	233	233	233	233	233	233	233	232	232	
237	238	238	237	237	237	238	239	241	241	242	243	244	244	246	248	249	252	255	254	235	216	226	252	263	263	260	253	244	237	232	229	229	232	236	240	248	251	255	258	259	259	259	261	264	269	274	279	283	286	290	295	299	298	289	288	281	278	271	266	267	272	276	280	283	285	290	294	291	282	273	269	268	267	265	261	259	256	250	247	252	255	256	256	257	257	257	255	253	254	253	251	246	238	235	252	252	253	254	253	253	254	256	255	251	269	267	266	269	271	253	251	242	293	270	266	268	270	277	280	255	242	231	238	277	266	252	251	254	248	252	252	245	249	245	242	217	228	234	233	232	229	223	219	221	225	227	229	230	230	231	231	231	232	232	233	233	232	232	232	234	234	232	232	233	233	233	233	233	233	233	233	233	233	233	232	232	232	
238	238	238	237	237	238	239	240	241	241	241	242	243	244	245	247	249	251	255	256	241	206	220	227	241	247	250	249	242	235	231	229	229	232	239	239	241	246	267	272	275	279	278	277	277	264	265	258	265	270	275	277	280	285	290	286	280	264	258	259	265	269	271	272	275	277	281	288	292	287	276	268	264	263	262	259	258	256	247	245	250	254	255	265	267	267	254	263	263	263	261	248	245	236	248	248	250	252	254	252	251	252	253	252	276	269	265	264	266	270	266	248	242	301	235	265	267	274	281	259	250	234	263	237	277	268	250	247	248	246	248	246	243	242	250	245	242	224	236	232	231	229	224	219	219	223	227	229	230	230	230	231	230	231	231	231	231	230	230	232	233	233	232	232	232	233	233	233	232	233	233	233	233	233	232	232	232	232	
237	238	238	237	238	238	239	239	240	240	241	241	242	243	244	246	248	251	254	255	229	199	218	220	226	233	240	241	236	232	230	229	229	236	236	234	257	260	263	264	263	269	270	270	270	260	257	251	286	282	263	261	259	266	275	277	260	247	249	257	270	273	273	266	267	268	268	270	272	277	275	268	262	260	259	258	259	256	244	240	253	255	258	261	264	264	262	261	262	262	261	258	251	247	241	242	247	273	277	276	274	275	280	284	277	269	264	261	264	266	248	246	245	245	294	240	246	279	283	257	245	231	228	237	273	266	250	247	247	249	246	243	238	238	245	245	244	217	237	231	229	227	223	218	217	221	225	228	229	229	229	230	230	231	231	231	231	231	231	232	233	232	232	232	232	232	233	233	233	233	233	232	232	232	232	232	232	232	
237	238	238	238	238	238	238	238	239	240	240	241	241	242	244	245	247	250	254	254	233	183	237	243	253	230	237	237	233	231	229	229	231	237	234	232	255	257	260	265	259	265	268	270	272	255	249	246	256	260	260	256	252	260	255	249	230	231	242	258	265	268	268	269	270	270	267	264	264	262	266	263	260	258	256	256	266	260	242	249	251	254	255	257	260	260	259	258	260	261	262	262	253	243	239	238	266	270	273	272	270	271	270	278	282	274	263	260	262	267	243	241	240	245	298	247	251	283	260	255	240	235	229	238	275	270	248	245	245	245	243	242	237	227	232	220	215	211	237	232	229	227	224	218	216	219	224	226	228	228	229	230	231	232	232	232	232	232	233	233	233	232	232	232	233	233	233	233	234	233	232	232	232	232	232	232	232	232	
237	238	238	238	238	238	238	238	239	240	240	240	241	242	243	245	246	249	253	255	236	221	267	261	284	238	242	240	235	232	231	232	241	240	235	256	252	260	264	264	259	269	270	273	277	254	243	243	252	262	257	253	247	244	238	222	209	222	238	252	261	264	264	263	264	264	262	259	253	265	271	270	266	264	261	260	260	253	256	249	247	250	252	254	277	258	257	256	256	281	259	262	251	227	241	236	264	269	270	271	272	272	269	271	279	282	270	262	261	266	268	240	238	264	278	275	266	285	258	250	236	244	230	240	281	249	247	242	239	238	238	237	231	236	217	208	237	223	237	235	232	229	226	219	215	219	223	226	227	228	229	230	232	232	232	232	232	233	233	233	233	232	232	232	233	233	234	234	233	233	232	232	232	232	232	232	232	232	
238	238	238	238	238	238	238	238	238	239	240	240	240	242	243	244	246	248	252	254	245	272	318	281	287	242	246	242	237	234	235	241	241	239	236	258	252	259	264	267	263	266	266	268	271	254	242	243	252	263	255	246	237	232	224	209	203	219	234	248	276	262	283	258	257	257	255	255	256	258	262	264	264	262	260	259	256	250	249	243	240	267	266	267	270	275	281	282	282	283	283	281	247	216	212	260	262	266	266	267	272	275	274	275	278	283	281	265	261	265	266	250	252	246	261	292	255	287	259	247	234	263	233	277	276	273	249	243	237	234	233	232	230	237	240	237	226	220	240	237	233	230	226	219	215	219	224	226	227	228	229	231	232	232	232	232	232	233	233	232	232	232	233	233	233	233	234	234	233	233	233	233	233	233	232	232	232	232	
238	238	238	238	237	237	237	237	238	239	239	239	240	241	242	244	245	247	250	252	247	286	351	194	211	232	238	238	235	235	241	236	236	265	263	260	262	259	262	266	267	269	268	268	265	251	239	245	276	252	243	233	227	223	215	204	202	216	231	246	273	257	273	278	279	282	282	278	251	251	252	254	256	257	257	256	288	245	245	241	232	262	266	265	266	266	270	272	274	276	279	271	239	201	312	224	232	265	266	267	269	273	273	273	277	281	290	272	260	262	264	263	247	245	249	283	286	287	259	246	233	230	236	259	281	254	252	245	237	234	232	231	230	229	236	233	232	227	241	237	233	230	226	218	215	219	224	226	227	227	229	231	232	232	232	232	232	232	232	231	231	232	233	233	234	234	234	234	233	232	233	233	233	233	232	232	232	232	
238	238	238	237	237	237	237	237	238	239	239	239	240	241	242	243	244	245	248	250	246	162	97	152	192	216	228	232	237	238	238	236	264	263	260	267	266	263	261	263	264	266	268	272	269	247	240	248	276	241	228	222	224	220	209	199	205	220	234	246	273	263	254	263	268	272	275	249	248	280	283	282	281	282	285	289	286	277	286	238	230	260	264	266	266	267	269	271	270	270	272	252	231	196	337	275	231	263	266	269	270	271	271	271	276	276	279	286	266	259	263	266	265	260	264	273	283	283	253	242	229	279	280	263	266	257	253	244	237	233	230	229	229	227	226	230	238	240	239	235	232	230	226	219	215	219	224	226	226	227	228	230	231	231	231	231	231	232	232	232	231	232	232	232	233	233	234	233	233	233	233	232	232	232	232	232	232	232	
238	238	237	237	237	237	237	237	238	239	239	238	239	240	240	241	242	243	246	246	244	115	112	150	184	206	220	225	229	233	237	270	267	261	259	268	270	269	263	261	265	264	267	269	255	244	267	287	228	217	218	210	223	216	204	199	210	228	241	249	270	276	269	265	267	266	266	262	263	268	273	276	278	279	277	283	286	276	264	288	224	255	259	265	261	263	266	271	276	277	270	246	223	195	343	280	264	265	267	270	270	272	273	273	276	276	273	286	276	260	259	264	265	263	271	276	282	283	250	235	256	236	256	290	266	263	254	245	239	236	232	229	227	225	224	220	220	229	236	233	232	230	227	220	215	219	224	225	225	226	228	229	230	230	230	231	231	232	232	232	231	231	231	231	232	232	233	233	232	232	233	232	231	232	232	232	232	232	
238	237	237	237	237	237	237	237	238	238	238	238	238	239	239	239	241	242	244	245	243	136	134	158	185	205	216	221	226	257	259	262	263	258	268	270	271	273	268	262	268	271	272	272	242	253	263	251	241	238	222	225	219	210	200	198	212	229	241	266	268	278	256	255	262	274	271	270	266	266	271	274	278	274	266	266	277	279	232	293	262	252	258	262	260	260	261	260	269	275	251	244	224	196	10	274	265	266	255	269	270	269	271	272	273	273	274	285	287	266	258	262	267	259	272	276	280	271	247	234	241	245	286	267	269	267	261	252	246	241	236	231	228	228	227	218	217	218	223	230	231	230	227	220	215	218	223	225	225	226	228	229	230	231	231	230	230	231	231	231	230	231	232	232	232	232	232	233	232	232	232	232	232	232	232	231	231	231	
237	237	237	237	237	237	237	237	237	237	237	237	237	238	238	239	240	241	242	245	242	153	146	170	191	207	215	220	224	252	255	259	272	268	268	269	269	270	269	268	273	279	278	279	244	240	241	249	245	239	232	220	211	204	199	201	213	228	256	260	272	275	266	259	260	252	266	267	271	263	279	279	276	277	268	265	266	274	232	290	263	254	256	259	263	263	264	264	270	272	250	243	229	201	189	287	216	230	254	271	270	269	270	271	272	271	265	272	292	275	261	261	270	273	275	277	279	249	241	239	238	252	288	268	271	268	263	255	246	238	234	232	232	232	229	216	213	212	216	228	229	230	228	221	215	217	222	225	225	226	229	229	231	231	231	231	230	231	231	231	231	232	233	233	233	233	233	233	233	233	233	232	232	232	232	231	231	231	
237	237	237	237	236	236	236	237	236	236	237	237	237	237	237	238	239	239	241	243	239	180	157	176	197	208	215	219	247	245	248	264	270	272	269	268	269	269	270	273	282	289	286	248	248	236	234	230	230	231	226	213	201	197	199	203	216	229	251	254	269	274	276	256	257	254	267	277	275	271	274	266	263	269	272	276	232	287	231	287	212	255	254	256	258	260	262	269	277	272	247	242	234	208	187	334	213	228	265	272	272	271	271	271	273	274	268	240	290	279	263	264	273	259	275	278	280	254	235	259	281	273	266	267	266	260	254	247	240	234	230	230	232	234	230	215	202	208	214	228	229	230	228	223	217	218	223	225	226	227	229	229	230	231	231	231	231	232	232	232	232	232	233	232	233	233	233	233	233	232	232	232	232	232	232	231	231	231	
237	237	237	236	236	236	236	236	236	236	236	236	236	236	236	237	237	238	239	241	237	193	167	181	202	213	218	219	244	244	242	261	263	271	271	268	268	269	272	280	293	267	298	264	241	234	228	220	228	223	220	208	192	191	196	204	217	242	245	261	264	269	270	253	250	251	249	292	284	281	267	245	251	246	250	236	234	290	284	299	211	211	217	234	254	259	260	264	271	252	246	240	235	216	188	25	206	221	264	267	270	272	270	269	270	275	277	251	274	285	266	266	274	267	273	274	274	246	235	231	282	280	264	258	256	247	241	236	233	230	228	230	233	235	230	216	212	207	213	227	228	228	227	223	218	218	222	225	226	227	229	229	230	230	230	230	231	232	232	232	232	232	232	232	232	232	232	232	233	232	232	231	232	232	232	231	231	231	
237	237	237	236	236	236	236	236	236	236	236	236	235	235	235	236	236	236	237	238	234	208	178	188	206	216	221	243	242	241	237	258	266	270	269	267	266	266	271	280	280	264	268	272	241	234	228	220	227	221	219	204	188	189	194	204	217	237	239	240	262	264	263	250	240	241	246	292	291	292	272	240	238	240	243	235	233	293	285	283	294	209	214	220	231	254	261	263	261	247	242	237	230	219	195	182	199	216	232	263	266	269	269	268	266	270	269	242	231	291	273	269	276	277	268	272	266	239	231	231	242	279	252	248	247	243	234	227	224	224	227	233	237	235	228	214	208	205	211	215	226	226	225	222	218	217	220	223	226	227	228	229	229	230	230	231	231	232	232	232	231	231	231	231	232	233	232	232	233	232	231	231	232	232	231	231	231	231	
237	237	236	236	236	236	235	235	235	235	235	235	234	234	234	234	234	234	234	235	231	215	186	192	207	216	234	238	238	236	253	258	266	269	269	268	268	269	275	282	254	266	282	269	244	234	228	221	225	220	216	202	188	186	192	203	226	230	231	254	258	261	263	257	252	236	240	291	292	282	258	244	242	242	238	236	233	299	285	280	289	283	213	221	232	248	258	266	262	243	240	233	226	220	202	185	191	212	222	228	264	269	271	268	268	268	260	237	228	273	282	275	278	276	268	272	256	239	228	253	269	250	240	237	235	233	225	219	217	219	222	229	234	232	225	212	206	201	210	216	225	224	224	222	219	218	219	222	225	227	228	228	229	230	231	231	231	232	232	232	231	231	231	231	232	233	233	233	233	233	231	232	232	231	231	231	231	231	
237	237	236	236	236	235	235	235	235	235	234	234	234	234	233	233	232	232	232	232	230	219	191	193	208	216	234	238	238	258	255	258	264	265	267	268	270	275	283	279	260	255	244	241	230	228	221	215	221	216	212	201	190	187	189	198	219	221	222	247	251	255	258	258	256	241	241	292	292	267	265	248	258	246	246	248	300	290	280	281	224	308	212	221	231	249	252	263	262	248	238	229	224	221	206	188	307	213	223	224	251	265	266	270	267	269	265	252	226	266	286	277	277	275	267	272	251	236	221	229	216	217	220	218	220	216	210	199	189	187	188	189	203	227	224	215	205	198	207	215	225	223	224	223	220	219	220	221	224	226	227	228	229	230	231	231	231	231	231	232	232	231	231	231	232	232	232	233	233	233	232	232	231	231	231	231	231	231	
236	236	236	236	235	235	235	235	235	234	234	234	233	233	232	232	231	230	230	229	229	221	195	195	209	215	222	233	255	259	256	257	261	265	267	268	272	281	292	275	253	230	214	211	226	220	214	223	219	217	211	202	196	194	194	197	205	218	218	239	241	250	254	257	255	243	244	276	270	259	256	251	248	248	242	243	284	282	275	274	222	312	212	221	231	251	251	260	263	255	236	226	221	218	204	203	199	227	230	227	246	255	263	265	268	266	262	247	226	255	294	278	275	276	279	257	250	233	219	202	190	197	196	230	230	219	225	220	215	225	227	232	232	229	198	200	208	196	204	210	224	223	224	223	221	219	221	222	224	226	227	228	230	230	231	230	231	231	231	232	232	231	231	232	232	232	232	232	233	232	232	231	231	231	231	231	231	231	
236	236	236	235	235	235	235	234	234	234	233	233	232	232	231	230	229	229	227	226	226	220	203	200	209	214	224	225	250	258	260	256	258	262	264	270	280	293	289	260	242	223	236	228	221	216	227	223	221	218	212	206	203	205	208	206	206	213	219	219	237	238	249	256	257	240	243	252	256	251	245	246	250	240	232	279	282	279	281	233	215	290	228	230	227	252	260	257	263	263	237	229	222	215	200	193	203	219	264	266	226	240	255	264	264	264	266	247	230	267	295	227	275	284	259	249	236	227	218	233	193	204	237	214	202	229	225	225	229	231	234	237	235	231	231	240	240	200	202	207	225	224	225	224	221	220	222	223	224	226	228	229	230	230	230	230	231	231	231	232	231	231	231	232	232	232	232	233	233	232	231	231	231	231	231	231	230	230	
236	236	236	235	235	235	234	234	234	234	233	232	232	231	230	229	228	227	225	223	222	218	211	207	210	214	222	221	247	258	262	257	256	259	263	272	286	281	276	251	237	230	235	225	236	231	229	225	223	221	216	210	208	212	219	219	214	217	222	219	221	235	244	250	260	254	253	257	251	247	243	241	234	219	219	254	273	281	293	231	207	276	212	260	258	247	258	260	261	264	239	234	225	215	200	194	201	212	220	272	278	245	233	255	264	267	275	233	223	251	302	226	232	296	259	243	213	225	227	235	231	196	195	237	233	200	223	220	221	224	229	231	227	220	217	214	222	215	199	204	209	224	225	224	222	221	222	224	224	226	229	230	230	230	230	230	231	231	231	232	231	231	231	232	232	232	233	233	233	232	231	231	231	231	231	231	230	230	
236	236	235	235	235	234	234	234	234	233	233	232	231	230	229	228	227	225	223	220	217	215	213	213	213	216	220	220	241	256	261	260	258	259	267	279	288	272	260	239	230	223	232	225	232	230	228	226	224	223	218	212	212	218	233	228	224	245	223	223	223	223	233	246	255	256	241	245	247	244	241	237	224	207	210	254	265	276	237	225	205	203	210	214	218	241	239	257	258	263	241	237	227	215	199	194	199	208	217	239	270	277	260	252	258	276	245	236	241	282	284	278	284	241	247	219	217	208	208	209	205	206	198	239	236	231	196	195	218	217	219	220	219	218	217	215	213	209	212	204	212	224	225	224	220	220	222	224	223	225	229	231	231	230	230	231	231	231	231	231	231	231	231	231	232	232	232	233	233	232	232	232	232	232	231	230	230	230	
236	236	235	235	235	234	234	233	233	233	232	231	230	230	228	227	225	223	221	218	213	210	212	216	218	222	220	241	237	251	256	258	260	264	271	288	270	253	246	241	230	242	231	233	229	228	228	226	225	223	249	215	215	220	229	232	229	225	235	225	224	223	224	231	248	256	251	240	241	238	236	231	217	201	226	271	279	248	229	217	212	208	206	210	213	235	233	248	252	258	256	237	229	216	198	193	199	208	216	234	262	268	274	263	262	282	243	237	246	279	220	277	289	260	232	225	214	216	215	213	208	207	206	192	241	238	232	227	195	193	201	214	220	221	219	216	215	207	204	200	210	225	225	223	220	220	222	223	222	222	227	230	229	228	229	230	230	231	231	231	232	231	231	231	232	232	232	232	233	232	232	232	232	231	230	230	230	230	
235	235	235	235	234	234	234	233	233	233	232	230	230	229	227	226	224	222	219	216	210	206	210	219	222	223	222	242	237	248	251	255	260	267	277	294	265	249	239	243	242	249	242	235	229	227	226	224	222	221	220	218	218	223	228	264	230	226	291	223	223	223	224	230	242	248	262	239	240	233	227	221	212	201	204	255	242	229	220	215	215	310	207	211	212	214	219	229	246	252	267	237	232	219	202	195	201	208	213	223	251	259	264	267	276	290	242	235	298	274	269	266	251	227	225	224	226	231	238	242	240	235	236	242	220	248	247	244	239	220	204	202	198	200	221	218	195	212	207	196	205	207	226	223	221	221	221	222	221	221	225	229	227	227	228	229	230	230	231	231	232	231	231	231	232	232	232	232	232	231	231	232	231	231	230	230	230	230	
235	235	235	235	234	234	233	233	233	232	231	230	229	228	227	225	223	220	217	213	207	202	206	218	224	224	247	243	236	248	249	252	257	266	280	285	264	255	243	242	243	244	245	235	227	224	222	219	217	218	220	222	222	224	255	267	233	230	226	277	225	224	224	231	230	244	255	239	238	229	218	211	212	206	210	215	226	224	217	212	278	276	307	219	216	217	220	224	230	246	263	241	236	220	207	201	207	212	211	216	218	241	257	264	276	273	238	243	270	262	274	216	200	211	215	204	215	220	227	233	238	241	243	244	247	252	256	178	254	225	206	199	195	195	202	198	193	214	211	211	215	210	227	224	223	221	220	222	221	221	226	229	227	226	227	228	229	230	231	231	231	231	231	231	232	232	232	232	232	231	230	231	231	230	230	231	230	230	
235	235	235	234	234	233	233	233	233	232	231	229	229	227	226	224	222	219	216	211	205	197	202	220	225	244	246	245	252	249	251	253	256	265	282	274	258	255	254	244	236	237	233	230	221	218	215	227	213	216	220	221	222	248	251	267	237	233	229	300	275	256	228	229	233	244	250	265	236	223	210	207	207	208	210	223	225	223	216	286	212	275	224	308	302	217	220	225	233	235	251	244	237	219	210	208	215	232	211	211	217	236	253	258	271	237	226	238	263	254	184	189	193	191	195	195	199	202	204	226	225	226	229	233	237	242	246	250	254	253	250	235	230	219	225	223	217	209	203	211	219	219	226	225	223	221	220	222	223	224	228	230	228	225	226	228	230	230	231	231	231	231	231	232	232	231	231	231	232	232	232	232	231	230	230	230	230	230	
235	235	235	234	234	233	233	233	232	231	230	229	228	227	225	223	221	218	214	209	202	192	197	220	226	245	247	248	260	254	253	252	254	262	285	257	248	247	249	247	237	230	226	224	215	210	208	208	211	215	219	222	244	246	248	268	245	233	226	226	294	283	273	237	238	238	246	254	229	215	210	195	217	219	226	226	225	222	214	293	214	225	280	224	219	298	217	225	235	249	252	245	236	220	215	216	222	289	298	208	216	230	250	254	280	214	205	198	162	179	189	190	192	192	197	197	201	202	201	198	200	202	225	226	228	229	228	231	235	237	233	224	222	212	215	218	210	189	196	200	210	214	218	223	222	219	219	220	222	226	229	230	228	225	225	227	230	231	231	230	230	231	232	232	232	231	230	230	231	232	232	232	231	230	230	230	230	230	
235	235	234	234	234	233	233	233	232	231	230	228	228	226	224	222	220	217	213	207	200	188	191	217	241	245	247	266	269	265	259	256	257	261	271	241	236	235	236	239	230	225	221	219	210	204	203	204	207	211	217	221	240	242	260	267	244	234	225	223	287	275	280	279	240	240	259	263	234	228	220	222	225	228	228	225	223	219	218	294	214	223	282	229	224	217	217	224	233	237	253	244	236	222	222	225	256	224	318	209	236	224	244	231	210	200	191	190	198	202	200	196	193	191	193	196	199	201	200	199	201	198	195	200	204	206	203	209	214	216	210	203	193	194	193	195	202	188	201	198	201	208	222	222	220	217	217	219	223	228	230	230	228	226	226	227	229	229	229	230	229	229	231	232	231	230	230	230	230	231	231	231	231	230	230	230	229	229	
235	234	234	234	234	233	233	232	231	231	230	228	227	226	224	222	219	216	211	206	197	186	188	214	237	240	258	265	269	272	270	268	268	267	242	237	227	225	223	229	222	220	217	217	210	205	202	201	204	209	215	233	233	254	258	265	255	236	224	221	275	266	278	288	270	262	264	253	238	232	227	227	227	227	225	222	223	224	217	290	212	221	282	232	225	218	248	222	231	235	251	242	236	225	224	230	258	223	268	246	228	225	234	214	216	210	204	200	202	205	206	204	202	200	197	198	199	196	198	202	202	199	198	199	202	199	189	216	188	192	199	200	192	192	194	195	194	187	207	203	202	204	205	205	219	216	217	220	226	231	230	229	229	228	227	228	229	228	228	229	229	228	229	231	229	229	231	231	231	232	232	231	230	230	230	230	229	229	
235	234	234	234	234	233	233	232	231	230	230	228	227	226	224	221	218	215	210	204	195	185	186	212	236	248	255	262	269	272	272	272	274	260	237	230	221	231	225	218	219	218	222	218	213	209	207	201	202	207	213	217	229	252	257	265	255	237	220	216	266	263	275	285	277	267	268	286	239	224	227	213	228	226	224	223	236	241	219	294	213	223	268	232	224	216	238	217	226	230	254	270	234	229	226	233	248	211	270	267	223	234	209	212	214	213	207	201	199	203	207	209	208	207	204	202	198	200	193	197	201	202	204	208	207	201	196	195	201	201	218	204	234	189	192	190	195	198	214	211	206	204	205	204	219	217	219	222	228	231	229	229	229	228	228	230	230	229	229	229	229	228	230	231	229	229	231	231	232	232	232	231	230	230	230	229	229	229	
234	234	234	234	234	233	232	232	231	231	230	228	227	225	223	221	217	214	209	202	193	184	181	206	234	249	251	259	264	269	274	275	269	255	252	245	236	227	222	226	220	218	221	220	216	209	210	203	201	206	212	216	225	249	252	263	251	239	217	221	261	261	269	272	269	265	268	257	239	227	215	215	221	225	223	223	224	224	221	291	215	223	283	230	224	219	230	214	222	226	238	264	232	231	227	224	231	213	213	184	222	228	226	226	228	228	214	208	203	207	209	211	211	210	209	207	203	198	194	193	199	202	201	209	227	228	218	238	213	213	249	226	243	236	217	219	219	218	215	217	213	208	206	204	219	219	220	223	227	230	229	227	228	227	227	229	229	228	229	230	229	230	232	232	230	230	231	231	232	232	231	231	230	230	230	229	229	229	
234	234	234	234	233	233	232	232	231	231	230	228	227	225	223	220	217	213	207	200	191	182	177	190	237	255	252	254	259	265	277	284	256	254	248	240	239	236	233	228	224	222	222	220	220	217	239	254	203	208	214	218	222	244	244	261	242	235	214	210	265	261	265	261	261	262	262	258	233	228	220	225	227	227	223	267	269	250	233	284	215	222	283	229	223	218	294	212	221	227	237	251	266	228	241	226	186	188	189	221	219	218	217	219	222	222	223	219	212	206	207	212	214	214	213	210	206	202	198	193	195	197	202	209	220	229	234	236	240	242	243	244	242	231	223	217	210	211	209	205	210	206	204	203	221	220	222	223	227	230	228	227	228	227	227	228	227	227	229	230	229	230	231	231	231	231	231	232	232	231	231	230	230	230	229	229	228	228	
234	234	234	234	233	233	232	232	231	231	230	228	226	225	223	220	216	212	206	198	188	179	168	181	249	265	259	253	253	261	293	256	256	252	248	244	240	238	235	232	228	225	222	219	220	221	217	209	205	210	217	233	227	223	240	256	245	226	209	206	212	256	260	275	185	203	214	215	217	220	220	221	227	231	255	222	226	243	222	266	217	223	288	228	220	214	286	255	222	228	240	234	251	243	215	207	202	227	223	218	212	244	244	245	246	247	219	218	213	207	206	232	233	230	228	226	220	216	213	205	201	198	195	196	201	207	211	222	218	228	229	233	233	228	222	217	206	203	201	198	210	207	204	224	221	221	223	224	228	231	230	230	231	230	229	230	228	228	229	230	230	230	231	231	232	232	231	232	232	231	230	230	230	230	229	228	228	228	
234	234	234	234	233	233	232	232	231	231	230	228	227	225	222	219	216	211	205	196	186	175	155	161	250	272	271	265	259	262	250	256	252	251	248	245	242	239	237	233	230	226	222	221	223	230	219	209	206	210	226	226	225	253	242	253	229	219	207	202	204	211	219	190	192	200	208	215	212	221	212	212	212	228	212	214	225	223	225	246	219	227	249	229	220	216	260	218	224	229	237	257	255	225	219	239	231	224	243	215	208	246	245	249	250	246	244	244	241	237	208	227	226	226	224	223	221	218	216	214	212	209	207	204	202	204	201	200	201	207	214	216	217	223	223	226	225	206	200	199	210	205	204	223	221	221	223	225	229	231	231	232	233	231	231	231	231	230	230	230	230	230	230	232	232	231	231	231	231	231	230	230	230	230	229	228	227	227	
234	234	234	234	233	233	232	232	232	231	230	228	226	225	222	219	216	211	205	195	184	171	144	145	245	265	272	272	264	268	256	245	244	242	244	242	241	238	236	234	230	225	222	224	227	226	217	268	207	211	222	220	251	245	257	251	196	218	206	206	210	206	199	196	193	196	205	213	216	212	200	214	208	217	206	208	240	215	218	236	229	238	236	227	221	218	257	220	225	236	233	255	283	217	213	231	226	221	246	246	246	245	239	251	253	253	251	250	238	235	231	227	223	220	248	247	246	244	243	216	214	212	212	212	210	205	201	196	200	195	200	202	202	204	209	226	235	232	216	230	212	224	204	224	223	223	225	227	229	229	229	231	231	230	230	231	232	231	231	231	231	230	231	232	232	231	231	231	232	231	230	230	230	229	229	228	227	227	
234	234	234	234	233	233	233	232	231	230	229	228	227	225	223	220	217	211	204	195	182	167	140	138	236	257	264	265	261	267	245	240	229	238	239	238	237	236	234	232	228	226	222	227	251	224	214	218	210	215	219	220	242	257	254	233	199	195	195	199	204	207	202	198	191	194	205	214	218	216	209	200	201	195	203	208	208	202	242	217	219	242	223	218	213	226	264	233	228	227	251	264	238	222	206	192	196	217	214	250	249	250	251	255	257	257	255	253	252	251	249	249	248	248	250	251	250	247	245	244	241	236	232	231	229	225	220	204	201	199	195	208	198	198	199	205	230	235	235	231	225	225	226	224	223	224	226	228	228	228	230	232	232	230	230	231	230	230	232	232	231	231	231	232	232	232	232	232	232	231	230	230	230	228	229	229	228	228	
234	234	234	234	233	233	233	232	231	230	230	229	227	225	223	221	217	212	205	195	182	164	145	146	226	245	260	255	248	240	237	237	239	238	236	236	235	235	233	229	253	222	224	230	230	222	213	217	213	218	221	221	239	229	234	209	193	192	194	199	206	209	204	209	191	191	205	214	219	218	213	203	203	199	202	208	210	210	211	216	217	224	220	215	207	248	205	211	215	220	226	246	216	222	203	196	200	215	216	216	247	254	256	260	265	265	261	259	257	254	252	252	251	250	251	255	256	255	248	246	242	238	234	246	233	229	223	220	217	215	211	207	195	195	207	206	224	225	227	227	223	222	226	225	223	224	227	228	227	227	231	235	234	232	230	229	227	228	230	232	232	232	232	232	232	232	232	232	232	230	230	230	230	229	229	229	228	228	
234	234	234	234	233	233	233	232	231	231	230	229	228	226	224	222	218	213	206	196	182	164	155	158	230	241	224	223	225	227	219	234	235	238	236	236	235	233	230	256	223	222	226	261	229	220	214	215	216	223	227	257	234	239	242	210	198	193	195	204	210	215	203	232	223	181	207	213	218	221	213	209	203	202	203	207	210	212	214	217	218	217	207	212	210	214	224	224	224	222	229	224	218	222	206	199	199	214	191	193	246	250	254	260	176	269	268	266	264	261	257	255	254	253	254	256	260	262	260	258	256	255	255	257	255	251	246	242	239	236	216	212	209	207	199	200	204	220	221	223	220	218	204	224	224	225	227	227	226	226	230	234	234	232	230	228	226	228	230	231	232	233	233	233	233	232	232	232	232	231	230	230	229	229	229	229	228	228	
234	234	234	234	234	233	232	232	232	231	231	230	228	226	225	222	218	214	207	199	184	167	163	159	212	243	224	223	224	227	228	222	232	234	233	233	235	229	272	225	223	224	229	233	227	219	254	215	220	228	257	240	211	246	245	220	199	192	195	201	209	216	211	232	223	210	201	216	221	223	215	208	203	203	205	206	209	213	217	220	222	222	211	200	196	202	214	215	219	223	227	225	237	217	225	207	202	199	192	240	238	242	247	254	260	264	213	269	268	267	263	259	257	258	260	262	265	269	267	263	260	259	260	263	264	262	258	254	250	246	241	238	235	233	231	227	199	221	220	218	218	215	204	223	224	225	227	227	225	225	230	235	235	233	231	229	227	229	231	231	231	232	233	233	233	232	232	233	232	231	231	230	228	228	228	228	227	227	
234	234	234	234	233	233	233	232	232	232	231	230	228	227	225	223	220	216	210	202	188	170	166	147	144	247	224	222	223	228	232	229	233	226	225	236	232	232	230	226	224	227	248	234	228	221	216	217	223	246	295	243	215	249	248	216	205	192	189	218	224	231	215	230	225	212	195	213	228	225	219	229	218	201	206	207	210	215	219	222	224	225	213	202	197	201	217	220	220	225	227	225	218	218	227	232	230	227	237	237	237	239	243	247	251	256	261	265	214	267	265	262	259	261	264	261	264	273	273	270	266	264	265	267	269	272	274	271	264	257	252	248	244	241	237	232	229	202	202	198	214	217	221	224	225	226	227	227	226	227	233	237	236	234	232	229	227	228	231	231	231	231	232	232	232	232	233	234	233	231	230	229	227	227	228	227	225	225	
234	234	234	234	233	233	233	233	232	232	231	230	229	227	226	224	222	219	213	206	193	175	161	131	123	251	227	225	228	232	234	231	219	227	216	219	221	222	221	220	221	227	236	233	228	222	218	220	226	270	241	236	224	180	248	245	238	197	214	210	227	229	230	226	227	215	188	215	225	232	222	226	215	198	205	206	211	216	221	226	231	231	217	204	195	198	218	222	220	226	231	227	225	216	215	231	230	234	235	236	237	238	239	242	244	248	251	255	259	261	262	260	258	259	261	263	265	269	273	273	271	269	268	267	269	274	282	288	282	272	265	259	255	252	249	246	243	239	234	230	215	210	223	225	224	225	227	229	230	232	235	236	235	233	231	228	225	226	230	231	230	231	233	232	231	232	233	234	233	231	230	228	227	227	227	226	224	224	
234	234	234	234	234	233	233	233	232	232	231	230	230	229	227	226	224	221	217	211	199	182	155	120	114	252	229	231	235	237	236	230	220	214	208	218	217	218	223	216	216	243	228	228	249	247	218	221	229	239	204	230	223	243	183	233	228	221	205	223	226	233	227	222	228	215	207	213	227	238	232	223	232	221	203	205	210	216	223	233	237	237	217	206	191	192	218	222	226	226	229	227	226	225	232	222	227	230	232	233	235	236	236	237	239	239	242	246	250	253	254	254	254	255	257	256	256	259	263	267	267	265	263	263	265	269	275	283	286	283	280	274	268	263	259	257	256	251	246	244	220	233	221	226	226	225	227	231	234	236	237	236	234	233	231	228	225	227	231	232	231	234	234	232	231	232	234	234	233	232	230	228	227	227	226	225	224	224	
234	234	234	234	234	234	233	233	232	232	231	231	231	230	228	227	225	223	219	215	206	190	158	110	104	251	233	236	240	240	237	229	219	214	212	210	217	217	216	216	223	243	223	237	236	222	215	223	233	201	204	201	200	200	194	184	175	210	196	220	225	234	224	200	228	215	207	213	227	236	232	221	231	221	200	205	212	221	230	236	240	239	217	238	227	184	215	221	224	229	228	228	225	223	219	229	222	227	228	230	228	220	216	221	221	235	238	241	244	247	248	248	250	252	254	251	250	250	251	253	255	256	256	258	260	262	265	269	274	277	277	273	268	270	269	264	261	255	252	251	261	247	228	214	229	228	230	234	237	239	239	237	235	234	233	230	227	228	232	234	235	236	236	233	232	234	236	236	234	233	231	229	227	227	226	225	225	225	
234	234	234	234	234	234	233	233	232	232	232	232	231	230	229	228	227	225	222	219	212	200	172	106	101	248	241	244	245	241	234	226	218	221	218	218	219	219	220	210	212	215	224	248	218	216	218	212	195	207	205	203	202	196	193	229	214	168	227	217	223	234	238	210	226	215	203	214	228	237	231	219	231	221	196	205	219	226	231	237	243	244	219	239	229	178	208	217	223	227	231	229	225	220	221	222	207	216	224	225	219	217	217	223	235	236	236	237	240	243	243	243	246	247	247	246	246	245	246	244	245	245	249	254	256	257	258	262	264	266	267	266	267	269	267	262	256	251	249	249	260	248	239	216	232	231	233	236	238	241	242	239	237	237	236	234	230	230	234	237	238	239	238	235	234	236	237	237	236	235	232	229	227	226	225	224	224	224	
234	234	234	234	234	234	233	233	233	233	232	232	232	231	230	229	228	227	225	222	218	210	192	158	143	228	250	250	248	242	233	223	222	217	215	216	217	230	216	217	218	220	217	229	220	220	223	213	205	203	210	210	206	201	196	191	216	188	228	219	227	237	240	235	227	217	179	214	228	237	230	240	231	221	216	208	219	226	232	237	245	248	216	245	228	207	204	214	222	225	230	228	221	215	221	228	222	229	209	215	218	219	224	234	236	238	235	236	239	244	243	240	248	241	240	241	243	245	244	242	241	244	251	255	250	250	252	254	254	253	250	249	253	258	257	249	244	244	245	247	254	248	239	222	234	234	236	237	239	241	242	239	239	240	240	238	235	234	237	239	239	240	240	238	238	238	239	239	238	237	235	232	229	228	225	223	222	222	
234	234	234	234	234	234	234	233	233	233	233	233	232	232	231	230	230	228	227	225	222	217	207	195	158	193	255	250	244	239	230	222	239	234	231	231	233	218	223	224	223	222	237	236	222	222	224	226	214	207	210	218	219	217	209	231	222	246	238	232	241	248	246	239	231	221	210	214	227	236	240	237	229	220	212	213	221	227	231	236	246	247	214	242	225	208	188	212	221	225	229	225	213	212	222	229	224	215	230	215	225	227	231	234	235	237	240	242	243	241	240	242	241	236	236	237	239	241	241	240	239	241	246	249	249	244	246	248	246	245	242	240	243	248	247	242	238	242	244	272	247	242	234	233	235	237	239	240	241	244	243	240	240	242	243	242	240	239	242	242	241	242	243	244	244	245	246	244	244	244	242	240	237	234	227	220	218	218	
234	234	234	234	234	234	234	234	234	233	233	233	233	232	232	231	231	230	229	227	225	222	215	199	155	181	257	249	242	236	226	244	233	228	231	232	216	224	231	234	230	223	241	239	238	236	236	223	225	216	205	218	225	238	240	248	254	258	259	260	265	264	256	246	237	224	211	215	228	237	240	236	229	219	211	215	223	227	231	244	244	248	215	236	225	212	170	203	216	224	228	219	208	213	225	228	222	221	221	231	228	232	232	233	235	236	237	238	238	238	236	238	241	234	236	237	255	250	246	242	244	236	239	243	244	244	241	243	243	241	237	234	237	241	241	238	237	240	264	260	243	242	235	234	238	242	243	242	244	247	246	242	241	243	247	247	245	244	246	247	247	249	252	253	254	255	255	253	254	255	253	252	249	241	227	212	207	207	
234	234	234	234	234	234	234	234	234	234	233	233	233	233	233	232	231	231	230	229	228	225	219	205	156	171	257	251	241	234	243	236	235	232	232	234	222	232	242	246	235	247	247	247	210	241	238	237	237	224	212	206	221	235	239	246	253	261	270	275	277	278	272	257	243	227	213	219	231	237	238	205	230	218	202	216	224	228	232	243	244	245	215	233	225	216	199	195	211	223	223	212	208	220	228	226	222	226	227	225	228	232	232	230	232	234	248	238	232	229	229	234	240	233	236	252	253	248	242	240	245	233	236	256	238	238	236	238	237	234	231	231	235	239	238	236	234	238	248	245	224	239	233	232	240	245	245	244	246	249	248	245	244	247	253	255	252	251	253	255	252	259	260	260	261	262	261	262	246	265	264	264	263	254	220	193	189	189	
234	234	235	234	234	234	234	234	234	234	234	234	234	234	233	233	232	232	231	231	230	228	224	213	163	177	255	246	237	230	238	240	232	230	232	226	237	240	245	248	238	253	216	212	208	241	239	237	239	239	222	213	209	224	236	243	249	256	263	277	284	287	291	282	263	239	224	226	234	238	235	209	230	216	209	218	227	232	236	244	244	236	215	228	226	219	204	193	206	222	231	211	215	224	227	224	224	227	227	228	231	226	230	229	232	236	236	234	233	229	229	233	239	244	244	245	246	246	240	238	241	251	253	253	250	232	231	228	224	220	218	219	223	227	229	229	229	232	233	224	236	231	227	231	232	249	250	250	252	254	254	251	248	253	259	261	259	257	259	263	266	267	267	266	267	267	267	268	270	272	276	281	288	297	313	136	140	140	
235	235	235	235	235	235	234	234	234	234	234	234	234	234	233	233	233	233	232	232	231	230	227	220	185	195	252	243	241	237	247	238	230	228	224	234	237	240	244	247	250	255	211	203	202	243	239	238	238	236	237	221	210	211	233	238	242	244	247	260	283	290	297	305	300	282	267	251	240	239	239	227	228	214	211	221	229	233	237	245	238	229	218	210	229	224	213	196	198	216	225	227	227	226	226	224	224	226	228	229	230	231	232	230	228	230	229	230	231	233	237	233	236	239	250	246	246	243	243	239	237	243	242	241	238	224	221	217	211	204	208	211	204	213	205	197	202	213	237	239	236	239	236	239	248	256	260	261	263	263	261	258	255	260	266	266	262	260	262	266	269	274	268	265	282	282	280	273	268	270	248	293	309	333	1	96	121	121	
235	235	235	235	235	235	235	234	234	234	235	235	234	234	234	234	234	233	233	233	233	232	230	226	212	215	250	246	239	233	244	235	228	225	227	231	235	239	245	245	248	251	252	250	180	194	243	239	237	237	233	234	221	214	217	232	233	234	233	238	254	268	276	292	308	315	316	311	274	245	242	238	229	217	216	225	232	235	243	238	229	224	218	209	215	228	221	202	177	202	214	223	228	224	226	228	225	229	234	236	235	229	221	218	218	212	224	225	227	232	235	227	229	247	241	239	242	240	241	238	239	234	238	227	223	217	207	190	189	187	205	205	208	203	210	208	229	234	238	243	246	248	248	251	257	264	270	273	272	269	264	260	256	270	271	271	264	253	261	263	265	236	240	246	251	244	238	221	228	239	251	292	309	334	359	43	80	80	
235	235	235	235	235	235	235	235	235	235	235	235	234	234	234	234	234	234	234	234	234	234	233	231	227	225	252	255	237	247	241	232	223	223	227	231	235	242	243	243	245	247	247	244	244	245	200	242	240	238	237	231	231	231	215	215	228	226	224	222	226	228	233	240	257	285	308	322	333	253	240	239	211	220	221	230	238	241	235	225	222	222	220	215	211	230	226	215	189	181	198	223	230	220	227	230	230	238	245	244	238	227	220	221	223	222	211	221	222	222	222	230	240	240	232	233	239	235	235	231	231	232	215	179	189	193	200	200	214	211	220	223	226	228	228	232	238	243	246	250	255	258	259	260	264	270	277	283	280	272	260	256	256	271	271	269	274	205	229	238	244	271	274	276	280	284	292	294	264	256	245	214	205	198	194	182	167	167	
235	235	235	235	235	235	235	235	235	235	235	235	235	235	235	235	235	235	235	235	235	235	235	234	234	231	250	257	253	247	240	229	221	225	231	235	238	243	243	250	251	246	245	242	241	241	242	195	240	238	237	236	230	231	230	213	204	214	218	215	211	212	212	213	216	220	228	247	311	21	230	236	230	222	226	238	239	235	227	221	220	222	223	223	216	207	230	223	197	171	193	220	229	231	237	237	242	247	246	245	231	222	221	225	227	226	216	199	209	214	215	222	229	227	222	225	231	232	231	225	218	193	201	202	205	224	225	222	219	225	228	231	234	235	235	238	245	255	261	267	271	270	263	262	266	273	282	280	286	284	212	223	237	266	265	262	269	272	256	252	241	216	208	204	203	203	201	198	202	207	206	207	205	201	199	194	191	191	
235	235	235	235	235	235	235	235	235	235	235	235	235	235	235	236	235	235	235	235	236	236	236	236	236	234	249	256	253	247	239	228	224	229	236	239	240	246	243	249	242	224	243	240	241	241	240	238	237	238	236	235	235	231	230	219	212	202	198	199	203	199	210	209	209	209	211	215	213	179	195	228	229	227	233	236	238	228	223	218	216	219	224	225	220	212	203	225	208	177	178	209	231	235	238	237	250	248	246	234	222	219	224	228	230	228	220	211	204	199	194	201	183	202	210	218	223	226	222	207	190	197	206	203	227	227	227	225	228	229	234	239	242	243	243	245	254	269	285	297	302	307	253	247	252	253	279	280	279	284	277	245	238	214	205	201	200	197	202	208	208	209	207	204	204	203	202	200	201	204	206	208	211	210	209	210	211	211	
235	235	235	235	235	235	235	235	235	235	235	235	235	235	235	235	236	235	235	236	236	236	237	237	237	237	247	255	249	245	237	229	228	233	238	240	240	245	250	245	232	213	241	238	239	238	238	238	162	239	238	237	237	238	229	221	217	211	204	198	192	189	187	187	184	183	207	204	210	199	190	210	223	232	239	234	237	238	236	234	231	231	235	226	222	217	212	226	212	190	179	199	224	235	236	236	246	243	234	233	220	222	232	235	233	227	221	214	210	207	206	208	208	204	198	192	185	191	194	201	204	213	207	220	220	227	231	233	232	235	245	258	260	257	254	254	256	261	282	299	306	316	309	245	241	217	206	201	199	196	194	199	205	207	205	202	201	199	201	204	206	210	213	212	212	211	210	211	211	212	213	214	215	216	216	218	218	218	
235	235	235	235	235	235	235	235	235	235	235	235	235	235	235	236	236	236	236	236	237	237	237	238	239	239	248	255	252	245	237	231	232	236	238	238	247	249	243	235	226	217	209	235	234	235	234	235	237	165	236	239	240	240	240	227	220	216	211	206	202	204	200	197	193	192	209	204	196	208	202	202	218	235	242	234	237	236	234	231	229	229	234	237	236	233	231	227	217	202	186	197	220	234	237	242	243	238	231	228	227	232	240	241	235	227	222	216	210	208	209	211	211	210	207	206	206	203	202	203	207	213	209	213	213	218	225	232	233	234	240	252	258	257	251	243	236	222	211	210	206	201	197	200	203	203	203	201	200	198	196	198	202	207	210	210	209	210	210	211	213	215	216	216	216	216	215	215	216	216	217	218	218	219	220	222	223	223	
235	235	235	235	235	235	235	235	235	235	235	236	236	235	236	236	236	236	236	237	237	237	238	239	240	241	247	252	250	244	239	235	235	236	252	248	243	239	233	229	224	220	213	207	231	227	231	232	232	232	223	236	240	242	242	227	225	222	217	213	210	208	206	203	198	214	210	205	220	218	214	211	229	246	249	250	235	235	231	229	227	228	232	235	235	231	230	227	218	210	194	201	222	236	242	248	244	252	248	244	236	243	247	243	233	225	222	215	209	206	209	212	213	212	209	207	208	207	204	203	203	214	203	215	217	221	225	229	230	226	222	218	217	217	214	214	210	204	205	206	204	201	199	199	202	204	206	208	207	207	207	208	210	212	213	214	214	214	215	216	217	218	218	218	218	218	218	219	219	219	220	221	222	222	223	224	225	225	
235	235	235	235	235	235	235	235	236	236	236	236	236	236	236	236	236	236	237	237	237	238	238	239	240	240	243	245	243	240	238	235	235	237	245	241	237	231	228	225	222	221	219	213	208	224	231	232	231	231	214	233	239	242	243	244	225	220	216	212	209	209	209	225	220	216	212	227	227	227	227	230	246	257	259	259	257	255	252	250	248	247	248	250	249	246	244	242	234	220	204	209	228	242	249	251	252	249	242	242	251	254	252	244	233	225	219	211	204	202	206	212	213	207	211	215	217	218	220	219	218	217	229	233	237	235	231	228	225	222	218	215	213	212	210	209	209	209	210	211	210	209	209	208	209	211	212	212	212	212	212	213	214	215	216	217	217	218	218	218	219	220	220	221	221	221	221	221	221	222	222	223	223	224	225	226	227	227	
235	235	235	235	235	236	236	236	236	236	236	236	236	236	236	236	237	237	237	237	238	238	239	240	240	240	239	237	236	236	235	236	236	239	234	233	232	232	224	222	222	223	222	219	211	205	221	230	229	229	230	206	238	244	245	243	245	243	218	237	234	230	228	225	222	219	232	232	232	234	237	245	259	266	267	266	266	263	258	255	254	253	254	254	253	250	247	245	240	231	214	217	239	253	255	253	258	252	245	256	257	256	253	246	234	209	212	216	215	214	221	220	224	223	246	253	260	275	282	282	277	264	253	246	241	238	233	229	225	223	221	220	218	217	216	215	215	215	215	214	214	214	213	213	214	214	215	215	215	215	216	216	217	218	218	219	220	220	220	221	221	222	222	222	222	222	223	223	223	224	224	224	225	226	227	228	228	228	
235	235	235	235	236	236	236	236	236	236	236	236	236	236	236	236	237	237	237	238	238	239	240	240	241	241	239	235	234	236	238	238	241	244	227	228	228	227	227	226	228	230	230	228	224	220	216	218	227	226	227	229	236	244	248	243	244	242	239	236	233	229	227	225	222	234	232	231	232	237	245	254	265	274	276	275	274	270	265	262	260	260	262	262	261	257	253	252	248	241	231	235	254	267	274	270	263	258	252	255	232	231	234	229	230	227	245	252	262	278	283	283	281	272	263	260	261	269	278	279	275	265	254	245	238	234	232	229	227	225	223	222	221	219	219	218	218	218	217	217	217	216	217	217	217	217	217	218	218	218	219	219	219	220	220	221	221	222	222	222	223	223	223	224	224	224	224	225	225	225	225	226	226	227	228	229	229	229	
235	235	235	236	236	236	236	236	236	236	236	236	236	236	236	237	237	237	238	238	239	239	240	241	242	243	244	241	240	242	243	239	242	245	246	248	248	248	225	225	228	229	228	226	225	223	219	214	208	226	225	227	205	240	247	251	241	251	238	247	245	243	243	242	240	236	233	230	231	238	247	256	264	272	279	282	282	278	273	268	267	269	273	273	270	266	264	265	264	259	257	265	274	276	280	279	273	268	268	269	267	273	285	286	283	276	267	262	264	274	281	281	278	272	264	258	256	257	259	259	256	252	247	242	238	234	232	230	228	226	225	224	222	222	221	220	220	220	220	219	219	219	219	219	219	219	219	219	220	220	220	221	221	222	222	222	223	223	223	224	224	224	224	225	225	225	225	226	226	226	227	227	228	228	229	229	230	230	
236	236	236	236	236	236	236	236	236	236	236	236	236	236	237	237	238	238	238	239	239	240	241	241	243	245	248	250	252	253	251	248	242	244	245	246	246	247	247	247	249	229	227	226	226	226	222	217	233	229	223	227	229	235	245	251	252	252	250	248	247	246	245	244	243	240	235	231	232	239	247	255	263	269	274	281	288	290	287	279	274	271	275	275	275	269	267	268	268	265	263	270	276	274	275	277	276	272	268	268	266	272	283	285	282	277	269	262	259	261	265	266	265	262	259	257	255	254	253	251	249	246	243	240	237	234	232	230	229	227	226	225	224	223	223	222	222	222	221	221	221	221	221	221	221	221	221	221	222	222	222	222	223	223	223	223	224	224	224	225	225	225	226	226	226	226	227	227	227	227	228	228	229	229	230	230	230	230	
236	236	236	236	236	236	236	236	236	236	236	236	236	237	237	237	238	238	238	238	239	240	241	242	243	246	250	255	259	261	259	256	255	255	254	245	244	244	244	245	249	250	249	248	248	248	246	241	237	232	226	221	231	234	242	250	252	253	253	253	252	251	249	247	246	245	241	238	240	247	253	256	261	264	264	268	275	280	280	275	267	265	267	263	260	249	247	245	243	242	246	252	259	265	266	267	268	267	266	264	263	265	269	270	269	266	264	261	259	259	259	259	258	257	255	253	251	250	249	247	245	243	241	238	236	234	232	231	229	228	227	226	225	224	224	223	223	223	223	222	222	222	222	222	222	222	222	222	223	223	223	224	224	224	224	224	225	225	226	226	226	226	226	227	227	227	227	228	228	228	228	229	229	230	230	231	231	231	
236	236	236	236	236	236	236	236	236	236	236	236	237	237	237	237	238	238	238	239	239	240	241	242	243	246	250	255	258	261	261	261	260	259	258	257	256	255	255	255	248	247	245	245	247	247	245	240	242	240	237	236	237	238	242	248	251	253	254	257	261	263	262	260	254	251	248	244	245	248	250	250	247	241	234	233	236	235	234	234	239	242	242	240	238	241	241	239	238	239	243	248	253	257	260	261	261	262	262	261	261	261	262	263	262	261	259	258	256	256	255	254	254	253	251	250	248	247	246	244	243	241	239	237	235	234	232	231	230	229	228	227	226	225	225	224	224	224	223	223	223	223	223	223	223	224	224	224	224	224	224	225	225	225	225	225	226	226	226	227	227	227	227	227	228	228	228	228	229	229	229	230	230	230	231	231	231	231	
236	236	236	236	236	236	236	236	236	236	236	237	237	237	237	237	238	238	238	239	239	240	241	242	243	245	250	253	255	259	263	264	264	262	260	259	259	259	259	259	259	257	255	254	254	252	249	246	244	242	240	240	242	245	248	252	254	254	253	253	257	260	261	259	252	244	238	231	231	232	232	231	227	234	238	223	230	231	231	231	233	236	237	236	237	239	241	241	241	242	245	248	251	253	256	257	258	258	258	259	258	258	258	258	258	257	256	255	254	253	252	251	251	250	249	247	246	245	244	242	241	239	238	236	235	233	232	231	230	229	228	227	226	226	226	225	225	225	224	224	224	224	224	224	224	225	225	225	225	225	225	225	226	226	226	226	226	227	227	227	227	228	228	228	228	229	229	229	229	229	230	230	231	231	231	232	232	232	
236	236	236	236	236	236	236	236	236	236	237	237	237	237	237	238	238	238	238	239	240	241	241	242	243	245	249	250	250	256	262	264	265	264	263	262	262	262	262	262	262	261	260	260	259	257	253	250	247	244	241	240	242	244	246	248	250	249	245	240	236	231	226	225	226	227	224	223	227	228	228	227	224	222	222	226	232	235	235	235	236	237	238	239	239	239	240	241	242	243	245	246	248	251	253	254	255	255	256	256	256	255	255	255	255	254	253	252	251	251	250	249	248	248	247	245	244	243	242	241	240	238	237	236	234	233	232	231	230	229	228	227	227	226	226	226	225	225	225	225	225	225	225	225	225	225	225	225	226	226	226	226	226	226	227	227	227	227	227	228	228	228	228	228	229	229	229	229	230	230	230	231	231	231	232	232	232	232	
236	236	236	236	236	236	236	236	237	237	237	237	237	237	238	238	238	238	239	239	241	241	241	242	243	244	246	247	246	250	256	260	263	264	264	265	265	266	266	266	265	263	263	263	262	260	257	253	249	245	241	238	237	235	233	232	234	236	234	231	229	224	221	221	223	224	224	226	230	231	231	230	229	229	229	231	232	234	234	235	236	237	238	239	240	240	241	242	243	244	245	247	248	249	250	252	252	253	253	253	253	253	253	252	252	252	251	250	250	249	249	248	247	246	245	244	243	242	241	240	238	237	236	234	233	232	232	231	230	229	228	228	227	227	227	226	226	226	226	226	226	225	225	225	226	226	226	226	226	226	226	226	227	227	227	227	227	228	228	228	228	229	229	229	229	229	230	230	230	230	231	231	231	232	232	232	232	232	
236	236	236	236	236	236	236	236	237	237	237	237	237	238	238	238	239	239	239	240	241	241	241	242	242	243	243	243	243	244	248	253	256	259	261	263	264	265	266	265	265	264	263	262	260	258	254	251	247	243	239	236	234	232	230	229	230	231	231	230	230	227	226	226	227	228	229	230	231	232	232	231	231	231	232	232	233	234	235	236	237	238	238	239	240	240	241	242	243	244	245	246	248	249	250	250	251	251	251	251	251	251	251	251	250	250	250	249	249	248	247	247	246	245	244	243	242	240	240	238	237	236	235	234	233	232	232	231	230	229	228	228	228	227	227	226	226	226	226	226	226	226	226	226	226	226	226	226	226	227	227	227	227	227	227	228	228	228	228	228	229	229	229	229	229	230	230	230	230	231	231	231	232	232	232	232	233	233	
236	236	236	236	236	236	236	237	237	237	237	237	237	238	238	238	239	239	240	241	241	241	241	241	242	242	241	240	237	236	239	245	250	253	256	257	258	259	259	259	260	260	260	259	257	255	252	248	245	241	238	237	235	234	233	233	233	232	232	231	230	228	228	228	229	230	231	232	232	232	232	232	232	233	233	234	235	236	236	237	238	238	239	239	240	241	241	242	242	243	244	245	246	247	248	249	249	250	250	250	250	251	251	250	250	250	249	249	248	247	246	245	245	244	243	242	241	240	239	238	236	235	234	234	233	232	231	230	229	229	228	228	227	227	227	226	226	226	226	226	226	226	226	226	226	226	226	226	227	227	227	227	227	227	228	228	228	228	228	229	229	229	229	230	230	230	230	230	231	231	231	232	232	232	232	233	233	233	
236	236	236	236	236	236	237	237	237	237	237	237	238	238	238	239	239	239	240	241	241	241	241	241	241	241	241	238	234	231	235	242	246	250	252	254	255	255	255	256	256	257	258	257	256	254	251	248	244	242	239	237	236	235	234	233	233	232	232	231	230	229	228	229	229	230	232	232	231	232	232	232	232	233	233	234	235	236	237	238	239	239	239	240	241	242	242	242	242	243	244	245	246	246	247	248	249	249	249	250	250	250	250	250	250	249	249	248	247	246	246	244	244	243	242	241	240	239	238	237	236	235	234	233	232	231	230	229	229	228	228	228	227	227	227	227	227	227	226	226	226	226	226	226	226	226	227	227	227	227	227	227	227	227	228	228	228	228	229	229	229	229	230	230	230	230	230	231	231	231	231	232	232	232	232	233	233	233	
