ncols	178
nrows	225
xllcorner	1669333.329241
yllcorner	496308.452995
cellsize	90.000000
NODATA_value	nan
234	233	231	229	227	225	222	219	216	213	211	209	209	210	211	213	217	222	224	228	176	165	156	150	141	127	115	96	297	310	337	286	283	279	272	265	257	249	244	239	234	231	228	227	226	225	225	225	225	226	227	229	230	231	232	230	230	161	151	134	118	97	80	69	59	50	47	45	41	40	42	41	39	315	311	306	301	295	283	279	275	271	267	262	257	252	248	245	243	241	240	239	238	238	238	237	237	237	236	236	235	235	235	235	234	234	235	236	236	236	236	236	236	235	235	235	235	234	234	234	233	233	232	232	232	231	231	230	229	229	228	227	226	225	224	222	220	218	216	215	214	213	212	211	211	210	209	208	208	208	208	208	208	208	209	209	209	209	210	210	211	211	211	211	212	213	214	217	220	223	225	228	229	232	234	242	233	233	
234	233	231	229	227	225	222	219	216	213	211	209	209	210	211	213	217	222	224	228	176	165	156	150	141	127	115	96	297	310	337	286	283	279	272	265	257	249	244	239	234	231	228	227	226	225	225	225	225	226	227	229	230	231	232	230	230	161	151	134	118	97	80	69	59	50	47	45	41	40	42	41	39	315	311	306	301	295	283	279	275	271	267	262	257	252	248	245	243	241	240	239	238	238	238	237	237	237	236	236	235	235	235	235	234	234	235	236	236	236	236	236	236	235	235	235	235	234	234	234	233	233	232	232	232	231	231	230	229	229	228	227	226	225	224	222	220	218	216	215	214	213	212	211	211	210	209	208	208	208	208	208	208	208	209	209	209	209	210	210	211	211	211	211	212	213	214	217	220	223	225	228	229	232	234	242	233	233	
233	232	231	229	226	224	221	218	215	213	211	210	211	212	225	224	224	226	228	232	168	171	166	165	161	157	156	155	241	219	274	272	266	266	261	255	249	244	240	236	233	231	229	228	227	226	226	227	227	228	230	231	232	233	234	232	235	152	155	143	136	124	112	103	94	86	83	82	80	81	86	90	96	291	282	272	262	277	273	270	267	264	260	256	252	248	245	243	241	240	239	239	238	238	237	237	237	236	236	236	235	235	235	235	235	235	235	236	236	236	236	236	235	235	235	235	234	234	234	234	233	233	232	232	231	231	230	230	229	228	228	227	226	224	223	221	219	218	216	215	214	213	212	212	211	210	209	209	209	217	215	214	212	210	210	210	211	211	211	222	220	218	215	213	214	215	217	220	223	225	227	229	230	232	232	232	233	233	
232	231	229	227	225	223	220	217	215	212	212	215	214	231	231	247	252	254	234	240	182	181	175	173	169	167	168	222	205	190	254	249	241	247	244	241	238	236	234	232	231	230	229	229	229	229	229	230	231	232	233	234	235	236	235	235	242	163	167	157	153	147	139	134	133	131	129	131	132	130	132	137	141	239	232	227	221	261	259	257	255	252	249	246	244	243	241	240	240	239	239	238	238	237	237	237	236	236	236	235	235	235	235	235	235	235	236	236	236	236	235	235	235	235	235	235	234	234	233	233	233	232	232	231	231	230	230	229	228	228	227	226	225	223	222	220	218	217	216	215	215	214	214	213	212	211	225	224	222	220	218	235	235	236	235	234	232	231	229	226	240	240	241	240	238	237	236	236	236	235	230	231	231	232	231	232	233	233	
231	230	228	226	224	221	218	216	214	212	213	215	216	235	246	252	256	261	259	245	189	185	180	178	173	172	172	211	197	185	245	238	241	239	237	234	232	232	231	230	229	229	229	230	230	230	231	232	233	235	241	240	240	239	237	237	210	172	172	165	161	156	149	147	146	144	143	145	144	143	145	148	228	219	215	212	207	253	252	250	248	246	243	241	240	239	239	238	238	238	238	237	237	237	237	236	236	236	235	235	235	235	235	235	235	235	236	236	235	235	235	235	235	235	234	234	234	233	233	233	232	232	232	231	231	230	229	229	228	227	226	225	224	222	221	219	217	216	216	215	215	214	214	214	213	229	227	226	224	238	238	239	239	239	241	242	243	243	243	244	245	246	246	245	246	247	249	253	255	237	237	233	233	232	232	234	235	235	
230	229	227	225	223	220	217	215	213	213	214	216	237	237	251	256	261	264	264	193	193	186	183	179	175	175	175	204	191	242	238	230	235	233	231	229	229	229	228	228	228	228	229	230	230	231	232	234	235	236	241	241	241	240	238	241	161	180	174	170	166	161	155	154	153	150	150	151	149	149	151	153	215	209	207	204	248	247	246	245	244	241	239	238	237	237	237	237	237	237	237	237	237	236	236	236	236	235	235	235	235	235	235	234	235	236	236	236	235	235	235	235	235	234	234	234	234	233	233	233	232	232	231	231	230	230	229	228	228	227	226	225	223	222	220	218	217	216	216	215	215	215	215	214	213	229	228	227	239	240	241	241	242	243	244	246	246	246	246	248	249	249	248	248	249	251	254	257	259	260	237	238	234	236	232	236	237	237	
229	228	226	224	221	219	216	214	213	213	215	218	239	239	254	259	263	267	247	198	193	187	184	180	177	177	176	199	187	238	232	224	231	229	227	226	226	226	227	227	227	228	230	230	231	232	234	235	236	243	242	242	242	241	240	246	176	185	176	173	169	163	159	158	156	154	154	154	152	152	154	155	207	203	202	199	244	243	243	242	240	238	236	235	235	235	236	236	236	236	236	236	236	236	236	236	235	235	235	234	234	234	234	234	235	236	236	235	235	235	235	235	234	234	234	234	233	233	233	232	232	231	231	230	230	229	229	228	227	226	225	224	223	221	219	217	216	215	215	215	215	215	215	214	231	229	228	227	241	242	243	243	244	245	247	248	248	248	249	250	251	251	250	251	252	254	257	259	260	261	260	237	233	259	238	237	238	238	
227	227	225	223	220	217	215	213	213	214	218	220	240	252	257	262	265	271	213	200	192	188	185	180	178	178	208	195	184	235	227	231	228	227	225	224	224	225	225	226	227	228	230	230	231	233	235	236	237	243	243	243	242	240	241	249	184	186	178	176	171	164	162	161	158	157	158	156	154	155	156	210	203	200	199	195	240	240	240	239	237	235	234	234	234	234	235	235	235	236	236	236	236	236	235	235	235	235	234	234	234	234	234	234	235	236	235	235	235	235	235	234	234	234	234	233	233	233	232	232	231	231	230	230	229	229	228	228	227	226	225	223	222	220	218	217	215	215	215	215	215	215	215	214	231	230	229	228	242	243	244	244	245	247	249	249	249	250	251	251	252	252	252	252	253	256	259	261	262	261	261	237	234	233	240	238	239	239	
226	225	224	221	219	216	214	213	213	215	218	222	241	254	260	264	268	279	204	200	190	188	185	180	179	179	204	191	235	231	222	228	226	224	223	222	223	223	224	225	226	228	230	231	232	234	236	237	244	243	243	243	243	240	242	160	189	185	181	177	171	165	164	163	159	159	160	157	156	157	158	204	200	198	196	239	238	238	237	236	234	232	232	232	232	233	234	234	235	235	235	235	235	235	235	235	235	234	234	234	234	234	234	234	235	235	235	235	234	234	234	234	234	234	234	233	233	232	232	232	231	231	230	230	229	229	228	227	226	225	224	222	221	219	217	216	215	215	215	215	215	215	215	214	231	230	229	242	243	244	245	245	247	248	249	250	250	251	251	253	254	253	253	253	254	258	260	262	262	262	263	233	235	234	240	239	240	240	
225	224	222	220	218	215	213	212	213	215	220	241	242	257	262	266	271	251	205	197	190	187	184	181	180	179	199	188	233	227	218	226	224	222	221	222	222	223	224	225	226	228	230	231	232	234	236	238	244	244	243	243	243	241	246	181	193	185	182	178	171	167	166	163	160	161	161	158	158	159	159	201	197	196	194	237	236	236	235	234	232	230	230	231	231	232	233	234	234	235	235	235	235	235	235	234	234	234	234	234	234	234	234	234	235	235	234	234	234	234	234	234	234	234	233	233	232	232	232	231	231	230	230	229	229	228	228	227	226	225	224	222	220	219	217	215	215	215	215	215	215	215	215	233	231	230	229	243	244	245	245	246	248	249	249	250	250	250	251	253	254	253	252	252	255	259	261	262	262	263	264	233	235	233	235	238	239	239	
224	223	221	219	216	214	212	212	213	219	221	242	254	259	264	268	276	208	203	194	190	187	183	181	181	208	196	186	232	223	227	224	223	221	220	221	221	222	223	225	227	229	230	231	233	235	237	238	244	244	244	244	242	242	249	189	194	186	183	178	171	168	167	163	162	162	161	158	159	160	205	198	196	194	191	235	235	235	234	232	230	229	229	230	231	231	232	233	233	234	235	235	235	235	234	234	234	234	234	234	234	234	234	235	235	235	234	234	234	234	234	234	234	233	233	232	232	232	231	231	231	230	230	229	229	228	227	226	226	225	223	222	220	218	216	215	214	215	215	215	215	215	214	232	231	230	229	244	245	245	245	246	248	249	250	250	250	249	251	254	254	252	251	251	255	259	260	259	260	263	261	233	234	232	235	239	240	240	
223	222	220	218	215	213	212	211	214	219	223	242	256	261	266	270	276	206	200	191	189	187	182	181	181	204	193	183	229	219	225	223	221	220	220	220	221	222	223	225	227	229	230	232	234	236	238	245	244	244	244	244	242	242	289	194	194	187	183	177	171	169	167	163	163	163	160	159	160	161	201	196	195	193	234	233	234	234	233	231	229	228	229	229	230	231	232	232	233	234	234	234	234	234	234	234	234	234	233	233	233	234	234	235	235	234	234	233	233	234	234	234	233	233	232	232	232	231	231	231	230	230	229	229	228	228	227	226	225	224	223	221	219	217	215	214	214	214	215	215	215	215	213	232	230	230	243	245	246	245	245	247	248	249	249	249	248	247	250	252	250	249	248	250	254	258	257	257	262	232	252	236	236	233	218	242	242	242	
222	221	219	216	214	212	211	211	214	219	241	243	258	264	268	274	234	205	196	190	188	186	182	181	180	200	189	232	225	216	224	222	220	219	219	220	221	222	223	225	227	229	230	233	235	237	238	244	244	244	244	244	242	244	180	198	193	188	183	176	172	170	167	164	164	163	160	160	161	161	199	195	194	192	233	233	233	232	231	229	227	227	228	229	230	231	232	232	233	234	234	234	234	234	234	234	233	233	233	233	233	233	234	235	234	234	233	233	233	233	233	233	233	233	232	232	231	231	231	231	230	230	229	229	228	228	227	226	225	224	223	221	219	216	214	213	213	214	214	214	214	214	233	230	229	229	244	245	245	244	244	246	247	247	247	246	244	243	247	250	246	247	246	247	251	252	247	242	209	210	212	208	235	223	215	243	242	242	
220	219	217	215	213	211	210	212	215	221	242	254	260	265	269	282	208	202	192	189	188	184	182	181	209	197	187	230	221	225	223	221	219	218	219	219	221	222	224	226	228	229	231	233	236	238	245	245	245	244	244	244	243	248	191	201	192	188	183	175	172	170	166	164	165	163	160	161	162	203	197	194	193	190	232	232	233	232	229	227	226	226	227	229	230	231	232	232	233	234	234	234	234	234	234	233	233	233	233	233	233	234	235	235	234	234	233	233	233	233	233	233	233	232	232	232	231	231	231	230	230	230	229	229	228	228	227	226	225	224	222	220	218	216	214	213	213	214	214	214	213	212	231	229	228	228	244	244	243	240	241	243	243	243	244	241	236	235	236	229	235	237	238	239	237	230	227	223	212	209	211	209	210	221	215	243	242	242	
219	218	216	213	211	210	209	212	218	222	242	256	262	267	272	268	207	198	190	188	187	183	182	181	205	193	184	228	218	224	222	220	219	218	218	219	221	222	224	226	228	230	232	234	237	238	245	245	245	245	245	244	243	250	197	202	192	188	182	175	172	170	166	165	165	162	160	161	162	200	195	194	192	232	231	232	232	230	228	226	226	226	227	228	229	230	231	232	233	234	234	234	234	234	234	233	233	233	233	233	233	234	235	235	234	233	233	233	233	233	233	233	233	232	232	232	231	231	231	230	230	230	229	229	228	228	227	226	225	224	222	220	218	215	213	212	212	213	213	212	211	209	228	226	224	239	241	241	238	234	233	235	234	231	222	215	219	223	218	216	226	229	230	233	232	229	228	223	209	208	210	211	211	219	212	244	244	244	
218	217	214	212	210	209	209	212	218	240	251	258	264	269	278	214	205	193	189	188	186	182	182	181	201	190	231	224	215	223	222	219	218	218	218	220	221	223	225	227	229	230	232	235	237	239	245	245	245	245	245	243	243	293	202	201	193	188	180	175	172	169	166	166	165	161	161	162	161	198	194	193	191	232	231	232	231	229	226	225	225	226	227	228	229	230	231	232	233	233	233	233	233	233	233	233	233	233	233	233	233	234	235	234	234	233	233	233	233	233	234	234	233	233	232	232	231	231	231	230	230	230	229	229	228	228	227	226	225	224	222	220	217	214	212	210	210	210	209	209	208	226	223	221	219	232	232	231	227	223	223	224	220	214	208	209	217	224	224	227	234	236	237	240	241	236	229	223	212	208	212	214	214	214	212	216	221	221	
216	215	213	210	208	208	209	213	219	240	253	261	266	271	276	210	199	190	188	187	185	182	181	181	197	187	230	221	225	223	221	219	218	218	218	220	221	223	225	228	229	231	233	236	238	245	245	245	245	245	245	243	246	208	206	199	193	187	179	175	172	169	167	166	164	161	161	162	203	196	194	192	189	231	232	232	231	228	225	224	224	225	227	228	229	231	231	232	233	233	233	233	233	233	233	233	233	233	233	233	234	235	235	234	234	233	233	233	233	234	234	234	233	233	232	232	231	231	231	231	230	230	229	229	228	228	227	226	225	224	222	220	217	214	211	208	207	208	208	207	207	206	218	218	218	224	221	221	220	219	222	222	216	211	211	217	229	240	243	245	246	247	248	249	246	239	230	223	214	212	213	212	210	212	213	217	217	217	
215	214	211	209	207	207	209	217	220	240	256	263	268	276	229	207	194	188	187	187	183	182	182	206	194	184	227	218	224	222	220	218	218	218	219	220	222	224	226	228	230	232	234	237	239	245	246	246	246	246	246	244	250	203	208	198	193	185	178	175	172	168	167	167	163	161	162	162	200	195	193	191	232	231	232	231	230	227	224	224	224	225	227	228	229	230	231	232	233	233	233	233	233	233	233	233	233	233	233	233	234	235	235	234	234	233	233	233	233	234	234	234	233	233	232	232	232	231	231	231	230	230	229	229	228	228	227	226	225	224	223	220	217	214	212	209	208	210	210	211	210	209	207	222	221	218	221	221	219	219	223	223	217	212	218	234	244	249	248	246	247	250	251	248	240	233	229	222	214	214	214	211	210	211	214	215	220	220	
213	212	210	207	205	206	209	216	238	250	258	265	270	286	212	201	190	187	187	186	182	182	181	201	190	231	223	214	223	222	220	218	218	218	219	221	222	225	227	229	230	233	235	238	246	246	246	246	246	246	245	246	253	207	209	198	192	183	177	175	171	168	167	166	162	162	162	206	198	194	192	190	232	232	232	231	229	226	224	223	224	226	227	228	230	230	231	232	233	233	233	233	233	233	233	233	233	233	233	234	235	235	235	234	234	233	233	233	234	234	234	234	233	233	233	232	232	231	231	231	230	230	230	229	229	228	227	227	226	225	223	221	218	215	214	211	211	214	214	214	214	211	209	225	224	221	220	222	217	217	222	223	221	223	238	244	245	242	237	237	241	245	245	241	232	229	225	220	217	218	215	212	222	209	216	218	221	221	
211	210	208	205	204	205	210	216	238	252	261	268	274	279	209	195	187	186	186	185	182	182	181	198	187	230	220	224	223	221	219	218	218	218	219	221	223	226	228	229	231	234	237	239	246	246	246	246	246	246	245	246	255	211	209	198	191	181	177	175	170	168	168	165	162	162	162	203	197	194	191	189	232	232	232	231	228	225	223	223	224	226	227	229	230	230	231	233	233	233	233	233	233	233	233	233	232	232	233	234	235	235	235	234	233	233	233	233	234	234	234	233	233	233	233	232	232	232	231	231	231	230	230	229	229	228	228	227	226	225	224	222	219	216	216	214	212	213	215	216	215	211	210	224	224	224	224	224	219	221	225	227	231	240	243	242	240	234	231	233	237	239	236	232	227	224	223	222	222	223	217	225	221	210	217	220	218	218	
210	208	206	204	203	205	210	218	238	255	264	270	282	214	204	190	186	186	186	183	182	182	206	194	184	226	217	223	222	221	219	218	218	218	220	222	224	226	228	230	232	235	238	240	246	246	247	247	246	246	244	247	311	214	206	198	189	180	177	174	169	168	167	164	162	162	161	201	195	193	190	233	232	233	232	231	227	224	223	223	225	226	228	229	230	230	231	233	233	232	233	233	233	233	233	233	232	232	233	235	235	235	235	234	233	233	233	234	234	234	234	233	233	233	233	232	232	232	231	231	231	230	230	230	229	228	228	227	226	225	224	223	221	219	218	216	213	212	213	215	215	212	211	214	224	226	226	226	226	229	231	236	239	240	239	237	233	231	232	234	237	236	230	227	224	220	220	225	229	230	221	225	243	211	220	218	220	220	
208	206	204	202	202	205	213	235	248	259	267	273	300	210	197	187	185	185	185	182	182	182	202	190	230	222	213	222	221	220	218	218	218	219	220	223	225	227	229	231	233	236	239	247	246	247	247	247	247	247	246	251	228	217	205	197	187	179	176	174	169	168	166	162	162	162	208	199	195	192	189	233	233	234	233	230	226	223	222	223	225	226	228	229	230	230	232	233	232	232	232	233	232	233	233	233	232	232	234	236	235	234	235	234	233	233	233	234	234	234	234	233	233	233	233	233	232	232	232	231	231	231	230	230	229	229	228	227	227	226	225	224	223	222	221	219	216	213	213	215	216	215	213	215	218	227	227	229	232	233	238	238	237	234	233	234	233	235	236	236	238	235	229	226	224	220	223	231	236	236	222	226	242	215	221	218	218	218	
206	204	201	200	201	205	213	235	251	262	270	280	216	206	191	185	184	185	184	182	181	181	198	186	229	219	223	222	221	219	218	218	218	220	221	224	226	228	230	232	235	238	240	247	247	247	248	248	247	247	248	256	223	218	205	196	185	179	177	172	168	168	165	161	161	161	206	198	194	192	188	234	234	235	233	229	225	222	222	224	225	227	229	230	230	231	232	233	232	232	233	233	233	233	233	232	232	232	234	236	235	234	234	234	233	233	234	234	234	234	234	233	233	233	233	233	232	232	232	231	231	231	230	230	230	229	228	228	227	227	226	225	224	223	222	221	218	215	214	217	220	218	216	216	218	227	226	229	232	232	239	237	234	231	231	234	235	236	237	236	237	235	231	228	225	226	236	240	238	236	222	223	241	213	220	219	224	224	
203	202	199	198	199	205	214	235	255	266	273	256	210	199	186	183	184	185	183	181	181	206	193	183	225	215	222	221	220	219	218	219	219	221	223	225	228	229	231	233	236	239	248	248	248	248	249	248	247	246	248	257	223	218	205	194	183	179	177	171	168	166	162	160	160	159	204	197	194	190	236	234	235	235	233	229	225	222	223	225	226	228	230	230	230	232	233	233	232	232	232	233	233	233	233	232	232	232	234	236	235	235	235	234	233	233	234	234	234	234	233	233	233	233	233	233	232	232	232	232	231	231	231	230	230	229	229	228	228	227	226	226	225	224	223	222	220	217	216	218	222	222	219	218	220	222	229	230	231	228	229	231	230	230	233	237	238	239	239	236	235	235	233	230	232	241	246	241	237	235	221	247	241	213	220	223	221	221	
200	199	197	196	199	206	231	245	259	268	279	216	205	192	184	182	183	184	182	181	181	202	189	229	221	212	222	221	219	218	219	219	220	222	224	227	229	230	232	235	238	241	249	249	248	249	249	249	248	246	249	310	225	217	205	193	183	179	175	170	167	163	159	159	159	215	203	196	194	188	239	237	236	235	232	228	224	222	223	225	226	228	230	231	231	232	233	233	232	232	232	232	232	233	233	233	232	233	234	235	235	235	234	234	233	233	234	234	234	234	233	233	233	233	233	233	233	232	232	232	231	231	231	230	230	229	229	229	228	228	227	226	226	225	224	223	222	220	218	219	222	223	221	219	219	221	223	230	229	226	225	228	227	229	234	239	240	242	241	237	234	235	236	238	244	247	244	237	235	232	221	247	239	214	220	218	228	228	
197	196	194	195	199	209	230	249	263	272	299	208	198	186	182	181	183	183	181	181	181	198	186	227	218	223	221	220	219	219	219	220	222	224	226	229	231	232	234	236	240	249	250	250	250	250	250	250	249	248	255	264	229	217	205	191	182	179	175	169	164	156	149	150	148	216	204	194	192	245	243	241	240	237	232	228	223	222	223	225	227	228	230	232	231	232	233	232	232	232	232	232	233	233	233	233	233	232	233	235	236	235	234	234	233	233	234	234	233	233	233	233	233	233	233	233	233	232	232	232	232	231	231	231	230	230	229	229	229	228	227	227	226	226	225	224	223	222	220	220	222	224	222	219	218	221	224	230	229	227	228	229	230	232	236	239	238	238	236	232	232	237	243	245	248	247	244	240	234	227	221	246	236	216	217	224	227	227	
194	193	192	193	199	209	230	254	267	278	222	206	191	183	181	182	183	181	180	181	181	193	183	224	214	222	221	220	219	219	220	222	224	226	229	231	233	234	236	238	242	251	252	251	251	252	253	252	250	251	259	234	227	215	203	185	175	170	165	147	124	112	113	122	122	226	216	201	192	245	245	245	244	241	235	228	223	222	224	226	227	228	230	232	231	232	232	232	232	232	232	233	233	233	233	233	233	232	233	235	235	235	234	234	233	233	234	234	234	233	233	233	233	233	233	233	233	232	232	232	232	231	231	231	230	230	230	229	229	228	228	228	227	227	226	225	224	223	222	220	222	225	225	222	220	222	226	228	229	229	229	231	232	236	237	238	237	234	231	229	234	244	246	244	244	246	247	239	229	223	218	239	233	216	218	225	234	234	
191	190	189	192	199	210	241	259	272	298	209	199	186	181	181	182	183	180	180	181	202	189	227	220	211	221	221	221	220	220	221	224	226	229	232	235	236	237	238	240	244	253	254	253	254	257	259	258	255	253	255	291	271	268	272	280	294	293	276	309	11	38	76	100	107	231	227	226	231	225	241	241	242	241	236	228	223	223	225	227	228	228	230	232	231	232	232	232	232	233	233	233	233	233	233	233	233	232	233	234	235	234	234	234	233	233	233	234	233	233	233	233	233	233	233	233	233	233	232	232	232	232	231	231	231	230	230	230	229	229	228	228	228	227	227	226	225	225	223	222	223	226	227	226	223	224	228	230	230	230	230	230	231	234	234	237	237	231	231	233	240	245	244	241	242	246	246	230	223	218	239	232	240	227	220	234	234	234	
187	186	186	190	200	222	246	265	279	224	206	191	182	181	181	183	182	180	180	181	198	186	225	216	222	221	221	221	221	222	223	226	229	233	236	239	240	242	243	243	252	255	256	257	257	260	263	262	259	256	278	286	274	270	271	272	276	277	269	278	313	351	62	98	92	241	233	227	225	208	238	235	235	237	234	226	222	223	225	227	228	229	231	233	232	232	233	232	232	233	233	233	233	233	233	233	233	233	233	233	235	235	234	233	233	233	233	233	233	233	233	233	233	233	233	233	233	233	232	232	232	232	231	231	231	231	230	230	230	229	229	229	228	228	228	227	227	226	225	223	223	225	227	226	224	224	227	229	230	229	233	231	232	233	234	234	232	228	233	239	241	242	242	240	242	245	243	223	219	239	233	243	239	222	225	247	236	236	
183	182	183	189	201	222	253	272	302	211	199	184	181	180	182	182	180	180	181	206	193	184	221	213	220	220	221	222	223	224	227	230	234	237	240	242	244	246	246	246	253	252	251	251	273	279	260	259	258	257	264	177	279	262	259	253	250	261	262	264	276	294	316	11	34	37	249	239	222	201	239	234	233	233	231	222	219	223	225	227	228	230	232	233	232	233	233	232	232	233	233	233	233	233	233	233	233	233	233	234	235	235	234	234	234	233	233	233	234	233	233	233	233	233	233	233	233	233	233	232	232	232	232	231	231	231	230	230	230	230	229	229	229	229	228	228	227	227	226	224	223	223	224	224	222	222	225	227	227	228	233	232	234	235	235	232	233	235	240	243	244	244	241	239	243	245	242	223	240	233	244	243	238	211	241	250	236	236	
178	178	180	188	202	230	263	283	220	207	190	181	180	180	181	181	178	179	181	201	190	223	216	220	219	220	222	223	225	228	232	235	238	240	243	244	244	244	249	245	244	246	263	264	270	275	257	257	255	5	256	254	246	253	239	237	244	259	259	248	243	253	270	300	354	355	2	251	241	208	240	237	236	235	230	221	217	222	225	227	228	230	232	232	232	233	233	232	232	232	233	233	233	233	233	233	234	234	234	235	235	236	235	234	234	233	233	233	233	233	233	233	233	233	233	233	233	233	233	232	232	232	232	231	231	231	231	230	230	230	230	230	229	229	229	228	228	227	227	226	224	223	224	224	223	222	224	226	227	227	231	232	234	234	236	238	243	245	247	247	247	245	242	241	244	246	242	223	236	229	242	239	232	215	246	240	235	235	
171	172	178	189	205	238	275	318	213	200	185	179	178	179	179	178	177	179	181	197	188	221	214	220	220	221	223	225	227	230	233	236	238	239	242	242	248	245	242	239	263	261	259	272	267	254	254	253	356	252	23	132	251	251	203	223	240	245	235	218	207	208	237	257	290	319	337	247	240	211	241	240	241	239	234	224	218	221	225	228	229	230	231	231	232	233	232	232	232	233	234	234	233	233	233	234	234	234	234	234	235	235	235	235	234	233	233	233	234	234	234	234	233	233	233	233	233	233	233	233	232	232	232	232	231	231	231	231	231	230	230	230	230	230	229	229	229	228	228	227	226	225	227	228	226	225	226	227	227	228	228	233	235	235	236	238	243	244	247	248	247	246	246	245	246	245	238	223	231	242	239	236	227	217	241	250	252	252	
164	164	172	184	217	249	293	214	206	190	179	171	169	171	173	174	176	179	204	195	223	217	221	222	222	223	224	226	228	230	233	234	235	243	242	242	240	237	264	263	263	260	269	276	261	262	252	12	248	0	252	250	37	184	189	202	223	227	216	196	186	193	228	233	256	283	283	90	240	216	175	240	240	239	236	228	220	222	226	228	229	231	231	230	232	234	232	232	233	233	234	234	233	233	233	234	233	233	234	234	233	234	235	235	235	234	233	234	234	234	234	234	234	233	233	233	233	233	233	233	232	232	232	232	232	231	231	231	231	231	231	231	230	230	230	230	229	229	229	229	228	229	230	231	229	228	228	228	228	228	229	228	234	234	235	238	240	242	246	246	244	244	245	245	246	242	233	222	228	240	237	233	225	222	236	247	251	251	
158	158	158	170	233	247	303	257	201	174	165	173	159	168	176	181	183	210	201	226	221	221	221	222	223	223	224	226	229	231	234	236	242	241	238	270	267	260	256	256	269	270	273	282	255	256	253	249	247	249	248	249	340	335	272	224	216	217	218	213	230	254	239	176	150	146	163	206	242	231	184	238	237	236	235	231	224	223	226	229	230	232	232	231	233	234	233	233	233	233	233	233	233	234	234	233	233	234	234	234	233	233	235	235	235	234	233	234	234	234	234	234	234	234	233	233	233	233	233	233	232	232	232	232	232	232	231	231	231	231	231	231	231	231	230	230	230	230	230	230	230	230	231	231	230	229	227	228	228	229	230	229	229	231	234	238	241	242	243	243	241	243	245	243	240	235	228	222	227	221	236	229	222	225	235	248	253	253	
152	152	148	155	237	244	284	294	295	292	296	245	173	177	182	185	213	202	230	225	222	220	220	221	223	223	223	225	228	236	237	237	237	262	268	269	264	258	266	267	269	271	281	289	283	165	90	244	245	7	242	359	336	312	301	274	241	234	236	249	261	268	266	204	151	142	140	188	194	227	203	234	235	235	234	233	229	225	226	229	230	232	232	233	234	235	233	233	233	233	234	233	233	233	233	233	234	234	234	234	233	234	235	235	235	234	234	234	234	234	234	234	234	234	234	233	233	233	233	233	233	232	232	232	232	232	231	231	231	231	231	231	231	231	231	231	230	230	230	230	230	230	230	230	230	229	227	227	228	228	229	230	230	233	236	238	237	237	242	244	241	243	244	238	234	232	225	222	225	220	236	229	224	229	239	251	251	251	
147	147	150	161	225	253	282	284	230	164	168	178	183	183	182	183	206	193	226	222	220	218	217	219	221	221	223	226	229	234	233	256	255	258	262	262	268	267	266	267	270	276	294	255	127	124	239	237	350	239	15	24	331	303	303	263	239	244	242	246	249	255	255	243	213	206	42	152	171	223	212	201	231	233	234	234	233	228	227	228	230	231	232	233	235	235	233	233	234	234	234	234	233	233	232	233	234	234	234	234	234	234	235	235	235	234	234	233	234	234	234	234	234	234	234	234	233	233	233	233	233	233	232	232	232	232	232	232	232	232	232	232	231	231	231	231	231	231	231	231	230	230	230	231	231	230	228	227	227	227	228	228	228	229	238	239	238	238	243	245	240	241	239	231	229	230	222	224	221	241	236	229	215	236	239	242	242	242	
144	144	156	170	218	255	276	204	183	176	178	184	185	186	182	211	199	225	219	217	216	215	214	216	218	220	223	229	230	249	250	252	254	275	282	274	267	267	265	266	271	282	282	257	255	248	239	15	14	24	24	2	323	323	285	260	245	242	227	219	227	241	242	231	214	214	227	171	167	164	216	204	229	231	232	233	233	230	227	229	230	231	233	233	234	235	233	233	233	233	233	234	233	233	233	234	235	234	234	234	234	234	235	235	235	235	234	234	234	234	234	234	234	234	234	234	233	233	233	233	233	233	233	232	232	232	232	232	232	232	232	232	231	231	231	231	231	231	231	231	231	231	231	231	231	231	230	230	229	228	229	228	227	229	237	240	242	243	246	245	241	240	237	228	227	228	221	222	218	240	235	227	227	238	232	244	245	245	
142	143	157	166	182	251	254	210	183	176	177	181	183	182	181	206	196	222	217	214	211	211	213	215	216	218	222	223	241	244	244	259	268	277	282	274	267	267	266	267	273	287	266	263	246	242	240	46	62	73	62	55	76	118	150	223	221	218	206	213	242	245	235	219	200	180	184	180	164	148	215	211	224	230	232	232	233	232	229	230	231	233	234	233	234	235	234	233	233	233	233	234	234	233	234	235	235	234	234	234	234	234	234	235	235	235	234	234	234	234	234	234	234	234	234	234	234	233	233	233	233	233	233	232	232	232	232	232	232	232	232	232	232	232	232	232	232	232	232	232	232	232	232	232	232	232	232	232	232	231	230	229	228	231	234	240	244	245	244	244	240	240	236	225	226	229	222	220	241	239	235	228	223	230	235	251	254	254	
142	143	154	156	155	248	230	211	189	179	180	183	183	177	210	201	192	215	213	210	208	209	212	214	216	217	218	239	241	242	258	264	272	279	283	272	267	268	267	268	275	284	253	62	61	50	85	88	73	64	75	111	125	124	133	153	161	168	178	199	238	232	220	211	202	187	181	177	162	144	215	209	209	214	231	233	233	232	230	231	232	235	236	234	234	235	234	234	234	234	234	235	234	234	235	235	234	234	234	234	234	234	234	234	234	234	235	234	234	234	234	234	234	234	234	234	234	233	233	233	233	233	233	233	232	232	232	232	232	232	232	232	232	232	232	232	232	232	232	232	232	232	232	232	232	232	232	233	233	232	230	229	228	231	234	242	246	247	247	244	241	239	232	223	221	226	224	220	240	238	235	230	220	234	241	251	255	255	
142	142	147	143	143	247	213	203	194	183	181	185	181	175	204	196	219	213	209	206	205	208	211	213	216	218	219	240	239	255	261	267	275	283	285	270	267	270	268	269	278	278	249	125	87	84	110	101	86	69	74	107	106	80	105	146	158	161	164	169	178	188	196	198	195	184	181	186	169	145	125	211	200	203	223	232	234	233	231	231	233	236	238	236	235	235	235	234	235	235	234	234	234	234	235	235	234	234	234	234	235	235	235	234	234	234	235	234	234	234	234	234	234	234	234	234	234	234	233	233	233	233	233	233	233	233	233	233	233	232	232	232	232	232	232	232	232	232	232	232	232	232	232	232	232	232	232	232	232	231	230	228	228	230	233	236	248	251	251	248	244	238	229	223	217	222	225	220	239	236	235	228	222	241	243	253	256	256	
143	142	140	129	129	248	212	202	196	186	185	187	184	176	200	191	215	211	208	204	204	207	210	213	217	218	240	240	238	255	262	269	274	279	277	270	271	273	272	272	285	312	166	128	106	104	110	100	77	67	89	106	104	94	111	148	155	154	157	165	176	189	192	189	188	182	182	200	208	187	137	226	219	221	229	229	232	232	232	232	233	237	240	239	237	236	236	235	235	235	234	234	234	234	234	235	235	234	234	235	235	235	235	234	234	235	235	235	234	234	234	234	234	234	234	234	234	234	233	233	233	233	233	233	233	233	233	233	233	233	233	232	232	233	233	233	233	233	232	232	233	233	233	233	233	233	232	232	232	232	231	229	229	231	233	235	246	248	247	246	243	235	227	223	216	220	225	223	239	235	234	228	233	238	246	254	256	256	
145	143	137	121	121	249	226	207	198	190	189	188	187	181	199	217	212	209	205	203	203	205	209	213	216	219	241	238	252	257	263	269	272	274	271	268	273	275	275	277	293	190	156	128	111	96	91	99	96	104	111	114	124	129	136	149	154	152	156	162	197	212	206	195	194	204	217	230	234	223	191	138	225	229	234	232	232	231	231	230	231	234	239	241	239	238	237	236	235	235	234	235	235	234	235	235	235	234	234	235	235	235	235	234	234	234	235	235	235	234	234	234	234	234	234	234	234	234	233	233	233	233	233	233	233	233	233	233	233	233	233	233	233	233	233	233	233	233	233	233	233	233	233	233	233	233	233	233	233	232	231	229	228	231	233	235	244	243	242	241	240	227	223	221	218	221	224	225	245	239	235	226	236	242	248	255	255	255	
148	146	139	127	138	241	244	211	200	195	194	196	190	208	198	216	212	207	203	202	202	204	209	212	216	239	239	251	253	259	265	270	271	272	271	270	273	275	275	280	307	210	145	114	102	88	93	117	127	132	129	130	137	136	126	135	148	149	155	183	219	205	206	202	201	211	221	230	230	220	200	170	118	231	236	234	233	230	229	227	228	231	236	241	241	239	238	237	236	235	235	235	235	235	235	235	235	234	234	235	235	235	235	234	234	234	235	235	235	234	234	234	234	234	234	234	234	234	234	233	233	233	233	233	233	233	233	233	233	233	233	233	233	233	233	233	233	233	233	233	233	233	233	233	233	233	233	233	233	233	232	229	227	230	233	236	241	241	240	236	234	234	233	232	231	222	222	221	242	236	228	237	241	245	250	257	254	254	
154	151	144	149	153	163	251	215	204	200	197	193	190	204	221	215	211	206	202	201	202	206	210	213	216	237	234	251	254	259	263	266	267	268	268	268	274	280	277	283	275	204	154	121	113	107	124	137	138	136	134	136	129	106	102	133	144	146	147	163	189	194	201	202	199	203	217	224	221	218	211	203	240	288	235	235	231	221	230	229	230	232	236	240	242	241	239	237	235	235	235	235	235	234	235	235	235	234	234	235	235	235	235	235	234	234	234	235	234	234	234	234	234	234	234	234	234	234	234	234	233	233	233	233	233	233	233	233	233	233	233	233	233	233	233	233	233	233	233	233	233	233	233	233	233	233	233	233	233	233	233	232	231	233	236	238	241	241	239	234	233	231	230	229	229	231	230	243	239	226	234	239	242	247	251	255	255	255	
160	156	151	155	147	150	254	219	209	204	201	194	211	200	219	214	210	204	201	201	203	207	213	216	218	237	250	250	254	258	259	261	262	264	265	268	277	289	291	304	163	178	155	137	131	129	137	141	135	134	139	134	118	88	65	108	143	147	147	152	170	188	196	201	209	217	231	227	220	218	215	212	231	251	249	231	232	233	232	230	231	232	235	239	241	243	242	239	236	234	234	235	235	235	235	235	235	235	235	235	235	235	235	235	235	234	234	235	235	234	234	234	234	234	234	234	234	234	234	234	234	233	233	233	233	233	233	233	233	233	233	233	233	233	233	233	233	233	233	233	234	234	233	233	233	234	234	234	234	234	234	235	236	239	242	242	244	250	241	236	234	229	228	226	227	229	241	239	229	235	235	239	244	247	250	258	256	256	
165	162	157	152	138	139	255	222	210	210	200	219	207	222	218	213	210	205	202	202	205	209	214	218	239	237	253	253	256	259	258	258	261	265	267	272	291	302	126	189	177	167	159	150	146	144	143	137	130	143	145	127	109	88	41	123	150	149	142	148	164	178	189	199	212	217	228	228	232	231	226	225	226	232	232	232	233	235	235	239	229	230	232	235	237	240	242	241	237	235	234	235	235	235	235	235	235	235	235	236	236	236	235	235	235	235	235	235	235	234	234	234	234	234	234	234	234	234	234	234	234	233	233	233	233	233	233	233	233	233	233	233	233	233	233	233	233	233	234	234	234	234	233	233	234	234	234	234	234	235	236	237	239	242	244	243	246	251	251	239	234	230	225	222	226	228	241	227	235	237	250	243	245	247	257	255	253	253	
171	168	162	152	130	130	255	228	218	210	202	213	225	221	217	213	210	206	204	205	207	212	217	221	241	239	255	254	257	259	257	257	261	265	268	282	41	152	179	186	187	175	162	158	155	152	145	132	135	148	144	129	133	128	124	142	153	151	145	147	158	168	184	198	202	205	217	225	229	225	220	222	228	236	243	250	234	236	234	232	246	227	229	230	232	234	237	239	236	235	235	236	236	235	236	236	236	236	236	236	236	236	235	235	235	235	235	235	235	235	234	234	234	234	234	234	234	234	234	234	234	234	234	233	233	233	233	233	233	233	233	233	233	234	234	233	233	234	234	234	234	234	234	233	234	234	234	234	235	236	236	237	239	241	242	242	248	252	252	249	232	232	222	240	227	229	230	242	238	240	239	244	245	253	251	250	248	248	
177	175	169	156	129	129	254	227	218	212	225	210	224	221	217	213	210	208	207	207	210	215	219	242	243	257	258	257	257	258	257	257	260	263	271	296	174	177	186	187	192	191	178	161	161	155	143	133	141	145	138	134	144	145	143	149	153	151	147	148	154	160	165	177	191	201	210	214	218	216	212	211	217	223	225	235	238	242	231	233	244	252	244	229	229	229	231	232	232	234	235	235	235	235	235	236	236	236	236	236	237	236	236	236	235	236	235	235	235	234	234	234	234	234	234	234	234	234	234	234	234	234	234	233	233	234	234	234	234	234	234	234	234	234	234	234	234	234	234	234	234	234	234	234	234	234	234	235	235	236	237	238	239	240	240	241	248	253	252	248	245	245	222	237	237	236	245	238	241	241	252	251	249	244	244	246	244	244	
183	182	176	163	139	145	254	235	219	232	221	229	224	220	217	214	211	210	209	210	212	216	220	238	255	258	257	258	258	260	260	261	261	261	267	185	192	185	192	192	187	192	197	186	164	157	142	138	146	147	146	151	155	153	151	153	153	150	148	147	147	152	161	164	171	185	196	204	217	220	221	220	217	214	216	232	230	223	234	227	235	242	240	235	231	231	231	230	228	231	234	235	235	235	235	236	236	236	237	237	237	237	236	236	236	236	236	235	235	234	234	234	234	234	234	234	235	234	234	234	234	234	234	234	234	234	234	234	234	234	234	234	234	234	234	234	234	234	234	234	234	234	234	234	234	234	235	235	236	237	237	238	239	240	239	241	248	252	251	247	245	245	241	236	234	244	235	238	240	248	248	246	243	241	243	248	245	245	
189	189	183	172	154	161	251	248	241	227	214	227	222	219	216	214	212	212	212	212	214	216	237	237	255	257	259	258	257	259	261	263	265	265	210	206	196	181	184	193	190	188	216	216	179	159	149	145	148	150	155	154	153	152	153	156	156	153	148	142	144	152	164	176	175	170	176	185	202	213	215	214	213	217	228	236	234	225	220	232	227	234	237	228	234	234	233	231	229	228	231	235	237	237	237	237	238	238	238	237	237	237	237	237	236	236	235	235	235	234	234	234	234	234	233	234	234	234	234	234	234	234	234	234	234	234	234	234	234	234	234	234	234	234	234	234	234	234	234	234	234	234	234	234	234	235	235	235	236	237	237	238	239	239	239	242	250	253	251	247	245	244	240	235	234	244	245	247	247	246	244	240	241	244	248	253	254	254	
194	194	190	181	168	164	246	250	240	219	232	226	221	218	215	214	213	213	213	214	214	215	234	252	257	257	258	256	255	256	258	260	264	269	201	200	190	183	178	186	224	188	207	214	211	171	157	163	166	166	165	165	166	160	157	158	158	154	149	144	155	163	171	179	184	186	182	175	174	177	189	198	198	203	217	221	220	214	208	212	222	225	232	235	232	233	232	230	229	228	229	234	239	240	240	240	240	240	239	238	237	237	237	237	236	236	235	235	235	235	234	234	234	233	233	232	233	234	234	233	233	234	234	234	234	234	234	234	234	234	234	234	234	234	234	234	234	234	234	234	234	234	234	234	234	235	235	235	236	237	238	238	238	239	240	244	250	253	251	249	245	242	238	235	234	240	241	242	243	242	239	239	244	248	251	254	253	253	
199	200	197	190	185	161	193	251	234	233	230	226	222	218	215	215	215	217	218	218	215	214	231	249	255	259	256	254	254	253	255	257	260	200	199	190	173	164	142	129	147	174	200	243	212	204	196	178	177	173	172	173	174	177	180	177	170	161	159	167	172	165	164	170	179	187	192	190	191	210	187	180	180	178	188	199	203	200	191	182	186	205	221	224	225	220	230	230	230	229	228	232	237	240	241	241	242	241	241	240	239	239	238	237	237	236	235	235	235	235	235	234	234	234	233	233	233	233	233	233	233	233	233	233	233	234	234	234	234	234	234	234	233	233	233	234	234	234	234	234	234	234	234	234	234	235	235	235	236	237	238	238	238	238	240	244	248	249	249	247	243	239	237	236	235	235	240	240	240	238	237	241	245	246	249	253	250	250	
203	204	202	199	193	158	195	250	229	230	228	224	222	219	216	217	218	221	225	225	221	239	231	246	249	255	253	251	251	251	251	251	245	208	198	187	169	151	142	127	230	127	140	192	241	240	238	236	231	226	220	218	183	183	187	187	185	186	186	187	186	182	177	180	182	185	190	189	212	212	212	209	190	181	181	183	178	186	185	175	167	168	177	215	215	213	228	230	232	230	230	233	237	240	241	242	242	242	242	242	241	240	239	238	237	236	235	235	235	235	234	235	234	234	234	233	234	234	234	233	234	233	233	233	233	233	233	233	233	233	233	233	233	234	234	234	234	234	233	233	234	234	234	234	234	234	235	235	236	237	237	238	238	238	240	242	244	246	246	243	240	239	239	237	236	236	237	237	238	236	235	237	235	237	242	248	248	248	
208	209	208	206	197	162	212	250	243	231	228	224	222	220	219	220	222	227	232	234	231	248	237	244	244	251	254	252	249	247	247	244	241	206	195	188	170	161	152	143	137	140	142	152	181	237	235	232	229	225	222	220	217	236	236	204	186	192	191	190	190	190	221	220	219	218	218	216	212	212	210	208	206	201	198	232	199	191	182	178	169	167	171	211	213	211	209	230	230	230	232	237	240	242	242	243	244	244	243	243	243	241	240	239	238	237	236	236	235	235	235	235	235	235	234	233	233	234	234	233	233	233	234	234	234	234	233	234	233	233	233	234	234	234	234	234	234	234	234	234	234	234	234	234	234	235	235	236	237	237	237	237	237	239	240	241	243	244	245	243	242	242	242	241	239	239	240	235	237	235	233	234	237	242	241	249	248	248	
211	212	212	211	203	168	217	251	243	231	228	225	222	221	221	223	226	232	238	241	242	264	249	246	244	248	253	251	247	245	245	244	237	199	191	169	165	159	161	165	178	204	199	189	183	232	229	228	227	241	241	241	240	239	239	240	201	194	237	191	189	189	223	223	222	219	217	215	212	211	209	206	204	201	196	193	236	234	191	182	174	172	173	210	211	215	213	230	230	230	233	237	240	243	243	244	247	248	248	247	246	244	242	240	239	238	237	236	235	235	235	235	235	234	234	233	233	233	233	233	233	233	234	234	234	234	233	233	233	233	234	234	234	234	234	234	234	234	234	234	234	234	234	233	234	235	236	236	237	237	237	237	237	238	239	241	242	242	243	244	245	246	245	244	243	244	244	244	237	235	234	236	239	243	248	253	253	253	
214	215	215	215	209	178	218	250	242	231	228	225	223	222	222	224	227	233	258	264	271	279	269	248	248	235	236	237	240	241	246	245	246	198	177	169	165	178	182	183	206	198	199	234	230	228	226	225	223	242	241	241	241	241	241	242	242	241	237	241	192	187	224	224	222	218	215	215	212	210	209	206	204	200	198	195	237	237	234	230	225	222	175	231	231	212	211	229	229	231	235	238	240	242	242	244	246	248	248	249	250	249	245	241	239	237	236	236	235	235	235	235	235	234	234	234	233	233	233	233	233	234	234	233	233	233	233	233	234	234	234	234	234	233	233	234	234	234	233	233	234	234	234	234	235	235	236	236	237	237	236	237	237	238	239	240	241	241	242	244	246	247	247	245	245	247	247	248	248	247	238	239	240	243	249	255	253	253	
216	217	218	218	215	195	225	249	242	232	229	226	225	224	224	226	229	250	254	255	257	299	273	273	254	240	240	240	240	243	244	246	243	200	197	191	191	185	188	215	203	195	191	233	228	226	225	225	172	218	240	241	241	241	241	243	194	194	238	237	193	184	173	222	223	222	219	216	214	212	209	206	203	199	196	240	238	236	235	232	229	236	237	238	240	240	236	230	228	231	235	238	240	241	240	242	244	244	244	246	249	250	245	240	238	237	236	236	235	235	235	234	234	234	234	234	234	234	232	232	233	234	233	233	233	233	233	234	234	234	234	234	234	233	233	234	234	233	233	234	234	234	234	234	235	235	235	235	236	236	236	236	237	238	239	239	240	240	241	243	244	246	248	247	246	247	247	248	249	247	246	238	240	244	250	257	253	253	
218	219	219	220	218	209	229	246	241	233	229	227	225	225	227	230	234	250	251	273	285	245	244	293	263	242	242	241	242	245	244	246	248	206	198	198	190	189	216	207	201	197	233	227	225	239	242	243	242	239	238	240	240	240	243	193	191	188	183	184	172	139	134	223	221	222	220	217	214	246	245	242	241	241	174	172	238	235	234	239	240	240	240	227	247	251	247	260	258	255	252	236	237	237	238	240	241	242	243	244	247	248	245	240	239	238	237	236	236	235	234	234	234	234	234	234	234	234	233	232	233	233	233	233	233	234	234	234	234	233	233	234	234	234	234	234	233	234	234	234	234	234	234	235	235	235	235	235	235	236	236	236	236	237	238	239	239	239	240	241	242	244	246	246	246	247	248	248	248	247	246	245	242	246	252	257	256	256	
219	220	220	220	219	214	227	243	240	234	230	228	226	228	230	233	245	245	267	276	288	243	242	242	275	243	243	241	243	247	246	248	251	225	214	199	231	220	212	203	235	235	230	223	224	167	155	157	165	236	236	237	238	242	191	187	182	146	116	87	55	325	142	126	118	103	113	154	210	211	246	245	244	245	244	240	237	234	237	184	187	175	243	238	240	251	252	255	259	257	256	256	237	237	238	239	239	241	243	246	248	249	244	241	240	239	237	237	236	235	235	235	235	234	234	234	234	234	233	233	233	232	233	233	233	234	234	234	233	233	234	234	234	234	234	234	234	234	234	234	234	234	234	234	234	235	235	235	236	237	236	236	236	237	238	238	238	239	239	240	241	243	244	244	244	246	249	250	250	248	246	244	244	247	252	256	255	255	
220	220	220	219	218	214	221	235	238	234	230	228	228	230	232	245	243	262	266	283	244	241	239	239	302	242	241	241	243	245	247	251	253	220	207	231	223	218	237	236	236	235	228	223	134	119	135	221	234	234	234	235	239	182	181	141	112	50	237	237	240	318	299	10	238	356	73	129	133	136	141	139	149	161	243	241	237	235	237	185	188	259	232	236	278	245	248	254	257	257	255	255	258	238	239	239	239	240	244	248	250	249	245	240	240	239	238	237	235	235	235	235	234	234	234	233	233	233	233	234	233	233	233	233	233	234	234	234	234	234	234	234	234	234	234	234	234	234	234	234	234	234	234	234	234	235	235	235	236	236	236	236	236	237	237	238	238	239	239	240	241	242	242	242	242	244	248	250	250	248	246	244	244	250	253	254	254	254	
220	220	219	218	217	212	213	228	235	234	230	228	228	228	240	241	262	260	270	294	245	241	237	238	240	278	240	242	245	247	250	253	254	251	236	224	241	240	240	239	238	233	229	235	238	239	237	235	235	234	234	236	153	151	140	89	237	237	239	241	245	328	323	238	353	14	108	132	133	154	141	135	141	157	165	237	234	235	238	180	234	228	231	236	273	277	285	252	256	258	257	253	253	254	258	237	237	239	243	247	250	249	246	243	240	239	238	237	236	235	235	235	234	234	234	233	233	233	233	234	233	233	233	233	233	234	234	234	234	234	234	234	234	234	234	234	234	234	234	234	234	234	234	234	235	235	235	236	236	236	236	236	236	237	238	238	238	239	239	239	240	240	240	240	241	243	246	248	248	246	245	244	245	250	251	253	252	252	
219	219	218	217	215	210	206	219	232	236	231	229	228	240	238	259	261	262	271	261	245	240	238	239	239	293	237	242	246	250	253	255	251	242	230	242	241	241	241	239	236	233	236	238	242	243	241	239	238	236	237	160	173	155	141	13	233	236	238	241	246	336	345	29	21	31	74	76	89	114	126	134	143	156	165	169	167	159	159	277	229	229	231	238	241	273	278	284	251	255	259	256	254	251	249	257	265	269	242	246	247	246	244	243	242	239	237	236	235	235	235	234	234	234	234	233	233	233	233	233	233	233	233	233	233	233	233	234	234	234	234	234	233	234	234	234	234	234	234	234	234	234	234	235	235	235	235	236	236	236	236	236	236	237	237	237	238	239	238	239	239	239	239	240	240	241	245	246	244	242	243	244	245	247	247	252	250	250	
219	218	217	215	212	207	200	211	229	232	230	247	245	256	257	259	260	261	267	257	243	237	237	238	237	299	276	240	247	250	253	255	241	250	245	243	241	241	240	238	237	237	237	238	241	243	242	241	241	242	242	242	242	144	239	236	235	235	236	239	311	328	336	349	19	52	69	54	73	64	80	137	143	154	235	232	230	164	291	229	231	231	236	238	278	277	279	281	284	297	252	254	252	251	250	255	263	265	270	247	248	243	240	240	241	240	236	234	234	234	235	234	233	233	233	233	233	233	233	233	233	233	234	234	233	233	233	233	234	234	233	233	233	234	234	234	234	234	234	234	234	234	234	235	235	235	235	235	235	235	235	235	236	236	237	237	237	238	238	238	239	239	239	240	240	241	243	244	242	241	243	245	246	247	246	251	250	250	
218	217	215	213	209	203	194	203	226	231	247	244	256	257	261	262	263	268	271	255	242	237	236	237	236	293	278	241	247	251	253	241	235	247	244	243	241	239	239	239	239	239	238	238	239	241	241	241	243	244	242	242	243	242	239	237	237	236	236	239	300	316	328	342	4	50	94	99	97	85	121	147	236	234	232	231	230	240	228	231	233	236	237	239	243	281	287	293	294	299	305	300	294	283	246	251	258	260	262	262	248	246	242	240	240	239	237	236	233	233	233	233	233	232	233	233	232	232	232	233	233	233	233	233	232	232	233	234	234	233	233	233	233	234	234	234	234	234	234	234	234	234	234	234	235	235	235	235	235	235	235	236	236	236	237	237	237	237	237	238	238	239	240	240	240	240	242	243	242	242	245	247	247	248	250	251	251	251	
216	215	214	211	207	200	189	196	224	248	246	244	257	259	262	266	268	271	276	247	243	237	236	237	236	289	236	244	249	252	253	251	248	245	243	242	240	238	238	239	240	240	239	239	238	239	242	244	131	24	237	240	241	239	238	237	237	237	237	241	307	242	324	337	348	29	103	113	108	116	137	149	232	231	231	230	167	229	231	234	234	235	236	238	271	280	284	294	306	309	314	315	302	289	279	245	249	250	254	252	249	241	242	242	241	240	239	238	235	233	232	233	231	232	232	232	232	232	232	232	233	233	233	233	232	232	233	234	233	233	234	233	233	233	234	234	234	233	234	234	234	234	234	234	235	235	235	235	235	235	235	236	236	236	237	237	237	237	237	237	238	239	239	240	240	241	241	242	243	244	247	248	247	248	253	257	251	251	
215	214	212	209	204	197	185	189	231	244	245	257	261	262	263	265	268	270	282	248	242	237	236	236	235	293	281	244	250	254	255	251	248	246	244	242	241	240	240	240	239	240	241	240	238	241	138	94	237	235	235	237	238	239	239	239	238	237	238	240	259	311	320	267	319	338	102	102	105	128	142	232	229	229	231	151	227	229	233	236	236	237	237	239	273	285	282	287	311	318	318	311	297	286	276	273	283	240	244	246	239	233	233	233	237	238	238	238	238	235	234	233	231	231	231	231	231	231	232	232	233	233	233	233	233	232	233	233	233	233	234	234	234	234	234	234	234	234	234	234	234	234	234	234	234	235	235	235	235	235	235	235	236	236	237	237	237	237	237	237	238	238	239	239	240	240	241	243	244	245	248	248	248	250	254	258	249	249	
214	212	210	206	201	194	183	186	217	241	244	257	262	265	266	268	270	272	290	247	241	237	235	234	233	300	239	243	249	256	257	253	249	246	244	243	242	242	242	242	242	241	243	242	241	125	107	237	233	235	236	235	236	237	239	240	240	239	239	262	322	309	255	309	308	159	124	90	112	136	231	228	227	228	149	226	225	228	232	234	234	236	261	267	289	291	284	288	311	334	335	312	295	283	276	265	255	270	285	236	232	222	216	221	227	229	230	230	233	235	235	234	231	229	230	231	231	231	232	232	232	233	233	233	232	232	233	233	233	233	234	234	234	234	234	234	234	234	234	234	234	234	234	234	234	235	235	235	235	235	235	235	236	236	236	236	236	237	237	237	238	238	238	239	239	240	241	244	245	245	247	248	249	252	256	257	257	257	
212	211	208	204	199	191	182	183	213	239	257	258	263	265	266	270	273	275	287	246	239	235	233	299	235	237	280	241	248	62	256	253	249	246	246	246	245	243	241	240	242	242	85	242	243	246	243	236	234	235	235	235	236	237	239	240	240	239	262	263	261	257	306	309	149	147	134	120	137	214	227	227	226	225	290	224	225	228	231	232	253	255	259	276	289	289	286	287	293	311	336	333	307	293	294	244	162	142	151	236	225	216	206	212	224	222	222	222	222	225	228	230	229	227	229	231	231	231	231	232	232	232	232	233	233	233	233	234	234	234	234	234	234	234	234	234	234	234	234	234	234	234	234	234	234	235	235	235	235	234	235	235	236	236	236	236	236	236	236	237	237	238	238	238	239	240	241	243	244	243	244	246	248	253	257	257	257	257	
210	209	206	203	197	189	181	178	203	243	259	260	264	266	266	270	275	279	249	245	237	234	233	234	235	233	279	280	247	258	255	251	247	244	245	247	246	243	240	240	18	243	244	243	244	244	241	237	236	236	235	235	236	238	239	252	254	255	257	257	256	254	271	290	155	140	137	142	218	226	224	224	223	300	222	224	225	228	231	252	253	255	273	287	290	288	287	286	287	299	319	329	315	307	333	155	155	146	139	156	169	210	197	201	214	212	220	219	218	217	219	222	224	224	226	230	230	230	231	231	232	232	232	233	233	233	233	233	234	234	234	234	234	234	234	234	234	234	234	234	234	234	234	234	234	235	235	235	234	234	235	236	236	236	236	236	236	236	236	237	237	238	238	238	239	239	240	241	241	242	242	243	245	250	254	256	256	256	
208	207	205	201	195	186	180	173	185	242	261	260	263	265	266	269	274	288	249	243	237	235	234	234	252	279	231	277	248	341	174	245	244	243	75	66	127	243	241	243	244	244	243	242	241	241	239	237	237	237	235	232	233	236	244	247	249	251	289	292	286	280	336	176	159	182	182	223	227	224	222	221	328	220	222	224	226	228	246	247	248	267	273	284	285	285	287	290	291	295	303	321	338	357	122	157	155	143	135	154	166	211	194	189	195	200	198	222	220	218	217	219	220	219	224	229	229	230	231	231	231	232	232	233	233	233	233	233	234	234	235	234	234	233	233	234	234	234	234	234	234	234	234	234	234	234	234	234	234	235	235	235	235	235	236	236	236	236	236	236	237	237	237	238	238	239	239	240	241	241	242	241	242	245	248	252	253	253	
206	206	203	199	193	184	177	167	177	242	262	259	261	263	265	267	271	294	246	240	236	235	234	233	232	232	234	241	252	206	245	239	238	240	243	244	243	242	241	241	242	240	237	235	235	236	236	235	235	241	241	230	231	235	238	269	272	276	279	282	284	8	138	195	205	187	225	220	224	221	218	133	216	218	222	225	227	244	244	246	247	269	273	276	282	283	284	283	284	289	305	358	47	94	142	155	149	140	144	162	170	208	195	189	195	198	229	226	225	221	219	220	219	217	223	229	229	230	231	231	231	232	232	233	233	233	233	233	233	234	234	234	234	233	233	233	234	233	233	234	234	234	234	234	234	234	234	234	235	235	235	235	234	235	235	236	236	236	236	236	236	236	237	237	238	238	239	239	240	241	242	242	242	243	244	246	247	247	
205	204	201	198	191	183	174	160	165	242	262	258	261	263	265	266	269	249	246	237	235	235	234	234	233	232	233	243	337	252	242	103	233	233	237	238	237	236	236	236	237	236	234	233	233	233	232	230	231	232	233	232	230	232	262	264	268	269	263	331	27	120	185	207	200	189	222	216	220	217	214	234	212	215	220	235	238	240	241	242	265	268	275	285	285	285	285	284	282	286	305	49	85	109	138	149	144	138	152	164	211	206	196	190	193	196	232	230	228	224	222	222	220	217	223	228	229	230	231	231	231	232	232	233	233	233	233	233	233	233	233	234	234	234	234	233	233	233	233	233	234	234	234	234	234	234	234	235	235	235	235	234	234	235	236	235	235	236	236	236	236	236	236	237	238	238	238	239	240	240	241	243	245	245	243	243	244	244	
204	203	200	196	189	181	172	153	158	239	259	257	258	261	263	267	272	250	245	236	235	235	234	234	233	232	233	243	233	247	242	244	230	229	230	230	230	231	232	234	236	235	233	232	233	233	232	229	228	229	228	226	228	255	252	250	258	252	252	123	171	179	209	202	198	224	219	220	218	217	214	213	213	216	220	235	236	236	235	260	264	269	274	282	284	283	285	290	291	287	255	132	122	130	139	143	142	137	145	154	210	205	198	194	193	193	233	232	231	227	224	223	220	219	223	228	229	229	230	231	231	232	232	233	233	233	233	233	233	233	233	234	234	234	233	233	233	233	233	233	233	233	234	234	234	234	234	235	235	235	234	234	235	236	236	235	235	236	236	236	236	236	236	237	237	238	238	238	239	239	240	241	244	244	243	243	244	244	
202	201	198	194	188	180	170	153	156	236	251	258	251	253	258	264	273	248	242	234	234	234	243	235	234	233	235	243	297	242	57	233	230	230	229	228	229	231	234	235	235	234	231	228	230	257	232	230	227	226	254	227	251	249	245	266	242	172	184	182	180	180	205	200	227	223	222	221	220	218	216	215	216	218	222	235	235	234	261	264	268	272	276	284	283	282	282	288	301	168	168	155	133	129	131	132	138	137	139	147	209	202	199	198	196	192	236	235	233	230	227	224	220	220	225	229	230	230	230	231	231	232	232	233	233	233	233	233	233	233	233	234	235	234	233	233	233	233	233	233	233	233	233	233	234	234	234	234	235	234	234	234	235	235	235	235	235	235	235	235	236	236	236	236	237	237	237	238	238	238	239	240	241	241	240	243	245	245	
201	200	197	193	187	179	169	161	168	230	250	255	246	246	250	258	274	248	240	232	233	241	236	237	234	233	237	242	244	277	239	234	234	233	230	229	230	233	236	249	250	249	228	227	230	254	257	259	261	223	245	243	243	291	143	193	181	187	187	186	183	212	202	228	227	224	222	222	221	220	219	218	219	221	223	233	233	233	261	265	270	274	282	290	288	286	284	279	218	160	161	155	144	128	116	120	133	142	144	145	210	201	198	201	198	192	237	237	235	232	229	225	222	222	225	230	231	230	231	231	231	232	232	233	233	233	233	233	233	233	233	234	235	235	234	233	233	233	233	233	233	233	233	233	234	234	234	234	234	234	234	234	235	235	234	235	235	235	235	235	235	235	236	236	236	236	237	237	237	238	238	238	239	238	238	242	244	244	
200	199	196	192	186	178	168	167	173	228	252	256	249	245	245	250	250	249	239	231	232	235	237	237	236	235	236	238	284	244	243	238	238	236	232	229	230	234	242	243	291	48	225	226	231	252	254	297	258	220	234	261	281	154	178	210	211	205	197	190	219	210	201	229	228	226	224	223	222	221	221	222	223	224	233	233	231	260	260	261	268	273	281	289	290	289	287	250	220	175	158	148	140	119	108	112	118	134	143	142	212	202	205	209	201	238	237	237	236	233	230	227	224	223	226	230	231	230	231	231	231	232	232	232	232	233	233	233	233	233	233	234	235	235	234	234	234	233	233	233	233	233	234	234	234	234	234	234	234	234	234	234	235	235	234	234	235	235	235	235	235	235	236	236	236	236	236	236	237	237	237	237	237	237	237	241	243	243	
199	198	195	191	185	177	168	167	169	211	251	267	252	248	247	250	251	249	240	233	233	234	293	237	237	235	233	234	237	241	242	241	241	243	232	228	229	234	239	280	304	302	225	225	237	234	257	261	235	228	223	274	177	176	176	196	203	203	199	226	218	209	229	228	228	226	224	224	224	222	223	225	225	232	232	229	226	258	259	260	269	275	286	288	288	286	277	244	231	219	199	142	113	79	98	86	69	94	122	129	213	203	210	215	204	238	237	237	235	234	231	229	227	225	226	230	231	231	231	231	231	231	232	232	232	233	233	233	234	233	233	234	234	234	234	234	234	233	233	233	233	234	234	234	234	234	234	234	234	234	234	234	235	234	234	234	235	235	235	235	235	236	236	236	236	236	236	236	236	236	236	236	237	236	236	239	242	242	
198	197	195	190	185	176	167	167	161	169	252	284	258	255	257	257	253	249	242	235	234	234	237	238	234	292	231	231	232	272	251	259	237	234	233	225	229	235	267	269	272	236	234	226	218	245	237	228	252	219	223	194	190	185	181	190	191	196	230	223	215	232	229	228	228	226	225	225	225	225	225	226	229	228	226	260	258	256	257	266	269	278	291	292	289	273	244	231	231	229	233	252	288	330	116	64	55	75	97	118	213	204	209	216	207	239	238	237	235	233	232	233	232	229	227	230	231	231	230	231	231	231	232	232	233	234	234	234	233	233	233	234	233	234	234	234	233	233	233	233	233	234	234	234	233	233	234	234	234	234	234	234	234	234	234	235	235	235	235	235	235	235	235	235	235	235	235	236	236	236	236	236	236	236	235	238	241	241	
197	196	194	189	184	175	167	165	152	157	255	256	254	276	274	271	265	252	245	236	234	235	238	237	234	231	231	228	228	233	244	260	258	272	228	225	227	247	244	251	230	237	245	242	246	171	173	167	168	189	223	208	200	208	197	193	194	231	224	220	234	231	230	230	230	227	226	227	227	227	227	228	226	226	261	258	256	253	253	265	270	279	289	290	284	209	194	204	220	231	234	243	257	261	214	100	79	60	48	90	218	208	213	215	210	239	238	237	234	232	231	233	235	233	229	230	231	230	230	230	231	231	232	233	233	234	234	233	233	233	234	234	233	234	235	234	233	233	233	233	233	233	233	233	233	233	233	234	234	234	234	235	235	234	235	235	235	235	234	234	235	235	235	234	235	235	235	235	236	236	236	236	236	235	234	238	240	240	
196	195	193	189	184	175	166	161	142	142	256	257	287	277	277	282	286	254	246	236	233	234	236	236	236	234	231	226	226	230	271	258	248	255	231	226	237	271	68	221	215	108	105	215	224	203	197	192	219	218	217	222	217	205	195	234	231	225	220	236	232	230	230	231	229	226	226	227	227	227	227	227	227	262	261	257	255	252	249	264	271	282	292	280	246	189	181	189	211	228	226	227	233	233	210	140	96	80	88	115	218	215	229	226	219	215	235	234	232	229	228	230	233	233	228	226	229	230	230	231	231	232	233	233	233	233	233	233	234	234	234	234	233	234	235	235	234	233	233	233	233	233	233	233	233	233	233	234	234	234	234	235	235	234	235	235	235	234	234	234	235	235	234	234	234	235	235	235	235	235	235	235	235	235	235	238	240	240	
195	194	192	188	183	175	165	157	135	134	249	250	276	274	278	252	256	255	247	235	232	233	235	237	236	234	294	225	225	228	233	254	249	238	229	222	276	155	183	201	196	197	196	228	231	232	228	219	216	214	214	215	211	202	236	231	227	222	237	235	231	228	228	292	225	225	227	227	228	228	229	229	228	262	259	257	255	250	247	264	272	287	283	212	191	184	176	179	192	213	216	218	223	225	213	181	118	119	133	134	220	238	243	231	224	219	234	232	230	228	228	229	232	233	225	221	226	229	230	231	232	233	233	233	233	234	234	234	235	234	234	234	233	233	234	234	234	233	233	233	233	233	233	233	233	233	233	234	234	233	234	234	234	234	234	234	234	234	234	234	235	235	234	234	235	234	234	235	235	234	235	235	235	235	236	237	238	238	
195	194	192	188	183	175	165	155	135	134	240	264	272	274	279	253	256	254	246	236	234	234	235	236	235	231	296	223	225	227	230	243	234	249	248	103	164	172	194	232	235	198	234	229	225	224	220	215	211	208	242	243	243	239	232	228	240	238	235	232	228	225	40	224	224	225	227	228	230	231	231	262	264	263	259	258	253	247	260	263	275	299	216	180	176	177	175	177	182	191	198	197	193	196	195	176	147	139	125	51	350	259	251	227	210	208	233	231	230	228	228	231	235	236	226	219	224	228	230	231	232	233	233	233	233	234	234	235	235	234	233	233	233	233	233	233	234	233	233	233	234	233	233	233	233	233	233	233	233	233	234	234	234	234	234	234	234	234	234	234	234	234	234	234	234	234	234	235	235	234	234	235	235	235	235	236	236	236	
194	194	191	188	183	175	166	155	149	159	227	253	277	276	279	255	258	252	244	237	236	235	235	236	234	227	292	224	225	226	228	234	231	185	184	184	181	169	178	180	235	232	223	238	239	239	240	212	240	240	241	242	240	236	229	241	240	239	236	232	228	225	225	225	225	227	228	229	230	254	257	260	262	261	258	255	249	264	261	264	293	186	186	174	171	173	173	174	175	178	185	185	177	178	181	176	157	131	41	243	309	330	251	235	212	204	208	231	230	227	228	233	240	240	230	221	223	228	231	231	232	232	233	233	233	234	234	235	234	234	234	234	234	234	233	234	235	234	234	233	233	233	233	232	233	233	233	233	234	234	234	234	234	234	234	234	234	234	234	234	234	234	233	234	234	234	234	234	234	234	234	234	234	234	234	235	235	235	
194	194	191	188	183	176	167	157	168	180	217	250	254	271	278	255	255	250	241	236	236	235	235	235	251	299	225	227	226	227	240	236	190	194	204	196	188	180	183	175	225	224	218	213	240	241	242	241	241	241	241	238	236	242	241	240	239	237	236	233	229	226	225	225	227	228	230	231	253	254	256	258	283	286	281	273	269	266	263	263	198	189	211	224	211	173	175	176	177	180	184	188	184	181	184	182	157	16	310	305	316	325	34	231	215	221	229	221	230	229	230	236	240	240	234	223	222	228	231	232	232	233	234	234	234	234	235	235	235	235	235	235	234	234	233	234	235	235	234	233	233	232	232	232	232	233	233	234	235	235	234	234	234	234	234	233	234	234	234	233	234	234	233	234	234	234	234	234	234	234	234	234	234	234	234	234	234	234	
194	194	191	188	183	176	168	160	172	177	190	241	261	263	247	276	252	246	238	236	236	236	236	235	304	227	228	227	227	229	234	239	197	190	188	223	215	202	187	224	218	219	215	240	241	242	243	242	242	241	242	242	243	242	240	238	238	237	234	231	228	225	225	225	226	228	247	249	250	251	251	282	290	300	290	246	267	266	241	245	252	244	233	221	211	210	176	179	181	183	186	194	191	181	230	260	255	253	274	301	334	56	100	230	213	216	224	229	232	231	234	237	239	239	236	224	222	227	230	231	232	232	233	234	235	236	235	235	235	236	235	235	234	233	233	233	234	234	234	233	232	232	232	232	233	233	233	233	234	234	234	233	233	234	234	233	234	234	233	233	233	234	234	234	234	234	234	234	234	234	234	234	234	234	234	234	233	233	
194	194	192	188	183	177	169	162	166	169	169	239	249	255	268	257	247	241	236	236	236	265	235	234	307	231	229	228	232	238	242	245	226	202	191	213	207	235	190	222	216	215	239	241	243	243	244	245	244	243	242	242	243	242	241	239	238	236	233	229	228	227	227	226	227	228	246	244	243	270	275	284	299	310	307	274	239	235	243	248	250	237	242	240	239	168	172	177	188	200	208	209	211	234	245	254	243	237	265	289	296	81	113	116	223	215	217	233	233	234	235	236	237	239	237	225	222	226	228	230	231	231	232	234	235	237	237	236	236	236	235	235	234	233	233	232	233	233	233	232	232	232	232	232	232	232	232	231	231	232	232	232	233	234	234	233	233	233	233	233	234	234	234	234	234	234	234	234	234	234	234	234	234	234	234	233	233	233	
194	194	192	189	184	177	170	163	161	160	165	242	243	245	256	251	244	240	236	240	240	306	231	307	240	233	231	233	242	247	246	246	246	202	213	236	237	238	236	234	235	236	239	241	242	242	245	247	247	245	244	243	243	241	240	238	235	354	232	230	229	230	229	227	227	243	243	241	267	273	280	291	304	308	335	305	245	244	247	247	247	244	243	174	240	141	183	169	182	194	215	241	241	256	239	258	256	250	244	225	194	129	117	126	115	214	232	247	233	212	235	236	238	241	239	228	223	225	229	232	233	234	235	236	237	239	240	239	237	236	235	234	234	233	232	232	232	233	233	232	232	232	232	232	231	231	231	231	232	232	232	232	232	234	234	233	233	233	233	233	234	234	234	234	234	234	234	233	233	233	233	233	233	233	233	233	233	233	
195	194	192	190	185	178	171	163	157	153	157	248	243	240	245	251	241	239	234	234	287	231	295	234	236	234	234	243	251	250	246	248	248	225	238	237	242	243	241	239	237	238	239	239	238	239	240	242	244	242	242	242	242	239	237	347	235	236	236	233	234	233	230	226	241	238	235	263	267	271	284	306	332	346	227	230	240	249	250	247	245	244	244	161	118	88	159	237	184	183	226	258	249	250	256	262	257	229	198	177	166	144	122	111	127	205	220	244	234	227	234	236	241	244	241	234	228	227	230	233	235	236	237	238	239	241	243	243	240	237	234	234	234	233	232	232	233	233	233	232	232	232	232	231	231	232	233	233	233	233	233	233	232	234	234	233	233	233	233	233	233	233	233	233	233	233	233	233	233	233	233	233	233	233	233	233	233	233	
195	194	193	190	186	179	172	163	156	149	154	251	246	239	237	242	240	237	237	250	286	289	264	235	234	231	238	201	253	237	248	250	249	244	239	233	233	245	243	241	240	240	240	238	236	188	239	240	239	235	236	238	239	237	237	236	235	234	235	235	236	234	249	243	238	235	263	262	260	273	324	229	232	234	233	235	69	121	242	242	243	153	148	145	133	235	238	240	240	204	278	268	255	254	264	267	247	208	186	175	165	157	122	105	129	201	199	231	230	239	254	262	239	242	241	236	231	228	231	234	236	236	237	238	239	241	243	243	240	237	234	232	233	232	232	232	233	234	234	233	232	232	232	231	232	233	233	233	233	233	233	233	233	234	234	233	233	233	233	233	233	233	233	233	233	233	233	233	233	233	233	233	233	233	233	233	232	232	
196	195	193	191	187	180	173	164	155	148	155	251	245	241	235	237	245	237	244	263	276	296	233	232	266	305	242	181	186	221	192	248	248	243	237	236	184	227	219	240	241	241	240	237	234	199	212	237	234	228	224	232	233	233	233	232	230	229	230	240	243	243	239	235	231	264	266	262	270	326	135	133	127	129	124	125	120	94	100	119	126	131	148	152	233	233	236	167	285	281	230	276	266	267	274	259	222	188	172	168	158	152	124	113	126	207	219	237	233	236	242	251	256	238	238	234	227	224	227	233	236	235	235	237	239	241	242	241	238	236	233	232	232	231	231	231	232	233	233	233	233	232	232	233	233	233	233	233	232	233	233	233	233	234	233	233	232	233	233	233	233	233	233	233	233	233	233	233	233	233	233	233	233	233	233	233	232	232	
196	196	194	192	187	181	175	165	156	154	167	236	252	243	236	237	236	259	251	243	236	234	232	230	233	240	174	195	178	167	185	243	243	241	239	234	187	237	237	239	215	239	238	236	235	212	239	236	229	223	224	226	226	226	226	225	226	228	236	237	278	319	233	226	225	262	265	280	298	134	143	133	138	144	136	121	81	54	76	101	128	147	161	232	229	233	156	297	284	229	231	281	232	270	271	255	221	188	168	163	153	139	122	115	120	97	40	236	237	231	238	250	252	251	237	233	225	221	222	228	230	231	233	236	239	241	242	240	238	234	232	232	232	232	231	231	232	233	232	232	232	232	232	233	233	233	232	232	232	232	232	232	233	233	233	233	233	233	233	233	233	233	233	233	233	233	233	233	233	233	233	233	233	233	233	232	232	232	
198	196	195	192	188	183	176	166	157	163	172	233	251	244	239	240	237	238	267	239	239	234	231	233	125	214	199	186	175	237	236	129	236	237	239	238	183	234	235	154	238	237	235	235	236	239	239	235	227	220	222	224	225	224	223	223	229	230	234	271	286	353	228	222	257	262	283	323	246	247	239	232	234	139	122	83	225	59	123	226	233	235	232	227	228	159	305	224	226	229	280	279	234	280	263	243	215	190	175	170	165	296	285	238	126	102	65	233	233	225	235	244	245	244	236	232	225	220	222	225	227	228	231	235	238	241	242	240	237	232	228	230	233	233	233	232	232	232	232	232	232	232	232	232	232	232	232	232	232	232	232	232	233	233	233	233	232	232	233	232	232	232	233	233	233	232	233	233	233	233	233	233	233	233	233	232	232	232	
198	197	196	193	189	184	178	167	158	165	167	169	252	239	235	241	242	242	249	242	236	230	232	236	113	168	241	176	238	171	158	232	232	234	141	235	229	177	186	228	237	234	233	234	217	238	238	234	226	220	221	224	225	225	223	222	224	230	258	268	329	310	276	257	255	287	346	105	246	240	234	232	138	122	105	91	97	235	238	236	235	234	231	227	159	182	298	224	227	228	283	230	281	282	264	247	220	194	197	255	269	278	272	220	159	100	38	357	24	231	235	236	241	240	230	229	222	219	220	222	224	228	232	235	239	242	242	241	239	231	226	229	231	233	233	232	231	232	232	232	232	232	232	232	232	232	232	232	232	232	233	233	233	233	233	232	232	232	232	232	232	232	233	233	233	233	233	233	233	233	233	233	233	233	233	233	232	232	
199	198	197	194	190	185	179	169	159	164	159	159	255	240	235	245	249	250	253	240	227	224	226	231	237	148	235	154	237	233	230	149	114	142	226	232	235	231	231	225	234	232	181	234	237	238	237	233	226	222	222	224	226	226	223	220	221	229	254	306	301	271	266	254	275	348	57	114	237	233	233	235	127	127	230	232	235	237	238	237	235	234	233	232	231	196	227	227	228	230	233	234	256	283	262	245	232	234	260	266	265	261	239	209	184	132	76	40	25	343	240	247	253	249	230	228	221	218	218	218	221	228	233	236	241	244	245	246	242	232	227	228	230	232	232	231	231	231	231	231	231	232	231	231	232	232	231	231	231	232	232	232	233	233	233	232	232	232	232	232	233	233	233	233	233	233	233	233	233	233	233	233	233	233	233	232	232	232	
199	199	198	195	191	187	181	171	160	160	151	150	253	259	266	262	259	256	254	242	194	180	161	216	228	224	232	151	234	232	232	192	235	235	233	234	238	241	240	237	234	232	204	234	237	237	236	233	228	224	223	225	227	227	223	217	217	236	265	274	277	274	272	276	305	50	104	210	233	232	234	238	241	238	235	237	239	238	237	237	237	236	235	234	232	231	230	230	231	233	234	235	258	284	256	245	241	248	257	258	257	245	230	211	177	134	105	87	63	360	339	231	244	245	228	228	221	219	218	218	222	229	233	236	242	246	249	248	243	233	228	229	230	231	231	231	231	231	231	231	231	231	231	231	232	232	231	231	231	231	232	232	233	233	233	233	233	232	232	232	233	233	233	233	232	232	232	233	233	233	233	233	233	233	233	232	232	232	
200	200	199	196	193	188	182	173	161	157	147	147	247	269	251	279	265	262	258	254	195	234	199	191	193	222	223	178	231	230	232	235	236	235	236	239	242	242	240	237	236	235	236	237	237	237	236	233	228	225	223	223	225	227	224	217	216	233	262	267	263	262	270	297	247	96	224	235	232	232	234	237	238	238	238	239	240	239	237	235	236	237	233	333	229	230	230	230	230	232	233	235	255	284	261	252	247	248	252	246	237	210	185	164	160	144	104	74	59	25	73	105	232	235	224	227	222	219	218	218	224	231	234	237	242	247	249	246	240	232	227	229	230	231	230	230	230	230	230	230	230	230	230	231	231	231	231	231	231	231	232	232	233	233	233	233	232	232	232	232	232	232	232	232	232	232	232	232	233	232	232	233	233	233	232	232	232	232	
201	201	200	197	194	189	183	175	164	157	150	158	243	261	253	252	272	276	271	203	189	242	239	206	205	194	222	192	226	221	230	233	234	233	234	234	241	241	240	239	240	240	240	239	238	237	237	234	228	225	223	221	224	226	224	219	217	231	252	262	261	266	296	249	99	235	212	194	232	233	234	236	237	238	240	241	240	238	236	234	234	71	230	229	230	230	231	231	231	231	232	234	271	283	265	256	248	245	235	211	189	171	163	159	155	142	110	74	55	37	65	85	13	233	221	211	200	218	217	218	223	229	232	235	240	245	245	241	237	231	226	228	229	230	230	229	229	229	229	230	230	230	230	231	231	230	230	231	231	231	232	232	232	233	232	232	232	232	232	232	232	232	232	232	232	232	232	232	232	232	232	232	233	233	233	232	232	232	
201	201	200	198	195	191	184	176	166	158	162	179	234	255	254	248	262	258	271	181	174	184	199	189	214	219	198	190	221	220	223	226	227	229	67	56	107	237	238	238	240	240	238	237	237	237	236	234	230	227	225	224	226	227	225	221	218	225	243	269	324	223	124	199	188	225	209	198	232	233	234	236	238	239	241	241	238	236	236	233	233	33	229	229	231	231	232	231	231	231	232	244	273	285	267	253	240	228	205	189	183	178	170	160	144	134	115	82	72	76	81	72	57	228	232	228	200	228	248	254	256	257	257	260	263	254	240	238	236	231	227	228	230	230	229	228	228	228	229	230	230	230	231	231	230	230	230	231	231	231	231	231	232	232	232	231	231	232	232	232	232	232	232	232	232	232	232	233	233	233	232	232	232	232	232	232	231	231	
203	202	201	199	196	192	185	178	169	159	172	190	223	253	275	267	255	242	247	241	233	174	184	186	192	212	216	197	222	182	218	219	219	222	227	229	232	193	235	236	237	3	235	233	233	233	232	230	228	228	228	227	227	228	227	224	234	221	241	326	221	208	239	199	187	222	231	232	233	233	235	236	237	240	243	243	239	236	235	232	13	233	230	229	230	231	231	231	229	229	231	239	279	283	268	249	227	210	202	198	193	191	193	180	156	147	174	60	54	59	49	58	94	125	214	201	211	244	246	254	257	255	253	255	258	240	237	235	234	229	226	227	230	230	227	226	227	228	229	230	230	230	230	230	230	230	231	231	230	231	231	232	232	232	231	231	231	232	232	232	232	231	231	231	232	233	234	234	234	234	233	232	231	231	231	231	231	231	
204	203	202	200	198	194	187	179	171	162	166	178	218	245	269	266	246	214	227	230	228	176	183	186	185	221	227	210	197	197	196	211	217	185	214	218	223	228	231	234	237	238	235	231	230	229	228	227	226	226	225	224	224	226	245	240	233	226	250	224	230	240	239	237	230	233	233	235	236	236	236	237	238	240	243	242	238	235	36	233	233	233	231	230	230	231	231	230	229	229	230	236	280	282	265	241	218	216	217	211	211	215	199	177	160	166	180	185	275	344	13	31	38	102	221	221	243	248	248	255	262	258	255	256	245	232	228	233	231	226	224	224	226	227	224	224	225	227	228	229	229	229	229	229	230	230	230	230	230	230	231	232	232	232	232	231	231	232	232	231	231	231	231	231	232	232	233	233	233	233	234	233	232	232	232	231	231	231	
205	204	203	201	199	195	189	179	173	163	158	172	195	246	248	229	223	217	212	197	228	231	175	183	184	187	220	223	197	198	197	197	197	206	206	220	220	221	223	227	233	237	233	228	237	227	246	226	226	226	223	221	224	226	242	236	228	254	254	213	227	237	237	236	235	233	232	234	237	236	233	235	238	241	25	237	43	236	238	237	234	232	229	229	229	230	230	230	228	229	230	233	286	278	242	217	209	216	223	219	226	216	192	178	184	190	150	136	136	285	73	33	347	317	299	234	236	241	245	250	261	267	260	263	236	229	228	220	228	225	224	224	226	225	220	220	224	226	227	228	228	228	228	229	229	229	229	230	230	230	230	231	231	232	232	232	232	232	231	231	231	231	231	231	231	230	230	230	230	231	233	233	232	232	233	233	232	232	
205	205	204	202	200	196	190	181	174	163	159	172	195	253	226	217	216	211	217	200	222	224	224	226	181	185	189	197	195	197	198	202	198	197	201	202	223	204	219	221	226	231	231	226	227	227	226	226	228	229	251	221	226	243	240	231	260	255	269	238	217	237	234	236	235	233	230	230	98	228	226	230	235	239	238	236	235	236	239	240	236	230	228	228	228	229	229	235	228	229	231	231	304	266	225	211	204	214	224	222	218	204	200	213	233	234	218	200	240	235	160	116	341	283	276	274	280	297	238	243	250	259	267	267	250	238	225	214	225	223	223	224	226	223	218	217	221	224	225	227	227	227	228	228	229	229	230	230	230	230	230	231	231	231	231	232	232	232	232	231	231	231	231	230	230	231	231	231	230	231	233	232	231	232	233	233	233	233	
206	206	205	203	201	197	191	183	174	164	160	165	176	256	228	218	217	213	198	196	192	195	222	223	198	196	195	191	193	198	196	229	224	198	203	206	211	215	220	220	225	230	231	228	228	239	226	228	231	248	252	222	227	235	236	235	258	255	244	248	241	236	235	236	236	235	231	229	99	223	222	228	64	48	234	235	235	234	233	233	230	226	226	228	228	229	229	229	228	229	227	282	313	219	203	194	197	213	222	217	212	210	216	227	232	228	214	197	204	224	215	202	207	288	280	280	283	293	294	281	275	283	252	256	248	239	224	209	205	221	222	223	223	220	218	214	218	222	224	226	226	227	227	228	229	229	230	230	230	230	231	231	232	231	231	231	231	231	231	231	231	231	231	231	232	233	233	232	232	233	234	232	230	231	232	232	232	232	
207	207	206	205	202	198	193	185	175	164	158	154	160	258	228	220	219	218	198	195	233	231	191	185	200	192	190	190	190	192	196	218	230	197	201	206	216	220	222	224	230	236	236	231	228	225	225	229	240	291	239	223	231	233	272	276	261	252	253	246	240	236	236	239	240	238	235	232	229	226	226	231	236	235	234	236	237	235	231	346	348	225	225	227	228	229	232	231	229	226	227	327	160	180	188	191	189	199	209	214	218	219	219	224	225	214	195	175	170	201	206	186	174	282	278	277	271	277	290	276	275	276	285	298	288	235	224	210	206	223	221	223	221	218	218	214	215	220	222	224	226	226	227	228	228	229	229	230	230	230	230	231	231	232	231	231	231	231	232	232	231	232	232	232	232	232	232	231	231	233	235	233	230	231	232	232	232	232	
208	208	207	206	204	200	194	187	177	165	156	145	150	258	235	226	225	226	202	192	190	222	217	193	201	192	189	221	189	192	194	230	229	226	195	208	215	220	224	228	234	220	238	233	339	224	226	231	285	225	220	224	225	251	271	296	290	253	249	244	241	236	236	240	243	243	240	235	231	230	231	235	237	237	236	237	237	234	352	229	232	227	223	226	229	229	228	228	226	223	267	78	173	180	186	176	176	180	195	202	202	203	203	211	220	214	199	186	183	169	159	159	153	281	275	273	265	259	273	268	268	263	251	255	255	220	216	205	206	215	205	223	220	217	218	216	213	216	220	222	224	225	226	227	228	229	229	229	230	230	230	231	231	231	232	231	231	232	232	232	232	232	232	232	232	231	232	231	231	233	235	232	230	231	232	232	231	231	
209	209	208	207	205	202	196	189	179	167	154	143	152	250	248	236	227	207	202	193	185	237	236	198	194	192	221	214	208	191	197	229	227	223	219	205	218	222	225	227	231	233	243	266	232	225	229	232	231	294	221	220	221	235	272	246	249	249	247	245	242	237	237	52	241	245	243	235	232	232	234	235	235	235	234	234	339	10	5	224	331	332	221	225	228	230	230	229	225	223	342	161	175	162	170	172	184	171	185	186	186	183	185	194	205	193	179	171	169	160	154	156	210	270	271	266	258	260	265	272	272	260	220	198	183	178	210	203	202	204	195	224	220	217	218	217	213	212	217	221	223	225	226	227	228	228	229	229	230	230	230	230	231	231	232	232	232	232	232	232	232	231	232	232	231	232	232	232	232	234	234	232	231	232	232	232	231	231	
210	210	209	209	207	203	198	191	182	169	155	155	170	244	252	242	224	209	200	191	186	191	235	236	194	192	217	231	229	228	192	193	226	222	217	214	216	220	224	226	228	229	231	247	244	226	230	298	229	222	220	219	220	233	243	244	237	240	243	243	233	237	239	240	241	9	241	236	232	231	232	232	231	231	233	21	60	48	12	219	342	223	222	224	227	229	230	226	266	15	167	161	158	165	172	176	171	185	171	171	185	173	181	178	172	175	167	169	154	176	160	186	246	251	259	259	251	257	260	131	349	148	164	164	163	165	166	200	201	204	197	221	218	216	218	218	214	210	214	219	222	224	225	226	227	228	228	229	229	230	230	230	231	231	231	232	231	231	231	232	232	232	232	231	232	232	232	232	233	234	234	232	232	232	232	232	231	231	
211	211	210	210	209	205	200	193	185	171	158	162	169	233	250	240	240	210	202	198	185	182	238	239	237	221	192	210	228	226	225	223	197	223	218	213	214	219	224	226	228	226	236	235	234	237	263	231	308	221	222	223	226	241	235	236	228	198	89	234	231	230	230	233	237	238	234	230	228	228	229	230	229	231	19	41	28	3	221	222	323	226	224	225	226	226	222	313	37	134	170	242	236	172	173	173	169	184	169	170	184	165	170	166	166	171	168	154	168	160	165	203	249	230	226	252	249	250	225	141	119	155	167	168	167	165	166	195	196	201	197	218	217	216	219	220	216	212	213	218	221	224	225	226	227	227	228	229	229	230	230	230	231	231	231	231	231	231	231	232	232	231	231	231	232	232	232	232	233	234	233	232	232	232	231	232	232	232	
212	212	212	211	210	207	202	196	188	175	160	164	159	161	253	237	223	208	206	197	188	181	181	246	242	237	235	209	202	229	224	222	193	223	217	213	215	220	224	226	230	226	233	230	222	243	243	227	252	241	235	235	234	242	245	230	226	230	209	110	182	45	224	228	233	235	228	221	219	219	223	228	231	248	14	27	20	222	221	223	225	225	223	222	221	239	308	62	140	148	161	162	237	168	169	165	166	170	170	170	166	170	194	171	165	164	163	156	169	172	157	164	238	182	179	233	246	216	172	154	144	153	166	168	168	163	198	194	195	198	196	218	217	219	222	222	219	214	212	216	221	223	224	225	226	227	228	229	229	229	230	230	231	231	231	232	231	231	231	231	232	231	231	231	232	232	232	233	233	233	233	233	232	232	232	232	232	232	
213	213	213	213	211	208	205	199	192	178	163	160	146	145	256	237	227	227	215	205	227	214	245	183	249	244	241	239	195	232	228	218	197	219	221	216	216	220	224	226	231	237	234	229	223	219	223	219	239	221	222	224	239	246	239	230	229	233	239	238	233	230	230	234	238	236	228	221	72	216	220	226	239	356	12	20	2	219	219	220	220	219	216	228	225	300	89	130	148	154	156	156	158	162	165	228	164	175	174	171	167	167	178	203	194	164	158	151	146	150	149	140	167	181	187	165	167	163	165	163	159	155	161	168	171	166	196	195	197	197	195	219	218	221	223	223	221	217	213	216	220	222	223	225	226	227	228	228	229	229	230	230	230	231	231	231	231	231	231	232	232	232	231	231	231	232	232	233	233	232	233	233	232	232	232	232	232	232	
214	214	214	214	213	210	207	202	195	182	166	154	132	129	256	236	230	241	215	239	238	238	239	242	182	184	192	246	200	233	230	226	192	194	194	218	217	220	224	226	232	236	233	227	218	215	212	218	216	228	238	242	244	245	237	233	233	236	3	241	239	237	238	241	244	242	234	228	225	222	222	226	355	24	6	355	225	214	216	236	217	233	228	223	226	148	231	161	162	159	157	162	164	232	162	164	165	169	173	175	169	161	193	207	192	170	156	148	147	149	145	133	127	140	152	148	151	163	167	170	167	160	163	169	173	170	197	197	198	195	193	220	219	222	223	222	221	218	214	215	218	221	223	225	226	227	228	228	229	229	230	230	230	231	231	231	231	231	231	232	232	232	231	231	231	232	233	233	232	232	233	232	232	232	232	232	232	232	
215	215	216	215	214	211	209	205	198	186	169	151	121	118	254	233	230	230	220	237	235	235	236	237	242	243	235	231	234	191	219	213	193	213	219	216	218	222	225	227	232	232	227	220	217	216	218	218	219	218	226	233	248	246	239	236	236	241	245	244	239	236	236	240	246	245	239	234	231	229	227	227	4	19	359	357	214	10	119	174	220	215	214	206	212	182	236	235	232	226	227	167	166	156	227	154	170	173	174	176	171	178	284	237	192	169	155	151	148	148	144	138	141	158	162	160	163	177	177	175	172	164	165	174	176	173	197	198	200	196	191	220	219	221	221	221	220	218	215	214	216	220	222	224	226	227	227	228	229	229	230	230	230	231	231	230	230	230	231	231	231	231	231	231	231	232	233	232	232	232	233	232	231	231	232	232	232	232	
216	216	217	216	215	213	211	207	201	191	175	152	117	114	253	236	232	233	230	238	235	235	235	236	236	234	233	236	239	238	232	226	206	216	216	217	219	224	227	227	229	225	221	217	230	228	229	229	221	226	233	241	247	246	240	237	237	242	247	246	238	233	232	237	244	245	241	237	233	231	229	234	15	8	40	219	201	180	186	184	222	220	227	188	190	189	188	189	231	228	231	231	163	154	139	164	170	235	175	172	247	278	285	243	184	169	158	153	145	140	137	128	139	160	175	169	168	176	179	180	176	170	168	177	178	173	199	198	199	196	190	220	220	221	221	221	221	218	216	214	214	218	222	224	225	226	227	228	228	229	230	230	230	231	231	230	230	230	230	231	231	231	231	231	232	233	233	232	232	233	232	232	231	231	232	232	231	231	
217	218	218	218	217	215	213	210	204	195	181	158	130	136	251	246	235	236	234	242	206	231	223	236	235	233	233	233	233	231	225	219	215	215	217	218	220	225	228	231	224	220	224	223	223	224	226	228	226	232	238	245	241	242	240	236	234	232	232	234	230	227	227	232	238	239	238	234	233	232	232	331	234	85	235	211	165	181	184	231	221	225	235	187	183	183	187	190	187	193	195	232	229	162	161	164	163	165	165	191	266	272	282	219	185	171	158	148	143	133	117	119	142	156	168	169	169	172	176	182	183	178	174	177	178	204	202	200	199	195	223	222	221	222	222	222	222	220	218	215	213	217	221	224	225	226	227	228	229	229	229	230	230	231	231	230	230	230	231	231	231	232	231	231	232	233	232	232	232	233	232	231	231	232	232	232	232	232	
219	219	219	219	218	217	215	212	207	200	187	166	153	166	251	252	237	239	236	244	242	232	225	236	235	233	233	233	231	228	222	215	189	212	216	218	221	225	230	218	213	218	219	232	231	232	218	229	235	239	242	245	235	235	234	232	226	219	238	227	196	217	218	222	223	221	218	219	223	227	294	233	238	180	175	171	177	177	182	229	224	231	237	238	188	185	180	181	184	193	194	231	231	231	230	229	228	163	159	291	288	287	285	222	193	172	161	152	147	132	119	140	154	158	164	165	164	167	171	177	182	181	178	179	178	203	202	202	200	196	223	222	222	222	222	221	221	221	220	216	214	217	221	223	225	226	227	228	229	229	229	229	230	230	230	230	230	230	231	232	232	232	231	231	232	232	231	232	232	232	232	231	231	232	232	232	232	232	
220	220	220	219	219	218	216	214	210	203	193	174	168	168	240	252	238	240	237	237	231	233	230	236	234	233	233	233	231	228	222	215	209	208	214	218	222	229	218	231	228	229	233	234	233	233	228	234	234	242	242	243	243	229	227	231	228	222	174	169	224	202	214	215	217	214	213	218	220	339	230	167	170	166	246	241	170	175	177	227	227	237	240	242	195	196	190	182	185	191	195	193	191	232	231	230	229	231	191	228	230	235	291	235	196	171	160	160	152	135	137	151	158	157	158	160	163	166	167	171	177	178	177	176	205	202	201	200	200	197	223	222	222	222	221	219	219	221	220	215	213	217	221	224	225	226	227	228	229	229	229	229	230	230	230	230	231	231	232	232	232	232	231	232	232	232	232	232	232	232	231	231	231	232	232	232	231	231	
220	220	220	220	220	219	218	216	212	207	197	180	175	160	176	256	238	238	239	242	241	211	232	236	234	233	232	232	230	226	221	213	207	207	213	219	224	229	228	231	226	227	227	233	233	231	236	238	238	246	246	246	245	243	244	233	182	238	174	178	177	186	217	219	218	195	183	181	180	192	199	176	175	175	169	241	245	179	171	229	241	183	248	245	193	236	231	188	187	189	197	222	199	205	207	231	230	299	233	233	234	238	294	222	188	167	161	163	157	147	150	152	156	157	155	158	164	166	164	167	174	176	172	171	204	202	201	198	197	197	223	222	222	222	222	219	218	220	219	215	214	218	222	224	225	226	227	228	229	229	229	229	230	230	230	231	231	231	231	232	231	231	231	232	232	232	232	232	232	231	231	231	231	231	231	231	231	231	
221	221	221	221	221	220	219	217	214	210	200	185	171	144	156	257	253	233	242	238	241	219	230	229	235	235	233	225	230	226	221	213	207	206	213	220	226	225	234	231	227	227	231	232	230	239	234	235	241	237	248	250	249	246	243	203	194	170	163	170	183	209	213	216	217	217	197	191	190	180	185	179	225	218	236	237	240	238	232	235	165	168	176	248	190	231	231	192	186	186	227	227	202	219	228	225	230	232	232	233	234	238	272	201	180	171	168	167	158	149	149	150	155	158	158	162	167	165	162	161	164	170	173	202	202	202	201	201	196	196	196	222	222	223	223	219	218	220	220	218	217	219	222	224	225	226	227	228	229	228	228	229	230	230	230	231	231	231	231	231	231	231	231	233	232	232	232	232	231	231	231	231	231	231	231	232	232	232	
222	222	222	222	222	221	220	219	216	212	203	189	168	130	132	253	250	214	243	233	244	228	203	224	217	237	234	225	230	227	222	214	206	203	213	222	228	220	234	230	227	229	229	232	235	233	235	235	243	251	248	252	252	249	244	204	240	234	232	226	220	168	187	212	211	213	213	193	186	180	184	178	222	232	232	232	232	231	231	236	241	240	241	172	181	237	241	193	191	192	220	221	223	215	220	223	227	228	228	229	230	295	206	194	180	174	169	160	149	143	144	148	153	157	162	168	170	165	162	159	158	163	169	199	200	201	200	200	196	195	195	223	223	224	224	219	218	222	223	222	221	222	223	224	225	227	227	228	228	228	229	229	230	230	230	231	231	231	231	231	231	231	232	233	232	231	232	232	232	232	231	231	231	231	231	233	233	233	
223	223	223	223	223	222	221	220	217	214	207	193	170	123	122	249	247	242	223	236	238	235	222	206	216	202	234	224	230	227	222	214	206	204	214	225	216	216	234	230	227	229	232	233	232	233	234	246	241	251	247	251	250	248	239	230	236	229	224	220	223	228	167	225	226	209	212	200	191	189	191	225	225	231	231	231	229	229	232	233	233	232	234	235	236	167	177	183	231	220	217	218	220	219	219	221	224	225	225	224	279	215	199	193	182	174	166	154	146	145	147	152	158	160	165	170	167	159	156	159	160	163	197	198	200	200	200	199	197	196	226	224	225	226	225	220	218	222	223	223	222	223	224	225	226	227	227	228	228	229	229	230	230	230	230	231	231	231	232	232	231	231	232	233	232	231	232	232	232	232	231	232	231	231	232	233	233	233	
223	223	224	223	223	223	222	221	219	216	210	199	177	141	144	245	240	242	219	243	245	244	233	207	219	201	233	223	229	226	220	215	211	177	213	225	232	214	235	232	228	228	230	232	233	234	233	244	249	248	249	248	246	242	227	244	216	182	224	221	224	224	223	172	226	227	229	203	199	185	193	225	227	230	231	231	230	231	233	232	229	233	232	231	234	237	238	166	183	218	217	218	220	219	218	220	222	224	221	223	211	200	198	190	181	170	161	154	149	148	150	152	155	157	159	165	163	156	150	153	156	195	195	227	227	229	202	200	198	197	227	227	228	228	225	219	217	220	222	222	223	224	225	226	226	227	227	228	228	229	229	230	230	230	230	230	230	231	231	231	231	231	232	232	232	232	232	231	231	231	231	231	231	231	232	233	232	232	
224	224	224	224	224	224	223	222	220	217	213	203	187	178	166	220	250	244	224	239	248	245	236	208	221	202	232	223	228	224	218	216	212	200	203	221	230	232	233	231	228	228	229	230	230	230	246	247	246	245	244	243	241	235	219	248	240	226	220	219	188	228	229	157	188	222	230	205	204	200	185	219	224	227	228	229	229	230	232	231	227	228	232	233	235	235	233	232	171	217	215	217	219	218	216	218	220	222	221	226	187	206	201	191	180	170	168	169	161	147	145	149	148	144	136	136	145	150	153	155	154	194	191	191	230	233	204	203	200	230	231	231	231	229	223	218	217	220	222	223	224	225	226	226	227	227	228	228	229	229	229	229	230	230	230	230	230	230	231	231	231	230	232	232	231	231	232	232	231	231	231	231	231	231	232	233	232	232	
225	225	225	225	225	224	224	223	221	219	215	208	196	185	155	174	253	245	237	238	251	245	242	208	224	202	231	222	213	223	219	217	211	200	197	216	223	225	226	225	225	224	223	222	224	246	241	242	241	240	241	240	237	233	215	244	225	234	232	232	234	181	231	223	186	225	203	206	207	225	218	209	177	227	224	219	209	230	230	230	227	176	226	234	235	236	234	232	227	167	214	216	218	217	216	217	224	225	227	218	199	200	207	204	194	179	172	175	175	164	154	160	160	154	155	148	139	139	149	153	152	192	190	189	190	197	201	200	233	233	235	234	232	229	223	218	218	220	223	223	224	225	226	226	227	228	228	228	229	229	229	230	230	230	230	230	230	230	231	232	231	231	232	232	231	231	232	232	232	232	232	231	231	232	232	233	233	233	
225	225	225	225	225	225	224	224	222	220	217	211	201	185	146	154	252	246	243	240	252	251	247	207	222	201	231	221	209	226	222	219	213	205	175	207	215	218	219	218	217	216	227	240	233	231	233	237	238	239	241	241	237	232	212	246	238	234	234	236	238	197	228	220	209	196	197	204	225	220	208	205	204	190	190	191	204	197	230	230	227	173	176	221	235	234	232	231	229	222	175	212	217	218	218	220	224	223	220	222	214	193	188	189	190	182	175	174	176	173	169	173	170	160	158	161	159	145	143	150	153	194	187	190	192	195	198	197	232	234	236	236	233	228	223	219	219	221	223	223	224	225	226	227	227	228	228	228	229	229	229	230	230	230	230	230	230	231	232	232	231	231	233	232	231	232	232	232	232	232	232	232	231	232	233	233	233	233	
225	226	226	226	226	225	225	224	223	221	218	213	204	186	144	153	251	228	250	254	253	248	236	248	208	202	188	219	207	193	227	223	216	203	188	197	209	214	215	215	227	226	227	218	219	226	233	237	239	240	241	241	240	235	248	244	239	238	238	238	237	234	190	220	164	182	186	219	218	225	206	205	206	199	187	190	187	199	192	230	227	222	173	217	221	233	230	229	228	221	207	205	212	217	220	224	224	220	222	224	214	204	201	197	193	187	182	177	175	174	172	174	176	167	161	164	168	152	139	150	156	199	189	189	192	194	197	235	233	235	237	236	232	227	222	219	219	221	223	224	225	226	226	227	227	228	228	228	229	229	230	230	230	230	230	230	230	231	232	232	231	231	232	232	231	232	232	231	231	231	232	232	231	232	232	232	232	232	
226	226	226	226	226	226	226	225	224	222	219	215	206	190	150	159	247	241	252	254	253	247	231	253	208	203	190	219	203	189	230	226	216	198	185	192	205	212	215	223	220	220	215	213	224	236	240	240	238	238	239	241	242	241	205	212	189	185	240	240	239	237	234	193	179	179	181	215	221	228	204	205	206	202	192	182	188	201	192	178	225	225	231	232	221	233	230	229	228	222	215	144	207	214	221	227	221	224	230	224	214	207	205	205	202	195	189	181	176	173	170	172	176	173	165	168	169	159	144	146	156	201	195	199	200	198	197	234	234	237	240	237	232	227	222	219	219	221	223	224	225	225	226	227	227	228	228	229	229	229	230	230	230	230	230	230	230	230	232	232	231	231	231	232	231	231	232	231	231	231	232	232	231	232	232	232	231	231	
226	226	227	227	227	227	226	225	224	223	221	216	209	194	163	173	241	244	250	253	252	247	252	208	208	199	190	217	200	234	230	227	216	194	179	187	201	211	217	218	215	213	211	217	230	237	238	236	236	238	241	244	245	241	206	241	191	184	183	240	239	239	240	196	183	179	178	199	231	212	206	205	206	205	198	188	180	188	192	180	224	228	229	225	221	217	230	229	228	224	221	213	174	205	222	230	219	224	229	221	213	206	202	200	201	199	192	184	178	175	174	175	179	178	170	168	168	161	152	154	158	201	199	202	202	204	210	232	232	235	237	235	232	228	222	218	219	221	223	224	225	225	226	227	228	228	229	229	229	229	230	230	230	230	230	230	230	231	232	232	231	231	231	232	231	231	232	231	231	231	232	232	231	232	232	232	232	232	
227	227	227	227	227	227	226	225	224	224	222	217	211	198	175	180	240	246	245	248	250	254	249	254	233	212	236	223	212	231	228	225	214	190	172	178	196	210	220	211	212	213	219	230	236	236	235	236	236	239	243	245	243	238	240	239	237	231	184	182	240	245	247	196	206	179	176	193	230	214	208	204	208	210	205	196	187	186	192	226	226	226	224	220	215	214	229	229	229	226	221	211	191	193	220	229	233	238	226	218	214	208	203	199	198	198	192	186	181	179	176	176	182	184	173	169	171	164	160	160	160	203	201	203	208	227	229	230	229	229	230	230	229	227	221	216	218	220	222	224	225	226	226	227	228	228	228	229	229	230	230	230	230	230	230	231	231	231	233	232	231	230	231	232	231	231	231	231	231	231	231	231	231	231	232	232	232	232	
227	227	227	228	228	227	226	226	226	226	222	219	213	202	184	179	229	243	241	242	246	254	244	246	247	245	238	225	209	229	225	222	213	193	171	170	189	210	220	212	217	233	235	240	247	242	238	240	241	243	245	244	240	234	206	215	233	235	228	217	209	175	250	202	182	194	177	186	218	225	228	206	212	218	210	200	192	184	182	179	185	227	226	224	222	214	209	231	231	228	223	213	201	178	216	226	231	240	218	214	214	209	205	201	202	199	192	188	192	181	175	176	184	187	178	175	174	169	167	166	162	163	205	208	224	224	221	224	227	225	226	227	226	225	220	213	214	218	221	223	224	225	226	227	227	227	228	229	229	230	230	230	230	230	230	231	231	232	232	232	231	231	231	232	231	231	231	231	231	231	231	231	231	231	232	232	232	232	
228	228	228	228	228	228	227	228	183	226	222	220	214	205	193	177	205	245	241	241	242	248	259	242	252	237	212	226	208	189	224	220	212	199	178	168	183	209	215	225	229	228	232	239	246	256	251	249	249	249	247	244	237	225	214	206	231	231	235	239	243	244	244	244	241	236	167	175	199	223	227	208	226	215	213	203	195	185	181	174	178	226	226	227	227	221	229	214	203	228	224	212	215	151	197	219	232	222	213	212	212	208	203	204	207	202	195	193	189	190	184	181	184	187	177	174	177	173	170	170	170	170	208	217	222	216	216	219	221	225	225	225	224	223	220	212	210	215	220	222	224	225	226	227	227	227	229	229	229	230	230	230	230	230	230	231	231	232	232	232	231	231	231	232	231	231	231	231	231	231	231	231	231	231	232	232	231	231	
228	228	228	228	229	228	228	229	227	225	224	221	216	208	197	175	201	246	240	240	241	246	251	241	234	217	196	189	209	193	222	219	213	204	185	168	177	202	214	219	225	225	229	234	238	242	243	258	253	251	245	238	225	217	216	216	208	228	228	230	233	235	236	235	233	230	224	215	184	207	228	210	215	218	216	212	202	181	183	183	221	195	221	224	225	222	222	215	200	226	222	212	215	195	188	215	230	215	213	211	211	208	204	206	210	206	201	198	193	186	181	189	188	187	181	178	180	176	172	170	169	171	209	218	219	215	211	213	215	210	225	223	223	224	221	213	209	214	219	222	224	225	226	226	227	228	229	229	229	230	230	230	230	230	231	231	231	232	232	232	231	232	232	232	232	231	231	231	231	231	231	232	231	231	231	231	231	231	
228	228	229	229	229	229	229	228	228	187	225	222	217	211	199	177	197	244	238	238	241	245	246	237	216	207	187	178	172	190	179	220	213	196	190	173	175	195	209	215	223	224	245	246	248	236	236	262	254	248	239	223	214	213	216	219	221	213	225	223	224	226	227	227	225	222	217	215	166	196	222	209	224	228	219	222	213	186	173	173	169	176	180	184	188	216	215	211	197	178	219	209	215	202	169	211	230	226	216	213	208	204	202	206	211	210	207	204	199	192	188	194	193	190	186	222	220	177	175	173	170	169	171	214	215	212	207	210	212	205	225	222	223	225	223	215	209	214	219	222	224	225	226	227	227	228	229	229	229	230	230	230	230	230	231	231	230	231	232	231	231	231	232	232	231	231	231	231	231	231	231	231	231	231	231	232	233	233	
229	229	229	229	229	229	229	229	229	227	224	222	219	213	202	179	197	244	235	237	241	245	246	234	213	204	187	179	174	173	180	171	215	197	195	180	178	191	205	212	222	222	245	245	245	244	242	259	255	248	226	209	208	212	216	220	222	218	210	201	193	222	218	223	222	220	217	217	217	189	204	208	223	225	224	224	215	201	190	183	190	187	176	176	177	176	178	184	196	181	216	209	216	211	142	201	226	214	218	216	211	202	198	201	208	211	210	209	205	198	195	200	197	193	189	186	220	218	179	176	172	170	170	197	219	217	211	214	209	203	225	222	223	226	223	217	211	214	219	222	224	225	226	227	228	229	229	229	230	230	230	230	230	230	231	230	230	231	232	231	231	231	231	231	231	231	231	231	231	231	231	231	231	232	232	232	233	233	
229	229	229	229	230	230	229	229	228	226	224	223	220	215	205	184	198	240	237	240	244	247	248	233	214	207	189	179	174	172	175	170	212	193	199	182	176	186	199	219	218	217	241	240	250	253	235	257	255	239	206	198	200	209	217	223	224	219	213	209	204	196	197	205	224	221	219	219	163	188	202	208	217	228	226	220	211	206	204	195	195	198	193	188	183	182	183	180	174	178	173	212	202	212	206	172	201	215	221	220	216	208	200	198	205	212	211	209	207	200	198	202	199	196	193	189	184	184	185	222	217	168	215	219	216	218	213	212	206	201	225	223	225	226	223	219	214	215	219	222	224	225	226	227	228	229	229	229	230	230	230	230	230	230	230	230	231	231	232	231	230	231	231	231	231	231	231	231	231	231	232	232	232	232	232	232	232	232	
229	229	230	230	230	230	230	229	228	228	226	224	221	217	209	191	202	239	241	244	246	251	250	234	214	206	190	180	173	176	164	163	205	183	198	176	170	179	192	214	213	234	233	237	236	237	242	246	234	211	197	191	195	205	218	225	224	218	212	210	209	203	202	206	196	221	222	221	219	194	207	207	225	220	224	222	210	205	207	202	201	203	201	196	192	192	193	189	183	179	175	172	167	187	216	214	191	211	242	223	220	211	203	198	204	211	212	211	210	207	203	201	197	194	194	191	187	187	187	223	218	214	213	218	193	214	211	210	207	200	226	225	226	226	223	220	217	217	221	223	225	226	227	228	229	229	229	229	230	230	230	230	230	231	231	231	231	232	232	232	231	232	232	231	231	231	231	231	231	232	232	232	232	232	232	231	231	231	
229	230	230	230	230	230	230	229	229	228	227	225	223	219	211	198	204	235	240	248	249	252	251	240	219	208	188	179	173	181	160	219	196	211	192	167	161	171	186	212	213	225	225	224	225	230	233	229	211	202	193	185	190	208	222	222	215	215	210	210	215	209	198	204	229	220	224	221	217	193	205	204	210	220	234	227	211	200	202	201	203	207	206	202	198	196	196	190	184	182	181	181	176	167	158	221	169	202	239	223	223	213	204	200	202	208	211	212	213	214	212	207	200	195	192	191	190	189	188	183	220	170	213	206	191	210	210	211	209	202	225	226	228	226	223	220	218	220	222	224	226	227	228	228	229	229	229	229	230	230	230	231	231	232	232	232	232	231	232	232	232	232	232	231	231	231	231	231	231	232	232	232	232	232	232	231	231	231	
230	230	230	230	231	231	230	230	229	229	228	226	224	220	213	202	205	233	239	250	250	252	251	250	230	220	189	176	197	186	163	217	203	205	189	168	157	165	181	198	217	222	225	225	229	233	232	223	209	203	195	182	185	213	225	214	207	214	209	210	222	219	204	203	199	219	225	221	220	182	201	207	212	221	226	222	210	200	195	194	200	208	208	204	197	193	194	193	187	181	178	175	170	166	166	161	154	191	238	249	225	222	208	204	205	207	209	211	213	215	215	212	209	204	199	198	200	200	198	191	183	200	208	215	214	213	213	212	210	203	224	227	228	226	221	218	219	221	223	225	226	227	228	228	228	229	229	230	230	230	230	231	231	231	231	231	231	231	231	232	232	232	231	231	231	231	231	231	231	231	231	231	231	231	231	231	231	231	
231	230	230	231	231	231	231	230	230	229	228	227	225	221	215	204	203	226	238	250	250	253	251	249	229	226	199	178	204	197	178	215	205	185	193	175	159	162	176	196	216	219	227	233	237	239	233	220	207	204	200	187	188	210	219	208	200	209	207	211	228	226	209	200	202	215	226	222	218	218	190	210	218	224	225	220	209	200	193	189	194	207	214	204	192	187	184	188	186	181	177	173	169	166	165	163	150	171	218	222	224	223	210	205	206	209	211	212	213	214	214	212	212	209	203	202	207	209	208	204	214	207	209	215	215	216	218	215	211	226	226	227	228	225	220	217	219	222	224	226	227	228	229	229	229	230	230	230	230	230	230	231	230	230	231	231	230	230	231	232	232	231	231	231	231	231	231	231	231	231	231	231	231	231	231	231	231	231	
231	231	231	231	231	231	231	231	230	230	229	227	226	222	217	206	200	221	237	252	251	253	251	248	216	224	206	187	174	169	173	161	206	189	200	183	161	158	170	192	216	222	229	235	238	238	231	218	204	202	201	188	191	211	217	209	197	203	206	213	232	231	212	199	218	210	227	222	217	220	181	209	219	230	229	218	203	196	188	182	186	205	219	210	198	192	182	179	183	183	179	177	166	160	158	160	159	162	199	217	248	221	211	203	203	209	213	214	214	215	215	214	214	212	227	220	221	225	225	224	220	215	213	216	218	221	222	218	212	229	228	229	228	226	220	217	220	223	225	227	227	228	229	229	230	230	230	230	230	230	231	231	230	231	231	231	230	231	232	232	232	231	231	231	231	231	231	231	231	231	231	231	231	231	232	231	231	231	
231	231	231	231	231	231	231	231	231	230	229	228	227	224	219	209	198	212	238	253	252	254	250	245	206	211	203	188	172	171	173	166	162	191	205	190	165	160	160	184	208	228	234	240	237	231	224	216	207	204	205	194	194	211	215	207	194	199	207	218	236	236	213	201	214	210	228	223	220	174	184	214	219	227	226	212	203	198	186	176	173	202	232	214	203	198	191	187	188	189	184	174	179	162	161	164	170	165	205	227	254	245	215	210	207	209	213	212	235	233	234	234	233	231	226	223	223	225	227	226	223	219	237	237	239	241	241	239	235	233	232	232	231	228	221	219	221	224	226	227	228	228	229	229	230	230	230	230	230	231	231	231	231	231	231	231	231	232	232	232	231	231	231	231	231	231	231	231	231	231	231	231	231	231	232	231	231	231	
231	231	231	231	232	232	232	232	231	231	230	229	228	225	221	211	197	209	237	252	251	254	251	244	209	202	196	187	180	174	169	165	161	189	207	196	177	156	153	172	202	221	235	238	234	227	221	215	209	208	209	203	199	208	212	205	193	195	207	225	242	237	212	205	201	192	205	225	222	221	199	214	220	229	221	211	203	198	190	181	172	199	223	219	204	199	195	191	187	184	183	181	181	184	179	175	179	172	206	213	252	237	236	234	233	233	234	234	231	230	231	231	230	227	224	223	224	248	248	247	245	242	240	239	240	243	244	243	240	238	236	234	233	229	223	220	223	226	227	228	229	229	229	230	230	230	230	230	231	231	231	231	231	231	231	232	232	232	232	231	232	232	231	231	231	231	231	231	231	231	231	231	231	231	231	231	231	231	
231	231	231	232	232	232	232	232	232	231	231	230	229	227	223	214	196	205	238	248	246	250	248	239	210	196	190	185	183	177	174	173	168	188	176	201	188	171	157	165	195	222	233	239	231	225	219	212	208	208	209	206	200	207	212	206	197	197	211	228	245	234	211	206	210	200	234	227	223	191	210	221	227	227	217	205	198	195	190	181	169	197	220	221	212	203	197	191	185	181	180	180	183	186	184	181	217	219	239	204	250	251	231	231	230	232	233	233	231	229	230	230	227	223	246	247	248	249	249	249	249	247	245	244	244	245	245	244	243	242	239	236	233	229	224	222	224	228	229	229	230	230	230	230	230	230	230	231	231	231	231	231	231	230	231	233	233	232	232	231	232	232	231	231	231	231	231	231	231	231	231	231	231	231	231	231	232	232	
232	232	232	232	233	233	233	232	232	232	232	231	231	229	226	218	198	203	239	244	240	235	233	228	212	201	194	190	184	179	175	176	178	190	179	205	198	186	166	165	189	221	234	242	235	224	220	214	208	208	211	210	199	202	210	202	195	200	223	237	242	226	214	210	219	205	234	226	220	193	222	232	231	224	211	204	200	197	196	185	169	190	218	223	219	209	203	198	194	192	188	181	176	176	174	213	215	218	240	205	216	252	233	231	228	230	231	230	229	228	228	250	249	247	247	249	250	250	250	251	252	251	250	251	251	250	249	247	247	247	244	239	235	231	226	225	227	230	231	231	231	231	230	230	231	231	230	231	231	231	231	231	231	230	231	232	232	232	231	231	231	231	231	231	231	231	231	231	231	231	231	231	232	231	231	232	232	232	
232	232	232	232	233	233	233	233	233	233	233	233	232	231	229	223	207	210	242	245	234	234	230	225	215	207	201	197	194	188	185	183	180	195	186	211	208	198	176	167	186	217	237	244	247	212	214	215	210	210	214	215	200	196	206	202	191	207	227	246	231	221	214	217	225	216	206	222	216	194	219	231	239	214	205	202	200	198	200	195	180	186	214	224	222	211	207	204	202	199	195	187	178	176	212	211	214	216	217	241	246	252	253	234	251	230	230	251	250	250	250	250	249	248	249	252	253	252	252	254	255	255	255	257	260	261	259	255	253	252	250	247	243	238	233	231	231	233	233	232	231	231	231	231	231	231	231	231	231	230	230	231	231	231	231	232	232	232	231	231	231	231	231	231	231	231	231	231	231	231	231	232	232	231	232	232	232	232	
233	232	232	233	233	233	233	233	233	234	234	234	234	234	233	231	228	235	251	251	229	233	233	225	216	210	204	199	196	194	192	191	187	181	191	216	214	208	188	165	181	215	237	252	246	204	202	212	215	216	218	218	197	244	199	206	198	216	240	236	223	217	212	223	231	220	205	219	217	201	218	237	214	205	203	197	194	193	195	196	183	183	212	226	223	214	210	207	205	202	198	190	182	215	213	213	214	216	217	215	239	245	252	255	254	252	252	251	251	251	252	252	251	250	250	252	252	250	252	257	260	259	258	260	265	270	271	266	260	256	254	253	253	248	242	237	235	235	234	233	231	232	232	231	232	231	231	231	231	231	231	231	231	230	230	231	231	231	231	230	231	231	231	231	231	231	231	231	231	231	231	231	231	231	231	232	232	232	
233	233	232	233	233	233	233	234	234	234	235	235	235	236	237	241	180	254	263	255	249	233	237	227	216	209	202	198	194	192	191	190	190	190	186	188	219	214	199	177	180	217	243	262	245	208	202	211	222	222	221	220	197	242	189	205	210	229	241	230	218	216	215	227	235	221	207	192	180	208	226	241	210	205	205	200	195	192	192	196	184	175	206	230	224	215	213	210	210	208	202	195	186	215	215	215	212	217	219	217	215	241	249	256	256	254	254	254	254	254	255	255	254	254	254	253	251	249	252	258	260	259	258	259	264	270	273	272	267	260	255	256	257	255	250	244	239	237	236	234	233	232	231	232	232	231	231	231	231	231	231	231	231	230	230	231	231	232	231	231	231	232	231	231	231	231	231	231	231	231	231	231	231	231	231	231	231	231	
233	233	233	233	234	234	234	234	234	235	235	236	237	238	241	244	249	262	271	265	246	251	241	229	215	210	205	202	197	193	188	184	182	192	198	198	184	220	210	195	190	218	250	267	243	217	198	206	224	227	226	225	206	242	183	201	223	238	239	225	212	215	222	231	237	223	206	193	183	209	238	234	213	205	205	204	200	195	193	200	197	180	199	227	224	217	214	209	208	208	205	198	221	217	217	215	212	238	240	241	242	243	247	255	257	256	256	257	257	257	257	256	256	258	258	256	252	250	252	256	257	256	255	257	261	263	265	265	264	259	254	253	254	255	254	250	244	240	237	235	234	232	231	231	231	231	231	231	231	231	231	231	231	230	230	231	232	232	231	230	231	231	231	230	231	231	231	231	231	231	231	231	231	231	231	232	231	231	
233	233	233	233	234	234	234	234	235	235	236	237	238	240	243	246	254	188	279	272	261	250	257	229	212	209	208	204	199	195	192	187	190	183	192	204	197	182	219	213	206	228	262	270	238	221	203	206	227	228	223	224	216	199	186	227	233	237	232	227	217	220	230	235	238	227	207	190	180	211	238	236	218	207	205	205	203	202	195	196	198	188	223	221	225	222	218	214	212	207	202	226	220	218	217	214	236	238	242	244	246	246	247	252	257	257	258	260	262	262	259	256	256	258	259	257	254	252	252	253	252	252	252	255	257	258	257	255	254	253	251	250	249	250	250	251	249	245	241	238	236	233	231	231	231	231	231	231	231	230	230	231	231	230	230	231	231	231	231	231	230	231	231	230	231	231	231	230	231	231	231	231	232	231	232	232	232	232	
233	233	233	234	234	234	234	235	235	236	236	237	239	241	244	249	256	267	149	282	270	250	255	231	215	209	206	201	197	194	193	199	192	184	227	233	236	230	221	224	223	246	274	268	267	259	250	243	253	229	220	221	216	200	227	228	250	233	219	219	220	223	229	236	236	229	211	240	169	215	244	239	224	214	208	212	211	203	199	198	197	229	220	235	247	247	242	240	223	215	232	225	221	218	216	235	236	240	245	248	251	251	250	253	257	258	259	261	264	264	260	255	254	255	256	255	254	254	254	253	252	253	255	256	256	254	251	248	246	246	247	248	248	247	246	247	250	250	246	241	238	234	232	232	232	232	231	231	230	230	230	231	230	230	230	231	231	231	232	231	231	231	231	231	231	231	231	231	231	231	231	231	232	231	231	232	232	232	
233	234	234	234	234	235	235	235	235	236	237	238	240	242	245	249	255	263	273	165	278	272	251	245	218	215	210	203	199	193	197	195	191	229	223	228	235	233	227	235	238	258	276	280	276	259	253	249	257	261	257	253	252	243	225	240	258	228	258	250	251	255	230	235	237	234	222	203	176	211	242	242	231	221	211	209	210	206	205	234	232	228	222	230	240	242	242	242	245	241	234	229	226	223	239	238	239	242	246	250	253	254	253	255	257	258	258	258	260	260	256	251	250	250	250	250	251	252	253	254	255	258	260	260	258	255	250	245	243	243	243	245	247	246	243	243	246	249	249	243	239	235	233	232	232	231	230	230	230	230	230	231	230	230	230	231	231	231	232	231	231	231	231	231	231	231	231	231	231	231	231	231	231	231	231	231	231	231	
234	234	234	234	234	235	235	235	235	236	237	238	240	242	245	248	254	262	270	133	286	275	269	239	221	219	212	204	211	205	195	195	234	227	222	238	245	246	245	245	251	266	276	279	279	276	274	275	278	263	257	251	263	258	255	254	261	260	253	245	247	255	258	262	236	233	224	208	187	228	238	240	230	220	211	207	241	237	233	232	232	230	228	253	258	260	242	244	246	244	238	248	246	245	244	244	244	246	248	250	252	252	252	252	253	255	255	253	253	253	251	248	247	246	247	249	249	250	249	263	265	270	277	281	282	279	251	246	244	242	241	244	246	244	241	240	241	242	243	242	239	235	233	232	231	230	229	228	230	230	231	231	231	230	231	231	231	230	231	231	231	231	231	231	231	231	231	231	231	231	231	231	231	231	231	231	231	231	
234	234	234	234	234	235	235	235	235	236	237	238	240	242	244	248	253	259	266	298	313	283	271	262	231	230	224	216	211	207	198	232	229	225	235	242	248	249	248	252	261	271	276	279	282	283	282	281	283	282	275	270	268	268	271	276	261	259	253	246	246	255	260	260	261	259	254	248	237	229	252	263	231	251	246	242	238	236	232	230	250	251	252	254	259	264	266	266	264	261	255	251	249	247	246	246	247	249	250	250	249	248	247	249	251	253	252	252	251	250	248	246	244	243	245	261	263	263	262	264	268	273	276	277	277	276	276	279	279	243	239	240	242	240	239	240	240	238	236	237	237	235	232	231	231	230	229	229	231	231	230	230	230	230	231	231	231	230	230	231	231	231	231	231	231	231	230	230	231	231	231	231	231	231	231	231	231	231	
234	234	235	234	234	235	235	235	236	236	237	239	241	242	244	239	247	256	261	286	321	292	274	265	260	256	226	220	216	209	234	225	235	236	239	246	250	251	253	257	265	273	276	278	282	286	287	286	286	286	282	278	276	277	281	281	279	276	273	270	273	278	279	277	260	258	255	249	240	235	251	260	256	248	244	241	237	253	252	252	254	256	256	256	259	266	273	274	271	266	261	256	251	247	246	246	247	249	251	250	248	245	244	247	250	250	250	250	251	251	249	246	242	256	254	255	257	257	257	260	266	272	275	276	276	276	279	282	279	283	241	264	251	234	235	239	240	237	234	233	233	230	228	228	229	228	229	230	231	230	230	230	230	230	231	231	230	230	230	231	231	231	231	230	230	230	230	230	231	231	231	231	230	230	230	231	230	230	
234	235	235	234	234	235	235	235	236	236	237	239	232	242	235	239	244	253	256	268	304	298	279	268	262	261	225	254	249	242	231	233	232	234	240	247	251	252	254	258	264	269	273	275	278	282	286	286	287	289	288	284	283	284	285	284	280	278	277	277	280	284	285	283	280	277	273	268	261	261	251	257	254	247	243	254	252	252	254	258	260	261	260	258	258	264	275	279	275	270	266	261	255	249	246	244	244	246	249	250	249	245	243	245	246	261	246	259	260	263	267	268	261	254	252	252	253	253	271	274	284	295	308	271	271	272	278	284	286	294	249	242	268	257	254	254	240	236	233	232	231	227	224	225	226	227	228	229	230	229	229	230	230	230	231	231	230	230	230	231	231	231	231	230	230	230	230	231	231	231	230	230	230	230	231	230	230	230	
235	235	235	234	234	235	235	236	236	236	237	238	234	234	235	238	242	249	253	254	269	293	290	273	263	259	257	252	246	238	238	234	231	232	238	245	250	252	253	257	261	263	266	269	271	275	280	282	284	286	288	287	285	284	286	286	282	279	280	282	284	287	289	289	285	282	280	277	272	270	272	272	269	264	260	256	251	250	253	260	264	265	264	260	258	262	270	275	274	269	265	262	257	249	245	242	241	243	246	249	248	244	242	257	255	256	257	256	258	261	265	267	261	251	247	265	268	271	273	280	290	294	307	264	261	264	271	279	285	254	304	247	238	232	260	245	236	236	233	233	232	228	222	222	224	226	227	228	229	229	229	230	230	230	230	230	230	229	230	230	231	232	231	229	230	230	230	231	231	231	230	230	231	231	231	231	231	231	
235	235	235	234	234	235	235	236	236	236	237	238	235	235	235	237	240	245	250	246	243	261	282	280	268	254	251	247	241	241	236	231	228	229	233	240	246	249	251	254	258	260	261	264	266	269	274	277	278	278	281	282	281	280	282	283	282	281	281	281	281	284	288	291	290	287	285	284	280	276	275	273	270	268	265	260	255	252	253	257	261	264	264	261	259	261	264	265	265	263	259	256	253	246	243	242	241	242	259	261	262	262	257	253	251	251	250	251	254	258	262	266	266	250	264	264	268	271	272	280	290	289	299	257	287	291	297	270	255	287	251	310	243	238	238	231	234	235	232	232	232	228	220	219	222	225	227	228	228	228	229	229	230	230	230	230	230	230	230	230	231	232	231	230	230	230	231	231	231	231	230	231	231	231	231	231	230	230	
235	235	234	234	234	235	235	236	236	237	237	238	238	236	236	237	240	244	248	243	237	237	252	267	270	263	257	252	244	238	233	229	227	228	232	238	243	251	253	256	258	259	260	263	266	270	276	280	281	269	271	272	274	275	275	276	277	279	277	274	272	275	280	285	288	287	287	288	284	279	275	272	270	269	266	262	258	255	251	250	254	258	259	258	258	260	261	259	257	256	254	252	248	242	240	241	241	255	257	260	260	259	257	253	251	247	244	265	266	270	276	288	263	253	266	266	270	272	274	285	291	264	297	294	282	290	293	304	267	251	289	252	248	245	244	241	224	225	232	231	231	228	220	217	220	223	225	227	227	228	229	229	230	230	230	230	231	230	230	230	231	232	231	230	230	230	231	231	231	231	231	231	231	231	231	230	230	230	
234	235	235	235	235	235	236	236	236	237	237	238	245	236	236	236	238	244	250	246	169	233	232	233	252	256	257	252	244	236	231	227	227	229	234	239	246	248	252	254	255	255	253	254	257	263	269	270	267	264	272	274	275	278	282	284	271	270	265	262	265	269	273	276	278	280	282	285	285	281	274	270	269	268	265	261	259	257	249	247	251	254	255	255	256	257	257	255	253	253	254	252	248	240	237	254	254	254	256	257	257	256	256	253	249	270	266	264	266	271	275	280	299	297	269	265	266	268	279	296	270	240	340	283	279	286	288	292	252	271	253	254	253	252	247	243	207	219	234	232	231	228	221	216	218	221	224	225	227	227	228	229	229	230	230	230	230	229	229	230	231	231	230	230	230	230	231	231	231	230	230	231	231	231	231	230	230	230	
235	235	235	235	235	235	236	236	237	237	237	238	239	238	236	236	238	228	239	240	240	226	224	233	235	241	247	247	240	234	230	227	226	229	236	237	238	243	268	276	282	285	282	279	279	287	298	257	278	256	277	264	265	269	276	280	269	255	250	253	260	265	268	269	270	272	273	276	278	278	273	267	264	263	261	258	257	255	247	244	249	253	254	266	268	269	268	267	265	265	266	250	248	240	252	250	253	254	255	254	253	253	253	251	277	268	263	260	262	271	278	282	293	309	275	262	263	271	288	298	256	240	308	277	279	285	285	287	294	256	249	249	249	251	249	245	242	213	236	232	230	227	222	216	215	219	223	225	226	227	228	228	228	228	229	228	228	228	228	230	231	231	230	230	230	230	231	230	230	230	231	231	231	231	230	230	230	230	
235	235	235	235	235	235	236	236	236	237	237	238	239	245	236	236	216	223	239	243	230	211	217	228	229	232	237	238	234	230	229	227	226	232	232	231	254	258	263	269	275	275	273	271	271	279	287	288	278	282	283	285	294	307	326	260	249	240	241	250	267	272	276	265	265	265	265	265	266	267	267	264	260	259	257	255	256	254	243	238	252	256	259	262	264	265	264	263	263	264	263	262	262	261	246	244	249	278	283	286	283	282	288	289	278	268	261	257	261	267	271	274	276	288	289	266	264	277	294	281	252	296	286	269	276	283	283	287	250	251	251	245	243	242	243	244	245	205	237	231	227	225	221	215	213	217	221	224	226	226	227	227	228	229	228	228	228	228	229	230	231	230	230	230	230	230	230	230	231	231	231	230	230	230	230	230	230	230	
235	235	235	235	235	235	236	236	236	237	237	238	238	239	238	215	221	226	237	241	187	203	211	226	228	231	234	234	230	228	228	227	227	233	230	229	252	254	259	272	269	267	274	274	276	284	288	272	264	251	274	286	309	340	253	243	228	225	234	251	260	267	270	272	273	272	272	272	272	259	258	257	256	255	254	253	267	268	241	248	249	253	255	257	259	259	259	259	260	260	260	261	260	261	244	240	269	277	280	280	277	278	282	288	285	274	262	258	261	268	272	273	272	275	296	277	267	282	295	274	280	311	281	233	280	286	272	273	276	248	248	246	242	238	236	128	173	195	237	231	227	225	222	215	211	215	220	223	224	225	226	227	229	229	229	229	230	230	231	231	231	230	230	230	230	230	230	231	231	231	230	230	230	230	230	230	230	230	
235	235	235	235	235	235	235	236	236	236	237	237	238	238	245	221	218	228	239	242	234	202	229	225	230	235	238	236	231	229	229	229	237	236	231	252	249	256	263	270	272	273	279	280	284	293	298	278	273	263	301	321	5	251	245	231	214	217	228	244	254	261	263	265	266	266	267	268	268	269	269	266	265	263	261	260	261	259	260	246	245	249	251	253	287	256	255	291	254	285	253	256	257	258	245	235	266	275	277	277	277	279	282	284	286	285	270	260	260	267	276	278	279	280	291	280	271	286	292	284	287	308	227	236	288	291	285	265	265	267	244	243	74	238	182	158	265	195	236	233	229	227	224	216	211	215	220	222	224	225	225	227	229	229	229	229	230	230	231	231	231	230	230	230	230	231	231	231	231	231	230	230	230	230	230	230	230	230	
235	235	235	235	235	235	235	236	236	236	237	237	238	238	239	232	220	230	240	244	223	224	230	223	230	236	239	236	231	231	231	237	236	235	232	255	249	256	263	270	271	271	273	273	280	287	294	281	285	304	320	247	240	242	235	221	208	212	224	239	276	288	298	257	258	258	260	262	264	264	264	262	262	262	260	259	257	252	251	239	237	269	272	274	280	285	289	289	288	285	284	290	298	330	241	258	263	270	271	272	278	283	286	288	286	290	284	264	260	266	271	272	274	277	280	283	277	290	293	287	275	304	228	276	284	287	286	264	246	237	239	130	237	225	191	158	173	180	237	234	230	228	224	216	211	215	220	222	224	225	226	227	229	229	229	229	230	230	230	230	230	230	230	231	231	231	231	231	231	230	230	231	231	230	230	230	230	230	
235	235	235	235	235	235	235	235	236	236	237	237	238	238	239	246	225	230	241	242	236	213	214	215	223	229	231	231	230	231	236	232	231	263	260	257	259	257	261	268	272	274	273	270	278	274	286	276	284	294	257	232	218	233	225	213	202	209	222	237	274	280	291	297	301	299	298	302	256	254	253	253	255	256	256	256	311	243	245	238	229	262	269	271	277	281	282	281	279	277	280	291	248	235	303	221	229	266	269	271	277	281	282	283	283	291	300	273	260	262	266	268	269	270	272	279	282	290	296	281	295	299	226	280	288	291	277	247	218	226	202	153	129	115	205	168	165	175	236	233	230	228	224	216	211	215	219	222	223	224	226	227	229	229	229	229	229	229	229	229	229	230	230	231	231	231	231	231	230	230	230	231	231	230	230	230	230	230	
235	235	235	235	235	235	235	235	236	236	236	237	237	238	238	240	232	229	238	242	240	179	173	200	212	220	224	226	232	233	233	231	262	260	257	264	264	261	260	264	268	271	270	274	285	283	284	286	311	209	189	211	203	227	218	208	212	212	224	238	273	274	280	287	290	291	295	297	296	295	291	289	290	294	303	311	310	308	317	236	226	259	264	272	276	277	275	274	275	272	278	292	247	235	323	272	227	263	268	272	277	278	277	280	283	287	298	291	267	259	263	270	271	270	273	277	280	288	293	286	299	280	272	287	302	284	254	208	189	187	198	190	166	136	223	210	214	195	233	231	230	229	224	216	210	213	219	221	223	224	225	226	227	228	228	228	229	229	229	229	229	229	230	230	230	231	231	231	230	230	231	230	230	229	229	229	229	229	
235	235	235	234	235	235	235	235	235	236	236	236	237	237	238	238	261	228	236	241	242	163	155	189	205	213	222	224	225	229	233	269	264	258	257	266	268	267	261	260	267	269	268	274	280	267	292	329	183	192	218	205	230	224	214	206	207	219	231	240	267	281	285	281	284	287	289	289	287	284	283	284	288	295	307	319	308	298	308	299	220	255	259	269	269	270	271	276	278	276	287	275	245	233	326	278	262	265	268	272	276	276	277	280	282	284	289	297	279	260	260	267	269	274	280	282	283	292	290	270	297	275	278	294	295	275	214	180	163	159	169	180	180	180	141	205	199	200	230	229	229	228	224	215	209	213	218	221	222	224	225	226	226	227	227	228	228	229	229	229	229	228	228	229	229	230	230	230	230	230	230	230	229	229	229	229	229	229	
235	235	235	235	235	235	235	235	235	235	235	236	236	237	237	238	240	232	233	236	241	161	155	187	208	214	217	219	253	254	258	263	261	254	265	267	267	270	266	261	269	277	277	284	275	287	303	197	196	232	214	234	228	221	212	205	209	220	232	259	262	277	277	281	290	297	297	296	283	277	282	287	298	298	303	306	301	301	229	316	260	250	257	263	263	263	266	271	271	276	291	270	243	231	339	273	262	266	269	270	274	273	274	277	276	279	289	305	293	268	259	263	271	279	284	284	285	295	279	269	296	280	293	307	286	257	188	175	167	175	180	174	162	155	151	201	188	191	188	225	226	226	223	215	208	212	217	220	222	224	225	226	226	228	228	228	228	228	228	228	228	228	229	229	229	230	230	230	230	230	230	230	229	229	230	229	229	229	
235	235	235	234	234	234	234	235	235	235	235	235	236	236	236	237	238	257	230	237	241	167	162	192	205	210	214	252	251	251	255	259	271	265	265	266	266	268	267	266	274	286	287	298	286	212	197	203	194	226	216	228	223	216	210	206	210	220	246	252	266	271	272	276	285	291	293	290	285	284	290	302	314	318	313	305	292	302	228	321	261	251	255	258	263	265	268	268	268	280	293	261	240	229	339	292	213	226	271	272	272	272	273	276	274	276	284	299	301	277	261	262	275	285	287	285	287	293	270	288	282	278	295	298	289	233	203	229	242	214	183	179	173	158	155	148	189	187	184	223	223	225	222	215	208	211	216	220	222	224	225	226	227	228	228	228	228	228	228	228	229	230	230	231	230	230	230	230	230	230	230	230	230	230	230	229	229	229	
235	235	234	234	234	234	234	234	234	235	235	235	235	235	236	236	237	239	241	239	236	191	171	192	204	210	250	248	247	246	259	264	270	271	267	266	267	267	267	272	286	301	297	314	248	204	209	196	187	222	214	222	216	209	188	206	213	221	243	247	264	271	277	280	284	289	294	290	281	280	291	305	318	324	324	330	229	326	225	313	207	253	251	252	256	259	265	270	277	291	283	255	247	227	337	323	210	222	269	273	273	273	273	275	275	276	279	288	305	283	263	264	277	285	286	286	292	291	268	298	276	281	285	287	283	260	268	256	192	167	163	166	172	161	157	150	188	187	184	222	223	224	222	217	209	211	217	221	222	224	225	226	226	227	227	228	228	229	229	229	229	230	230	230	230	230	230	230	230	230	230	230	229	230	230	229	229	229	
235	234	234	234	234	234	234	234	234	234	234	234	235	235	235	235	236	236	241	238	233	202	183	195	242	247	250	250	247	256	255	259	264	270	268	265	265	264	268	281	305	330	314	316	220	201	202	189	228	219	211	219	211	204	201	205	213	234	238	257	260	267	272	274	277	284	296	290	283	286	298	313	309	266	271	233	230	323	327	323	205	206	212	229	251	257	260	265	276	285	280	251	246	229	220	353	203	213	261	267	270	274	270	271	273	274	284	295	314	288	266	266	279	286	284	282	288	285	273	287	278	290	269	251	252	260	248	194	175	170	159	154	164	168	160	150	191	186	185	221	221	222	222	218	211	211	216	220	222	223	225	225	226	226	227	228	228	229	229	229	229	230	230	229	229	229	229	230	230	230	229	229	229	229	229	229	228	228	
234	234	234	234	234	234	234	234	234	234	234	234	234	234	234	234	234	234	235	235	231	213	168	196	232	238	245	248	259	257	254	258	268	271	267	264	262	262	268	285	305	311	319	324	217	198	199	185	227	218	225	219	209	201	199	205	213	231	233	255	259	264	268	270	272	274	280	282	285	300	312	251	249	247	251	232	229	326	307	304	300	202	207	214	227	252	260	264	271	278	275	270	243	237	221	8	287	205	227	261	266	272	269	268	265	268	278	284	291	295	273	269	282	288	283	282	283	274	266	272	279	289	247	225	252	247	192	171	165	169	163	155	165	172	164	153	192	184	185	184	219	220	220	217	212	211	214	218	221	223	224	225	226	226	227	228	228	229	229	228	228	229	229	229	229	230	229	230	231	230	229	229	230	229	229	229	229	229	
234	234	234	234	234	234	234	234	234	233	233	233	233	233	233	233	233	233	234	235	233	219	194	196	208	246	253	261	259	257	254	257	267	270	267	265	265	266	276	294	294	315	323	324	230	198	199	184	224	216	224	218	207	198	196	202	221	225	226	251	256	262	269	270	272	273	276	282	290	308	302	253	254	249	236	233	228	325	296	289	317	284	203	214	227	246	257	269	274	272	271	268	284	231	220	208	307	202	221	222	262	271	272	267	266	267	271	274	276	288	284	276	284	286	281	284	285	269	256	280	299	245	213	223	234	196	177	170	164	166	166	163	169	173	167	161	193	182	185	187	218	218	219	218	214	212	213	216	220	222	223	225	225	226	227	228	228	229	228	228	229	229	229	229	229	229	229	230	231	230	229	229	230	229	229	229	229	229	
234	234	234	234	234	233	233	233	233	233	233	233	232	232	232	232	231	231	231	232	232	223	198	197	208	229	256	262	262	257	254	256	264	265	262	262	265	272	285	310	304	327	322	236	200	213	196	183	221	215	221	215	205	323	193	198	216	218	218	245	251	256	263	266	269	274	280	287	297	293	290	305	315	252	257	261	343	304	283	289	216	319	202	214	227	247	251	266	271	270	271	276	268	231	222	211	311	271	211	217	247	264	267	269	266	270	273	275	281	295	290	281	282	281	282	290	293	251	151	110	122	149	167	181	176	174	176	171	165	163	163	163	170	173	168	164	195	181	183	188	218	218	219	219	216	214	214	216	219	221	223	224	225	226	227	227	228	228	228	228	229	229	229	229	229	229	229	230	231	230	229	229	229	228	228	229	228	228	
234	234	234	234	233	233	233	233	233	233	232	232	232	231	231	231	230	229	229	229	231	225	202	198	207	215	248	252	255	258	256	256	260	262	262	262	269	283	303	326	268	175	176	186	218	206	194	226	220	223	219	213	206	201	199	198	203	216	215	238	241	251	258	262	265	268	272	281	296	280	282	304	307	246	248	250	323	286	272	295	215	332	202	214	226	249	250	262	269	269	267	265	255	231	221	210	296	275	270	217	241	252	261	265	266	266	267	269	278	300	300	281	277	281	294	309	294	181	147	143	157	171	176	174	179	184	181	170	164	164	167	170	177	175	168	161	195	179	181	185	219	218	220	219	217	215	216	216	218	221	222	224	225	226	226	227	227	228	228	228	228	228	229	229	229	229	229	229	230	230	229	229	229	229	229	229	228	228	
234	234	234	233	233	233	233	233	232	232	232	232	231	231	230	229	229	228	227	226	241	224	209	202	207	213	223	245	251	257	259	254	255	257	258	265	278	302	334	276	209	186	233	222	213	204	231	226	225	224	220	213	311	211	213	208	207	212	217	216	237	238	251	259	265	265	270	281	289	272	278	298	305	287	237	331	303	278	280	227	210	304	220	224	223	249	259	258	267	275	267	265	245	229	217	27	278	262	268	274	219	235	253	263	263	263	270	280	283	311	315	279	273	292	324	333	132	166	162	154	160	181	210	205	180	184	188	180	171	166	158	158	164	160	156	153	197	180	178	183	220	219	221	220	218	216	216	218	218	220	223	225	225	226	226	227	227	228	228	228	228	229	229	229	229	229	229	230	230	230	229	228	228	229	229	228	228	228	
234	234	234	233	233	233	233	233	232	232	232	231	231	230	229	228	227	226	225	223	223	221	241	209	210	214	221	242	249	259	262	255	252	254	257	268	289	318	315	227	199	188	228	215	241	236	232	228	227	227	222	213	212	217	223	221	216	215	221	218	219	235	244	252	266	267	273	283	276	267	277	279	272	278	284	291	274	276	301	224	205	283	205	256	254	244	258	261	264	270	275	262	241	228	216	205	277	204	260	269	275	240	249	253	263	267	288	247	234	322	320	279	275	314	336	82	150	167	168	159	150	153	171	246	241	184	183	187	188	190	191	189	183	175	169	165	152	186	176	180	182	220	221	221	218	216	217	219	219	221	224	226	226	226	226	226	227	227	228	228	228	228	229	229	229	229	229	230	231	230	229	229	229	229	229	228	228	228	
234	234	233	233	233	233	233	232	232	231	231	231	230	229	228	227	226	225	223	221	219	217	216	215	214	216	220	239	245	256	261	258	253	255	264	280	304	300	250	194	196	188	227	213	237	234	231	229	228	227	221	214	215	222	237	231	226	247	222	221	220	220	232	246	258	264	264	271	268	267	277	270	251	276	285	264	256	280	225	223	206	197	202	208	213	238	238	258	260	267	274	258	239	228	217	205	289	202	213	266	274	276	258	250	257	281	248	238	306	313	300	279	288	343	74	140	162	171	170	166	158	155	157	169	248	242	186	177	181	190	193	187	180	173	169	167	164	195	178	180	186	219	220	219	217	216	217	219	219	220	224	227	226	225	225	226	227	228	228	228	228	228	229	229	229	229	229	230	231	230	229	229	230	229	229	228	228	228	
234	234	233	233	233	232	232	232	231	231	231	230	229	228	228	226	225	223	221	219	215	212	214	218	218	221	219	238	235	249	255	252	254	260	270	292	283	235	208	210	193	235	223	238	234	231	230	229	227	225	296	216	218	223	232	233	229	225	235	223	222	221	221	230	249	261	264	260	256	261	269	256	264	283	274	270	280	242	224	221	212	199	197	203	208	232	231	249	253	260	277	253	238	228	218	205	299	201	212	229	266	270	272	267	261	288	243	240	3	305	279	279	308	342	140	156	166	170	168	161	161	163	159	151	177	250	244	236	187	178	180	179	178	177	173	166	168	202	183	179	184	219	220	219	216	215	217	218	217	218	222	226	224	223	224	226	227	227	228	228	228	229	229	229	229	229	229	230	230	230	230	230	230	229	228	228	228	228	
234	233	233	233	232	232	232	232	231	231	230	230	229	228	227	225	224	222	219	216	211	207	211	219	223	223	221	240	234	245	247	250	255	264	277	304	257	218	199	209	190	234	223	236	232	229	228	227	224	221	221	219	220	225	228	287	230	226	300	222	222	221	221	229	243	250	271	255	247	249	251	250	258	247	247	272	235	224	222	215	316	315	199	203	207	210	215	227	247	253	277	248	238	229	220	208	296	200	207	218	247	261	261	265	276	304	243	237	338	278	268	292	352	135	158	160	164	170	170	162	155	154	151	141	125	146	252	252	247	222	196	191	183	181	175	164	164	167	187	176	178	182	221	219	217	215	216	217	216	216	221	224	223	221	223	225	226	227	228	228	228	229	229	229	229	229	229	229	230	229	229	229	229	228	228	228	228	228	
233	233	233	233	232	232	232	232	231	230	230	229	228	227	226	224	223	221	218	214	208	202	207	219	224	224	245	241	234	245	246	248	254	263	282	300	253	218	196	196	191	188	220	231	227	224	222	219	216	217	220	223	222	224	257	278	235	231	228	284	225	223	223	231	230	245	258	270	244	234	234	252	247	246	257	199	223	224	217	311	279	295	312	212	210	211	215	221	228	246	266	250	239	229	220	336	298	201	203	209	237	247	257	261	277	305	236	356	285	263	287	110	145	158	162	162	165	168	172	176	218	229	232	234	235	239	102	143	256	191	190	179	172	170	170	168	167	206	196	189	186	184	221	219	218	216	216	218	217	217	222	225	223	220	221	224	226	227	227	228	228	229	229	229	228	228	228	229	230	229	228	228	228	228	228	228	228	228	
233	233	233	233	232	232	232	231	231	230	229	229	228	227	225	224	222	219	216	212	205	197	202	220	225	244	245	244	250	247	248	250	253	263	286	283	243	223	206	197	190	226	217	227	224	219	214	353	211	215	219	221	222	248	251	276	238	236	230	313	281	259	228	231	233	245	253	276	245	227	228	253	239	186	215	226	226	223	214	296	212	285	220	317	304	208	215	223	230	233	252	249	241	229	221	289	284	304	200	202	211	230	247	260	276	251	222	269	271	294	133	161	166	168	168	166	165	168	170	173	171	208	177	227	227	231	187	238	34	330	238	183	167	169	172	167	164	162	198	199	201	199	220	219	219	217	215	218	218	219	224	226	224	220	221	224	226	227	228	228	228	229	229	229	228	228	228	228	229	230	229	229	228	227	227	227	227	227	
233	233	233	233	232	232	231	231	230	230	229	228	227	226	225	223	221	218	214	210	203	192	196	220	226	245	246	247	259	252	251	251	252	260	293	250	226	212	204	212	191	223	215	226	221	215	209	207	209	213	218	221	245	246	247	273	252	235	228	226	306	287	274	238	238	238	248	260	230	212	197	197	226	225	231	230	227	223	214	304	213	223	295	219	213	302	212	222	231	248	253	249	242	228	298	280	279	318	314	199	210	224	245	252	301	174	154	118	116	163	170	170	174	171	170	170	172	173	173	174	172	171	174	176	173	176	179	185	203	238	219	181	169	170	175	172	167	162	192	191	197	198	201	218	218	215	214	215	218	221	225	227	225	222	221	224	226	227	227	227	227	228	229	229	229	228	227	227	228	229	230	230	229	228	227	227	227	227	
233	233	233	233	232	232	231	231	230	229	229	228	227	226	224	222	220	217	213	208	200	189	191	218	240	244	246	265	267	264	258	255	255	259	286	223	212	203	200	213	192	221	215	223	219	214	207	204	205	210	215	219	240	240	258	268	246	235	227	222	299	277	281	281	238	239	261	268	236	237	231	232	233	233	231	227	225	230	223	309	212	221	291	225	220	212	213	220	229	234	254	272	239	295	271	265	282	222	332	202	228	218	242	226	205	191	177	181	190	193	190	181	176	171	172	176	179	182	183	182	176	176	173	173	172	172	169	171	171	175	173	171	168	169	171	174	174	165	194	188	189	193	218	218	216	213	212	214	219	224	226	227	226	223	222	223	225	226	226	226	226	226	228	229	228	228	228	228	228	229	229	229	228	228	228	227	227	227	
233	233	233	232	232	231	231	231	230	229	229	228	227	225	224	222	219	216	212	206	198	187	189	215	236	239	257	265	268	270	269	267	267	267	232	223	205	200	199	212	193	219	212	222	219	214	208	201	202	207	213	232	231	252	256	265	266	236	225	219	281	266	281	293	271	262	264	297	239	239	235	233	231	229	227	224	226	227	219	304	210	219	288	229	223	214	246	217	227	232	250	285	242	277	265	264	274	286	283	230	219	218	229	209	212	204	194	190	194	197	200	196	191	186	180	176	175	173	179	186	186	181	180	180	182	178	175	173	171	177	181	181	179	181	184	185	176	162	198	190	189	189	187	187	216	213	213	216	222	227	227	227	226	224	223	224	225	225	226	226	226	225	227	229	227	227	228	229	229	230	229	228	228	228	228	227	227	227	
233	233	232	232	232	231	231	231	230	229	228	228	226	225	223	221	218	215	211	205	196	186	187	212	234	246	253	261	269	271	270	270	273	260	226	217	204	229	221	212	228	219	225	223	219	215	359	202	200	205	211	215	227	251	255	264	261	236	223	215	266	260	277	292	276	265	268	306	240	223	232	207	244	231	224	224	255	262	220	305	211	220	271	230	223	214	236	212	223	227	253	274	270	272	221	267	269	219	270	281	214	228	203	206	209	208	199	189	188	194	200	201	201	198	192	186	178	172	170	178	183	184	187	190	186	181	183	185	189	192	191	188	181	178	178	171	164	152	208	202	191	187	186	186	217	214	215	218	224	227	226	225	225	224	224	226	226	226	226	227	226	226	228	230	227	227	228	229	229	230	229	228	228	228	227	226	226	226	
233	233	232	232	232	231	231	230	230	229	228	227	226	225	223	220	218	214	210	203	195	184	181	206	232	247	249	256	262	268	272	274	269	253	252	245	234	225	220	233	228	220	225	223	219	218	214	206	200	204	211	214	222	247	249	261	255	237	221	221	255	254	270	276	266	261	270	285	236	226	210	210	223	226	224	222	264	263	221	305	213	221	288	229	223	216	282	208	218	223	236	266	266	257	259	273	241	219	214	180	216	222	221	221	223	223	208	199	192	198	201	204	203	201	199	196	188	182	173	171	171	172	175	179	177	169	157	161	168	173	174	170	163	150	146	181	193	187	167	209	199	190	186	185	217	216	218	220	224	226	225	224	224	223	223	226	226	226	227	227	227	227	230	230	228	227	228	229	229	229	229	228	228	228	227	226	226	226	
233	232	232	232	231	231	231	230	230	229	228	227	226	224	223	220	217	213	209	202	193	184	177	189	235	253	250	251	256	262	277	286	253	253	248	239	241	239	238	235	230	227	225	222	226	218	318	5	202	206	213	216	219	241	241	260	246	235	220	279	251	253	262	263	261	264	266	271	229	220	218	226	227	227	222	296	280	264	249	307	213	220	290	227	222	215	300	207	217	224	235	251	269	226	289	227	178	182	183	216	212	212	211	214	217	217	217	212	202	193	197	205	207	205	205	201	194	188	183	175	173	169	170	173	185	195	191	183	183	191	200	226	230	228	228	183	166	168	163	153	196	187	185	184	218	217	219	221	224	226	225	224	224	224	224	226	225	224	226	227	227	228	229	229	229	229	229	229	229	229	228	228	228	228	227	226	226	226	
232	232	232	232	231	231	231	230	230	229	228	227	226	224	222	220	217	213	208	201	191	183	173	185	244	263	257	252	251	259	301	254	255	252	248	245	242	241	239	236	232	228	225	221	220	222	220	212	206	209	216	231	224	220	237	256	252	228	221	233	239	246	259	284	178	199	212	212	211	217	215	217	225	244	277	219	223	258	222	286	214	220	299	227	219	212	295	253	219	225	237	232	252	244	209	201	196	227	219	210	203	242	241	242	243	244	213	211	203	194	193	225	226	224	223	220	214	210	205	195	189	182	175	174	177	179	181	180	181	188	198	204	200	198	187	167	164	155	158	158	195	188	185	221	218	218	219	221	225	227	227	227	227	227	227	227	226	225	226	227	227	228	228	229	229	229	229	229	229	228	228	228	228	228	227	225	225	225	
232	232	232	232	232	231	231	230	230	229	228	227	226	224	222	220	217	213	207	199	190	179	164	171	247	271	270	263	258	261	244	255	252	250	249	246	244	242	240	237	233	229	224	222	224	235	222	212	206	209	225	224	223	250	239	253	256	222	211	244	245	207	215	181	186	196	206	214	211	223	210	207	209	239	209	212	225	226	229	281	215	224	253	229	219	213	262	214	220	226	234	255	254	216	209	242	230	219	242	204	195	244	242	246	247	243	242	241	238	233	195	217	217	217	217	217	214	212	209	207	204	200	196	191	187	180	181	177	177	183	190	190	192	195	198	193	169	159	161	162	195	187	184	219	218	218	219	222	226	227	227	228	229	229	229	229	229	228	227	228	228	228	228	229	230	229	229	229	229	228	228	228	228	228	227	225	224	224	
232	232	232	232	232	231	231	230	230	229	228	227	226	224	222	220	217	212	207	199	188	176	152	156	241	265	271	270	262	268	253	231	240	238	244	243	242	240	238	236	233	227	223	224	228	228	218	335	207	210	221	219	248	242	255	252	190	220	207	205	208	203	192	187	186	192	203	213	216	211	197	215	208	226	205	207	248	215	222	242	226	236	236	226	220	215	257	216	222	233	229	252	286	197	196	232	221	212	246	246	246	244	233	249	252	251	250	249	234	230	223	217	211	209	246	245	245	243	243	209	206	204	205	206	202	196	190	180	178	175	178	179	180	183	189	189	179	168	165	165	193	221	183	219	219	219	221	224	226	226	226	228	229	229	228	229	230	229	228	229	228	228	229	230	230	229	229	229	229	228	228	228	227	227	226	225	224	224	
232	232	232	232	231	231	231	230	230	229	228	227	226	225	223	220	217	213	207	199	188	173	147	147	232	255	262	263	258	267	236	227	202	234	238	239	238	237	236	235	230	227	222	227	266	225	215	221	211	215	219	219	239	255	254	231	193	190	192	197	202	204	194	189	184	190	204	214	218	215	207	197	199	194	202	207	207	201	253	217	218	243	221	219	213	227	261	228	224	223	248	263	228	187	167	153	170	198	195	250	248	249	248	251	255	255	253	252	251	249	247	246	246	246	247	248	248	245	244	242	239	234	229	229	228	224	219	197	194	189	181	181	181	180	181	182	183	177	173	171	195	221	221	220	220	220	222	224	225	224	227	230	230	228	227	228	227	227	228	229	229	229	229	230	230	230	230	229	229	228	227	227	227	226	226	226	224	224	
232	232	232	232	231	231	231	230	230	229	228	228	226	225	223	221	218	213	207	199	188	171	153	156	222	242	260	255	246	238	231	226	237	237	236	237	236	235	233	230	314	220	223	229	230	223	215	219	213	218	220	218	236	224	231	203	185	185	189	195	203	206	195	201	182	187	204	214	218	217	211	199	200	197	201	206	209	209	210	215	216	223	220	216	207	254	203	209	212	216	220	244	185	184	168	158	172	192	192	182	242	252	252	256	261	262	258	257	255	252	250	249	248	247	246	251	253	253	245	243	239	234	228	246	230	226	221	217	215	213	207	202	184	182	187	190	185	180	176	177	199	218	220	220	219	220	222	224	223	224	228	232	232	229	227	226	224	225	228	229	230	230	231	231	230	230	230	229	228	227	227	227	227	226	226	226	225	225	
232	232	232	232	231	231	231	231	230	229	229	228	227	225	223	221	218	214	209	201	189	173	163	168	225	239	222	220	223	224	213	227	222	237	237	237	235	232	229	316	222	221	225	274	229	221	215	216	216	223	225	256	228	234	239	204	190	186	190	199	207	212	197	231	223	177	206	213	218	220	211	204	199	199	201	205	209	211	213	217	217	216	205	211	210	214	223	223	223	218	227	220	205	189	165	161	158	191	157	138	242	245	250	257	119	265	265	264	261	258	255	253	251	250	250	252	257	259	258	257	256	254	254	256	256	253	248	245	243	241	215	210	206	204	189	186	191	190	219	181	204	187	181	218	218	220	222	224	222	222	226	231	232	230	228	226	224	226	228	229	230	231	232	231	231	230	229	229	228	228	228	228	227	226	226	225	224	224	
232	232	232	232	231	231	231	231	230	230	229	228	227	225	224	222	219	215	210	203	192	177	168	167	214	241	221	220	221	225	226	216	224	219	229	228	232	221	327	225	223	223	228	233	228	219	274	214	220	226	255	234	200	241	242	214	190	184	189	197	206	214	208	232	223	210	201	216	220	222	212	202	198	200	203	205	208	212	216	220	221	221	209	196	194	201	213	214	217	221	226	222	238	196	209	174	152	145	144	237	233	237	243	251	256	260	116	266	266	265	261	257	255	255	256	258	262	266	265	262	260	258	259	263	264	263	261	259	256	252	248	244	241	239	237	233	190	194	220	216	209	217	186	219	220	221	222	223	221	221	227	233	234	232	230	227	224	226	229	229	229	230	231	231	230	230	229	230	229	229	228	228	226	225	225	224	223	223	
232	232	232	232	232	232	231	231	230	230	229	228	227	226	224	223	220	217	212	206	195	180	172	161	167	245	221	219	221	226	230	227	232	219	224	264	227	230	230	226	223	226	252	235	230	221	215	215	221	240	312	236	192	242	244	209	197	183	181	214	221	229	212	229	226	212	194	213	229	224	215	226	213	198	204	205	208	214	218	220	223	224	211	196	194	199	216	218	219	224	226	224	216	211	215	227	221	213	233	232	232	235	239	243	247	252	257	260	126	265	263	260	257	257	260	252	156	268	268	267	264	263	263	264	267	271	274	275	270	264	259	255	251	248	243	237	234	197	188	183	212	221	220	221	222	222	223	224	223	224	231	235	235	233	230	226	224	225	228	228	228	229	229	229	230	229	230	231	230	229	228	227	225	224	224	223	221	221	
232	232	232	232	232	232	231	231	230	230	229	229	228	227	225	224	221	219	214	209	199	186	173	151	153	249	223	222	226	230	232	229	216	227	215	218	218	220	220	218	219	226	237	233	228	220	216	217	221	269	235	223	198	163	243	242	236	189	210	208	226	228	230	224	228	216	181	216	224	231	219	222	210	194	203	204	209	215	220	225	230	229	213	197	190	195	216	220	219	224	229	225	223	213	202	229	224	231	231	232	233	235	235	239	242	245	247	251	255	257	259	258	255	255	257	259	258	258	262	265	264	263	263	262	264	269	276	282	280	275	270	266	262	260	256	252	249	245	238	234	215	205	224	220	217	221	223	225	227	230	232	233	233	232	230	226	223	225	228	229	228	230	231	230	229	229	230	231	230	229	228	226	224	223	224	222	220	220	
232	232	232	232	232	232	231	231	230	230	230	229	228	227	226	225	223	220	217	212	204	192	173	143	144	250	226	229	233	236	235	229	218	211	206	218	216	215	232	214	213	247	227	228	283	255	215	217	222	233	179	216	199	237	164	227	224	216	201	225	227	235	227	219	229	216	209	214	226	236	229	218	231	220	201	203	208	215	223	231	236	236	212	197	184	189	217	221	224	225	228	225	225	224	231	213	224	228	229	230	232	234	233	234	235	233	240	243	246	249	250	250	250	251	252	251	249	249	252	255	257	256	255	254	256	261	267	275	278	278	277	274	270	268	265	263	260	254	248	245	219	236	219	224	224	223	224	228	231	233	234	233	232	231	230	227	224	225	229	230	231	233	234	232	230	231	232	232	232	230	228	226	223	222	222	221	220	220	
232	232	232	232	232	232	231	231	231	230	230	229	229	228	227	226	224	222	219	215	208	198	178	141	144	248	230	234	239	238	235	227	216	211	210	208	215	215	214	214	223	247	221	252	241	221	212	217	227	181	181	176	173	176	169	164	166	205	191	225	229	239	224	192	231	218	180	214	225	235	230	215	230	220	197	202	210	221	228	234	238	238	212	238	227	180	213	220	224	229	227	227	224	222	217	228	215	224	224	225	216	192	181	189	183	230	236	238	241	244	245	244	245	248	249	246	244	244	246	248	248	248	247	248	252	255	258	261	264	268	270	271	271	269	272	266	263	257	251	248	266	256	227	199	228	226	228	231	234	236	237	235	234	233	232	230	226	227	231	234	235	237	236	233	231	233	234	234	233	231	229	226	223	222	222	221	220	220	
232	232	232	232	232	232	231	231	231	231	230	230	229	228	228	227	225	223	221	218	212	204	187	151	157	243	238	243	243	239	232	222	214	218	215	216	217	218	218	208	210	213	223	255	216	214	214	208	180	187	183	177	175	173	170	218	199	162	236	226	233	243	245	189	230	219	176	215	227	236	229	212	230	219	193	204	218	225	229	235	242	243	213	237	229	174	207	216	223	227	231	229	224	219	220	221	201	206	221	220	196	187	184	194	232	234	234	235	237	240	240	239	242	244	243	241	242	243	247	247	248	241	240	243	248	251	252	253	253	255	257	259	261	263	262	260	255	250	245	243	285	248	238	198	230	229	231	233	235	238	239	237	236	236	236	234	230	230	234	237	238	239	237	235	234	235	236	236	234	232	229	226	224	222	221	220	220	220	
232	232	232	232	232	232	232	231	231	231	231	230	230	229	228	227	226	225	223	220	216	209	196	178	173	219	247	249	246	239	230	219	218	213	212	213	215	229	214	216	216	218	216	228	218	217	219	209	197	188	189	183	177	173	170	168	200	176	158	233	240	247	246	240	231	221	174	213	227	236	227	240	230	219	213	207	218	224	230	236	244	246	209	244	228	208	203	215	223	225	229	228	220	213	220	227	220	228	187	201	197	194	204	232	235	237	232	234	236	245	243	237	250	238	236	238	241	245	246	244	242	242	247	250	253	255	257	246	245	245	245	246	249	252	252	248	243	240	238	239	282	240	225	200	230	230	232	233	235	239	241	239	238	240	239	238	235	235	238	240	240	240	239	238	237	238	240	239	238	235	232	229	227	224	220	217	217	217	
232	232	232	232	232	232	232	232	231	231	231	231	230	230	229	228	227	226	225	222	219	214	204	192	173	198	250	247	242	236	227	217	238	233	230	230	233	216	221	222	221	220	235	234	219	219	220	222	209	198	192	193	188	179	172	209	197	241	241	243	251	253	250	244	234	224	209	213	226	236	222	237	228	217	210	212	219	225	230	235	244	245	204	241	226	209	187	213	221	225	229	224	211	210	222	228	223	212	231	194	215	217	223	232	234	236	239	241	242	240	238	240	236	234	233	235	237	240	242	242	240	240	242	245	247	248	249	247	246	249	234	235	238	241	242	241	239	238	237	294	240	235	223	232	230	232	234	235	238	242	242	239	240	242	243	242	241	240	243	244	242	243	244	244	244	245	245	245	244	242	240	237	232	226	217	211	211	211	
232	232	232	232	232	232	232	232	231	231	231	231	231	230	230	229	228	227	226	224	222	218	210	196	167	187	252	247	239	233	221	241	231	226	230	231	214	223	231	233	228	221	239	237	236	234	234	220	221	211	192	199	203	230	226	237	239	240	242	248	259	264	259	249	240	225	211	214	227	236	215	235	227	217	209	212	220	225	229	242	242	246	204	230	226	214	167	203	217	225	229	218	205	212	225	228	221	220	220	231	227	231	230	231	233	234	235	237	237	236	229	236	243	231	233	235	264	263	265	260	264	234	235	238	241	264	261	240	238	240	242	246	249	248	245	230	230	230	301	267	205	231	222	231	232	235	237	238	242	246	245	241	241	244	247	248	246	246	248	249	249	251	253	254	254	254	253	251	251	250	248	245	238	227	212	202	201	201	
232	232	232	232	232	232	232	232	232	232	232	231	231	231	230	230	229	228	228	226	224	221	214	200	166	178	252	248	239	231	240	232	234	231	231	233	220	232	242	245	233	245	246	246	204	240	236	235	235	221	206	192	202	228	227	233	234	236	238	242	253	263	265	258	247	229	213	217	228	234	236	198	229	216	200	214	221	225	229	241	241	242	204	227	226	216	200	196	213	226	223	210	206	220	228	226	222	226	226	225	228	233	234	228	230	231	257	239	215	207	209	231	243	230	233	258	261	258	255	258	267	230	232	266	263	259	254	246	240	230	232	233	237	235	228	226	224	212	160	169	179	191	220	214	233	237	238	240	245	249	249	246	245	248	255	257	254	252	253	255	252	260	262	261	262	262	260	260	241	260	257	256	252	237	202	185	185	185	
232	232	232	232	232	232	232	232	232	232	232	232	231	231	231	230	230	229	229	228	226	223	218	206	168	178	251	243	234	226	234	239	231	229	232	225	237	239	244	247	236	252	209	205	201	240	237	235	236	237	218	206	193	206	227	227	232	233	234	235	240	247	255	261	257	239	221	223	229	229	231	202	227	214	207	215	223	228	232	241	241	233	206	221	226	220	208	196	210	226	234	209	214	223	226	223	224	227	227	228	231	226	231	229	233	238	239	231	227	210	216	232	240	244	245	248	251	264	250	253	257	260	262	264	262	255	246	236	223	221	223	221	223	212	193	191	195	188	173	176	228	225	220	215	236	240	242	246	251	255	255	252	249	254	261	264	261	258	258	261	264	267	269	270	271	270	267	267	268	269	273	278	285	294	85	133	139	139	
232	232	233	232	232	232	232	232	233	232	232	232	232	232	231	231	231	230	230	229	228	226	222	212	180	187	249	240	237	233	245	236	228	227	223	233	236	240	244	246	249	255	193	191	194	242	237	236	236	233	234	217	202	194	226	226	226	230	231	231	233	236	241	246	249	246	242	238	230	232	234	222	225	212	207	217	225	228	232	242	235	224	211	199	229	224	216	202	206	222	227	227	226	225	225	223	224	225	227	229	230	231	232	230	227	229	226	225	226	234	246	232	235	237	261	260	262	259	259	255	245	248	248	247	246	241	232	216	196	191	191	180	186	182	174	172	190	190	191	231	229	240	239	238	242	246	250	255	259	261	259	257	256	262	268	270	267	264	264	266	270	276	271	270	290	290	286	275	267	266	246	297	317	343	12	64	87	87	
233	233	233	233	233	233	233	233	233	232	232	232	232	232	232	231	231	231	231	230	229	228	225	219	202	206	245	244	236	229	243	234	226	224	226	230	235	239	244	243	246	250	250	248	162	185	240	237	235	235	230	231	217	208	199	225	224	224	227	227	228	229	232	233	234	236	242	243	227	227	233	220	226	214	212	221	227	230	240	234	225	220	213	200	204	226	221	213	183	211	217	223	226	222	225	227	225	228	234	235	234	228	219	216	216	199	220	221	226	238	244	225	226	253	252	251	256	254	255	252	252	237	245	238	227	210	165	168	174	174	205	205	207	191	202	201	232	235	234	239	243	246	247	248	251	256	261	267	269	266	262	261	258	274	277	280	269	257	264	264	268	247	255	259	264	259	252	212	219	233	248	296	318	345	9	52	83	83	
233	233	233	233	233	233	233	233	233	233	233	232	232	233	232	232	232	232	232	231	231	230	229	226	219	216	247	252	233	246	240	230	222	222	225	230	234	242	242	241	243	246	245	243	242	240	188	239	237	236	235	228	228	227	210	198	223	222	219	217	223	222	224	224	224	223	224	226	215	209	224	231	202	215	217	225	233	238	232	221	218	218	217	210	202	227	224	219	206	191	200	221	228	218	225	229	228	237	244	243	237	225	218	219	222	221	190	217	222	224	225	234	242	247	236	241	249	245	246	243	241	242	202	146	167	176	189	190	215	211	224	228	231	214	232	235	239	242	243	245	249	253	254	256	261	266	274	282	283	275	263	259	261	283	288	292	300	208	230	238	250	283	293	297	302	306	315	322	269	254	239	210	203	197	194	184	172	172	
233	233	233	233	233	233	233	233	233	233	233	233	233	233	233	233	233	233	232	232	232	232	231	230	227	222	244	254	251	246	239	228	220	223	229	234	237	242	242	250	250	245	243	241	239	237	236	186	234	234	234	234	227	228	227	207	189	203	217	214	210	216	217	217	215	214	213	213	209	195	204	223	220	215	220	234	235	232	223	217	216	218	220	220	211	196	226	222	209	188	194	216	226	228	234	236	241	245	244	243	229	219	219	223	226	225	214	191	201	212	214	223	231	230	221	227	236	237	237	230	216	142	189	193	198	226	227	223	216	227	230	233	237	238	237	239	243	251	256	260	264	263	258	259	264	274	283	290	304	305	224	228	247	281	289	290	301	307	263	253	241	213	205	203	202	202	200	197	200	205	203	204	202	200	199	196	195	195	
233	233	233	233	233	233	233	233	233	233	233	233	233	233	233	233	233	233	233	233	233	233	233	233	231	227	243	254	251	246	238	227	223	228	234	237	239	244	242	248	240	213	242	236	239	238	235	231	230	232	233	233	233	229	228	216	207	194	184	185	200	197	193	183	215	210	205	211	209	199	192	208	215	218	225	232	234	224	218	214	212	216	221	222	216	206	194	222	216	196	183	204	225	230	235	234	248	246	245	232	219	217	222	227	229	227	218	209	201	194	189	198	164	182	199	216	224	228	221	166	165	178	194	190	228	227	226	224	229	230	236	241	244	244	243	244	250	262	275	289	298	304	255	247	252	259	291	302	304	312	309	248	240	211	204	201	199	196	200	205	205	205	204	203	203	202	201	199	200	203	204	206	209	209	210	211	212	212	
233	233	233	233	233	233	233	233	233	233	233	233	233	233	233	233	233	234	234	234	234	234	234	234	234	232	242	252	247	244	236	227	226	232	236	237	237	244	249	244	229	203	239	234	236	235	233	232	150	232	233	234	235	236	228	219	214	208	199	191	184	181	179	178	176	174	205	198	213	206	195	198	211	223	232	231	233	234	232	231	228	229	234	224	218	213	207	224	211	204	187	197	218	231	233	232	244	241	232	231	217	220	230	234	232	226	218	211	206	203	203	206	206	200	193	184	167	169	177	185	187	202	191	220	218	227	232	233	233	235	245	258	260	257	252	252	253	255	273	290	303	317	306	243	239	215	206	204	202	199	195	199	204	204	203	201	200	198	199	202	204	206	209	210	210	209	209	209	209	210	212	213	214	215	216	217	218	218	
233	233	233	233	233	233	233	233	234	234	234	233	233	234	234	234	234	234	234	234	234	235	235	235	236	236	244	252	250	243	236	230	230	234	235	235	245	247	242	233	223	212	196	232	228	231	230	230	231	156	229	234	238	240	241	226	218	213	208	202	198	195	195	188	185	185	207	200	192	213	204	199	211	228	237	232	233	232	230	228	226	227	233	236	235	231	231	225	214	210	193	196	215	230	234	240	241	236	229	225	225	231	239	240	233	225	219	212	207	205	206	209	209	207	204	203	202	198	193	192	191	200	187	212	210	218	225	232	233	234	240	251	257	256	250	243	237	222	210	210	209	206	202	203	204	202	203	203	202	200	197	199	202	205	208	209	208	208	208	209	211	212	213	214	214	214	214	214	214	215	216	217	217	218	220	221	222	222	
233	233	233	233	233	233	234	234	234	234	234	234	234	234	234	234	234	234	234	234	235	235	236	236	236	237	243	249	248	243	237	234	233	234	250	246	242	237	231	226	221	216	207	194	226	218	229	229	228	226	214	232	238	241	243	226	223	220	215	210	207	205	200	194	190	212	207	201	223	221	215	209	220	237	243	246	232	232	227	225	223	225	230	234	232	229	230	227	215	217	198	200	217	231	240	244	242	250	247	243	234	242	246	241	231	223	219	211	204	203	206	210	210	209	205	203	204	204	199	194	191	201	194	216	216	221	225	229	230	226	223	220	218	216	214	215	212	206	205	207	207	205	202	202	203	204	206	208	208	208	208	208	209	211	212	213	213	213	213	214	215	216	216	217	217	217	217	217	218	218	219	219	220	221	222	223	224	224	
233	233	233	233	233	234	234	234	234	234	234	234	234	234	234	234	234	234	235	235	235	236	236	236	237	237	239	242	240	238	236	233	232	233	243	239	235	229	226	222	219	217	215	208	195	217	229	229	228	227	201	228	236	241	243	244	223	218	213	208	205	205	202	224	218	213	207	229	227	227	226	226	237	250	253	254	254	253	251	249	247	246	248	251	250	249	248	246	239	225	206	208	225	237	246	245	249	247	242	241	250	253	251	243	231	222	215	207	200	198	204	211	211	201	206	211	213	215	217	217	216	216	228	233	237	235	231	228	226	223	220	217	213	211	210	211	211	210	211	212	212	212	211	210	210	211	212	212	213	213	213	213	214	214	215	215	216	216	216	217	218	218	219	219	219	219	220	220	220	221	221	222	222	223	224	225	226	226	
233	233	233	233	233	234	234	234	234	234	234	234	234	234	234	234	234	235	235	235	236	236	236	237	237	237	236	235	233	233	232	233	232	235	232	231	229	229	222	219	219	220	219	214	204	193	212	228	227	226	226	195	234	242	244	242	246	245	215	239	234	230	226	222	218	213	232	231	231	233	236	242	254	263	264	264	263	260	256	254	253	253	254	255	254	253	251	249	243	234	220	220	238	250	252	249	254	248	243	255	255	255	252	246	233	202	206	211	211	211	219	217	221	218	244	252	259	276	283	281	276	263	252	245	241	237	234	229	226	224	223	221	218	217	216	216	216	216	216	216	216	215	215	215	215	215	215	215	215	215	216	216	216	217	217	218	218	218	219	219	220	220	220	221	221	221	221	222	222	222	223	223	224	225	225	226	227	227	
233	233	233	233	234	234	234	234	234	234	234	234	234	234	234	235	235	235	235	236	236	236	237	237	238	237	235	232	230	233	234	234	237	241	223	225	225	224	224	223	225	227	227	224	220	215	209	207	226	225	225	225	230	241	246	241	242	241	239	236	232	227	224	222	238	235	231	229	231	235	243	251	261	270	274	274	272	268	264	261	260	260	262	262	262	260	257	256	251	243	235	238	256	267	270	265	258	254	248	251	228	228	232	227	228	222	243	249	258	274	282	283	280	270	262	259	260	270	279	278	273	264	253	244	238	234	232	230	228	226	224	223	221	220	219	219	219	219	219	219	218	218	218	217	217	217	218	218	218	218	218	218	219	219	219	220	220	220	221	221	221	222	222	222	222	223	223	223	224	224	224	225	225	226	226	227	228	228	
233	233	233	234	234	234	234	234	234	234	234	234	234	235	235	235	235	235	235	236	236	237	237	238	239	240	240	236	234	238	240	235	239	242	244	246	247	247	222	223	225	226	225	223	221	219	214	205	194	225	224	224	227	237	246	250	238	250	236	247	245	244	244	243	240	237	232	229	230	235	244	252	260	270	279	284	283	279	273	268	266	268	271	270	268	267	269	272	270	260	254	259	271	276	279	275	269	264	264	266	265	268	278	281	279	271	263	259	261	271	280	281	278	271	263	257	255	256	259	259	256	251	246	242	238	234	232	230	228	227	225	224	223	222	221	221	221	221	221	220	220	220	220	220	220	220	220	220	220	220	220	220	220	221	221	221	222	222	222	222	223	223	223	223	224	224	224	224	225	225	225	226	226	227	227	228	228	228	
233	233	234	234	234	234	234	234	234	234	234	234	235	235	235	235	235	235	236	236	237	237	238	239	240	242	244	245	246	248	247	245	238	241	242	243	244	245	246	246	248	226	224	223	223	223	218	211	233	227	220	225	227	233	244	250	252	252	250	248	247	247	246	245	244	240	236	231	231	236	244	250	257	264	273	284	291	292	291	283	274	269	272	271	269	266	270	274	274	267	260	262	268	269	271	273	273	269	266	266	264	267	276	280	278	272	264	259	257	258	262	264	263	260	258	256	254	253	252	251	249	246	243	240	237	234	232	230	229	228	226	225	224	224	223	223	223	222	222	222	222	221	221	221	221	221	221	221	221	221	222	222	222	222	222	222	223	223	223	223	224	224	224	224	225	225	225	225	226	226	226	227	227	228	228	229	229	229	
233	234	234	234	234	234	234	234	234	234	235	235	235	235	235	235	235	235	236	236	237	237	238	239	241	243	247	250	254	256	254	252	251	252	252	241	241	241	242	244	247	249	247	246	246	247	245	240	236	230	223	216	231	233	241	250	253	253	252	251	251	251	250	249	247	245	242	239	239	244	248	251	254	257	259	267	276	282	284	279	267	263	263	259	255	246	244	241	238	237	240	244	249	256	260	262	264	264	263	262	261	261	264	266	265	262	260	258	256	256	256	256	256	255	253	252	250	249	248	247	245	243	240	238	236	234	232	231	229	228	227	226	225	225	224	224	224	223	223	223	223	223	223	222	222	222	222	222	222	223	223	223	223	223	223	224	224	224	224	224	225	225	225	225	226	226	226	226	227	227	227	228	228	228	229	229	230	230	
234	234	234	234	234	234	234	234	234	235	235	235	235	235	235	235	235	235	236	236	237	238	239	239	241	243	248	252	255	258	259	258	257	256	256	255	254	253	253	253	245	245	244	243	246	246	243	238	241	239	236	235	236	237	241	248	251	252	253	255	258	260	261	260	256	252	248	244	245	246	246	245	244	239	232	229	231	231	231	230	233	237	237	235	234	237	237	234	233	233	236	240	245	251	254	257	258	259	259	258	258	258	259	259	258	257	256	255	254	253	253	252	252	251	250	248	247	246	245	244	242	241	239	237	235	234	232	231	230	229	228	227	226	226	225	225	225	224	224	224	224	224	224	223	223	223	223	223	224	224	224	224	224	224	224	224	225	225	225	225	225	226	226	226	226	227	227	227	227	228	228	228	229	229	229	230	230	230	
234	234	234	234	234	234	234	234	235	235	235	235	235	235	235	236	236	236	236	236	237	238	239	239	241	243	247	250	252	256	261	262	262	260	258	257	257	257	258	258	258	257	254	253	253	251	248	245	244	241	239	239	241	244	247	251	253	253	252	252	255	258	259	258	253	244	236	229	229	230	229	229	228	239	240	221	226	227	227	227	228	231	233	233	234	236	238	238	238	239	240	243	246	249	251	253	254	255	255	255	255	255	255	255	255	254	253	252	251	250	250	249	249	248	247	246	245	244	243	242	240	239	237	236	235	233	232	231	230	229	228	227	227	226	226	226	225	225	225	225	224	224	224	224	224	224	224	224	224	225	225	225	225	225	225	225	225	226	226	226	226	226	227	227	227	227	227	228	228	228	228	229	229	229	230	230	230	230	
234	234	234	234	234	234	234	235	235	235	235	235	235	235	236	236	236	236	236	237	238	239	239	239	241	242	246	248	247	252	259	262	264	263	261	260	260	260	261	261	260	260	259	258	258	256	252	249	246	243	240	239	241	244	246	248	249	248	244	238	234	232	229	227	224	222	218	219	223	226	226	226	225	223	223	226	231	232	232	232	233	234	236	237	238	238	239	239	240	240	242	243	245	247	248	249	250	251	252	252	253	253	252	252	252	251	251	250	249	249	248	247	247	246	245	244	243	242	241	240	239	238	236	235	234	233	232	231	230	229	228	228	227	227	226	226	226	226	225	225	225	225	225	225	225	225	225	225	225	225	225	225	225	225	226	226	226	226	226	227	227	227	227	227	227	228	228	228	228	229	229	229	230	230	230	230	231	231	
234	234	234	234	234	234	235	235	235	235	235	235	235	236	236	236	236	236	236	237	239	239	239	239	240	241	244	245	243	246	253	257	260	262	263	263	263	264	265	265	264	263	262	262	261	259	255	251	248	244	240	237	235	234	232	231	232	233	231	229	228	226	224	223	220	219	219	221	227	230	231	230	229	230	230	232	233	233	233	234	234	235	237	237	238	239	239	240	240	241	242	243	244	245	247	248	249	250	250	251	251	251	251	250	250	249	249	248	248	247	246	246	245	244	244	243	242	241	240	239	238	237	236	235	233	232	231	231	230	229	228	228	227	227	227	226	226	226	226	226	226	226	225	225	225	225	225	225	225	226	226	226	226	226	226	226	226	227	227	227	227	227	227	228	228	228	228	229	229	229	229	230	230	230	230	231	231	231	
234	234	234	234	234	235	235	235	235	235	235	235	235	236	236	236	236	237	237	238	239	239	239	239	240	241	241	241	240	240	245	250	254	258	260	261	263	264	265	265	264	263	262	261	259	256	253	249	246	242	238	235	233	231	230	229	229	229	229	230	230	230	228	227	225	225	225	227	229	231	231	231	231	232	232	233	234	234	234	235	235	236	237	237	238	238	239	240	240	241	242	243	244	245	246	247	248	248	249	249	249	249	249	249	248	248	248	247	247	246	245	245	244	243	242	242	241	240	239	238	237	236	235	234	233	232	231	230	229	229	228	228	227	227	227	227	227	226	226	226	226	226	226	226	226	226	226	226	226	226	226	226	226	226	226	227	227	227	227	227	228	228	228	228	228	228	229	229	229	229	230	230	230	230	231	231	231	231	
234	234	234	234	234	235	235	235	235	235	235	235	236	236	236	236	237	237	238	239	239	239	239	239	240	240	239	238	235	233	236	242	247	251	253	255	256	257	257	257	258	258	258	258	256	253	250	247	243	240	237	235	235	234	233	233	232	232	232	232	231	230	229	228	227	227	227	229	230	231	231	232	232	232	233	234	234	235	235	236	236	237	237	238	239	239	240	240	241	241	242	243	244	245	246	246	247	248	248	248	248	248	248	248	248	247	247	247	246	245	245	244	243	242	242	241	240	239	238	237	236	235	234	233	232	231	231	230	229	229	228	228	227	227	227	227	226	226	226	226	226	226	226	226	226	226	226	226	226	226	226	226	226	227	227	227	227	227	227	228	228	228	228	228	228	229	229	229	229	230	230	230	230	231	231	231	231	231	
234	234	234	234	235	235	235	235	235	235	235	236	236	236	236	237	237	237	238	239	240	239	239	239	239	239	239	237	232	229	232	239	243	247	249	251	253	253	253	253	254	255	256	256	255	252	249	246	243	240	238	236	235	234	234	233	233	233	233	232	231	230	229	228	228	228	228	229	230	231	232	232	232	233	234	234	234	235	235	236	236	237	238	238	239	240	240	240	241	242	242	243	244	245	246	247	247	247	247	247	247	247	248	248	248	247	246	246	246	245	244	244	243	242	241	240	239	239	238	237	236	235	234	233	232	231	230	230	229	229	228	228	228	227	227	227	226	226	226	226	226	226	226	226	226	226	226	226	226	226	226	226	227	227	227	227	227	227	228	228	228	228	228	228	229	229	229	229	230	230	230	230	231	231	231	231	232	232	
