ncols	178
nrows	225
xllcorner	1669333.329241
yllcorner	496308.452995
cellsize	90.000000
NODATA_value	nan
4.21	4.25	4.34	4.44	4.56	4.71	4.92	5.18	5.52	5.89	6.24	6.57	6.82	6.79	6.58	6.25	5.86	5.49	5.06	4.83	4.33	2.63	1.89	1.35	0.88	0.53	0.25	0.09	1.47	1.12	0.83	3.19	2.82	3.05	3.06	3.13	3.22	3.39	3.59	3.82	4.08	4.31	4.49	4.61	4.69	4.77	4.82	4.84	4.83	4.81	4.76	4.68	4.61	4.54	4.46	4.34	4.48	3.93	2.62	1.83	1.21	0.84	0.93	1.12	1.28	1.46	1.54	1.50	1.47	1.45	1.32	1.15	1.02	2.12	1.88	1.72	1.59	1.47	3.18	3.19	3.19	3.20	3.21	3.24	3.34	3.47	3.58	3.70	3.80	3.88	3.95	3.99	4.03	4.05	4.07	4.08	4.10	4.11	4.12	4.14	4.16	4.18	4.19	4.20	4.20	4.20	4.20	4.17	4.13	4.12	4.12	4.12	4.13	4.14	4.14	4.16	4.16	4.17	4.18	4.21	4.23	4.25	4.29	4.32	4.34	4.36	4.40	4.43	4.47	4.52	4.56	4.62	4.68	4.76	4.85	4.97	5.14	5.33	5.54	5.73	5.90	6.05	6.21	6.33	6.45	6.57	6.71	6.82	6.89	6.93	7.01	7.07	7.11	7.11	7.02	6.89	6.80	6.77	6.74	6.67	6.58	6.52	6.48	6.47	6.43	6.35	6.19	5.93	5.61	5.30	5.05	4.85	4.67	4.56	4.36	9.61	4.24	4.24	
4.21	4.25	4.34	4.44	4.56	4.71	4.92	5.18	5.52	5.89	6.24	6.57	6.82	6.79	6.58	6.25	5.86	5.49	5.06	4.83	4.33	2.63	1.89	1.35	0.88	0.53	0.25	0.09	1.47	1.12	0.83	3.19	2.82	3.05	3.06	3.13	3.22	3.39	3.59	3.82	4.08	4.31	4.49	4.61	4.69	4.77	4.82	4.84	4.83	4.81	4.76	4.68	4.61	4.54	4.46	4.34	4.48	3.93	2.62	1.83	1.21	0.84	0.93	1.12	1.28	1.46	1.54	1.50	1.47	1.45	1.32	1.15	1.02	2.12	1.88	1.72	1.59	1.47	3.18	3.19	3.19	3.20	3.21	3.24	3.34	3.47	3.58	3.70	3.80	3.88	3.95	3.99	4.03	4.05	4.07	4.08	4.10	4.11	4.12	4.14	4.16	4.18	4.19	4.20	4.20	4.20	4.20	4.17	4.13	4.12	4.12	4.12	4.13	4.14	4.14	4.16	4.16	4.17	4.18	4.21	4.23	4.25	4.29	4.32	4.34	4.36	4.40	4.43	4.47	4.52	4.56	4.62	4.68	4.76	4.85	4.97	5.14	5.33	5.54	5.73	5.90	6.05	6.21	6.33	6.45	6.57	6.71	6.82	6.89	6.93	7.01	7.07	7.11	7.11	7.02	6.89	6.80	6.77	6.74	6.67	6.58	6.52	6.48	6.47	6.43	6.35	6.19	5.93	5.61	5.30	5.05	4.85	4.67	4.56	4.36	9.61	4.24	4.24	
4.15	4.19	4.28	4.37	4.47	4.60	4.76	4.97	5.22	5.52	5.81	6.08	6.27	6.23	6.61	6.16	5.69	5.33	4.98	4.83	2.04	2.59	2.23	1.88	1.56	1.28	1.06	0.90	1.43	1.17	2.97	2.87	2.55	2.86	2.94	3.05	3.17	3.35	3.54	3.72	3.94	4.15	4.33	4.46	4.55	4.61	4.66	4.69	4.68	4.67	4.63	4.58	4.53	4.49	4.43	4.25	4.37	2.49	2.37	1.90	1.36	0.89	0.58	0.42	0.30	0.34	0.40	0.34	0.29	0.28	0.21	0.09	0.04	1.65	1.52	1.49	1.46	3.00	3.01	3.06	3.09	3.12	3.13	3.18	3.30	3.43	3.55	3.66	3.77	3.85	3.92	3.97	4.01	4.03	4.05	4.07	4.09	4.10	4.11	4.13	4.14	4.16	4.17	4.18	4.18	4.19	4.20	4.17	4.14	4.12	4.11	4.12	4.13	4.14	4.14	4.15	4.16	4.16	4.17	4.19	4.22	4.24	4.27	4.31	4.33	4.35	4.37	4.41	4.44	4.48	4.53	4.58	4.64	4.71	4.80	4.89	5.02	5.19	5.36	5.53	5.68	5.81	5.94	6.06	6.17	6.26	6.35	6.46	6.55	6.86	6.83	6.78	6.76	6.72	6.66	6.59	6.50	6.43	6.37	6.69	6.51	6.38	6.28	6.18	6.10	6.00	5.85	5.67	5.46	5.24	5.04	4.87	4.70	4.64	4.53	4.36	4.31	4.31	
4.04	4.08	4.16	4.24	4.31	4.39	4.50	4.63	4.78	4.97	5.16	5.41	5.46	6.30	6.02	7.19	7.49	7.11	4.94	4.96	2.66	2.84	2.63	2.42	2.22	2.04	1.88	2.11	1.87	1.77	2.96	2.78	2.56	2.89	2.97	3.07	3.18	3.33	3.47	3.61	3.77	3.94	4.09	4.21	4.30	4.38	4.45	4.49	4.51	4.52	4.50	4.47	4.47	4.44	4.37	4.24	4.47	2.33	2.40	2.16	1.84	1.57	1.38	1.22	1.07	1.01	1.01	0.97	0.95	0.98	1.00	1.00	1.06	1.49	1.48	1.55	1.60	2.86	2.93	3.01	3.05	3.09	3.10	3.16	3.27	3.39	3.51	3.62	3.72	3.81	3.88	3.93	3.97	4.00	4.03	4.05	4.06	4.08	4.09	4.11	4.12	4.13	4.15	4.16	4.16	4.18	4.20	4.18	4.15	4.13	4.11	4.11	4.12	4.13	4.13	4.15	4.16	4.16	4.16	4.18	4.19	4.21	4.23	4.27	4.30	4.32	4.34	4.37	4.40	4.43	4.47	4.51	4.56	4.61	4.68	4.75	4.84	4.95	5.08	5.21	5.32	5.43	5.53	5.62	5.70	5.76	6.43	6.44	6.42	6.36	6.29	7.42	7.51	7.58	7.40	7.21	6.97	6.74	6.56	6.38	7.45	7.43	7.45	7.26	6.95	6.66	6.40	6.09	5.78	5.52	5.08	4.92	4.77	4.70	4.66	4.56	4.48	4.48	
3.93	3.97	4.04	4.10	4.16	4.22	4.30	4.39	4.51	4.66	4.80	5.00	5.06	5.93	6.90	7.39	7.57	7.74	6.56	5.29	2.87	2.91	2.83	2.70	2.52	2.39	2.28	2.37	2.20	2.16	3.11	2.84	2.99	3.00	3.07	3.13	3.22	3.33	3.43	3.55	3.69	3.84	3.98	4.07	4.14	4.24	4.33	4.39	4.44	4.49	4.79	4.70	4.66	4.56	4.37	4.36	1.32	2.34	2.39	2.28	2.11	1.93	1.78	1.67	1.59	1.57	1.56	1.52	1.50	1.51	1.50	1.51	1.73	1.69	1.72	1.77	1.81	2.88	2.96	3.02	3.07	3.09	3.10	3.16	3.27	3.38	3.48	3.59	3.69	3.77	3.85	3.90	3.94	3.98	4.00	4.03	4.04	4.05	4.06	4.08	4.10	4.11	4.14	4.14	4.15	4.19	4.20	4.17	4.15	4.13	4.11	4.10	4.11	4.11	4.11	4.13	4.14	4.14	4.15	4.16	4.17	4.17	4.20	4.23	4.25	4.28	4.31	4.34	4.36	4.39	4.42	4.44	4.47	4.51	4.56	4.62	4.69	4.77	4.88	4.98	5.06	5.15	5.24	5.31	5.37	6.17	6.18	6.17	6.10	7.20	7.33	7.41	7.49	7.48	7.60	7.63	7.64	7.62	7.65	7.69	7.64	7.61	7.64	7.60	7.55	7.58	7.55	7.68	7.62	5.53	5.35	5.00	4.82	4.65	4.67	4.69	4.63	4.63	
3.83	3.86	3.92	3.98	4.03	4.07	4.13	4.20	4.29	4.42	4.57	4.73	5.84	5.69	7.03	7.65	7.96	7.86	6.46	2.40	2.99	2.98	2.94	2.84	2.72	2.62	2.54	2.57	2.45	3.28	3.15	2.89	3.05	3.08	3.14	3.18	3.26	3.34	3.42	3.52	3.64	3.77	3.91	3.99	4.06	4.15	4.25	4.32	4.40	4.45	4.74	4.70	4.66	4.56	4.31	4.48	1.81	2.46	2.45	2.38	2.26	2.15	2.06	1.99	1.94	1.92	1.92	1.91	1.90	1.89	1.85	1.85	1.88	1.87	1.92	1.97	2.88	2.93	3.00	3.05	3.08	3.10	3.11	3.18	3.27	3.37	3.47	3.57	3.67	3.75	3.82	3.87	3.92	3.96	3.98	4.01	4.02	4.03	4.04	4.06	4.08	4.10	4.12	4.12	4.14	4.19	4.19	4.16	4.14	4.12	4.10	4.09	4.10	4.10	4.10	4.11	4.12	4.12	4.13	4.14	4.15	4.16	4.18	4.21	4.23	4.24	4.26	4.29	4.31	4.34	4.37	4.38	4.40	4.42	4.45	4.49	4.54	4.61	4.70	4.79	4.86	4.93	5.00	5.08	5.15	5.93	5.95	5.93	6.99	7.13	7.30	7.39	7.49	7.63	7.70	7.72	7.74	7.73	7.77	7.84	7.85	7.83	7.86	7.86	7.82	7.88	7.96	8.12	7.95	7.76	5.37	5.31	4.93	4.82	4.75	4.85	4.76	4.76	
3.74	3.77	3.82	3.87	3.90	3.93	3.99	4.05	4.13	4.24	4.41	4.55	5.64	5.53	7.24	7.76	8.06	7.97	5.44	2.80	3.03	3.04	3.01	2.92	2.83	2.75	2.71	2.74	2.67	3.37	3.15	2.93	3.10	3.12	3.16	3.21	3.28	3.36	3.43	3.52	3.63	3.75	3.86	3.94	4.01	4.12	4.22	4.31	4.39	4.77	4.71	4.69	4.65	4.55	4.35	4.68	2.15	2.58	2.55	2.49	2.39	2.31	2.25	2.19	2.16	2.17	2.19	2.18	2.18	2.16	2.12	2.13	2.03	2.03	2.07	2.11	2.91	2.98	3.04	3.08	3.10	3.10	3.13	3.20	3.28	3.38	3.47	3.56	3.65	3.73	3.80	3.85	3.89	3.93	3.95	3.98	4.00	4.01	4.02	4.04	4.06	4.08	4.10	4.11	4.14	4.18	4.18	4.15	4.13	4.11	4.10	4.08	4.08	4.09	4.08	4.08	4.10	4.10	4.11	4.12	4.13	4.15	4.17	4.19	4.20	4.21	4.23	4.24	4.26	4.29	4.31	4.33	4.34	4.37	4.39	4.42	4.46	4.52	4.59	4.66	4.73	4.80	4.86	4.91	5.73	5.71	5.74	5.73	6.86	7.04	7.25	7.34	7.50	7.68	7.77	7.76	7.80	7.86	7.90	7.97	8.03	8.04	8.04	8.12	8.08	8.23	8.37	8.35	8.12	7.84	7.36	5.44	5.13	8.74	4.89	4.94	4.90	4.90	
3.65	3.67	3.72	3.76	3.79	3.81	3.86	3.93	4.00	4.11	4.35	4.43	5.51	6.75	7.50	8.08	8.13	8.02	1.80	3.04	3.08	3.11	3.08	2.98	2.91	2.87	2.98	2.85	2.83	3.46	3.18	3.22	3.17	3.16	3.18	3.23	3.28	3.35	3.42	3.51	3.62	3.75	3.84	3.90	3.99	4.10	4.20	4.30	4.38	4.74	4.70	4.69	4.64	4.50	4.50	5.06	2.33	2.63	2.64	2.59	2.52	2.46	2.42	2.37	2.36	2.37	2.35	2.35	2.37	2.36	2.34	2.25	2.20	2.19	2.21	2.23	2.94	3.01	3.06	3.08	3.10	3.10	3.15	3.22	3.31	3.39	3.48	3.56	3.64	3.72	3.78	3.83	3.87	3.90	3.93	3.95	3.97	3.99	4.00	4.02	4.04	4.07	4.08	4.10	4.15	4.17	4.16	4.14	4.12	4.10	4.09	4.07	4.07	4.07	4.06	4.06	4.08	4.09	4.09	4.10	4.11	4.12	4.14	4.16	4.17	4.18	4.19	4.20	4.21	4.24	4.25	4.26	4.27	4.29	4.31	4.34	4.38	4.45	4.52	4.56	4.62	4.68	4.73	4.76	5.56	5.56	5.58	5.54	6.78	7.01	7.22	7.30	7.46	7.65	7.72	7.74	7.85	7.97	8.01	8.04	8.13	8.19	8.24	8.24	8.28	8.43	8.60	8.62	8.44	7.88	7.40	5.46	5.26	4.84	4.92	4.93	4.98	4.98	
3.57	3.59	3.63	3.67	3.69	3.71	3.75	3.81	3.90	4.03	4.22	4.35	5.42	6.99	7.78	8.22	8.20	7.45	2.72	3.16	3.15	3.17	3.14	3.05	3.00	2.97	3.03	2.94	3.60	3.45	3.19	3.27	3.23	3.23	3.23	3.27	3.30	3.34	3.41	3.49	3.60	3.73	3.81	3.87	3.98	4.10	4.20	4.30	4.75	4.72	4.70	4.70	4.65	4.42	4.62	1.14	2.55	2.66	2.69	2.65	2.61	2.57	2.54	2.52	2.52	2.52	2.50	2.49	2.49	2.47	2.49	2.36	2.35	2.36	2.36	2.98	2.99	3.05	3.07	3.08	3.08	3.10	3.15	3.23	3.32	3.41	3.50	3.57	3.65	3.72	3.79	3.82	3.86	3.89	3.91	3.94	3.95	3.97	3.98	4.00	4.02	4.05	4.06	4.09	4.14	4.15	4.13	4.12	4.10	4.09	4.07	4.06	4.05	4.05	4.04	4.04	4.06	4.07	4.08	4.08	4.09	4.10	4.12	4.14	4.14	4.15	4.16	4.16	4.16	4.19	4.19	4.19	4.18	4.19	4.20	4.23	4.27	4.35	4.43	4.47	4.52	4.58	4.62	4.66	5.46	5.48	5.48	6.62	6.78	7.02	7.17	7.27	7.46	7.64	7.69	7.75	7.91	8.02	8.04	8.13	8.25	8.36	8.35	8.33	8.44	8.76	8.86	8.74	8.51	7.89	7.41	5.43	5.36	5.08	5.10	4.98	4.99	4.99	
3.50	3.51	3.55	3.58	3.60	3.62	3.67	3.72	3.82	3.98	4.16	5.38	5.34	7.26	8.03	8.30	8.26	5.67	2.98	3.17	3.20	3.20	3.16	3.09	3.04	3.01	3.06	3.01	3.62	3.40	3.18	3.30	3.27	3.26	3.28	3.31	3.34	3.37	3.42	3.50	3.61	3.72	3.79	3.85	3.97	4.10	4.21	4.31	4.72	4.70	4.70	4.69	4.64	4.38	4.71	1.94	2.71	2.72	2.74	2.70	2.67	2.64	2.62	2.63	2.64	2.64	2.62	2.61	2.59	2.56	2.57	2.40	2.41	2.45	2.47	3.04	3.06	3.10	3.11	3.09	3.07	3.10	3.15	3.22	3.31	3.40	3.48	3.56	3.64	3.72	3.78	3.82	3.84	3.87	3.89	3.91	3.93	3.95	3.96	3.98	4.01	4.03	4.05	4.09	4.13	4.13	4.11	4.10	4.09	4.07	4.06	4.04	4.02	4.02	4.02	4.03	4.04	4.05	4.06	4.07	4.07	4.07	4.10	4.12	4.12	4.12	4.13	4.13	4.12	4.13	4.13	4.12	4.11	4.10	4.12	4.15	4.20	4.27	4.35	4.40	4.45	4.52	4.56	5.41	5.39	5.41	5.39	6.58	6.78	7.02	7.14	7.31	7.51	7.64	7.68	7.78	7.95	8.06	8.08	8.20	8.39	8.47	8.40	8.42	8.69	9.01	9.02	8.96	8.61	7.80	7.27	5.61	5.52	5.27	5.28	5.23	5.12	5.12	
3.43	3.44	3.47	3.50	3.52	3.54	3.59	3.66	3.76	4.02	4.13	5.29	6.67	7.56	8.22	8.36	8.22	2.30	3.11	3.18	3.23	3.23	3.16	3.11	3.07	3.20	3.08	3.06	3.63	3.35	3.38	3.32	3.30	3.28	3.29	3.33	3.36	3.40	3.45	3.53	3.64	3.74	3.80	3.88	4.00	4.12	4.23	4.32	4.71	4.69	4.70	4.69	4.61	4.49	4.97	2.22	2.75	2.77	2.78	2.75	2.71	2.72	2.71	2.72	2.74	2.73	2.71	2.71	2.68	2.66	2.49	2.45	2.44	2.46	2.49	3.07	3.11	3.15	3.17	3.14	3.10	3.13	3.18	3.24	3.31	3.39	3.47	3.54	3.61	3.70	3.76	3.79	3.82	3.85	3.87	3.89	3.91	3.92	3.94	3.96	3.99	4.00	4.03	4.08	4.11	4.10	4.08	4.08	4.07	4.06	4.04	4.02	4.00	3.99	4.00	4.01	4.02	4.04	4.05	4.06	4.06	4.06	4.07	4.09	4.10	4.09	4.10	4.09	4.08	4.08	4.08	4.06	4.04	4.04	4.06	4.10	4.16	4.23	4.29	4.35	4.40	4.45	4.49	5.30	5.30	5.32	5.28	6.57	6.81	7.03	7.14	7.36	7.57	7.64	7.72	7.86	7.99	8.07	8.14	8.29	8.48	8.51	8.43	8.53	8.91	9.16	9.04	8.96	8.70	7.64	7.87	5.87	5.72	5.36	5.54	5.54	5.31	5.31	
3.36	3.38	3.41	3.42	3.44	3.48	3.52	3.60	3.73	3.94	4.10	5.22	6.92	7.75	8.33	8.39	5.90	2.88	3.18	3.22	3.26	3.26	3.18	3.15	3.13	3.20	3.11	3.12	3.58	3.31	3.38	3.33	3.32	3.31	3.32	3.33	3.36	3.40	3.46	3.54	3.65	3.73	3.79	3.90	4.03	4.15	4.26	4.72	4.71	4.69	4.70	4.68	4.54	4.64	2.28	2.46	2.76	2.80	2.80	2.79	2.77	2.77	2.77	2.80	2.83	2.82	2.79	2.78	2.74	2.73	2.53	2.52	2.52	2.53	3.05	3.07	3.11	3.14	3.17	3.14	3.13	3.18	3.23	3.28	3.35	3.42	3.49	3.55	3.61	3.69	3.74	3.77	3.79	3.82	3.84	3.87	3.88	3.90	3.92	3.94	3.97	3.99	4.01	4.07	4.08	4.06	4.05	4.04	4.04	4.02	4.01	3.98	3.97	3.97	3.99	4.00	4.02	4.03	4.04	4.05	4.05	4.04	4.05	4.07	4.08	4.07	4.06	4.05	4.04	4.04	4.03	4.02	4.00	4.00	4.01	4.04	4.10	4.17	4.22	4.27	4.33	4.37	4.39	5.20	5.24	5.26	6.42	6.61	6.85	7.02	7.17	7.41	7.60	7.64	7.75	7.91	8.03	8.12	8.30	8.46	8.67	8.65	8.52	8.66	9.07	9.15	8.98	9.01	8.32	5.98	10.33	5.83	5.71	5.30	10.57	5.71	5.41	5.41	
3.29	3.31	3.34	3.36	3.38	3.42	3.47	3.55	3.70	3.91	5.13	5.16	7.22	8.11	8.40	8.39	1.83	3.11	3.20	3.26	3.28	3.25	3.19	3.15	3.13	3.18	3.13	3.73	3.49	3.27	3.38	3.34	3.33	3.33	3.35	3.36	3.38	3.42	3.48	3.58	3.68	3.73	3.79	3.92	4.06	4.18	4.26	4.70	4.70	4.70	4.71	4.68	4.45	4.72	1.27	2.66	2.78	2.84	2.83	2.81	2.80	2.80	2.82	2.85	2.88	2.87	2.85	2.83	2.78	2.79	2.57	2.56	2.58	2.61	3.09	3.11	3.14	3.14	3.13	3.10	3.10	3.17	3.24	3.31	3.38	3.45	3.52	3.57	3.63	3.71	3.76	3.77	3.80	3.82	3.84	3.86	3.87	3.89	3.90	3.93	3.95	3.98	4.02	4.05	4.04	4.02	4.01	4.00	4.00	3.98	3.94	3.91	3.94	3.97	3.98	4.00	4.02	4.02	4.04	4.04	4.04	4.03	4.03	4.04	4.06	4.05	4.03	4.01	4.00	4.00	3.99	3.97	3.94	3.93	3.94	3.97	4.03	4.10	4.15	4.20	4.28	4.32	5.14	5.15	5.21	5.22	6.40	6.62	6.86	6.99	7.22	7.48	7.62	7.71	7.81	7.97	8.11	8.20	8.43	8.59	8.93	8.70	8.66	9.05	9.72	10.28	10.61	11.22	8.63	8.75	9.79	7.29	5.62	10.54	9.59	5.85	5.49	5.49	
3.23	3.25	3.28	3.30	3.32	3.36	3.43	3.52	3.69	3.91	5.05	6.51	7.55	8.28	8.47	8.03	2.69	3.19	3.22	3.28	3.30	3.25	3.21	3.17	3.32	3.18	3.16	3.71	3.42	3.45	3.38	3.35	3.33	3.33	3.36	3.37	3.40	3.44	3.50	3.61	3.71	3.75	3.82	3.95	4.11	4.23	4.70	4.71	4.72	4.72	4.73	4.69	4.45	4.83	1.96	2.81	2.81	2.86	2.85	2.80	2.81	2.83	2.85	2.88	2.90	2.89	2.89	2.85	2.82	2.64	2.61	2.59	2.59	2.60	3.08	3.13	3.16	3.16	3.14	3.11	3.11	3.16	3.23	3.29	3.37	3.44	3.51	3.57	3.63	3.70	3.75	3.77	3.79	3.82	3.83	3.85	3.86	3.88	3.89	3.92	3.93	3.96	4.01	4.02	4.00	3.98	3.97	3.96	3.95	3.94	3.89	3.84	3.94	3.98	4.00	4.01	4.02	4.03	4.03	4.04	4.03	4.02	4.01	4.02	4.03	4.03	4.00	3.98	3.96	3.95	3.93	3.89	3.85	3.83	3.85	3.91	3.98	4.06	4.12	4.18	4.27	4.33	5.11	5.14	5.21	5.21	6.44	6.66	6.88	7.00	7.29	7.55	7.64	7.71	7.85	8.50	8.95	9.09	10.14	10.72	10.11	9.86	9.70	10.04	10.99	11.32	11.13	11.04	8.05	8.51	9.33	8.34	8.02	10.29	10.19	5.98	5.81	5.81	
3.18	3.19	3.22	3.24	3.28	3.31	3.38	3.50	3.74	3.89	4.99	6.79	7.84	8.38	8.51	4.12	3.00	3.18	3.26	3.31	3.31	3.24	3.22	3.20	3.29	3.19	3.21	3.64	3.37	3.43	3.37	3.35	3.33	3.34	3.36	3.38	3.42	3.46	3.52	3.62	3.71	3.76	3.85	3.98	4.14	4.25	4.70	4.71	4.72	4.72	4.73	4.69	4.59	5.13	2.28	2.87	2.86	2.87	2.85	2.81	2.82	2.84	2.88	2.92	2.94	2.93	2.93	2.88	2.86	2.65	2.63	2.64	2.63	3.08	3.09	3.12	3.13	3.12	3.10	3.11	3.13	3.19	3.26	3.32	3.38	3.43	3.49	3.55	3.62	3.68	3.71	3.74	3.76	3.79	3.81	3.82	3.84	3.85	3.87	3.90	3.92	3.95	4.00	3.99	3.97	3.95	3.94	3.93	3.92	3.92	3.91	3.93	3.97	4.00	4.02	4.02	4.03	4.03	4.03	4.04	4.03	4.01	3.99	3.99	4.01	4.01	3.98	3.94	3.91	3.89	3.86	3.82	3.77	3.74	3.78	3.86	3.98	4.08	4.15	4.24	4.36	4.43	5.16	5.20	5.29	6.35	6.45	6.78	7.17	7.53	8.06	8.52	8.69	9.16	9.94	9.93	9.35	9.10	9.67	9.69	9.54	9.58	9.42	9.52	10.36	10.88	10.97	11.11	8.81	8.25	9.46	9.09	9.74	10.20	9.89	5.96	6.17	6.17	
3.12	3.14	3.17	3.19	3.23	3.28	3.35	3.48	3.72	4.89	6.05	7.13	8.10	8.47	8.44	2.40	3.12	3.18	3.27	3.31	3.30	3.23	3.21	3.20	3.25	3.20	3.79	3.54	3.32	3.41	3.37	3.35	3.35	3.36	3.37	3.39	3.42	3.47	3.56	3.65	3.71	3.78	3.89	4.03	4.17	4.26	4.70	4.72	4.72	4.73	4.72	4.61	4.75	2.97	2.51	2.85	2.88	2.87	2.84	2.82	2.81	2.84	2.89	2.92	2.92	2.92	2.91	2.88	2.88	2.68	2.65	2.66	2.67	3.10	3.12	3.15	3.14	3.11	3.06	3.07	3.10	3.16	3.25	3.33	3.40	3.46	3.50	3.56	3.63	3.68	3.70	3.72	3.75	3.77	3.79	3.80	3.82	3.83	3.85	3.88	3.91	3.95	3.98	3.97	3.94	3.92	3.91	3.91	3.91	3.92	3.93	3.96	4.00	4.02	4.03	4.03	4.04	4.04	4.03	4.03	4.02	4.00	3.97	3.97	3.98	3.98	3.96	3.92	3.88	3.84	3.81	3.76	3.69	3.66	3.69	3.80	3.99	4.17	4.28	4.36	4.44	5.53	5.48	5.44	5.45	7.07	7.60	7.98	8.24	8.27	8.26	8.83	9.15	8.96	8.57	8.35	8.13	8.19	8.76	9.08	9.05	9.45	9.46	9.36	10.15	10.98	11.07	11.10	9.80	8.88	9.69	9.70	9.66	10.07	8.99	8.99	10.76	10.76	
3.06	3.08	3.12	3.14	3.18	3.24	3.33	3.49	3.71	4.83	6.32	7.49	8.29	8.54	5.67	2.92	3.16	3.22	3.28	3.31	3.28	3.24	3.21	3.21	3.26	3.25	3.77	3.47	3.49	3.42	3.37	3.34	3.35	3.36	3.38	3.40	3.42	3.48	3.58	3.67	3.72	3.80	3.93	4.07	4.20	4.69	4.71	4.74	4.73	4.74	4.73	4.51	4.83	1.16	2.74	2.84	2.88	2.85	2.82	2.83	2.82	2.83	2.89	2.92	2.91	2.91	2.89	2.87	2.72	2.68	2.66	2.65	2.67	3.09	3.12	3.14	3.13	3.10	3.06	3.07	3.11	3.15	3.23	3.30	3.38	3.44	3.48	3.54	3.63	3.68	3.69	3.72	3.75	3.77	3.78	3.80	3.81	3.82	3.85	3.88	3.91	3.96	3.96	3.94	3.92	3.90	3.90	3.90	3.91	3.92	3.95	3.98	4.00	4.02	4.03	4.03	4.04	4.04	4.03	4.03	4.02	3.99	3.96	3.95	3.96	3.96	3.93	3.89	3.84	3.79	3.75	3.69	3.61	3.55	3.55	3.61	3.77	3.96	4.09	4.15	4.18	4.15	5.69	5.43	5.30	7.26	7.77	8.07	8.18	7.98	7.71	8.09	8.48	8.23	8.12	8.43	8.52	8.78	9.26	9.11	9.11	9.57	9.51	9.25	10.05	11.12	11.25	10.98	9.97	9.63	9.95	9.30	9.73	9.39	9.10	9.34	10.37	10.37	
3.00	3.02	3.06	3.10	3.15	3.21	3.32	3.56	3.72	4.78	6.66	7.84	8.42	8.56	2.01	3.09	3.18	3.27	3.31	3.32	3.28	3.26	3.25	3.37	3.27	3.28	3.68	3.42	3.48	3.41	3.37	3.34	3.35	3.36	3.37	3.41	3.44	3.49	3.59	3.69	3.74	3.82	3.97	4.11	4.22	4.68	4.73	4.74	4.73	4.75	4.74	4.51	4.96	1.90	2.90	2.86	2.87	2.84	2.80	2.81	2.82	2.83	2.88	2.92	2.91	2.90	2.86	2.87	2.70	2.67	2.66	2.66	3.10	3.10	3.13	3.13	3.10	3.04	3.03	3.06	3.11	3.17	3.24	3.32	3.39	3.44	3.47	3.53	3.60	3.63	3.66	3.68	3.71	3.74	3.76	3.78	3.79	3.81	3.84	3.88	3.92	3.95	3.94	3.92	3.90	3.89	3.89	3.90	3.91	3.93	3.95	3.98	4.00	4.02	4.03	4.03	4.03	4.04	4.03	4.02	4.01	3.99	3.95	3.93	3.93	3.93	3.90	3.86	3.81	3.75	3.68	3.60	3.49	3.41	3.35	3.26	3.25	3.34	3.45	3.56	3.66	3.67	3.62	5.09	5.04	5.00	7.19	7.45	7.80	7.81	7.59	7.84	8.16	8.16	8.67	8.77	8.09	8.20	8.64	8.79	9.09	9.26	9.15	9.49	10.38	11.05	11.29	10.99	10.34	10.54	9.99	8.50	8.46	9.47	9.88	10.18	9.49	9.49	
2.95	2.97	3.01	3.06	3.12	3.20	3.32	3.54	4.64	5.84	7.07	8.09	8.52	7.87	2.79	3.13	3.20	3.28	3.32	3.32	3.27	3.26	3.26	3.34	3.29	3.85	3.59	3.38	3.47	3.40	3.36	3.34	3.35	3.36	3.38	3.42	3.46	3.52	3.60	3.69	3.75	3.86	4.01	4.16	4.67	4.68	4.75	4.75	4.74	4.75	4.75	4.63	5.23	2.24	2.95	2.88	2.85	2.81	2.78	2.76	2.78	2.82	2.86	2.87	2.87	2.85	2.82	2.69	2.67	2.65	2.64	2.65	3.07	3.10	3.13	3.13	3.08	3.02	3.01	3.04	3.09	3.16	3.23	3.31	3.39	3.43	3.49	3.55	3.60	3.62	3.65	3.68	3.70	3.72	3.74	3.75	3.77	3.79	3.82	3.87	3.92	3.93	3.92	3.90	3.88	3.87	3.89	3.90	3.92	3.93	3.96	3.98	3.99	4.01	4.02	4.02	4.03	4.03	4.02	4.02	4.00	3.98	3.95	3.92	3.91	3.90	3.88	3.83	3.78	3.71	3.63	3.53	3.39	3.28	3.20	3.04	2.94	3.00	3.05	3.13	3.25	3.34	3.39	4.96	5.04	5.04	4.87	7.02	7.24	7.29	7.35	7.72	8.23	8.74	8.48	7.66	7.62	8.53	9.23	9.16	9.25	9.58	9.83	10.23	10.39	10.47	10.71	10.76	10.71	10.92	10.20	8.05	6.34	9.42	10.03	9.49	9.13	9.13	
2.90	2.93	2.98	3.02	3.10	3.18	3.32	3.54	4.57	6.12	7.47	8.27	8.55	1.93	3.08	3.14	3.23	3.29	3.32	3.32	3.28	3.27	3.28	3.33	3.32	3.83	3.53	3.56	3.48	3.41	3.35	3.34	3.35	3.36	3.39	3.42	3.47	3.54	3.61	3.68	3.77	3.89	4.05	4.19	4.65	4.69	4.76	4.75	4.74	4.73	4.71	4.85	5.68	2.46	2.91	2.87	2.82	2.77	2.77	2.74	2.73	2.79	2.83	2.82	2.81	2.77	2.77	2.62	2.60	2.60	2.59	2.61	3.04	3.07	3.11	3.09	3.03	2.99	2.99	3.04	3.10	3.16	3.23	3.31	3.37	3.41	3.47	3.53	3.57	3.60	3.63	3.67	3.69	3.71	3.74	3.75	3.76	3.79	3.85	3.90	3.92	3.92	3.91	3.88	3.86	3.87	3.88	3.90	3.92	3.94	3.96	3.97	3.99	4.00	4.01	4.01	4.02	4.02	4.01	4.01	3.99	3.97	3.94	3.91	3.88	3.88	3.86	3.81	3.75	3.69	3.60	3.49	3.33	3.18	3.12	2.99	2.90	2.98	3.06	3.08	3.07	3.07	3.14	5.01	5.13	5.10	4.95	4.75	6.92	6.93	7.10	7.70	8.39	8.25	7.58	7.56	8.19	8.90	8.99	8.75	8.87	9.63	10.19	10.38	10.29	10.08	9.99	10.27	10.80	11.19	10.93	7.11	6.32	8.73	10.16	9.59	10.45	10.45	
2.85	2.89	2.95	3.00	3.07	3.16	3.32	3.55	4.54	6.52	7.82	8.45	8.31	2.57	3.14	3.19	3.27	3.32	3.34	3.30	3.29	3.29	3.43	3.34	3.35	3.73	3.47	3.53	3.46	3.40	3.35	3.33	3.34	3.36	3.39	3.43	3.48	3.55	3.61	3.69	3.79	3.92	4.09	4.21	4.64	4.70	4.77	4.75	4.72	4.71	4.61	5.02	1.49	2.75	2.87	2.85	2.78	2.71	2.71	2.69	2.68	2.73	2.77	2.74	2.71	2.67	2.69	2.54	2.52	2.54	2.54	3.01	3.01	3.05	3.08	3.04	2.97	2.94	2.96	3.02	3.09	3.16	3.23	3.31	3.37	3.42	3.48	3.53	3.54	3.56	3.61	3.64	3.66	3.68	3.71	3.72	3.73	3.78	3.87	3.93	3.89	3.90	3.91	3.86	3.84	3.86	3.88	3.90	3.92	3.94	3.96	3.97	3.98	3.99	4.00	4.00	4.00	4.00	4.00	4.00	3.98	3.96	3.94	3.90	3.87	3.85	3.84	3.80	3.73	3.66	3.58	3.47	3.29	3.11	3.00	2.89	2.79	2.86	3.06	3.18	3.12	2.93	2.85	2.98	5.09	5.19	5.15	5.07	4.97	6.96	7.02	7.36	7.65	7.65	7.79	8.07	8.44	8.68	8.70	8.41	8.40	9.25	9.79	9.95	10.06	9.87	9.74	10.17	10.75	11.32	11.17	6.95	5.78	9.61	10.19	10.28	10.56	10.56	
2.79	2.83	2.91	2.98	3.04	3.15	3.40	4.39	5.57	7.00	8.07	8.55	3.31	2.99	3.15	3.24	3.30	3.34	3.35	3.29	3.28	3.30	3.39	3.34	3.90	3.64	3.43	3.52	3.47	3.39	3.34	3.33	3.33	3.36	3.40	3.44	3.51	3.57	3.61	3.69	3.81	3.96	4.13	4.65	4.63	4.71	4.77	4.77	4.72	4.71	4.57	5.14	1.76	3.00	2.88	2.79	2.70	2.65	2.62	2.59	2.59	2.66	2.68	2.64	2.60	2.58	2.51	2.46	2.45	2.47	2.48	2.93	2.97	3.02	3.03	2.98	2.90	2.89	2.95	3.01	3.08	3.15	3.21	3.29	3.33	3.41	3.51	3.53	3.53	3.55	3.60	3.64	3.64	3.67	3.70	3.68	3.68	3.74	3.91	3.98	3.87	3.87	3.92	3.85	3.82	3.85	3.88	3.90	3.92	3.94	3.95	3.97	3.98	3.98	3.99	3.99	3.99	3.99	3.99	3.98	3.97	3.95	3.93	3.90	3.86	3.83	3.81	3.79	3.72	3.64	3.56	3.45	3.30	3.11	2.94	2.78	2.62	2.58	2.75	3.00	3.10	2.94	2.75	2.78	2.99	5.16	5.34	5.29	5.18	4.90	6.77	6.85	7.25	7.66	7.97	8.24	8.50	8.54	8.59	8.48	8.39	8.94	9.36	9.49	9.63	9.68	10.11	10.50	10.69	11.30	11.13	6.77	5.80	9.32	10.32	10.27	10.29	10.29	
2.75	2.78	2.86	2.94	3.04	3.17	3.40	4.34	5.95	7.43	8.30	8.43	2.36	3.12	3.16	3.26	3.31	3.34	3.34	3.29	3.29	3.31	3.38	3.37	3.87	3.56	3.59	3.52	3.47	3.39	3.33	3.31	3.32	3.37	3.42	3.47	3.53	3.58	3.63	3.70	3.83	4.01	4.16	4.63	4.64	4.71	4.77	4.76	4.71	4.73	4.70	5.40	2.19	3.06	2.87	2.71	2.59	2.57	2.53	2.47	2.50	2.58	2.58	2.53	2.48	2.49	2.38	2.35	2.36	2.36	2.40	2.88	2.93	2.98	2.95	2.89	2.82	2.82	2.90	2.99	3.06	3.15	3.21	3.25	3.29	3.40	3.51	3.52	3.51	3.53	3.57	3.62	3.62	3.65	3.70	3.69	3.66	3.71	3.93	4.05	3.89	3.84	3.92	3.87	3.82	3.84	3.88	3.91	3.93	3.94	3.95	3.96	3.97	3.97	3.98	3.98	3.98	3.97	3.98	3.97	3.96	3.95	3.92	3.89	3.86	3.82	3.79	3.77	3.71	3.63	3.55	3.44	3.32	3.17	3.00	2.81	2.58	2.39	2.37	2.58	2.86	2.87	2.71	2.66	2.78	5.00	5.29	5.33	5.19	4.97	6.75	6.80	7.20	7.60	7.80	8.13	8.53	8.51	8.53	8.61	8.60	8.93	9.32	9.46	9.54	9.97	10.47	10.55	10.65	11.19	10.29	6.82	5.73	8.86	10.27	10.42	9.72	9.72	
2.70	2.74	2.82	2.91	3.02	3.18	3.41	4.31	6.47	7.82	8.49	5.75	2.82	3.12	3.19	3.27	3.32	3.35	3.34	3.32	3.31	3.46	3.37	3.39	3.75	3.51	3.57	3.51	3.46	3.37	3.30	3.28	3.33	3.39	3.44	3.50	3.55	3.59	3.64	3.72	3.87	4.06	4.65	4.63	4.64	4.71	4.77	4.72	4.65	4.71	4.98	5.90	2.55	3.03	2.81	2.60	2.44	2.41	2.36	2.31	2.38	2.45	2.44	2.36	2.30	2.34	2.22	2.21	2.22	2.22	2.76	2.80	2.91	2.96	2.89	2.79	2.73	2.74	2.83	2.94	3.02	3.13	3.23	3.23	3.23	3.35	3.49	3.51	3.51	3.51	3.55	3.61	3.62	3.62	3.66	3.67	3.64	3.67	3.88	4.07	3.95	3.82	3.86	3.85	3.82	3.84	3.87	3.90	3.92	3.93	3.94	3.96	3.96	3.96	3.96	3.96	3.96	3.96	3.96	3.96	3.95	3.94	3.92	3.89	3.85	3.81	3.78	3.75	3.70	3.63	3.54	3.45	3.35	3.23	3.08	2.89	2.66	2.40	2.24	2.32	2.60	2.73	2.64	2.56	2.64	2.87	5.07	5.14	5.12	5.07	6.96	6.93	7.22	7.52	7.70	7.97	8.43	8.57	8.61	8.70	8.76	9.02	9.52	9.85	10.16	10.20	10.09	10.57	10.63	11.04	9.52	6.61	5.52	8.45	10.00	9.32	10.43	10.43	
2.67	2.71	2.81	2.92	3.03	3.21	4.12	5.33	6.98	8.17	8.47	2.05	3.01	3.14	3.25	3.30	3.33	3.36	3.34	3.34	3.34	3.42	3.38	3.93	3.67	3.47	3.56	3.50	3.44	3.37	3.30	3.30	3.36	3.41	3.45	3.52	3.57	3.59	3.65	3.74	3.90	4.09	4.64	4.62	4.65	4.72	4.77	4.69	4.60	4.59	5.20	3.61	2.93	2.97	2.71	2.43	2.24	2.17	2.09	2.07	2.20	2.27	2.21	2.13	2.09	2.08	1.99	2.02	2.03	2.03	2.55	2.63	2.82	2.94	2.89	2.74	2.64	2.66	2.78	2.90	2.97	3.09	3.24	3.26	3.20	3.29	3.42	3.48	3.50	3.51	3.53	3.58	3.63	3.64	3.63	3.63	3.62	3.64	3.82	4.06	4.03	3.85	3.81	3.82	3.80	3.83	3.87	3.90	3.92	3.93	3.94	3.95	3.96	3.96	3.96	3.95	3.95	3.95	3.95	3.95	3.94	3.93	3.91	3.88	3.85	3.81	3.77	3.74	3.69	3.63	3.55	3.46	3.37	3.28	3.14	2.97	2.76	2.52	2.28	2.22	2.42	2.61	2.60	2.54	2.61	2.78	2.96	4.94	5.06	5.06	4.81	6.77	6.99	7.22	7.40	7.77	8.32	8.63	8.88	8.93	8.88	9.06	9.71	10.37	10.29	9.85	10.16	10.46	10.51	10.72	8.96	6.48	5.45	8.58	9.83	9.75	9.00	9.00	
2.64	2.69	2.80	2.92	3.03	3.27	4.07	5.78	7.44	8.39	6.19	2.78	3.09	3.19	3.29	3.32	3.34	3.35	3.33	3.34	3.36	3.41	3.42	3.92	3.61	3.64	3.57	3.50	3.42	3.36	3.32	3.32	3.37	3.43	3.48	3.53	3.57	3.59	3.66	3.78	3.95	4.63	4.62	4.59	4.64	4.73	4.73	4.63	4.57	4.51	5.39	2.06	3.17	2.87	2.56	2.20	1.97	1.85	1.77	1.88	2.15	2.01	1.68	1.60	1.60	1.74	1.60	1.65	1.75	2.46	2.31	2.33	2.54	2.74	2.82	2.75	2.62	2.63	2.74	2.87	2.95	3.03	3.21	3.29	3.22	3.27	3.38	3.43	3.48	3.50	3.52	3.55	3.60	3.63	3.62	3.61	3.60	3.62	3.77	4.03	4.10	3.91	3.81	3.81	3.80	3.82	3.87	3.89	3.91	3.93	3.94	3.95	3.95	3.95	3.95	3.94	3.94	3.94	3.94	3.93	3.92	3.91	3.90	3.87	3.84	3.81	3.77	3.73	3.68	3.63	3.56	3.48	3.39	3.31	3.19	3.04	2.86	2.66	2.41	2.25	2.33	2.51	2.55	2.48	2.50	2.65	2.80	4.83	4.96	5.07	4.95	4.71	6.85	6.89	6.98	7.50	8.17	8.63	9.07	9.15	9.04	9.13	9.55	10.03	10.08	10.05	10.30	10.54	10.39	9.91	8.17	6.18	5.45	8.43	9.53	8.92	11.38	11.38	
2.61	2.67	2.80	2.91	3.02	3.28	4.07	6.34	7.89	8.44	1.84	2.96	3.12	3.26	3.31	3.32	3.35	3.35	3.35	3.36	3.38	3.43	3.47	3.83	3.59	3.64	3.58	3.51	3.42	3.36	3.32	3.33	3.36	3.41	3.48	3.53	3.53	3.56	3.63	3.79	4.02	4.66	4.59	4.53	4.61	4.71	4.67	4.47	4.37	4.60	5.77	2.66	3.33	2.78	2.30	1.78	1.35	1.02	0.98	0.94	0.77	0.63	0.63	0.75	0.82	1.60	1.41	1.24	1.23	2.47	2.23	2.12	2.22	2.35	2.49	2.58	2.57	2.60	2.70	2.83	2.92	2.99	3.16	3.30	3.25	3.27	3.34	3.38	3.45	3.48	3.50	3.53	3.58	3.62	3.62	3.60	3.59	3.59	3.69	3.96	4.14	3.99	3.82	3.79	3.78	3.80	3.85	3.88	3.90	3.92	3.93	3.94	3.95	3.95	3.94	3.94	3.93	3.93	3.92	3.92	3.91	3.90	3.89	3.87	3.84	3.81	3.77	3.73	3.68	3.63	3.57	3.50	3.41	3.32	3.22	3.10	2.95	2.78	2.56	2.36	2.32	2.41	2.44	2.35	2.30	2.44	2.65	2.78	4.87	4.97	5.00	4.90	4.69	6.71	6.75	7.26	7.94	8.50	8.86	9.15	9.23	8.99	9.19	9.76	10.16	10.28	10.58	10.80	10.00	8.19	6.94	5.72	5.41	7.87	9.19	10.44	11.89	11.89	
2.58	2.65	2.79	2.91	3.05	3.32	5.07	6.93	8.26	6.60	2.66	3.01	3.18	3.30	3.31	3.32	3.36	3.37	3.39	3.40	3.52	3.49	4.01	3.78	3.58	3.67	3.62	3.53	3.44	3.36	3.32	3.33	3.35	3.39	3.47	3.50	3.48	3.50	3.58	3.78	4.11	4.76	4.62	4.50	4.60	4.72	4.62	4.29	4.10	4.57	5.96	3.45	3.56	3.03	2.72	2.45	2.21	2.02	1.80	1.44	0.86	0.55	0.51	0.66	0.57	1.55	1.43	1.26	1.06	1.12	2.41	2.20	2.15	2.11	2.09	2.19	2.35	2.50	2.62	2.74	2.86	2.93	3.10	3.27	3.25	3.28	3.34	3.34	3.41	3.45	3.47	3.50	3.55	3.60	3.60	3.59	3.59	3.56	3.63	3.87	4.12	4.10	3.91	3.81	3.79	3.79	3.85	3.88	3.90	3.91	3.93	3.94	3.94	3.94	3.94	3.93	3.93	3.92	3.91	3.91	3.90	3.89	3.88	3.86	3.84	3.81	3.78	3.73	3.68	3.63	3.57	3.51	3.43	3.34	3.25	3.14	3.01	2.86	2.66	2.45	2.36	2.39	2.37	2.25	2.17	2.27	2.53	2.74	2.80	4.83	4.87	4.88	4.74	6.68	6.63	6.95	7.82	8.36	8.66	9.03	8.92	8.83	9.28	9.66	9.94	10.20	10.87	10.51	8.37	7.11	5.63	5.38	5.18	5.94	9.59	11.13	11.72	11.72	
2.57	2.64	2.78	2.92	3.12	3.83	5.65	7.53	8.42	1.77	2.90	3.06	3.23	3.29	3.29	3.31	3.36	3.39	3.42	3.45	3.54	3.57	4.03	3.77	3.80	3.74	3.70	3.58	3.46	3.37	3.32	3.34	3.35	3.38	3.45	3.44	3.42	3.44	3.46	3.68	4.58	4.68	4.43	4.27	4.54	4.83	4.61	4.16	3.98	4.26	6.80	4.54	4.75	4.47	4.18	4.10	3.27	2.85	3.02	2.65	1.41	1.00	0.69	0.67	0.53	1.57	1.33	1.24	1.14	1.21	2.55	2.47	2.40	2.25	1.98	1.88	2.08	2.35	2.54	2.67	2.79	2.86	3.01	3.19	3.21	3.26	3.32	3.32	3.38	3.44	3.45	3.47	3.52	3.58	3.59	3.58	3.59	3.56	3.57	3.74	4.02	4.12	3.99	3.87	3.80	3.79	3.84	3.87	3.89	3.91	3.92	3.93	3.94	3.94	3.93	3.92	3.92	3.91	3.91	3.90	3.89	3.88	3.87	3.86	3.84	3.81	3.78	3.73	3.69	3.63	3.57	3.52	3.46	3.37	3.27	3.17	3.05	2.92	2.74	2.53	2.42	2.48	2.49	2.35	2.20	2.21	2.42	2.69	2.82	2.81	4.76	4.79	4.78	4.57	6.59	6.66	7.40	8.02	8.37	8.56	8.58	8.76	9.34	9.59	9.60	10.01	11.05	9.97	7.12	5.85	5.48	4.99	4.80	6.11	10.26	6.77	12.22	12.22	
2.56	2.66	2.82	2.93	3.16	3.83	6.30	8.13	6.04	2.63	2.93	3.09	3.23	3.26	3.27	3.32	3.37	3.43	3.47	3.65	3.61	3.70	4.02	3.82	3.87	3.83	3.80	3.68	3.53	3.37	3.27	3.27	3.31	3.38	3.45	3.43	3.40	3.42	3.40	3.60	4.29	4.56	4.53	4.49	5.13	5.01	4.59	4.07	3.99	4.05	7.56	2.39	3.37	4.41	4.31	3.70	3.03	2.64	2.60	2.95	2.45	2.02	1.41	1.05	0.78	0.54	1.39	1.13	1.12	1.19	2.44	2.51	2.60	2.56	2.19	1.81	1.89	2.19	2.43	2.61	2.74	2.84	2.95	3.09	3.17	3.23	3.26	3.28	3.35	3.43	3.47	3.47	3.49	3.54	3.57	3.58	3.60	3.56	3.53	3.62	3.86	4.04	4.02	3.92	3.83	3.78	3.82	3.87	3.88	3.90	3.91	3.92	3.93	3.93	3.93	3.92	3.92	3.91	3.90	3.89	3.88	3.87	3.86	3.85	3.84	3.81	3.78	3.74	3.69	3.64	3.58	3.53	3.48	3.40	3.30	3.20	3.09	2.97	2.82	2.63	2.47	2.53	2.65	2.55	2.35	2.26	2.36	2.59	2.80	2.86	4.80	4.78	4.77	4.78	6.77	6.68	6.93	7.70	8.04	8.21	8.50	8.75	9.22	9.50	9.46	9.88	11.15	9.61	6.50	5.67	5.38	4.80	4.09	8.21	5.23	6.94	12.25	12.25	
2.59	2.71	2.88	2.97	3.20	4.87	7.08	8.37	1.91	2.83	2.93	3.09	3.17	3.18	3.21	3.30	3.36	3.47	3.54	3.69	3.74	4.25	4.14	4.17	4.04	3.97	3.92	3.80	3.64	3.45	3.29	3.24	3.31	3.43	3.52	3.50	3.52	3.56	3.56	3.86	4.38	4.65	4.95	5.03	5.03	4.78	4.63	4.07	3.95	2.17	4.44	5.18	6.19	2.82	4.22	3.91	3.35	2.96	2.59	2.26	2.47	2.61	2.11	1.62	1.10	0.91	0.77	1.33	1.10	1.12	2.28	2.33	2.46	2.60	2.42	1.94	1.82	2.05	2.31	2.51	2.67	2.83	2.94	3.00	3.12	3.23	3.21	3.23	3.31	3.39	3.46	3.48	3.47	3.49	3.53	3.56	3.59	3.56	3.53	3.56	3.71	3.91	3.98	3.95	3.86	3.78	3.81	3.86	3.88	3.90	3.91	3.92	3.92	3.92	3.93	3.92	3.91	3.90	3.90	3.88	3.87	3.87	3.86	3.85	3.83	3.81	3.78	3.74	3.69	3.65	3.60	3.55	3.50	3.42	3.34	3.25	3.14	3.01	2.88	2.70	2.48	2.40	2.56	2.62	2.46	2.31	2.32	2.44	2.61	2.80	4.88	4.82	4.80	4.90	4.93	6.99	6.93	7.28	7.78	8.12	8.53	8.93	9.17	9.30	9.42	9.86	11.14	9.62	6.72	5.85	5.57	5.00	3.93	8.29	4.96	11.39	12.07	12.07	
2.66	2.83	3.06	3.12	3.50	5.56	7.98	3.32	2.69	2.75	2.84	2.98	3.05	3.12	3.17	3.18	3.29	3.55	3.75	3.86	4.01	4.28	4.29	4.37	4.28	4.14	4.04	3.93	3.80	3.69	3.56	3.47	3.50	3.62	3.71	3.65	3.65	3.69	3.73	4.00	5.03	4.99	5.21	5.64	5.01	5.00	4.65	4.16	1.68	4.08	1.27	1.47	5.16	6.53	4.00	3.62	3.30	3.02	2.49	2.10	1.77	1.36	1.53	1.95	1.71	1.27	1.10	1.59	1.18	1.14	2.20	2.24	2.25	2.33	2.33	2.01	1.79	1.93	2.19	2.39	2.56	2.77	2.92	2.95	3.08	3.23	3.19	3.20	3.28	3.34	3.42	3.46	3.47	3.48	3.51	3.54	3.58	3.57	3.57	3.57	3.64	3.81	3.93	3.93	3.88	3.79	3.79	3.84	3.87	3.89	3.90	3.91	3.91	3.91	3.92	3.92	3.91	3.90	3.89	3.88	3.87	3.86	3.85	3.85	3.83	3.81	3.78	3.74	3.70	3.66	3.61	3.56	3.51	3.44	3.36	3.28	3.18	3.06	2.93	2.76	2.53	2.31	2.31	2.45	2.42	2.28	2.25	2.32	2.43	2.61	2.81	4.86	4.86	4.96	5.05	4.88	6.91	7.03	7.56	8.08	8.57	9.05	9.26	9.17	9.32	9.97	10.89	9.41	7.01	6.28	5.79	5.32	4.35	8.66	5.07	7.14	8.38	8.38	
2.73	2.96	3.49	3.53	4.08	6.83	7.73	2.41	2.74	2.59	2.60	2.42	2.31	2.43	2.62	2.92	3.29	3.75	4.03	4.11	4.28	4.16	4.21	4.29	4.33	4.26	4.18	4.09	3.99	3.91	3.84	3.74	3.73	3.87	3.98	3.89	3.82	3.88	4.14	4.47	4.78	4.93	5.97	6.01	5.14	4.43	4.56	0.95	4.10	1.60	4.31	4.61	0.57	3.97	3.38	2.96	2.90	2.90	2.47	1.96	1.62	1.27	1.32	1.60	1.59	1.50	1.39	1.03	1.24	1.10	1.09	2.22	2.25	2.15	2.11	1.93	1.73	1.79	2.04	2.27	2.43	2.64	2.83	2.89	3.05	3.19	3.16	3.16	3.23	3.32	3.42	3.44	3.45	3.47	3.50	3.55	3.57	3.59	3.61	3.59	3.59	3.75	3.93	3.95	3.88	3.80	3.78	3.82	3.85	3.88	3.90	3.90	3.90	3.90	3.92	3.92	3.91	3.90	3.89	3.88	3.87	3.86	3.85	3.84	3.83	3.80	3.78	3.74	3.71	3.67	3.62	3.58	3.52	3.46	3.39	3.31	3.23	3.12	3.00	2.85	2.65	2.40	2.23	2.25	2.30	2.24	2.18	2.24	2.31	2.43	2.64	2.81	4.89	4.96	5.01	4.91	6.97	6.81	7.33	8.12	8.59	8.96	9.29	9.18	9.29	10.06	10.54	9.20	7.17	6.44	5.97	5.48	4.71	9.17	5.15	7.11	8.51	8.51	
2.88	3.06	3.78	4.00	6.27	7.93	2.88	1.84	1.48	1.44	1.03	0.83	1.20	2.23	3.23	3.69	3.98	4.04	4.26	4.41	4.32	4.17	4.14	4.18	4.24	4.28	4.30	4.28	4.21	4.15	4.05	3.90	3.80	3.90	4.06	4.15	4.05	4.25	4.31	4.40	4.81	5.16	5.80	5.83	5.39	4.56	4.43	4.17	4.22	4.37	4.29	4.52	2.04	1.63	1.63	2.27	2.66	2.84	2.62	2.01	1.49	1.17	1.09	1.20	1.08	1.00	1.09	1.25	1.66	1.10	0.96	2.15	2.29	2.22	2.05	1.84	1.65	1.66	1.89	2.15	2.32	2.50	2.68	2.79	2.97	3.10	3.09	3.12	3.18	3.27	3.39	3.44	3.45	3.46	3.47	3.52	3.56	3.58	3.60	3.59	3.54	3.63	3.88	3.98	3.90	3.79	3.76	3.80	3.84	3.86	3.89	3.89	3.89	3.89	3.90	3.92	3.92	3.91	3.89	3.87	3.87	3.86	3.85	3.84	3.83	3.80	3.78	3.75	3.71	3.67	3.63	3.59	3.54	3.48	3.41	3.34	3.27	3.18	3.07	2.93	2.77	2.57	2.37	2.22	2.20	2.22	2.20	2.21	2.24	2.32	2.46	2.60	2.79	4.90	4.94	4.90	6.97	6.76	7.09	8.05	8.51	8.74	9.23	9.32	9.33	9.71	9.85	8.75	7.29	6.76	6.08	5.59	5.04	4.88	5.31	7.18	8.69	8.69	
2.96	3.14	3.50	3.65	7.57	10.92	4.24	3.31	2.05	1.39	1.39	1.17	1.91	2.84	3.71	3.90	3.72	3.80	4.00	4.17	4.21	4.23	4.25	4.29	4.28	4.28	4.39	4.48	4.50	4.47	4.39	4.25	4.13	4.06	3.97	3.81	3.93	4.24	5.08	5.25	5.19	5.41	5.49	4.15	1.10	1.48	0.53	4.17	4.31	1.07	4.47	1.27	1.81	2.40	2.57	2.44	2.70	2.94	3.04	2.87	2.70	2.17	1.42	1.11	1.11	1.08	0.97	1.16	2.08	1.58	0.98	2.07	2.26	2.30	2.14	1.87	1.60	1.51	1.70	1.99	2.22	2.42	2.55	2.69	2.89	3.00	3.02	3.07	3.12	3.19	3.30	3.38	3.43	3.47	3.46	3.49	3.56	3.59	3.59	3.58	3.53	3.54	3.75	3.95	3.95	3.82	3.74	3.76	3.81	3.84	3.87	3.88	3.88	3.88	3.89	3.91	3.92	3.91	3.89	3.87	3.87	3.86	3.85	3.84	3.83	3.80	3.78	3.75	3.72	3.68	3.65	3.60	3.55	3.49	3.44	3.38	3.30	3.22	3.13	3.02	2.87	2.71	2.54	2.34	2.18	2.14	2.16	2.21	2.26	2.31	2.42	2.51	2.65	4.81	4.85	4.89	4.86	6.86	6.83	7.77	8.38	8.51	9.13	9.48	9.34	9.41	9.26	8.23	7.23	6.81	5.87	5.36	4.88	4.92	5.35	7.41	10.93	10.93	
3.04	3.17	2.87	2.69	5.74	11.32	4.65	2.72	1.68	1.34	2.14	3.08	3.31	3.33	3.49	3.62	3.51	3.45	3.78	3.87	4.01	4.19	4.35	4.54	4.54	4.45	4.50	4.59	4.66	4.66	4.64	4.60	4.42	4.19	3.62	3.51	4.13	4.34	4.89	5.35	5.59	5.92	4.84	5.05	0.96	0.98	4.69	4.47	1.22	4.46	0.82	0.68	1.63	2.49	2.32	2.25	2.60	2.96	3.28	3.20	3.05	2.85	3.00	2.40	1.81	1.44	1.28	1.25	1.33	1.84	1.23	0.92	2.21	2.33	2.26	2.02	1.66	1.40	1.48	1.78	2.07	2.33	2.48	2.60	2.80	2.91	2.94	3.02	3.08	3.12	3.22	3.31	3.38	3.44	3.47	3.50	3.55	3.58	3.59	3.59	3.55	3.53	3.64	3.84	3.95	3.88	3.76	3.73	3.79	3.82	3.85	3.86	3.88	3.88	3.88	3.90	3.91	3.91	3.89	3.87	3.87	3.86	3.85	3.84	3.83	3.80	3.78	3.75	3.72	3.69	3.65	3.62	3.57	3.51	3.47	3.41	3.33	3.25	3.18	3.09	2.97	2.82	2.67	2.49	2.27	2.09	2.03	2.12	2.23	2.31	2.41	2.49	2.59	2.75	4.77	4.93	5.00	4.66	6.63	7.51	8.21	8.27	8.83	9.14	9.23	9.55	9.31	7.66	7.20	6.04	5.59	4.92	8.85	4.89	9.88	11.48	12.99	12.99	
3.15	3.14	2.66	2.86	4.48	9.60	3.66	2.29	2.54	2.50	3.05	3.51	3.71	3.73	3.65	3.68	3.59	3.85	3.83	3.87	4.00	4.21	4.42	4.69	4.86	4.83	4.83	4.87	5.03	4.85	4.71	4.66	4.55	4.39	3.46	3.90	4.53	4.68	5.03	5.43	5.64	5.68	4.03	4.98	4.63	4.35	4.06	0.76	0.70	0.64	0.75	0.90	1.58	1.57	1.79	2.20	2.49	2.77	3.02	2.98	2.90	2.86	3.41	2.36	2.29	1.62	1.56	1.64	1.72	1.64	1.76	1.17	2.16	2.32	2.35	2.21	1.90	1.47	1.32	1.53	1.85	2.16	2.39	2.53	2.72	2.84	2.85	2.95	3.06	3.10	3.17	3.26	3.32	3.38	3.43	3.50	3.54	3.54	3.56	3.57	3.56	3.54	3.59	3.73	3.89	3.91	3.79	3.71	3.75	3.80	3.83	3.85	3.86	3.87	3.87	3.88	3.91	3.91	3.89	3.87	3.87	3.86	3.85	3.84	3.83	3.80	3.78	3.76	3.73	3.70	3.66	3.63	3.59	3.54	3.49	3.44	3.36	3.28	3.21	3.14	3.05	2.93	2.78	2.62	2.43	2.19	2.00	1.95	2.05	2.17	2.29	2.40	2.47	2.63	4.77	5.02	5.08	4.80	6.57	7.33	8.08	8.14	8.53	8.54	8.77	9.38	9.34	7.95	7.40	6.11	5.59	4.79	4.51	5.14	9.89	11.84	13.57	13.57	
3.18	3.16	2.84	3.37	3.39	9.18	4.13	2.20	2.22	2.48	2.78	3.02	3.38	3.66	3.74	3.70	3.61	3.80	3.78	3.90	4.05	4.28	4.44	4.61	4.85	5.03	5.20	5.40	5.45	5.24	5.08	5.08	4.77	4.00	3.36	4.05	4.72	5.08	5.55	5.95	6.15	5.18	4.03	3.07	4.72	4.37	4.11	0.57	0.30	0.25	0.32	0.42	0.37	0.98	1.27	1.82	2.21	2.49	2.98	3.21	3.47	3.83	3.67	2.92	2.29	1.33	1.44	1.70	1.80	1.57	1.93	1.60	1.26	2.35	2.40	2.37	2.18	1.74	1.35	1.35	1.60	1.95	2.24	2.39	2.61	2.78	2.78	2.85	3.00	3.06	3.11	3.19	3.25	3.31	3.39	3.47	3.51	3.52	3.53	3.56	3.58	3.57	3.57	3.66	3.81	3.91	3.86	3.72	3.70	3.77	3.80	3.83	3.85	3.86	3.86	3.87	3.89	3.90	3.89	3.87	3.86	3.86	3.85	3.84	3.83	3.81	3.78	3.76	3.73	3.70	3.67	3.64	3.60	3.56	3.51	3.47	3.40	3.32	3.24	3.18	3.11	3.01	2.88	2.74	2.58	2.38	2.13	1.93	1.88	1.96	2.13	2.29	2.35	2.51	2.78	4.98	5.16	4.91	6.60	7.12	7.91	8.21	8.51	8.19	8.27	8.86	9.15	8.15	6.41	6.24	5.69	4.64	8.62	9.45	10.36	7.89	9.52	9.52	
3.17	3.19	3.08	3.64	3.73	9.54	5.30	3.16	2.64	2.99	3.26	3.10	3.14	3.34	3.60	3.69	3.69	3.85	3.81	3.88	4.01	4.25	4.46	4.58	4.72	4.89	5.11	5.78	5.82	5.68	5.99	5.80	5.17	3.90	3.38	4.33	4.94	5.17	5.49	5.92	6.31	4.46	4.16	1.16	0.48	0.33	0.52	0.57	0.33	0.09	0.28	1.12	1.60	1.43	1.45	2.06	2.38	2.71	2.97	2.94	3.27	3.88	3.99	3.97	2.80	1.60	1.26	1.45	1.60	1.48	2.01	1.78	1.58	1.38	2.50	2.43	2.36	2.06	1.60	1.35	1.41	1.71	2.05	2.23	2.45	2.69	2.73	2.75	2.90	3.00	3.06	3.11	3.15	3.23	3.36	3.44	3.48	3.50	3.50	3.53	3.58	3.59	3.57	3.61	3.73	3.87	3.91	3.78	3.68	3.72	3.78	3.80	3.83	3.84	3.85	3.86	3.88	3.89	3.89	3.87	3.86	3.86	3.85	3.84	3.83	3.81	3.79	3.77	3.74	3.71	3.68	3.64	3.61	3.58	3.54	3.50	3.44	3.36	3.28	3.22	3.16	3.09	2.98	2.85	2.71	2.54	2.33	2.09	1.89	1.83	1.96	2.15	2.27	2.44	2.68	4.86	5.18	5.15	4.78	6.94	7.56	8.09	8.34	8.00	7.83	8.20	8.85	8.29	6.36	6.33	5.85	4.81	8.45	9.23	5.88	7.87	9.51	9.51	
3.17	3.18	3.24	3.92	3.75	9.75	6.62	4.71	3.78	3.26	3.22	3.24	3.17	3.23	3.55	3.74	4.06	4.02	3.98	3.96	4.03	4.21	4.42	4.63	4.80	4.87	4.86	5.62	5.78	6.48	6.27	6.01	5.48	3.85	3.71	4.98	5.28	5.30	5.60	6.01	6.16	3.77	1.73	1.14	0.55	0.45	0.92	0.74	0.48	0.17	0.26	0.88	0.90	0.41	0.81	1.66	2.44	2.85	2.89	2.81	3.21	3.87	3.98	3.29	2.45	1.62	1.13	1.19	1.22	1.22	1.19	1.78	1.65	1.47	1.35	2.54	2.43	2.25	1.90	1.55	1.37	1.49	1.80	2.03	2.24	2.53	2.68	2.68	2.79	2.93	3.02	3.07	3.09	3.16	3.29	3.40	3.45	3.47	3.46	3.47	3.53	3.58	3.57	3.57	3.66	3.79	3.91	3.86	3.69	3.67	3.74	3.77	3.80	3.83	3.83	3.84	3.86	3.88	3.89	3.87	3.86	3.86	3.86	3.84	3.83	3.82	3.79	3.77	3.74	3.71	3.68	3.66	3.63	3.60	3.57	3.52	3.47	3.40	3.32	3.25	3.20	3.15	3.05	2.93	2.80	2.66	2.49	2.28	2.04	1.84	1.81	1.93	2.10	2.34	2.58	2.90	5.12	5.34	5.13	7.18	7.42	7.87	7.89	7.85	7.45	7.65	8.20	8.63	6.18	6.28	6.07	5.36	8.87	8.95	5.71	7.90	14.21	14.21	
3.13	3.10	3.18	3.89	3.89	9.49	8.61	6.63	5.08	3.93	3.50	3.55	3.48	3.38	3.69	3.78	4.03	4.00	4.04	4.06	4.11	4.26	4.41	4.57	4.80	4.88	5.34	5.41	5.51	6.63	6.48	5.93	5.42	4.21	4.01	4.78	5.25	5.55	5.91	6.42	6.10	1.70	1.71	1.37	1.06	0.96	0.97	0.75	0.52	0.41	0.58	0.88	0.86	0.64	0.90	1.56	2.08	2.28	2.57	2.96	3.06	3.43	3.60	3.19	2.48	1.61	1.12	1.12	1.22	1.16	0.97	1.80	1.63	1.43	1.39	1.44	2.57	2.38	2.13	1.81	1.51	1.43	1.59	1.79	1.98	2.27	2.55	2.62	2.69	2.84	2.96	3.04	3.06	3.12	3.23	3.34	3.40	3.43	3.44	3.45	3.49	3.54	3.55	3.54	3.61	3.71	3.84	3.89	3.73	3.64	3.70	3.74	3.77	3.81	3.82	3.83	3.84	3.87	3.88	3.87	3.86	3.86	3.85	3.84	3.83	3.82	3.80	3.78	3.75	3.72	3.69	3.67	3.64	3.62	3.59	3.55	3.50	3.44	3.37	3.30	3.24	3.18	3.10	3.00	2.89	2.76	2.61	2.43	2.21	1.96	1.76	1.72	1.89	2.19	2.45	2.77	4.99	5.47	5.52	5.26	7.47	7.63	7.51	7.62	7.26	7.52	7.93	8.36	5.91	5.85	5.81	5.58	9.09	4.97	5.75	7.98	12.50	12.50	
2.96	2.93	2.93	3.23	3.15	8.26	11.76	7.62	5.92	5.10	4.69	4.60	4.42	4.16	4.15	4.31	4.12	4.00	4.01	4.09	4.20	4.39	4.60	4.70	4.81	4.84	5.46	5.34	6.39	6.83	6.87	6.33	5.97	4.90	4.49	4.79	4.91	5.09	5.31	5.98	4.61	1.68	1.78	1.59	1.32	0.84	0.64	0.79	0.76	0.85	1.02	1.19	1.61	1.86	1.82	1.97	2.15	2.27	2.51	2.38	2.31	3.01	3.25	2.99	2.53	2.15	2.07	1.93	2.19	1.46	1.66	1.02	1.83	1.57	1.48	1.49	1.51	2.61	2.38	2.12	1.83	1.63	1.59	1.64	1.75	1.99	2.32	2.50	2.58	2.72	2.86	2.96	3.01	3.05	3.16	3.28	3.35	3.38	3.42	3.45	3.47	3.50	3.53	3.53	3.56	3.66	3.78	3.87	3.78	3.64	3.65	3.71	3.74	3.78	3.81	3.81	3.82	3.85	3.87	3.87	3.86	3.85	3.85	3.85	3.84	3.82	3.80	3.78	3.76	3.73	3.70	3.68	3.66	3.64	3.61	3.58	3.53	3.48	3.41	3.34	3.28	3.22	3.15	3.07	2.97	2.85	2.71	2.56	2.37	2.13	1.86	1.65	1.71	2.01	2.29	2.59	4.87	5.56	5.78	5.54	5.27	7.18	7.11	7.27	7.28	7.59	7.92	8.32	5.35	5.11	5.07	9.20	5.13	5.17	5.82	7.98	14.27	14.27	
2.78	2.75	2.69	2.25	2.19	3.39	10.94	7.64	6.14	5.63	5.24	5.00	4.82	4.62	4.53	4.46	4.19	4.00	3.97	4.04	4.14	4.30	4.53	4.74	4.85	5.48	5.28	6.08	6.49	6.81	6.74	6.44	6.39	5.85	5.38	5.32	5.12	4.98	4.99	5.49	2.82	2.07	1.50	1.09	0.92	0.67	0.73	1.25	1.55	1.73	1.61	1.81	2.23	2.33	1.64	1.49	1.85	2.05	2.00	1.94	2.29	3.10	3.51	3.21	2.75	2.61	2.68	2.49	2.72	1.46	1.17	0.81	0.94	1.73	1.60	1.53	1.50	2.78	2.63	2.45	2.23	1.99	1.82	1.68	1.61	1.74	2.06	2.34	2.45	2.57	2.75	2.87	2.94	2.99	3.09	3.22	3.29	3.32	3.38	3.43	3.46	3.47	3.51	3.53	3.52	3.59	3.76	3.87	3.83	3.70	3.62	3.66	3.71	3.75	3.78	3.80	3.81	3.83	3.86	3.87	3.86	3.85	3.85	3.85	3.84	3.83	3.81	3.79	3.77	3.74	3.71	3.70	3.67	3.65	3.63	3.60	3.56	3.51	3.45	3.39	3.32	3.26	3.19	3.13	3.05	2.95	2.82	2.68	2.52	2.31	2.06	1.74	1.61	1.80	2.08	2.36	4.69	5.40	5.90	5.72	5.43	5.25	5.29	5.42	5.47	7.54	7.63	7.72	5.13	4.92	8.54	4.97	5.22	5.36	6.05	12.21	14.05	14.05	
2.66	2.62	2.47	1.93	2.20	2.36	9.55	8.36	6.83	6.01	5.45	4.97	4.68	4.52	4.61	4.43	4.19	4.01	3.95	3.99	4.03	4.10	4.24	4.40	4.59	5.55	5.25	6.34	6.77	6.88	6.72	6.27	5.88	5.53	5.31	5.25	4.95	4.67	5.09	5.26	1.91	2.62	1.72	1.20	1.12	1.20	1.97	2.35	2.18	1.93	1.81	1.91	1.75	1.10	0.88	1.65	1.89	1.97	1.96	1.96	2.39	3.21	3.60	3.39	2.93	2.71	2.75	2.64	2.11	2.01	1.11	1.31	0.96	1.14	1.82	1.66	1.53	1.47	2.72	2.62	2.48	2.29	2.11	1.89	1.62	1.54	1.76	2.11	2.33	2.46	2.63	2.79	2.87	2.95	3.05	3.15	3.22	3.25	3.32	3.41	3.44	3.44	3.46	3.51	3.50	3.51	3.67	3.84	3.86	3.78	3.65	3.61	3.66	3.72	3.75	3.78	3.79	3.81	3.83	3.85	3.86	3.85	3.85	3.84	3.84	3.83	3.81	3.80	3.77	3.75	3.73	3.71	3.69	3.67	3.64	3.62	3.58	3.55	3.50	3.43	3.38	3.31	3.25	3.18	3.12	3.03	2.91	2.78	2.64	2.45	2.22	1.90	1.62	1.62	1.85	2.13	2.57	5.11	5.76	5.86	5.71	5.45	5.47	5.54	5.64	5.73	5.65	4.65	4.86	6.31	4.71	5.00	5.36	5.96	6.44	8.10	13.83	13.83	
2.57	2.49	2.30	2.14	2.53	2.05	9.10	8.78	7.16	6.09	5.55	5.11	4.81	4.57	4.64	4.50	4.34	4.14	4.03	4.00	4.02	4.09	4.20	4.20	4.31	5.23	6.48	6.90	7.24	7.25	7.18	6.83	6.31	5.74	5.41	5.29	4.47	3.53	4.64	3.81	2.64	3.03	2.36	1.92	1.80	1.90	2.53	2.65	1.95	1.70	1.98	1.85	1.30	0.56	0.46	0.91	1.65	2.32	2.66	2.62	2.76	3.27	3.56	3.52	3.32	3.21	3.19	3.11	2.41	1.76	1.42	0.99	0.45	0.82	0.96	1.70	1.65	1.57	1.47	2.70	2.62	2.48	2.36	2.17	1.83	1.52	1.49	1.76	2.09	2.34	2.53	2.69	2.79	2.88	2.99	3.09	3.16	3.19	3.24	3.33	3.39	3.39	3.42	3.47	3.48	3.45	3.55	3.75	3.84	3.83	3.74	3.62	3.61	3.67	3.71	3.75	3.77	3.79	3.81	3.83	3.85	3.85	3.84	3.84	3.83	3.83	3.82	3.80	3.78	3.76	3.73	3.72	3.70	3.68	3.66	3.63	3.60	3.57	3.54	3.48	3.42	3.36	3.30	3.23	3.17	3.10	3.00	2.87	2.74	2.57	2.36	2.06	1.73	1.56	1.68	1.94	2.35	3.18	5.67	5.87	5.91	5.60	5.48	5.41	5.60	5.82	4.63	4.60	6.35	4.67	4.65	5.00	5.96	6.12	6.69	11.35	13.71	13.71	
2.43	2.35	2.19	2.16	2.77	2.47	8.83	8.98	7.41	6.09	5.42	5.07	4.79	4.78	4.68	4.53	4.42	4.25	4.06	3.94	3.91	4.01	4.13	4.14	5.03	4.94	6.38	6.74	7.04	6.98	6.99	7.01	6.94	6.46	6.00	5.66	3.80	1.23	3.08	5.26	4.75	4.03	3.38	2.96	2.74	2.67	2.80	2.46	1.67	2.08	2.32	1.50	0.97	0.83	0.83	1.11	1.81	2.25	2.26	2.57	3.19	3.39	3.61	3.54	3.58	3.67	3.60	3.80	3.52	3.49	2.06	1.10	1.07	0.58	0.67	1.46	1.54	1.64	1.62	1.50	2.77	2.70	2.61	2.46	2.17	1.77	1.46	1.47	1.75	2.11	2.39	2.59	2.71	2.81	2.91	3.01	3.10	3.13	3.16	3.26	3.34	3.35	3.38	3.42	3.44	3.42	3.46	3.62	3.77	3.81	3.80	3.71	3.61	3.62	3.67	3.71	3.74	3.76	3.78	3.80	3.84	3.85	3.83	3.83	3.83	3.83	3.82	3.80	3.79	3.77	3.74	3.73	3.71	3.68	3.67	3.65	3.63	3.60	3.57	3.52	3.47	3.41	3.34	3.28	3.23	3.17	3.07	2.96	2.83	2.68	2.50	2.25	1.93	1.66	1.60	1.77	2.19	3.06	3.80	5.81	5.79	5.81	5.44	5.22	5.46	5.71	4.53	6.16	4.49	4.54	7.97	5.66	5.95	6.22	10.63	11.98	13.85	13.85	
2.36	2.27	2.09	2.04	2.72	2.49	8.61	8.68	7.90	6.65	5.55	4.97	4.92	4.75	4.60	4.40	4.31	4.19	4.03	3.87	3.81	3.87	3.98	4.01	4.88	4.74	6.26	6.32	6.79	6.86	6.95	7.18	7.10	6.65	6.10	5.29	0.30	2.98	4.14	4.88	5.17	5.12	4.27	3.48	3.29	3.31	3.08	2.21	1.93	2.41	1.98	1.08	1.22	1.30	1.30	2.10	2.64	2.70	2.63	2.78	3.28	3.37	3.45	3.54	3.72	3.85	3.90	4.19	4.17	4.67	3.21	2.10	1.52	1.53	1.62	1.61	1.78	1.58	1.70	1.62	1.58	2.87	2.84	2.72	2.54	2.18	1.73	1.45	1.48	1.82	2.19	2.44	2.59	2.72	2.82	2.92	3.04	3.09	3.10	3.18	3.28	3.31	3.34	3.38	3.40	3.41	3.42	3.50	3.65	3.77	3.80	3.77	3.68	3.60	3.62	3.68	3.72	3.74	3.75	3.78	3.81	3.84	3.83	3.82	3.83	3.83	3.82	3.81	3.79	3.78	3.76	3.74	3.72	3.70	3.68	3.67	3.64	3.62	3.60	3.56	3.51	3.45	3.39	3.33	3.28	3.23	3.14	3.03	2.92	2.79	2.63	2.43	2.17	1.89	1.64	1.66	2.08	2.86	3.63	3.85	5.57	5.94	5.49	4.10	5.69	5.85	6.15	6.14	4.31	4.43	4.44	5.45	5.82	9.80	10.98	12.75	13.78	13.78	
2.37	2.24	2.02	1.89	2.23	2.00	8.36	9.34	7.69	6.68	5.76	4.96	4.81	4.71	4.55	4.34	4.19	4.08	3.95	3.83	3.83	3.94	4.01	4.74	4.56	5.70	6.11	6.49	6.97	7.12	7.28	7.59	7.71	7.29	6.83	2.49	2.88	3.82	4.93	5.21	5.15	5.72	5.59	4.17	3.64	3.49	3.18	2.52	2.72	2.75	2.19	1.94	2.76	2.71	2.36	2.58	2.91	3.00	2.89	2.97	3.46	4.12	3.89	3.63	3.94	4.13	4.20	4.40	4.39	4.02	3.08	2.18	2.21	2.14	1.78	1.58	1.38	1.63	1.76	1.84	1.72	1.73	1.64	2.87	2.79	2.59	2.22	1.76	1.44	1.57	1.96	2.28	2.49	2.64	2.75	2.86	2.98	3.06	3.07	3.11	3.19	3.24	3.29	3.34	3.36	3.38	3.40	3.42	3.51	3.68	3.78	3.79	3.75	3.66	3.59	3.62	3.68	3.71	3.73	3.75	3.78	3.82	3.82	3.81	3.81	3.82	3.82	3.81	3.79	3.78	3.77	3.75	3.73	3.71	3.69	3.68	3.66	3.64	3.62	3.59	3.54	3.50	3.45	3.39	3.34	3.29	3.20	3.10	3.01	2.90	2.76	2.58	2.37	2.14	1.82	1.69	2.05	2.76	3.40	3.67	3.70	4.08	5.67	4.23	4.13	6.32	6.13	4.26	4.33	4.34	7.76	8.10	9.06	9.89	10.75	12.49	13.37	13.37	
2.34	2.22	1.96	1.77	1.66	1.29	6.90	10.76	6.68	5.94	5.33	5.05	4.62	4.51	4.43	4.30	4.12	3.97	3.84	3.72	3.76	3.95	4.11	4.72	5.56	5.79	5.92	6.43	6.77	6.93	7.19	7.56	7.86	7.96	8.69	3.61	3.68	3.98	4.73	5.16	4.98	5.42	6.16	5.59	4.42	3.49	2.94	2.93	3.42	3.67	3.59	3.98	3.73	3.33	2.97	2.95	2.95	2.98	2.95	2.96	3.02	3.52	4.75	4.94	4.31	4.29	4.48	4.78	4.91	4.89	4.43	4.32	2.72	1.91	2.48	0.97	1.61	1.37	1.79	1.95	1.90	1.75	1.62	1.45	2.82	2.77	2.57	2.18	1.73	1.54	1.73	2.06	2.35	2.55	2.67	2.79	2.91	3.01	3.05	3.06	3.11	3.17	3.22	3.27	3.31	3.34	3.37	3.38	3.41	3.54	3.72	3.80	3.80	3.76	3.66	3.60	3.63	3.67	3.69	3.72	3.75	3.78	3.80	3.81	3.81	3.81	3.81	3.81	3.79	3.79	3.77	3.76	3.74	3.72	3.70	3.69	3.67	3.65	3.64	3.61	3.58	3.53	3.49	3.44	3.39	3.35	3.27	3.16	3.08	3.00	2.87	2.72	2.54	2.33	2.04	1.84	2.08	2.70	3.20	3.42	3.54	3.91	4.26	4.18	4.19	6.12	4.36	4.40	4.48	5.82	7.82	8.35	9.09	9.69	10.47	12.36	13.47	13.47	
2.36	2.21	1.94	1.69	1.47	1.37	5.30	11.29	6.75	5.40	4.95	5.01	4.61	4.37	4.27	4.23	4.10	3.96	3.84	3.74	3.75	3.91	4.77	4.75	6.13	6.32	6.33	6.41	6.66	6.89	7.13	7.48	7.70	8.31	6.52	4.34	4.04	3.98	4.47	5.14	4.90	4.75	4.33	5.06	5.37	3.91	3.43	3.25	3.40	3.89	4.10	4.11	3.82	3.43	3.09	3.04	3.04	3.15	3.01	2.46	2.34	3.32	4.73	5.87	6.02	5.58	5.30	4.84	4.90	5.25	5.33	5.16	4.91	4.12	3.52	2.97	2.38	1.79	1.76	1.39	2.17	1.97	1.70	1.43	2.70	2.71	2.64	2.41	2.08	1.77	1.68	1.86	2.13	2.37	2.53	2.65	2.78	2.91	3.00	3.01	3.04	3.12	3.18	3.21	3.26	3.31	3.33	3.35	3.37	3.42	3.56	3.74	3.81	3.80	3.76	3.69	3.65	3.64	3.66	3.69	3.73	3.75	3.77	3.78	3.79	3.80	3.80	3.80	3.80	3.79	3.78	3.77	3.75	3.74	3.71	3.70	3.68	3.67	3.65	3.63	3.60	3.57	3.53	3.49	3.44	3.39	3.32	3.23	3.16	3.09	2.97	2.83	2.68	2.49	2.21	2.01	2.14	2.57	2.95	3.17	3.36	3.71	4.01	3.99	4.01	5.89	5.94	6.03	6.16	6.05	8.09	8.26	8.94	9.77	10.58	12.29	13.79	13.79	
2.39	2.26	1.96	1.67	1.42	1.63	4.36	10.56	6.37	4.93	5.22	5.09	4.75	4.43	4.23	4.20	4.11	3.97	3.85	3.79	3.76	3.88	4.74	5.91	6.15	6.03	6.35	6.55	6.88	7.32	7.56	7.85	8.09	8.97	4.62	4.37	4.27	3.96	3.67	4.13	3.68	4.48	3.88	4.85	5.02	4.38	4.26	4.29	4.31	4.32	4.52	4.55	4.53	4.70	4.05	3.41	3.10	2.84	2.75	2.59	3.55	4.12	4.90	5.81	6.31	6.67	6.50	6.33	6.36	5.72	5.71	5.54	5.19	4.48	5.63	4.87	3.93	2.98	2.51	1.75	1.82	2.59	2.33	1.87	1.53	2.63	2.61	2.52	2.32	2.05	1.85	1.86	1.99	2.17	2.36	2.51	2.64	2.77	2.89	2.95	2.98	3.05	3.13	3.17	3.22	3.27	3.30	3.31	3.33	3.35	3.41	3.58	3.77	3.81	3.78	3.79	3.78	3.72	3.66	3.67	3.72	3.75	3.77	3.78	3.79	3.79	3.79	3.79	3.80	3.79	3.78	3.77	3.76	3.76	3.74	3.72	3.70	3.68	3.67	3.65	3.62	3.60	3.57	3.54	3.49	3.44	3.37	3.28	3.22	3.17	3.07	2.94	2.82	2.66	2.42	2.22	2.28	2.48	2.67	2.90	3.13	3.46	3.74	3.78	3.81	5.87	6.00	6.21	6.38	6.37	6.19	8.28	8.70	9.61	10.46	12.27	13.79	13.79	
2.48	2.34	2.02	1.70	1.40	1.55	1.52	9.65	6.47	5.53	5.17	5.01	4.71	4.43	4.20	4.14	4.04	3.91	3.70	3.53	3.41	3.55	4.65	6.41	6.40	6.40	6.59	6.94	7.21	7.59	8.02	8.37	9.16	5.30	4.33	4.14	3.90	3.32	2.63	2.58	3.31	3.58	3.48	3.40	4.98	4.88	4.82	5.19	5.01	4.75	4.90	4.96	4.83	5.07	5.38	5.01	4.51	4.13	4.03	4.60	4.65	4.28	4.41	5.10	5.62	6.25	6.62	6.58	7.30	7.41	7.81	7.19	8.02	7.49	7.08	6.67	5.98	4.82	3.76	1.92	1.54	1.75	2.98	2.70	2.15	1.71	2.65	2.56	2.44	2.23	2.07	2.07	2.08	2.10	2.22	2.39	2.53	2.62	2.71	2.81	2.88	2.96	3.03	3.10	3.16	3.21	3.25	3.29	3.31	3.31	3.33	3.42	3.61	3.78	3.77	3.73	3.81	3.83	3.72	3.66	3.69	3.73	3.76	3.80	3.81	3.80	3.79	3.79	3.80	3.80	3.80	3.78	3.77	3.78	3.78	3.76	3.73	3.71	3.69	3.67	3.65	3.63	3.60	3.58	3.55	3.50	3.43	3.34	3.28	3.22	3.15	3.04	2.94	2.83	2.67	2.51	2.46	2.49	2.56	2.69	2.88	3.16	3.43	3.58	3.70	3.78	5.87	6.16	6.44	6.49	6.42	6.19	8.52	9.28	10.37	12.46	13.89	13.89	
2.56	2.45	2.14	1.80	1.53	1.48	1.00	9.33	7.02	5.90	5.33	5.00	4.70	4.45	4.18	4.08	3.98	3.88	3.66	3.24	2.89	4.11	4.16	6.57	6.80	7.10	7.10	7.24	7.51	7.91	8.39	9.12	5.92	5.86	4.80	4.30	3.59	3.06	2.40	2.04	4.13	2.16	3.39	3.89	3.57	4.16	4.63	4.94	5.05	4.97	4.86	4.81	5.24	5.29	5.57	5.50	5.06	5.21	5.38	5.45	5.47	5.11	5.17	5.55	5.49	5.71	6.06	5.98	5.98	6.48	6.73	7.26	7.33	6.75	7.02	7.00	5.94	4.75	3.69	2.66	2.07	1.92	2.05	3.04	2.65	2.16	2.87	2.68	2.50	2.31	2.16	2.19	2.24	2.18	2.16	2.27	2.44	2.55	2.61	2.66	2.73	2.82	2.91	2.99	3.08	3.14	3.17	3.24	3.30	3.30	3.31	3.35	3.43	3.63	3.77	3.72	3.73	3.82	3.79	3.69	3.66	3.68	3.72	3.78	3.82	3.82	3.81	3.80	3.80	3.82	3.82	3.81	3.78	3.76	3.78	3.79	3.76	3.74	3.72	3.70	3.70	3.67	3.64	3.61	3.59	3.56	3.49	3.42	3.35	3.28	3.21	3.12	3.04	2.97	2.88	2.77	2.66	2.57	2.54	2.56	2.66	2.87	3.12	3.30	3.49	3.66	5.80	6.04	6.42	6.54	6.37	6.15	8.28	8.64	9.66	12.25	14.00	14.00	
2.67	2.57	2.29	1.98	1.66	1.47	1.01	8.00	7.31	5.81	5.37	5.08	4.75	4.53	4.23	4.07	3.95	3.89	3.67	3.15	2.58	3.77	3.57	6.34	6.89	7.51	7.21	7.28	7.67	8.15	8.63	6.33	6.21	5.77	4.75	4.04	3.51	3.30	3.23	3.22	3.29	3.12	3.08	3.66	3.84	3.86	4.14	4.49	4.70	4.77	4.89	4.96	4.96	4.87	4.89	5.22	4.84	4.84	5.28	5.34	5.33	5.38	4.99	5.19	5.22	5.26	5.55	5.60	5.55	5.78	5.71	5.86	6.03	5.88	5.94	5.57	6.56	5.71	4.38	3.33	2.70	2.56	2.73	3.36	3.08	2.61	2.06	2.94	2.68	2.44	2.28	2.24	2.27	2.25	2.17	2.18	2.32	2.44	2.54	2.61	2.62	2.65	2.77	2.86	2.97	3.05	3.08	3.16	3.24	3.26	3.28	3.31	3.34	3.43	3.63	3.76	3.79	3.80	3.80	3.76	3.71	3.66	3.67	3.72	3.76	3.79	3.80	3.80	3.79	3.80	3.82	3.83	3.80	3.75	3.75	3.77	3.77	3.75	3.72	3.71	3.72	3.72	3.68	3.64	3.62	3.60	3.54	3.47	3.42	3.34	3.26	3.20	3.14	3.09	3.03	2.95	2.83	2.67	2.54	2.46	2.49	2.66	2.87	3.02	3.18	3.42	3.62	5.80	6.23	6.42	6.24	6.06	6.00	6.15	8.62	11.39	13.77	13.77	
2.77	2.70	2.44	2.13	1.74	1.39	1.19	8.23	7.08	5.69	5.24	5.01	4.75	4.59	4.36	4.22	4.15	4.15	3.84	3.25	2.62	3.60	3.30	5.68	6.53	7.43	7.50	7.55	7.76	7.13	6.81	6.73	6.44	5.00	3.78	3.18	3.10	3.34	3.58	3.87	4.02	4.13	4.32	4.19	4.21	4.05	3.94	4.14	4.28	4.38	4.45	4.63	4.70	4.64	4.69	5.00	5.15	5.14	5.01	5.07	4.67	4.71	4.56	4.87	4.97	4.86	5.06	5.17	5.06	5.21	5.12	5.03	5.12	5.09	4.85	4.79	4.96	5.18	4.85	4.04	3.42	3.09	2.93	3.37	3.28	3.10	2.53	3.23	2.92	2.66	2.50	2.40	2.32	2.26	2.20	2.19	2.24	2.31	2.37	2.48	2.51	2.45	2.55	2.71	2.82	2.94	3.01	3.08	3.17	3.22	3.25	3.28	3.31	3.33	3.43	3.62	3.81	3.87	3.82	3.78	3.76	3.72	3.67	3.68	3.72	3.75	3.78	3.80	3.80	3.79	3.80	3.84	3.82	3.76	3.74	3.76	3.76	3.74	3.73	3.72	3.72	3.73	3.70	3.66	3.65	3.63	3.57	3.50	3.47	3.40	3.32	3.27	3.25	3.22	3.17	3.10	2.98	2.81	2.64	2.51	2.44	2.51	2.68	2.83	2.98	3.22	3.42	3.62	5.91	6.23	6.31	6.28	6.29	6.44	6.52	10.97	13.74	13.74	
2.85	2.80	2.58	2.30	1.86	1.31	1.26	6.03	6.92	5.72	5.22	4.95	4.72	4.61	4.49	4.48	4.56	4.59	4.39	3.59	3.11	2.87	3.10	2.73	5.90	3.48	3.85	3.78	4.46	4.00	7.07	6.98	5.69	4.47	3.36	3.10	3.37	3.83	4.19	4.20	4.01	4.23	4.53	4.36	4.28	4.23	4.10	4.03	3.96	4.30	4.31	4.48	4.57	4.51	4.54	4.79	4.96	4.91	4.76	4.96	4.43	4.07	4.05	4.33	4.48	4.26	4.32	4.58	4.67	4.72	4.65	4.69	4.68	4.62	4.45	4.35	4.66	4.73	4.81	4.63	4.21	3.89	3.16	4.00	4.05	3.42	3.00	3.59	3.25	2.97	2.74	2.54	2.44	2.34	2.25	2.29	2.32	2.31	2.31	2.38	2.46	2.30	2.26	2.49	2.68	2.82	2.93	3.02	3.10	3.17	3.22	3.26	3.28	3.30	3.33	3.42	3.63	3.84	3.89	3.82	3.78	3.77	3.71	3.68	3.71	3.74	3.76	3.78	3.80	3.79	3.79	3.83	3.85	3.80	3.77	3.79	3.78	3.75	3.75	3.74	3.74	3.75	3.71	3.67	3.68	3.67	3.61	3.55	3.52	3.47	3.38	3.33	3.32	3.32	3.30	3.23	3.09	2.93	2.81	2.69	2.55	2.47	2.54	2.65	2.85	3.14	3.33	3.47	3.87	4.33	6.49	6.54	6.56	6.65	6.68	11.03	13.56	13.56	
2.94	2.90	2.73	2.49	2.11	1.43	1.54	5.71	6.60	5.62	5.20	4.95	4.69	4.57	4.47	4.47	4.55	5.32	4.78	4.07	3.42	3.04	2.39	4.79	5.48	3.02	3.62	3.76	3.77	4.22	4.36	7.15	7.22	4.19	3.84	4.13	4.24	4.47	4.79	4.43	4.22	3.94	3.89	4.18	4.12	4.17	4.11	3.94	3.52	3.64	4.27	4.42	4.52	4.49	4.54	4.73	4.27	4.18	4.30	4.44	3.99	3.18	2.89	3.54	4.03	4.19	4.33	4.38	4.42	4.48	4.29	4.24	4.14	3.99	3.93	4.70	4.45	4.48	4.55	4.43	4.11	4.21	4.12	3.88	3.66	3.81	3.85	3.70	3.58	3.43	3.13	2.75	2.57	2.45	2.33	2.38	2.43	2.41	2.39	2.45	2.54	2.30	2.02	2.19	2.52	2.70	2.82	2.93	3.03	3.11	3.19	3.25	3.25	3.26	3.30	3.33	3.44	3.64	3.83	3.90	3.87	3.80	3.75	3.70	3.68	3.72	3.76	3.76	3.76	3.79	3.81	3.83	3.84	3.83	3.81	3.81	3.79	3.76	3.76	3.75	3.74	3.76	3.74	3.70	3.70	3.69	3.65	3.61	3.58	3.55	3.47	3.40	3.37	3.38	3.38	3.34	3.20	3.05	2.96	2.88	2.74	2.58	2.51	2.49	2.65	3.04	3.31	3.43	3.71	4.08	4.45	6.58	6.77	6.92	6.98	9.05	13.34	13.34	
3.04	3.00	2.86	2.68	2.39	1.75	2.00	5.56	6.35	5.54	5.13	4.95	4.74	4.63	4.55	4.42	4.48	5.03	4.76	4.99	4.13	3.27	2.55	4.29	5.17	2.68	3.36	3.65	3.81	4.30	4.25	4.76	5.46	5.13	4.27	4.51	4.72	4.67	4.43	4.35	4.44	4.31	4.50	4.23	4.17	4.39	4.33	4.37	4.41	4.31	4.33	4.45	4.50	4.51	4.62	3.87	3.76	3.47	3.21	3.43	2.49	1.29	1.69	3.22	3.69	3.90	3.91	3.88	3.98	4.57	4.68	4.74	4.81	4.88	3.40	3.24	4.38	4.32	4.41	4.60	4.35	4.04	3.97	2.70	2.27	2.04	1.95	2.48	2.90	2.50	2.25	3.13	2.79	2.60	2.49	2.47	2.51	2.49	2.47	2.53	2.66	2.43	1.93	1.91	2.27	2.54	2.69	2.81	2.93	3.02	3.12	3.22	3.25	3.24	3.27	3.31	3.36	3.45	3.60	3.82	3.96	3.91	3.80	3.74	3.70	3.68	3.73	3.76	3.75	3.76	3.81	3.84	3.83	3.82	3.83	3.82	3.79	3.77	3.77	3.76	3.73	3.75	3.76	3.73	3.71	3.71	3.68	3.63	3.61	3.60	3.55	3.47	3.45	3.45	3.44	3.40	3.31	3.19	3.11	3.04	2.93	2.80	2.64	2.47	2.48	2.84	3.24	3.39	3.56	3.82	4.21	4.59	6.91	7.07	7.29	9.27	13.31	13.31	
3.12	3.08	3.00	2.87	2.65	2.19	2.48	4.96	6.08	5.51	5.09	4.90	4.76	4.69	4.59	4.52	4.86	4.93	5.43	5.05	4.05	3.64	2.95	2.21	4.98	2.43	3.11	3.51	3.84	4.48	4.17	4.60	5.37	5.82	5.07	5.10	4.80	4.67	4.52	4.28	4.59	4.61	4.47	4.28	4.25	3.16	2.50	2.67	3.14	4.30	4.43	4.60	4.63	4.62	3.35	3.24	3.01	2.16	0.98	3.50	0.25	4.02	0.98	1.50	1.60	0.89	1.04	1.96	3.01	3.37	4.40	4.38	4.48	4.63	4.71	4.57	4.32	4.24	4.61	2.81	2.62	2.20	2.87	4.17	4.01	2.95	2.52	2.55	2.65	2.54	2.44	2.17	3.01	2.76	2.64	2.56	2.54	2.58	2.56	2.56	2.67	2.52	1.98	1.77	2.02	2.33	2.55	2.72	2.82	2.92	3.03	3.12	3.19	3.22	3.25	3.29	3.34	3.38	3.43	3.58	3.84	3.98	3.91	3.80	3.75	3.72	3.72	3.74	3.74	3.74	3.78	3.82	3.82	3.81	3.82	3.82	3.82	3.80	3.78	3.77	3.75	3.75	3.78	3.76	3.73	3.73	3.69	3.65	3.64	3.64	3.60	3.53	3.51	3.52	3.50	3.45	3.38	3.30	3.25	3.18	3.09	3.01	2.85	2.60	2.46	2.73	3.17	3.36	3.44	3.58	3.90	4.33	4.81	7.06	7.38	9.31	13.08	13.08	
3.17	3.14	3.09	3.02	2.88	2.61	2.90	4.70	5.82	5.49	5.07	4.90	4.82	4.75	4.71	4.88	4.85	6.05	5.87	5.00	4.29	3.83	3.35	2.76	3.90	2.23	2.80	3.31	3.79	4.11	4.23	4.56	5.32	5.60	5.13	4.60	4.65	4.75	4.70	4.68	4.61	4.58	4.22	4.00	2.46	1.14	2.01	3.93	4.46	4.38	4.45	4.71	4.89	3.08	2.50	1.82	1.03	0.36	4.66	4.41	4.66	1.93	3.93	3.30	4.00	1.04	0.53	1.39	1.64	1.53	1.57	1.59	1.92	2.39	4.56	4.37	4.13	4.20	4.57	2.87	2.52	1.53	4.38	4.44	2.40	3.01	2.56	2.36	2.35	2.55	2.68	2.58	2.34	2.92	2.73	2.63	2.58	2.62	2.68	2.65	2.62	2.47	2.06	1.75	1.84	2.11	2.37	2.60	2.73	2.83	2.96	3.05	3.11	3.17	3.22	3.25	3.31	3.36	3.39	3.44	3.60	3.85	3.98	3.91	3.80	3.75	3.73	3.73	3.71	3.72	3.75	3.79	3.82	3.82	3.81	3.80	3.81	3.82	3.80	3.79	3.77	3.78	3.79	3.77	3.75	3.75	3.71	3.67	3.67	3.67	3.65	3.61	3.56	3.56	3.56	3.50	3.43	3.37	3.33	3.28	3.21	3.15	3.03	2.80	2.57	2.72	3.18	3.42	3.40	3.39	3.58	3.98	4.54	6.95	7.46	9.29	10.61	10.61	
3.19	3.19	3.16	3.13	3.06	2.89	3.12	4.55	5.71	5.50	5.02	4.92	4.86	4.89	5.16	5.06	5.74	6.01	6.38	4.20	4.29	3.76	3.51	3.22	2.66	4.57	2.53	3.08	3.66	4.13	4.35	4.61	5.24	5.54	4.83	4.28	4.32	4.39	4.51	4.56	4.51	4.38	4.06	4.14	4.46	4.85	4.92	4.74	4.56	4.44	4.40	4.66	2.48	1.79	1.16	1.54	4.56	4.77	4.79	4.58	4.60	1.17	4.05	4.55	1.10	2.95	0.75	1.42	1.73	1.75	1.54	1.28	1.30	1.49	1.83	4.46	4.08	4.08	4.45	2.50	1.72	4.59	4.72	4.71	2.82	2.43	2.03	2.44	2.22	2.32	2.67	2.78	2.67	2.37	1.91	2.74	2.70	2.71	2.78	2.80	2.63	2.40	2.10	1.77	1.71	1.91	2.16	2.40	2.59	2.74	2.91	3.01	3.05	3.13	3.20	3.22	3.27	3.33	3.38	3.41	3.45	3.61	3.85	3.99	3.93	3.80	3.75	3.75	3.72	3.71	3.74	3.77	3.80	3.84	3.85	3.81	3.80	3.82	3.82	3.80	3.78	3.79	3.79	3.77	3.76	3.75	3.72	3.69	3.70	3.69	3.68	3.68	3.62	3.60	3.60	3.53	3.47	3.44	3.40	3.36	3.31	3.25	3.16	2.99	2.75	2.77	3.20	3.51	3.45	3.33	3.40	3.65	4.21	6.89	7.68	9.41	10.51	10.51	
3.18	3.19	3.20	3.20	3.18	3.08	3.20	4.19	5.68	5.62	5.04	4.80	4.72	5.18	5.28	6.47	6.09	6.63	6.93	4.50	4.39	3.70	3.52	3.43	3.09	4.60	2.50	3.01	3.61	4.16	4.48	4.69	5.06	5.05	4.70	4.62	4.31	4.22	4.37	4.47	4.39	4.29	4.33	4.18	4.28	4.51	4.61	4.55	4.46	4.37	4.35	2.45	2.57	2.24	1.36	0.46	4.83	4.88	4.98	4.87	4.46	4.05	0.65	0.52	0.74	0.64	0.63	0.55	0.56	0.99	1.06	1.16	1.46	1.68	2.16	2.60	2.55	2.35	1.90	1.54	4.74	4.73	4.91	4.80	4.54	2.88	2.43	2.06	2.50	2.27	2.58	2.86	2.71	2.36	1.98	1.72	1.84	1.95	2.89	2.88	2.69	2.41	2.21	1.91	1.66	1.72	1.98	2.24	2.44	2.60	2.79	2.94	3.01	3.08	3.17	3.20	3.23	3.29	3.35	3.40	3.43	3.47	3.62	3.87	3.99	3.92	3.81	3.79	3.78	3.74	3.74	3.75	3.78	3.84	3.89	3.85	3.81	3.82	3.83	3.81	3.79	3.79	3.79	3.78	3.78	3.76	3.74	3.73	3.72	3.70	3.70	3.72	3.69	3.67	3.67	3.58	3.52	3.51	3.46	3.42	3.38	3.32	3.25	3.13	2.92	2.85	3.18	3.54	3.52	3.40	3.41	3.46	3.92	6.77	7.74	9.55	10.59	10.59	
3.17	3.18	3.21	3.22	3.24	3.22	3.32	4.08	5.75	5.86	5.21	5.36	5.19	6.09	6.80	7.01	6.70	7.37	7.88	4.85	4.62	3.84	3.67	3.56	3.32	4.10	5.32	3.14	3.71	4.25	4.62	4.80	4.59	4.74	4.70	4.63	4.41	4.20	4.24	4.36	4.38	4.39	4.37	4.35	4.41	4.44	4.40	4.43	4.36	4.18	4.19	4.37	4.72	1.72	5.01	4.90	4.90	4.96	5.16	5.23	2.41	1.08	1.78	3.77	0.71	0.77	0.78	0.68	0.62	0.44	0.60	1.24	1.75	2.19	4.73	4.70	4.65	2.16	2.11	4.74	4.73	4.67	4.58	4.93	3.48	2.92	2.52	2.24	1.89	1.46	2.48	2.91	2.95	2.68	2.21	1.85	1.97	2.07	2.18	2.92	2.57	2.34	2.33	2.22	1.85	1.59	1.73	2.06	2.34	2.51	2.65	2.80	2.94	3.05	3.15	3.19	3.20	3.24	3.32	3.38	3.43	3.45	3.49	3.66	3.89	3.98	3.90	3.81	3.80	3.78	3.76	3.75	3.75	3.81	3.89	3.88	3.82	3.81	3.83	3.83	3.82	3.81	3.80	3.80	3.79	3.78	3.76	3.75	3.74	3.72	3.72	3.73	3.73	3.74	3.75	3.67	3.58	3.58	3.54	3.47	3.43	3.38	3.33	3.23	3.05	2.94	3.15	3.47	3.50	3.44	3.50	3.45	3.69	4.50	7.46	9.46	10.68	10.68	
3.15	3.16	3.21	3.23	3.25	3.26	3.39	3.89	5.54	5.81	5.96	5.60	6.20	6.40	6.85	6.63	6.21	6.82	7.46	4.87	4.72	3.98	3.81	3.68	3.46	4.39	5.44	3.30	3.82	4.33	4.69	4.52	4.18	4.55	4.53	4.56	4.47	4.28	4.20	4.20	4.22	4.26	4.31	4.39	4.57	4.61	4.41	4.35	4.43	4.20	4.04	4.23	4.53	4.82	4.85	4.78	4.76	4.80	5.06	5.42	1.77	2.15	2.01	1.01	0.80	0.63	0.76	0.76	0.72	0.58	0.88	1.69	4.22	4.44	4.71	4.73	4.69	1.06	4.66	4.77	4.79	4.52	4.53	4.90	5.06	3.14	2.36	1.73	1.39	1.24	1.58	2.16	2.04	1.94	2.64	2.21	2.24	2.33	2.63	2.53	2.52	2.03	2.06	2.30	2.18	1.66	1.49	1.74	2.10	2.41	2.61	2.69	2.80	2.99	3.13	3.18	3.18	3.21	3.28	3.35	3.42	3.45	3.48	3.55	3.72	3.94	4.01	3.90	3.79	3.79	3.80	3.76	3.76	3.80	3.87	3.91	3.86	3.82	3.83	3.84	3.84	3.83	3.82	3.81	3.81	3.79	3.78	3.77	3.76	3.74	3.73	3.75	3.74	3.75	3.78	3.73	3.65	3.65	3.63	3.56	3.49	3.44	3.40	3.32	3.15	3.02	3.11	3.36	3.43	3.39	3.54	3.54	3.54	4.11	5.15	9.19	10.57	10.57	
3.11	3.12	3.18	3.21	3.24	3.26	3.38	3.79	5.48	6.61	6.15	5.75	6.76	6.94	7.16	7.16	6.80	6.84	7.30	5.35	4.64	4.05	3.91	3.78	3.55	4.83	3.09	3.44	3.91	4.38	4.66	4.72	4.67	4.53	4.45	4.49	4.47	4.35	4.27	4.19	4.12	4.13	4.19	4.31	4.54	4.78	4.65	4.30	2.03	0.79	4.26	4.27	4.41	4.55	4.71	4.80	4.77	4.75	4.91	5.31	2.13	4.85	2.06	1.18	1.04	0.67	0.78	1.00	0.90	0.97	1.26	1.86	4.17	4.28	4.58	4.74	1.49	4.60	4.62	4.68	4.74	4.72	4.66	4.98	4.31	3.39	2.57	1.72	1.26	1.20	1.21	1.46	2.01	2.09	1.99	2.58	2.45	2.52	2.86	3.02	3.08	2.07	1.77	2.08	2.26	1.92	1.50	1.44	1.71	2.10	2.48	2.64	2.66	2.86	3.08	3.16	3.19	3.19	3.24	3.32	3.40	3.45	3.49	3.50	3.55	3.76	4.01	4.03	3.84	3.78	3.81	3.78	3.76	3.80	3.85	3.91	3.91	3.86	3.84	3.85	3.85	3.85	3.84	3.83	3.82	3.81	3.80	3.79	3.78	3.77	3.75	3.77	3.76	3.76	3.79	3.75	3.68	3.68	3.69	3.65	3.59	3.52	3.47	3.40	3.26	3.11	3.09	3.27	3.41	3.40	3.57	3.62	3.47	3.77	4.85	7.17	10.39	10.39	
3.06	3.09	3.15	3.19	3.20	3.23	3.31	3.65	6.63	7.04	6.20	6.75	6.70	7.01	7.36	7.65	7.70	7.53	7.06	5.27	4.46	4.03	3.99	3.88	3.68	4.62	5.76	3.65	4.08	4.43	4.49	4.46	4.49	4.43	4.34	4.38	4.40	4.36	4.27	4.17	4.10	4.12	4.11	4.09	4.30	4.79	1.60	0.72	4.15	4.41	4.53	4.48	4.44	4.44	4.53	4.66	4.70	4.75	4.89	5.16	3.27	2.60	2.30	2.38	1.60	1.14	0.82	0.79	0.85	1.34	1.81	4.37	4.32	4.31	4.43	1.70	4.73	4.86	4.84	4.68	4.61	4.65	4.67	4.87	4.21	3.15	2.51	1.85	1.27	1.14	1.16	1.53	2.33	2.73	2.52	2.16	1.72	2.70	3.02	3.21	3.86	3.00	2.21	2.06	2.25	2.10	1.73	1.42	1.42	1.68	2.12	2.49	2.57	2.71	2.98	3.14	3.19	3.19	3.21	3.29	3.37	3.43	3.48	3.49	3.48	3.57	3.86	4.08	3.98	3.83	3.81	3.77	3.74	3.76	3.81	3.86	3.90	3.90	3.86	3.86	3.87	3.86	3.86	3.85	3.83	3.83	3.82	3.81	3.80	3.79	3.79	3.81	3.80	3.79	3.83	3.80	3.70	3.68	3.70	3.69	3.67	3.60	3.54	3.48	3.38	3.24	3.13	3.21	3.37	3.46	3.63	3.69	3.48	3.57	4.60	7.04	10.16	10.16	
2.99	3.03	3.10	3.16	3.17	3.19	3.21	3.40	4.97	7.12	6.29	7.09	6.99	6.99	7.19	7.44	7.53	7.47	5.91	5.31	4.34	3.93	4.00	3.98	3.85	4.32	3.58	3.85	4.36	4.66	4.31	4.09	4.23	4.26	4.25	4.28	4.29	4.27	4.25	4.14	3.99	4.06	4.16	3.93	3.99	1.62	0.71	4.48	4.19	4.32	4.50	4.58	4.58	4.56	4.55	4.55	4.51	4.60	4.79	3.44	2.18	2.70	2.82	2.51	1.52	1.43	1.13	0.70	0.98	1.68	4.18	4.38	4.47	4.47	1.84	4.45	4.61	4.97	5.17	5.03	4.82	4.77	4.20	4.22	3.87	2.87	2.23	1.74	1.26	0.92	0.90	1.60	2.33	2.88	2.70	2.27	1.69	1.33	1.68	3.31	4.37	2.91	2.40	2.00	2.63	2.40	2.09	1.77	1.50	1.48	1.75	2.18	2.43	2.57	2.84	3.07	3.17	3.20	3.21	3.26	3.33	3.41	3.46	3.49	3.48	3.48	3.66	3.96	4.07	3.96	3.85	3.79	3.74	3.74	3.78	3.83	3.87	3.90	3.89	3.87	3.88	3.88	3.87	3.86	3.85	3.84	3.83	3.82	3.82	3.81	3.83	3.85	3.84	3.80	3.83	3.85	3.77	3.73	3.73	3.73	3.72	3.67	3.62	3.58	3.49	3.39	3.27	3.25	3.35	3.46	3.68	3.76	3.59	3.55	4.34	6.74	8.33	8.33	
2.93	2.97	3.04	3.10	3.13	3.15	3.19	3.45	4.84	6.75	7.48	7.37	7.38	7.22	7.26	7.37	7.40	7.70	4.40	5.33	4.42	3.97	3.95	3.96	4.04	3.85	6.02	4.04	4.69	0.36	4.30	3.75	3.90	4.06	4.17	4.17	4.12	4.18	4.21	4.28	4.10	3.93	1.22	4.01	3.92	4.37	4.56	4.33	4.21	4.30	4.41	4.52	4.63	4.67	4.69	4.59	4.45	4.51	3.75	3.55	3.36	3.27	1.89	1.35	1.35	1.64	1.40	1.11	1.70	3.29	4.13	4.31	4.50	4.61	1.80	4.61	4.54	4.82	5.17	5.21	4.41	4.42	4.34	3.94	3.52	2.92	2.60	2.34	1.94	1.37	0.93	1.23	2.42	3.03	2.23	1.52	3.89	3.81	4.14	4.46	3.34	3.22	2.92	2.47	2.39	3.13	2.70	2.38	2.08	1.79	1.72	1.95	2.24	2.44	2.72	3.00	3.12	3.19	3.22	3.24	3.30	3.38	3.45	3.48	3.49	3.46	3.51	3.73	3.99	4.07	3.97	3.84	3.77	3.74	3.77	3.82	3.84	3.87	3.89	3.89	3.89	3.89	3.89	3.88	3.86	3.85	3.84	3.83	3.82	3.81	3.84	3.88	3.88	3.84	3.81	3.84	3.83	3.79	3.78	3.78	3.77	3.73	3.69	3.66	3.60	3.52	3.45	3.41	3.39	3.46	3.73	3.90	3.84	3.77	4.19	6.25	7.83	7.83	
2.87	2.91	2.97	3.03	3.07	3.12	3.18	3.52	4.41	7.58	7.42	7.23	7.20	7.17	7.42	7.65	7.52	7.46	5.53	5.09	4.49	4.13	3.88	3.97	4.14	4.12	5.66	6.11	5.07	4.24	4.42	3.51	3.55	3.87	4.12	4.10	3.97	3.97	4.00	4.29	1.15	4.00	3.95	4.01	4.01	4.16	4.19	4.14	4.14	4.22	4.31	4.45	4.65	4.75	4.77	4.12	3.87	3.73	3.48	3.51	3.47	3.33	2.35	1.42	1.67	1.76	1.67	1.87	3.66	4.24	4.18	4.27	4.47	1.19	4.80	4.85	4.79	4.86	5.08	4.58	4.54	4.55	4.28	3.72	3.30	2.89	2.69	2.53	2.26	1.66	1.18	1.06	1.95	2.66	0.96	1.70	2.37	2.50	1.97	1.98	2.42	3.24	3.06	2.66	2.61	2.63	3.47	3.04	2.72	2.46	2.24	2.14	2.19	2.36	2.66	2.95	3.07	3.18	3.24	3.24	3.27	3.35	3.43	3.47	3.49	3.48	3.47	3.57	3.81	4.03	4.06	3.93	3.81	3.74	3.75	3.81	3.83	3.84	3.87	3.89	3.90	3.90	3.90	3.90	3.88	3.87	3.86	3.85	3.84	3.83	3.85	3.87	3.89	3.89	3.83	3.81	3.84	3.83	3.82	3.82	3.81	3.77	3.74	3.73	3.68	3.63	3.59	3.57	3.51	3.44	3.69	4.03	4.19	4.22	4.33	5.74	7.10	7.10	
2.82	2.86	2.91	2.96	3.01	3.07	3.18	3.49	3.76	7.35	7.85	7.54	7.53	7.49	7.64	7.70	7.13	6.23	5.39	4.72	4.43	4.27	3.96	3.91	3.56	5.55	4.33	6.57	5.40	1.13	1.64	3.53	3.41	3.68	0.24	0.12	1.24	3.72	3.74	4.10	4.40	4.21	3.94	3.95	4.10	4.16	4.06	4.03	4.08	4.12	4.14	4.35	4.74	4.96	4.68	4.34	4.01	3.72	2.20	1.90	1.91	1.93	1.17	1.57	2.04	2.53	2.57	4.03	4.41	4.30	4.27	4.35	0.74	4.63	4.76	4.86	4.95	5.00	4.70	4.80	4.77	4.49	4.33	4.01	3.68	3.26	2.78	2.30	2.01	1.79	1.47	1.02	0.98	0.93	1.22	2.36	2.67	2.61	2.04	2.37	2.52	3.11	2.82	2.91	3.04	2.94	2.67	3.49	3.12	2.83	2.70	2.58	2.40	2.37	2.64	2.93	3.01	3.14	3.26	3.25	3.26	3.33	3.41	3.45	3.48	3.50	3.49	3.50	3.66	3.92	4.06	4.00	3.88	3.78	3.75	3.81	3.84	3.82	3.85	3.88	3.89	3.90	3.90	3.91	3.90	3.88	3.86	3.87	3.87	3.87	3.88	3.88	3.90	3.93	3.91	3.84	3.83	3.86	3.85	3.86	3.87	3.83	3.79	3.80	3.77	3.72	3.67	3.66	3.63	3.49	3.53	3.88	4.35	4.69	4.78	5.56	6.36	6.36	
2.78	2.81	2.86	2.90	2.95	3.02	3.16	3.60	3.68	7.38	8.25	7.94	8.10	8.04	7.98	7.93	7.93	5.00	5.40	4.47	4.35	4.32	4.15	3.97	3.87	3.91	4.25	4.92	5.73	1.93	4.52	3.93	3.61	3.68	4.07	4.30	4.10	3.67	3.65	4.09	4.38	4.36	4.20	4.16	4.32	4.42	4.27	4.12	4.16	3.89	3.58	4.12	4.69	5.10	5.09	3.85	3.47	2.88	2.33	2.04	1.97	0.71	1.39	2.60	3.26	2.88	4.29	4.15	4.51	4.42	4.42	1.52	4.61	4.84	4.97	4.92	4.96	4.60	4.76	4.99	4.99	4.73	4.52	4.28	3.81	3.29	2.87	2.65	2.46	2.11	1.51	0.74	0.13	0.86	2.05	2.46	2.47	2.46	2.45	3.07	3.37	3.13	2.78	2.90	3.24	2.99	3.66	3.55	3.29	2.90	2.74	2.76	2.63	2.49	2.66	2.93	2.96	3.04	3.21	3.25	3.26	3.31	3.38	3.44	3.47	3.50	3.51	3.49	3.55	3.79	4.02	4.07	3.94	3.82	3.76	3.79	3.85	3.83	3.84	3.88	3.90	3.90	3.91	3.92	3.92	3.91	3.88	3.88	3.88	3.89	3.91	3.90	3.91	3.95	3.97	3.92	3.86	3.87	3.87	3.88	3.93	3.90	3.84	3.85	3.85	3.82	3.76	3.72	3.71	3.63	3.50	3.59	4.08	4.73	5.14	5.62	5.97	5.97	
2.73	2.77	2.81	2.85	2.88	2.95	3.09	3.71	3.84	7.44	8.58	8.06	8.12	8.13	8.30	8.26	8.72	6.13	5.32	4.35	4.31	4.31	4.23	4.07	3.87	3.84	4.14	5.23	0.86	5.31	4.26	1.31	3.90	3.95	4.29	4.48	4.44	4.17	3.97	4.14	4.37	4.38	4.28	4.25	4.32	4.49	4.54	4.46	4.50	4.47	4.02	3.92	4.53	5.10	4.53	4.08	3.42	2.71	2.22	1.57	0.51	1.18	2.75	3.67	3.71	3.54	4.77	4.45	4.76	4.71	4.66	1.03	4.82	5.07	5.32	4.98	4.78	4.75	4.86	5.05	4.93	4.85	4.58	4.12	3.51	2.97	2.64	2.49	2.38	2.08	1.51	1.44	0.58	0.97	1.85	2.43	2.35	2.21	2.68	3.01	3.00	2.90	2.63	2.56	2.95	2.97	3.48	3.44	3.32	2.98	2.72	2.69	2.66	2.58	2.71	2.96	2.99	3.01	3.15	3.23	3.26	3.30	3.36	3.42	3.45	3.49	3.51	3.50	3.51	3.64	3.91	4.10	4.02	3.85	3.76	3.77	3.83	3.86	3.87	3.89	3.91	3.91	3.92	3.92	3.92	3.92	3.90	3.90	3.89	3.88	3.89	3.90	3.91	3.94	3.96	3.95	3.91	3.88	3.86	3.87	3.93	3.93	3.89	3.89	3.90	3.89	3.85	3.81	3.80	3.78	3.66	3.55	3.76	4.34	4.99	5.62	5.94	5.94	
2.70	2.73	2.77	2.80	2.81	2.86	3.00	3.59	3.70	7.50	9.03	8.42	8.38	8.41	8.55	8.39	8.76	6.11	5.09	4.26	4.29	4.28	4.25	4.17	3.93	3.85	4.08	5.40	1.40	5.44	4.10	2.18	3.90	4.06	4.40	4.68	4.82	4.73	4.47	4.31	4.35	4.35	4.28	4.29	4.32	4.33	4.39	4.45	4.58	4.73	4.57	4.31	4.47	4.61	4.63	4.38	3.44	2.74	1.34	1.18	2.02	2.61	3.72	3.97	4.12	5.07	5.04	5.14	5.05	4.93	4.78	4.70	4.66	4.84	5.22	5.21	5.04	5.11	5.22	5.14	5.11	4.92	4.59	4.16	3.67	3.13	2.59	2.12	1.87	1.75	1.58	1.23	1.09	1.46	1.96	2.37	2.42	1.96	2.05	2.35	2.57	2.51	2.30	2.12	2.33	2.64	3.31	3.35	3.26	3.02	2.77	2.62	2.55	2.55	2.71	2.95	3.03	3.04	3.13	3.21	3.26	3.29	3.34	3.39	3.43	3.46	3.50	3.51	3.50	3.53	3.74	4.04	4.11	3.93	3.79	3.76	3.79	3.84	3.88	3.89	3.91	3.93	3.94	3.92	3.92	3.92	3.91	3.92	3.93	3.90	3.88	3.89	3.92	3.95	3.93	3.93	3.95	3.93	3.87	3.87	3.92	3.92	3.92	3.94	3.95	3.94	3.92	3.90	3.89	3.88	3.85	3.75	3.76	4.04	4.56	5.40	5.91	5.91	
2.67	2.70	2.73	2.75	2.76	2.79	2.93	3.16	3.21	7.40	10.09	8.86	9.00	9.26	9.21	8.88	8.85	6.26	4.90	4.20	4.29	4.26	3.88	4.25	3.99	3.84	4.03	5.24	1.41	5.30	0.19	3.90	3.77	3.87	4.11	4.46	4.81	4.93	4.74	4.50	4.39	4.29	4.22	4.38	4.56	3.08	4.28	4.21	4.34	4.67	3.91	4.58	4.10	4.17	4.47	3.53	2.58	1.98	2.58	2.75	2.89	3.33	4.05	4.30	5.19	5.13	5.11	5.18	5.10	4.95	4.76	4.59	4.46	4.51	4.87	5.07	5.08	5.20	5.60	5.66	5.51	5.19	4.74	4.11	3.67	3.30	2.88	2.27	1.46	1.20	1.56	1.53	1.21	1.31	1.69	2.11	2.44	2.01	1.66	1.87	2.40	2.38	2.26	2.08	2.11	2.37	3.13	3.22	3.16	2.96	2.78	2.58	2.46	2.48	2.65	2.89	2.98	3.01	3.10	3.19	3.24	3.28	3.33	3.37	3.40	3.45	3.49	3.51	3.50	3.49	3.58	3.89	4.12	4.02	3.86	3.79	3.75	3.78	3.85	3.88	3.89	3.93	3.95	3.94	3.94	3.95	3.92	3.93	3.96	3.94	3.90	3.91	3.95	3.99	3.96	3.93	3.95	3.98	3.94	3.91	3.93	3.93	3.94	3.99	4.00	3.98	3.98	3.97	3.96	3.95	3.98	3.98	3.94	3.95	4.25	5.16	5.78	5.78	
2.66	2.68	2.71	2.71	2.72	2.75	2.86	2.80	2.70	5.58	9.68	9.63	8.93	9.27	9.76	9.67	9.30	6.40	4.79	4.17	4.36	3.96	4.29	4.18	4.03	3.92	4.13	5.03	6.21	1.80	4.04	4.04	3.71	3.56	3.65	3.98	4.51	4.91	4.86	3.69	3.15	2.51	4.06	4.29	4.63	3.39	3.02	2.65	2.92	4.44	4.56	4.37	3.89	2.13	2.33	6.77	4.50	4.23	4.08	3.90	3.81	4.26	4.33	4.94	5.13	5.13	5.08	5.12	5.06	4.90	4.69	4.50	4.39	4.38	4.63	4.96	5.10	5.14	5.44	5.56	5.47	5.22	4.70	3.91	3.36	3.07	2.85	2.27	1.49	1.33	1.62	1.58	1.39	1.19	1.24	1.70	2.36	2.42	1.92	1.80	2.23	2.16	2.14	2.02	2.03	2.19	3.03	3.09	3.05	2.92	2.78	2.56	2.38	2.38	2.56	2.82	2.94	2.96	3.05	3.15	3.20	3.25	3.30	3.35	3.39	3.43	3.49	3.52	3.51	3.49	3.50	3.72	4.02	4.03	3.88	3.83	3.76	3.74	3.82	3.87	3.88	3.91	3.95	3.95	3.95	3.97	3.95	3.94	3.96	3.94	3.92	3.94	3.97	4.00	4.01	3.98	3.95	3.97	3.99	3.98	3.97	3.96	3.96	4.00	4.01	4.02	4.03	4.02	4.01	4.00	4.03	4.10	4.10	3.99	4.12	4.96	5.61	5.61	
2.63	2.65	2.68	2.69	2.69	2.71	2.77	2.75	2.91	5.05	9.24	10.07	8.72	8.61	9.41	10.26	11.25	6.36	4.73	4.06	4.31	4.52	4.48	4.18	3.94	3.87	4.17	4.91	6.41	6.17	4.67	4.21	3.79	3.37	3.29	3.55	4.15	4.83	4.77	4.06	1.25	0.87	3.88	4.18	4.62	4.03	3.28	1.65	2.63	4.08	4.73	4.37	1.89	2.12	4.43	5.29	5.53	5.58	5.32	4.88	4.83	4.50	4.41	4.80	4.91	4.79	4.79	4.96	5.02	4.89	4.70	4.46	4.30	4.28	4.38	4.67	4.99	5.34	5.49	5.58	5.40	5.01	4.49	3.94	3.38	2.95	2.56	2.36	1.88	1.25	1.21	1.36	1.29	0.97	0.92	1.32	1.89	2.17	2.04	1.74	2.12	1.94	1.80	1.85	1.94	2.97	3.00	3.04	2.97	2.84	2.75	2.59	2.39	2.29	2.45	2.73	2.88	2.93	3.00	3.10	3.18	3.23	3.28	3.32	3.38	3.42	3.47	3.51	3.52	3.49	3.47	3.59	3.90	4.02	3.90	3.83	3.79	3.74	3.78	3.84	3.88	3.91	3.94	3.93	3.93	3.96	3.95	3.95	3.97	3.96	3.93	3.95	3.98	3.98	3.99	4.02	4.00	3.97	3.98	4.00	4.00	3.99	3.98	4.01	4.02	4.03	4.06	4.07	4.06	4.05	4.06	4.14	4.19	4.08	4.09	4.80	5.41	5.41	
2.61	2.62	2.64	2.65	2.66	2.68	2.76	2.72	3.21	3.65	9.17	10.13	8.95	8.35	8.62	5.37	6.62	6.36	4.66	3.87	4.07	4.50	4.40	4.47	4.01	3.81	4.06	4.67	5.76	6.30	5.45	4.40	3.81	3.03	3.19	3.26	3.80	4.64	5.04	2.42	1.24	1.18	3.63	4.00	4.51	4.83	3.28	2.26	2.88	3.77	4.78	3.47	2.64	3.22	3.87	4.69	5.39	5.71	5.54	5.10	4.90	4.73	4.82	4.83	4.81	4.64	4.48	4.62	4.79	4.80	4.76	4.60	4.39	4.19	4.27	4.47	4.84	5.39	5.54	5.80	5.77	5.04	4.18	3.59	3.20	2.94	3.10	2.91	2.41	1.74	1.49	0.98	0.87	0.84	1.03	0.63	0.61	1.01	1.38	1.35	2.02	1.84	1.70	1.86	1.87	2.86	2.94	3.02	2.97	2.82	2.67	2.56	2.41	2.25	2.33	2.60	2.78	2.87	2.95	3.04	3.12	3.20	3.25	3.28	3.34	3.40	3.44	3.49	3.52	3.51	3.49	3.53	3.76	3.99	3.98	3.86	3.79	3.74	3.75	3.79	3.83	3.89	3.93	3.92	3.92	3.95	3.96	3.95	3.98	3.98	3.96	3.97	4.00	3.99	3.98	4.00	4.03	4.01	3.98	3.99	4.01	4.02	4.01	4.01	4.02	4.04	4.06	4.09	4.11	4.11	4.10	4.14	4.20	4.15	4.12	4.70	5.24	5.24	
2.60	2.60	2.62	2.62	2.62	2.64	2.74	2.76	3.36	3.55	9.07	8.45	9.26	4.13	8.47	4.98	6.29	6.36	4.82	3.77	3.84	4.25	4.68	4.69	4.23	4.36	4.08	4.40	5.38	6.86	5.13	3.55	4.13	3.85	2.99	3.31	3.77	4.52	4.29	3.07	2.28	3.26	3.22	3.79	4.91	4.24	2.88	2.42	2.20	4.10	4.51	6.52	4.59	4.26	4.44	4.38	4.77	4.87	4.81	4.77	4.64	4.77	4.79	4.81	4.81	4.65	4.41	4.37	4.45	4.53	4.62	4.63	4.45	4.45	4.51	4.44	4.86	5.25	5.34	5.73	5.77	5.07	3.75	2.90	2.46	2.72	2.61	3.21	3.03	2.47	2.30	2.01	1.49	1.15	1.50	1.11	0.27	0.44	0.80	1.08	1.93	1.77	1.71	1.91	1.82	2.73	2.77	2.89	2.93	2.87	2.70	2.52	2.32	2.12	2.15	2.43	2.67	2.79	2.91	3.02	3.09	3.16	3.22	3.25	3.29	3.34	3.39	3.45	3.50	3.51	3.51	3.52	3.61	3.86	4.02	3.94	3.81	3.75	3.75	3.76	3.81	3.87	3.91	3.93	3.93	3.95	3.97	3.97	3.97	3.98	3.98	3.99	4.00	4.01	4.00	4.00	4.02	4.02	4.00	4.00	4.02	4.05	4.06	4.03	4.04	4.07	4.08	4.10	4.12	4.13	4.13	4.15	4.20	4.19	4.13	4.63	5.12	5.12	
2.59	2.59	2.59	2.60	2.60	2.62	2.69	2.85	3.59	3.56	9.24	7.73	5.30	7.58	7.96	8.86	10.08	6.08	4.90	3.76	3.71	4.07	4.51	4.62	4.29	4.02	4.02	4.17	4.81	6.10	6.13	3.69	2.54	1.82	3.56	3.49	3.88	4.44	4.41	2.87	3.31	3.17	3.16	3.61	4.57	5.15	4.72	4.52	5.25	6.41	4.59	6.65	5.72	4.86	4.87	5.08	5.06	4.69	4.70	4.70	4.77	4.63	4.67	4.62	4.57	4.54	4.48	4.37	4.31	4.37	4.49	4.54	4.60	4.54	4.26	4.53	4.80	5.22	5.45	5.82	5.64	5.02	3.85	2.93	2.48	2.02	2.63	3.09	3.22	3.12	3.62	2.90	2.39	2.56	1.95	1.16	0.73	0.32	0.07	0.47	1.83	1.67	1.64	1.89	1.82	2.72	2.64	2.72	2.80	2.85	2.85	2.71	2.40	2.03	1.93	2.19	2.52	2.69	2.82	2.98	3.07	3.13	3.20	3.24	3.28	3.32	3.35	3.41	3.46	3.49	3.50	3.51	3.52	3.69	3.93	3.98	3.86	3.77	3.76	3.77	3.81	3.88	3.90	3.91	3.93	3.93	3.96	3.99	3.99	3.97	3.97	3.99	3.97	3.99	4.01	4.01	4.01	4.00	4.01	4.02	4.04	4.07	4.09	4.08	4.08	4.10	4.11	4.12	4.13	4.13	4.14	4.16	4.19	4.20	4.13	4.52	4.98	4.98	
2.59	2.58	2.57	2.56	2.56	2.58	2.66	2.85	3.69	3.85	9.62	7.97	6.21	6.62	7.04	7.18	7.69	5.68	4.69	3.79	3.71	3.98	4.41	4.53	4.29	3.98	3.82	3.89	4.36	5.54	7.29	4.59	4.11	2.95	3.30	3.36	3.51	3.54	0.50	5.15	5.22	1.32	1.98	4.42	4.17	6.36	6.15	6.05	4.70	4.49	4.67	5.22	5.32	5.01	4.97	4.71	4.76	4.63	4.65	4.85	4.73	4.57	4.57	4.59	4.44	4.43	4.55	4.54	4.47	4.45	4.49	4.50	4.53	3.99	4.10	4.48	4.72	5.11	5.49	6.26	5.95	5.05	3.34	2.66	2.23	2.34	2.75	3.03	3.21	3.40	3.77	2.72	2.21	2.25	2.17	1.33	0.76	0.55	0.50	0.90	1.82	1.56	1.52	1.71	1.72	1.49	2.66	2.65	2.71	2.80	2.93	3.01	2.80	2.24	1.86	1.99	2.36	2.60	2.73	2.89	3.01	3.09	3.16	3.21	3.27	3.33	3.35	3.38	3.43	3.46	3.48	3.49	3.49	3.59	3.79	3.92	3.88	3.78	3.75	3.77	3.81	3.86	3.88	3.91	3.92	3.92	3.93	3.99	4.01	3.99	3.99	4.00	3.97	3.97	4.01	4.03	4.04	4.02	4.01	4.04	4.06	4.07	4.08	4.09	4.10	4.11	4.13	4.15	4.16	4.15	4.16	4.19	4.18	4.18	4.13	4.43	4.78	4.78	
2.57	2.56	2.55	2.53	2.52	2.54	2.61	2.77	3.41	3.53	10.09	8.54	6.24	6.52	6.84	5.35	5.52	5.24	4.28	3.67	3.69	3.88	4.27	4.49	4.34	4.05	4.28	3.71	4.07	4.97	6.37	6.01	5.19	4.47	3.73	3.04	2.10	3.48	5.22	4.99	5.41	5.61	5.95	4.24	4.10	4.43	4.65	4.65	4.70	4.71	4.87	5.23	5.32	5.12	4.71	4.60	4.63	4.58	4.78	4.77	4.68	4.54	4.67	0.92	4.64	4.54	4.59	4.60	4.53	4.40	4.33	4.33	4.33	3.97	4.09	4.20	4.48	4.88	5.21	6.03	5.59	4.56	2.30	2.25	2.59	2.87	2.78	2.92	2.99	3.25	3.56	3.21	2.93	2.66	2.56	2.27	0.90	0.99	1.42	1.48	1.66	1.43	1.51	1.65	1.72	1.63	2.76	2.64	2.63	2.69	2.86	3.07	3.13	2.70	2.01	1.91	2.24	2.55	2.69	2.81	2.93	3.03	3.11	3.15	3.22	3.30	3.31	3.33	3.39	3.42	3.45	3.47	3.49	3.54	3.69	3.86	3.89	3.80	3.74	3.77	3.80	3.82	3.85	3.90	3.92	3.92	3.93	3.97	4.00	4.01	4.04	4.04	4.01	4.00	4.01	4.04	4.06	4.04	4.03	4.05	4.06	4.06	4.06	4.08	4.10	4.12	4.14	4.17	4.18	4.17	4.19	4.22	4.20	4.18	4.19	4.39	4.59	4.59	
2.58	2.56	2.54	2.51	2.49	2.50	2.55	2.65	2.73	2.71	10.00	11.62	7.69	7.14	7.18	5.72	5.51	4.81	3.89	3.42	3.50	3.72	4.06	4.41	4.39	4.07	3.68	3.78	3.90	4.47	5.66	6.48	6.03	4.02	2.55	1.20	3.39	3.51	3.82	3.58	3.77	5.07	4.03	4.11	4.26	4.47	4.57	4.54	4.51	4.56	4.25	4.47	4.80	4.78	4.50	4.47	4.62	4.73	4.81	4.84	4.74	4.61	0.17	4.87	4.84	4.81	4.73	4.65	4.56	4.38	4.22	3.89	3.74	3.84	4.03	4.03	4.31	4.66	5.75	5.93	5.23	3.19	2.19	2.65	3.26	3.43	2.96	2.78	2.82	3.10	3.45	3.15	2.80	2.57	2.29	1.83	1.21	1.46	1.34	0.22	0.88	1.75	1.54	1.52	1.62	1.64	2.85	2.68	2.60	2.58	2.73	2.96	3.15	2.90	2.21	1.92	2.12	2.45	2.67	2.78	2.88	2.98	3.06	3.11	3.18	3.26	3.30	3.32	3.35	3.39	3.42	3.46	3.48	3.51	3.60	3.77	3.89	3.84	3.74	3.75	3.79	3.80	3.83	3.88	3.91	3.91	3.92	3.96	3.99	4.00	4.04	4.07	4.05	4.03	4.02	4.02	4.06	4.07	4.04	4.06	4.08	4.08	4.07	4.08	4.11	4.11	4.13	4.16	4.17	4.16	4.19	4.24	4.23	4.22	4.25	4.38	4.47	4.47	
2.57	2.57	2.55	2.51	2.48	2.46	2.48	2.52	2.06	1.95	7.02	11.88	8.50	8.05	7.83	6.05	5.37	4.48	3.66	3.33	3.31	3.49	3.82	4.22	4.34	4.05	3.92	3.89	3.89	4.28	5.02	5.83	5.91	6.30	5.72	4.89	4.03	3.36	3.26	4.33	3.75	3.94	3.91	3.76	3.85	4.07	4.30	4.57	4.33	4.35	4.37	4.49	4.66	4.59	4.34	4.41	4.39	4.49	4.59	4.70	4.65	4.48	4.56	4.72	4.81	4.80	4.72	4.66	4.65	4.09	3.80	3.69	3.58	3.58	3.68	3.82	4.10	5.27	5.87	6.17	4.80	2.02	3.11	3.79	4.18	4.28	3.44	2.88	2.89	3.40	3.65	3.45	3.14	2.91	2.43	1.67	1.14	1.14	0.08	2.65	1.64	1.18	1.76	1.47	1.42	1.48	1.39	2.72	2.61	2.58	2.67	2.92	3.11	2.86	2.23	1.89	1.99	2.30	2.57	2.73	2.85	2.96	3.03	3.07	3.13	3.23	3.30	3.33	3.33	3.34	3.39	3.43	3.47	3.47	3.50	3.63	3.80	3.82	3.75	3.74	3.78	3.79	3.81	3.86	3.91	3.93	3.91	3.93	3.97	3.97	3.99	4.04	4.07	4.06	4.03	4.00	4.04	4.08	4.05	4.06	4.09	4.10	4.09	4.11	4.13	4.12	4.13	4.16	4.18	4.16	4.19	4.24	4.25	4.25	4.27	4.35	4.40	4.40	
2.56	2.56	2.55	2.51	2.47	2.44	2.44	2.43	2.07	2.39	5.04	10.11	7.98	7.20	6.99	6.16	5.40	4.24	3.53	3.38	3.32	3.35	3.60	4.01	3.43	3.67	3.90	3.85	3.86	4.09	5.10	5.15	5.18	5.00	4.82	5.29	4.97	4.18	3.61	4.03	3.74	3.81	3.69	3.74	3.71	3.93	4.21	4.32	4.31	4.38	4.45	4.47	4.62	4.76	4.61	4.40	4.29	4.32	4.34	4.39	4.40	4.38	4.46	4.60	4.73	4.79	4.72	4.60	4.41	4.27	3.91	3.69	3.68	3.64	3.85	4.31	4.67	5.33	6.15	7.09	3.73	3.85	4.43	4.85	4.60	4.33	4.35	3.90	3.68	3.99	5.59	5.12	4.28	4.38	3.84	3.05	2.34	1.97	2.28	1.88	1.46	1.28	0.95	1.55	1.35	1.32	1.32	1.24	2.60	2.54	2.61	2.91	3.15	2.90	2.21	1.79	1.86	2.15	2.43	2.61	2.75	2.88	2.98	3.02	3.05	3.14	3.26	3.32	3.30	3.28	3.31	3.37	3.43	3.44	3.45	3.56	3.72	3.79	3.74	3.72	3.77	3.79	3.80	3.85	3.91	3.96	3.93	3.92	3.94	3.93	3.91	3.95	4.06	4.11	4.06	3.99	4.02	4.07	4.05	4.05	4.09	4.10	4.08	4.12	4.15	4.15	4.14	4.16	4.19	4.19	4.19	4.23	4.25	4.27	4.28	4.31	4.34	4.34	
2.55	2.55	2.53	2.50	2.44	2.40	2.40	2.40	2.34	2.80	3.39	9.79	9.76	7.96	7.19	5.46	5.27	4.15	3.53	3.43	3.39	3.28	3.39	3.73	3.98	3.83	3.89	3.86	3.87	3.89	4.12	4.99	5.13	4.41	4.73	4.47	4.74	4.59	4.09	3.94	3.83	3.90	3.72	3.76	3.65	3.76	4.03	4.20	4.24	4.33	4.39	4.43	4.63	4.76	4.64	4.45	4.33	4.24	4.15	4.16	4.20	4.27	4.33	4.44	4.65	4.83	4.62	4.33	4.33	4.29	4.04	3.55	3.28	3.16	3.80	3.78	5.35	5.95	4.85	4.65	5.57	5.73	5.42	4.87	4.46	4.61	3.65	3.86	3.70	5.60	5.36	5.13	5.08	4.55	4.25	3.57	2.65	1.95	1.88	1.38	1.14	0.99	1.06	1.76	1.31	1.24	1.32	1.30	2.65	2.51	2.56	2.84	3.15	3.08	2.39	1.72	1.72	2.02	2.30	2.52	2.68	2.81	2.94	3.02	3.03	3.04	3.12	3.27	3.32	3.25	3.22	3.31	3.39	3.41	3.41	3.52	3.69	3.79	3.74	3.69	3.74	3.78	3.79	3.81	3.89	3.94	3.95	3.97	4.01	4.00	3.92	3.88	4.00	4.13	4.11	4.03	4.04	4.07	4.06	4.07	4.10	4.11	4.09	4.10	4.14	4.16	4.14	4.13	4.16	4.19	4.20	4.20	4.23	4.26	4.29	4.30	4.31	4.31	
2.55	2.54	2.51	2.48	2.42	2.38	2.37	2.40	2.45	2.71	2.79	8.95	12.60	11.19	9.45	5.94	5.66	4.15	3.66	3.52	3.44	2.64	3.33	3.49	3.98	3.60	3.68	3.78	3.78	3.75	3.76	4.50	5.48	4.88	4.91	4.49	4.99	4.76	4.70	4.15	4.01	4.09	4.17	3.96	3.68	3.60	3.83	4.05	4.02	4.09	4.25	4.37	4.55	4.69	4.63	4.40	4.32	4.27	4.04	3.99	4.04	4.03	4.05	4.17	4.43	4.66	4.74	4.63	4.58	4.36	3.85	3.28	2.59	2.35	2.74	4.71	4.17	4.10	4.38	4.82	5.48	5.29	5.82	5.63	5.20	3.72	3.14	3.74	3.72	3.83	5.64	5.30	5.35	2.57	3.80	4.27	3.22	2.35	1.95	2.16	1.41	1.06	1.07	1.19	1.54	1.21	1.22	1.29	1.27	2.57	2.54	2.73	3.04	3.19	2.67	1.84	1.67	1.86	2.15	2.42	2.61	2.76	2.89	3.02	3.09	3.05	2.97	3.08	3.29	3.29	3.18	3.24	3.35	3.37	3.37	3.44	3.63	3.79	3.78	3.70	3.70	3.76	3.79	3.80	3.88	3.95	3.96	4.01	4.10	4.16	4.10	3.94	3.96	4.10	4.13	4.07	4.06	4.07	4.06	4.07	4.10	4.11	4.09	4.09	4.12	4.16	4.16	4.13	4.14	4.18	4.21	4.21	4.22	4.24	4.26	4.29	4.30	4.30	
2.56	2.54	2.50	2.46	2.41	2.36	2.35	2.39	2.44	2.61	2.62	7.76	12.07	11.88	11.91	6.77	6.57	4.34	3.76	3.33	3.21	3.15	3.52	3.58	3.21	3.42	3.42	3.55	3.76	3.74	3.44	3.97	5.07	5.15	4.42	4.15	4.27	4.51	4.49	4.31	4.25	4.32	4.38	4.25	3.87	3.60	3.74	3.91	3.78	3.75	3.98	4.28	4.50	4.59	4.66	4.45	4.24	1.30	4.08	3.80	3.84	3.85	3.81	3.91	4.23	4.52	4.59	4.67	4.85	4.35	3.61	2.73	1.92	1.80	1.58	2.84	4.27	4.08	4.36	4.74	5.31	5.50	5.61	3.82	5.17	2.92	1.55	3.78	4.34	6.59	6.13	5.75	5.70	3.44	4.55	4.85	4.01	3.19	2.56	2.32	1.57	1.10	0.93	1.06	1.09	1.51	1.28	1.38	1.37	1.21	2.53	2.64	2.89	3.12	2.78	2.06	1.75	1.76	1.98	2.25	2.44	2.60	2.75	2.89	3.05	3.12	2.94	2.81	3.03	3.25	3.19	3.19	3.28	3.31	3.33	3.38	3.52	3.72	3.80	3.75	3.70	3.74	3.78	3.79	3.86	3.95	3.96	3.96	4.00	4.12	4.19	4.05	3.97	4.07	4.10	4.08	4.07	4.07	4.06	4.08	4.10	4.11	4.10	4.10	4.11	4.15	4.18	4.16	4.15	4.18	4.21	4.23	4.25	4.24	4.24	4.25	4.27	4.27	
2.55	2.53	2.48	2.43	2.39	2.35	2.33	2.36	2.41	2.52	2.48	7.28	11.29	11.09	12.41	8.49	7.89	4.99	3.91	3.82	2.55	3.68	2.96	3.65	3.57	3.39	3.35	3.59	3.88	3.70	3.11	3.36	4.58	4.91	4.55	4.07	4.02	4.10	4.08	4.03	4.11	4.30	4.48	4.48	4.22	3.89	3.72	3.65	3.75	3.60	3.81	4.16	4.44	4.46	4.61	1.14	4.25	4.18	4.06	3.70	3.60	3.62	3.58	3.66	4.16	4.47	4.64	4.92	4.72	4.13	3.08	1.88	1.12	0.94	4.30	4.07	4.20	4.29	4.15	4.43	5.09	5.36	5.43	2.40	1.20	0.89	2.84	6.03	4.85	4.18	6.42	3.74	4.04	4.07	4.39	5.37	2.60	2.15	2.03	1.61	1.34	1.16	0.94	0.80	1.11	1.82	1.44	1.58	1.62	1.37	2.61	2.63	2.81	2.99	2.74	2.14	1.76	1.67	1.84	2.09	2.29	2.46	2.64	2.77	2.92	3.12	3.04	2.67	2.65	2.97	3.15	3.20	3.25	3.25	3.26	3.33	3.42	3.56	3.69	3.74	3.70	3.72	3.76	3.79	3.83	3.88	3.90	3.89	3.89	3.96	4.09	4.08	4.02	4.07	4.08	4.05	4.06	4.08	4.09	4.10	4.13	4.14	4.14	4.14	4.12	4.14	4.17	4.17	4.16	4.17	4.20	4.22	4.25	4.27	4.26	4.24	4.23	4.23	
2.57	2.54	2.48	2.42	2.37	2.34	2.30	2.31	2.36	2.46	2.43	7.58	11.20	10.10	11.20	13.39	8.14	6.49	3.92	2.98	2.70	2.71	2.43	3.73	3.66	3.50	3.58	3.18	3.97	3.21	2.93	2.98	3.91	4.73	4.76	4.10	3.71	3.89	3.82	3.78	3.87	4.14	4.42	4.48	4.46	1.97	4.23	3.92	3.86	3.68	3.93	4.21	4.42	4.42	4.43	4.57	4.46	4.32	4.24	4.03	3.71	3.54	3.05	3.35	3.91	4.27	5.34	5.18	4.68	3.74	1.48	4.46	4.37	4.51	4.37	4.20	0.71	1.64	4.26	4.16	4.82	2.62	2.51	2.35	2.13	5.32	5.70	5.93	6.21	3.33	3.97	4.46	4.26	4.31	3.95	3.08	2.80	2.48	2.23	1.88	1.50	1.39	0.91	0.75	1.26	1.91	1.46	1.57	1.82	1.67	1.57	1.55	2.89	2.94	2.75	2.25	1.82	1.65	1.73	1.96	2.15	2.34	2.57	2.75	2.87	3.08	3.16	2.76	2.43	2.58	2.91	3.18	3.30	3.26	3.22	3.29	3.40	3.47	3.54	3.63	3.67	3.69	3.70	3.74	3.81	3.86	3.86	3.87	3.89	3.91	3.99	4.04	4.05	4.08	4.08	4.04	4.03	4.06	4.09	4.11	4.12	4.13	4.16	4.17	4.14	4.14	4.16	4.16	4.15	4.17	4.20	4.20	4.22	4.27	4.29	4.25	4.21	4.21	
2.59	2.55	2.50	2.44	2.37	2.32	2.28	2.27	2.34	2.33	2.37	6.99	10.65	10.04	9.53	11.31	13.40	7.31	4.58	3.05	2.50	1.68	3.88	3.84	2.43	3.92	4.01	2.43	2.67	2.67	2.24	2.88	3.33	4.13	4.64	4.51	2.12	2.91	2.55	3.72	3.71	3.93	4.26	4.36	4.47	1.96	1.33	4.22	3.92	3.80	2.73	4.51	4.63	4.63	4.55	4.60	4.68	4.69	4.68	4.33	3.89	3.36	2.92	3.27	3.87	4.79	4.68	4.58	4.58	1.81	1.69	2.23	2.04	2.07	2.24	2.45	1.60	0.54	0.79	1.59	1.84	1.92	2.32	2.38	5.29	5.37	5.61	5.93	2.23	3.63	6.48	4.98	4.60	4.39	5.89	2.70	2.60	2.40	2.05	1.82	1.56	1.28	0.84	0.82	1.18	1.82	1.42	1.52	1.80	1.85	1.69	1.70	1.76	2.99	2.83	2.45	2.06	1.86	1.83	1.97	2.08	2.21	2.46	2.73	2.88	3.04	3.19	2.94	2.49	2.34	2.53	2.93	3.27	3.35	3.27	3.28	3.41	3.50	3.50	3.54	3.61	3.65	3.66	3.68	3.76	3.84	3.86	3.87	3.90	3.92	3.96	4.00	4.05	4.09	4.07	4.05	4.04	4.05	4.09	4.11	4.10	4.10	4.14	4.17	4.15	4.15	4.17	4.17	4.16	4.16	4.21	4.23	4.19	4.21	4.26	4.25	4.21	4.21	
2.60	2.57	2.52	2.45	2.37	2.31	2.26	2.24	2.31	2.14	2.24	4.43	9.36	10.56	9.02	9.10	11.93	11.13	5.74	4.69	4.21	3.82	3.85	3.90	3.82	3.77	2.57	2.93	2.39	1.90	1.95	3.08	3.03	3.49	4.21	4.58	1.81	4.31	4.01	3.89	1.77	3.75	4.03	4.20	4.34	1.64	4.73	4.42	3.91	3.80	4.27	4.74	4.96	5.03	5.01	4.99	4.94	4.90	4.80	4.68	3.25	1.80	2.83	3.37	3.96	4.71	4.33	4.45	3.77	2.59	2.62	2.58	2.91	2.92	2.60	2.38	1.15	0.23	0.33	0.87	1.91	2.21	3.09	5.49	5.49	5.67	3.18	1.69	3.77	6.45	6.42	4.86	6.72	5.15	3.53	2.84	2.48	2.21	1.81	1.70	1.44	0.89	0.64	0.83	1.14	0.84	0.12	1.64	1.70	1.81	1.85	2.07	2.17	1.90	2.87	2.54	2.20	2.07	2.09	2.18	2.22	2.24	2.42	2.73	2.94	3.04	3.15	3.03	2.66	2.32	2.29	2.59	3.01	3.27	3.29	3.26	3.37	3.48	3.51	3.52	3.56	3.62	3.65	3.69	3.74	3.81	3.85	3.87	3.88	3.92	3.96	3.98	4.06	4.11	4.07	4.04	4.04	4.06	4.09	4.12	4.12	4.10	4.13	4.17	4.15	4.14	4.17	4.18	4.15	4.14	4.18	4.23	4.22	4.19	4.22	4.23	4.23	4.23	
2.61	2.58	2.54	2.46	2.37	2.30	2.25	2.22	2.25	2.08	2.47	3.08	8.42	11.10	9.34	8.43	9.37	12.01	9.63	6.89	4.58	3.72	3.72	3.88	1.30	2.87	3.07	3.29	2.52	4.04	3.70	1.15	3.13	3.23	3.73	4.44	2.07	4.82	4.42	0.84	3.87	3.70	3.82	4.06	4.29	4.57	4.70	4.42	3.90	3.72	4.07	4.57	4.89	5.04	5.11	5.19	5.14	5.24	5.18	4.14	2.57	1.33	3.04	3.28	4.71	4.56	4.58	3.06	3.68	4.13	4.47	4.55	4.72	2.37	1.69	0.92	4.37	0.58	1.79	4.47	4.95	5.38	5.77	5.67	5.63	2.20	1.24	5.63	5.95	6.43	4.52	5.00	6.76	5.14	3.39	2.99	2.38	2.08	1.70	1.46	1.29	1.19	1.28	1.33	1.23	0.82	0.24	1.74	1.71	1.61	1.70	2.03	2.29	2.25	1.91	2.58	2.28	2.14	2.19	2.31	2.38	2.39	2.46	2.70	2.98	3.10	3.09	3.02	2.81	2.40	2.25	2.44	2.76	3.05	3.20	3.22	3.28	3.41	3.48	3.51	3.54	3.59	3.64	3.70	3.75	3.79	3.83	3.87	3.86	3.89	3.94	3.96	4.03	4.10	4.07	4.04	4.05	4.07	4.09	4.11	4.13	4.13	4.15	4.18	4.15	4.13	4.16	4.18	4.14	4.12	4.14	4.19	4.24	4.24	4.22	4.21	4.22	4.22	
2.61	2.59	2.55	2.48	2.38	2.29	2.23	2.20	2.22	2.09	2.45	2.82	8.40	11.50	9.53	8.57	8.14	9.26	11.89	6.84	5.44	4.10	3.83	3.86	0.70	2.03	3.78	2.96	4.17	2.51	1.90	3.90	3.59	3.40	1.46	3.95	4.15	1.28	1.73	3.52	4.03	3.75	3.72	3.94	1.12	4.55	4.64	4.33	3.81	3.58	3.80	4.23	4.57	4.74	4.87	5.07	5.36	5.62	5.25	3.77	1.91	1.89	2.80	3.76	4.13	3.69	2.45	1.73	3.77	3.75	3.99	4.32	2.60	1.62	1.42	0.93	1.31	4.50	4.66	4.74	4.80	5.13	5.49	5.70	2.56	3.53	2.23	5.79	5.87	6.16	4.61	6.72	5.72	5.80	3.89	3.43	2.46	1.93	1.72	1.82	2.10	2.03	1.79	2.43	2.06	0.97	0.37	0.69	0.46	1.66	1.48	1.62	2.02	2.27	2.20	2.70	2.43	2.29	2.28	2.39	2.49	2.56	2.54	2.64	2.94	3.13	3.03	2.92	2.77	2.43	2.27	2.42	2.66	2.91	3.09	3.17	3.22	3.33	3.43	3.49	3.54	3.57	3.61	3.69	3.76	3.79	3.82	3.85	3.85	3.87	3.91	3.93	4.00	4.06	4.05	4.04	4.06	4.08	4.08	4.10	4.12	4.13	4.15	4.17	4.16	4.12	4.14	4.18	4.17	4.13	4.13	4.16	4.20	4.23	4.21	4.19	4.18	4.18	
2.61	2.59	2.54	2.48	2.39	2.29	2.22	2.18	2.19	2.14	2.40	2.32	8.78	11.83	9.68	8.58	7.73	7.72	10.41	7.09	5.20	5.35	4.78	4.42	4.09	1.29	4.04	1.67	3.96	4.01	4.18	1.63	0.86	1.46	3.19	3.64	4.20	4.36	4.38	3.90	4.23	3.91	1.12	3.89	4.23	4.53	4.61	4.29	3.75	3.44	3.53	3.92	4.30	4.46	4.56	4.83	5.36	5.92	5.44	2.91	2.47	2.80	3.00	3.46	4.03	2.09	0.69	1.78	3.87	3.74	3.77	4.02	2.23	2.09	4.10	4.35	4.63	4.62	4.52	4.50	4.60	4.81	5.02	5.29	5.53	3.07	5.60	5.69	5.72	5.83	6.05	6.42	6.33	4.96	4.40	3.89	3.15	2.52	2.21	2.31	2.37	2.23	1.94	2.04	2.15	1.52	0.55	0.29	0.46	0.73	1.87	1.78	2.05	2.35	2.39	2.83	2.54	2.42	2.40	2.48	2.62	2.76	2.73	2.69	2.91	3.09	3.00	2.81	2.53	2.25	2.21	2.36	2.59	2.82	3.00	3.11	3.16	3.26	3.37	3.45	3.54	3.59	3.58	3.64	3.74	3.78	3.81	3.84	3.85	3.89	3.93	3.93	3.98	4.04	4.01	4.00	4.03	4.06	4.08	4.10	4.11	4.12	4.13	4.15	4.16	4.15	4.14	4.16	4.19	4.17	4.13	4.15	4.19	4.21	4.19	4.17	4.16	4.16	
2.62	2.59	2.54	2.48	2.40	2.30	2.22	2.16	2.16	2.18	2.42	2.40	9.32	12.74	9.90	8.27	7.14	7.27	9.85	6.37	5.91	5.00	2.73	4.08	5.25	3.95	4.57	1.41	3.94	3.85	3.97	2.21	4.22	3.85	3.45	3.45	3.89	4.49	4.85	4.79	4.45	4.10	1.43	3.92	4.13	4.44	4.57	4.30	3.81	3.41	3.31	3.61	4.03	4.24	4.20	4.32	5.00	6.41	5.76	3.94	3.39	3.19	3.06	3.39	2.98	0.64	1.26	2.58	3.90	3.82	3.80	3.92	4.31	4.48	4.22	4.13	4.38	4.59	4.52	4.38	4.39	4.47	4.70	4.98	5.15	5.39	5.53	5.55	5.60	5.75	5.94	6.23	6.31	4.55	4.53	4.22	4.30	4.10	3.80	3.63	3.53	3.59	2.84	2.74	2.65	1.27	0.76	0.45	0.10	0.51	0.72	2.03	1.99	2.33	2.55	2.97	2.62	2.48	2.42	2.47	2.65	2.89	2.92	2.88	3.00	3.10	3.00	2.75	2.32	1.99	2.02	2.24	2.47	2.71	2.91	3.04	3.11	3.19	3.29	3.38	3.51	3.61	3.61	3.63	3.71	3.75	3.78	3.84	3.86	3.90	3.96	3.96	3.98	4.02	4.00	3.98	4.00	4.04	4.07	4.11	4.13	4.13	4.13	4.14	4.16	4.17	4.17	4.16	4.18	4.18	4.14	4.14	4.18	4.22	4.20	4.16	4.15	4.15	
2.63	2.61	2.55	2.48	2.41	2.31	2.21	2.16	2.15	2.17	2.19	2.10	9.49	10.79	6.31	7.38	7.06	7.80	4.92	5.38	7.61	4.87	8.53	7.73	5.06	5.19	4.06	2.34	4.10	3.89	3.90	4.10	4.27	3.88	3.48	3.35	3.62	4.12	4.54	4.68	4.54	4.19	3.91	3.85	3.98	4.27	4.45	4.26	3.89	3.60	3.40	3.52	3.98	4.18	3.96	3.75	4.14	6.11	7.15	4.92	4.09	3.49	2.97	2.63	3.31	0.93	2.54	3.76	3.86	3.88	3.92	4.06	4.19	4.25	4.23	4.12	4.16	4.42	4.51	4.40	4.44	4.38	4.41	2.25	5.06	5.21	5.49	5.58	5.66	5.83	6.01	6.28	6.40	4.87	4.78	4.59	4.59	3.62	2.89	2.87	2.46	2.43	2.31	2.21	2.14	1.54	0.73	0.29	0.08	0.28	0.35	0.60	1.94	2.18	2.56	3.19	2.80	2.58	2.47	2.47	2.65	2.89	2.96	3.02	3.17	3.20	3.00	2.72	2.31	1.87	1.81	2.06	2.34	2.58	2.78	2.95	3.06	3.14	3.23	3.31	3.43	3.56	3.63	3.67	3.71	3.74	3.75	3.82	3.85	3.89	3.94	3.96	4.00	4.03	4.01	3.98	3.98	4.02	4.06	4.10	4.14	4.16	4.15	4.15	4.16	4.16	4.17	4.18	4.19	4.19	4.17	4.16	4.16	4.18	4.19	4.17	4.15	4.15	
2.63	2.62	2.56	2.48	2.41	2.32	2.22	2.15	2.13	2.13	1.96	1.95	8.67	11.79	6.91	4.57	6.70	8.84	5.19	4.86	6.28	3.45	4.06	7.31	8.33	7.90	5.70	3.42	4.77	3.13	4.15	4.14	4.30	4.23	3.91	2.83	3.58	3.79	4.14	4.45	4.53	4.23	3.86	3.71	3.78	4.02	4.25	4.15	3.85	3.71	3.62	3.60	3.91	4.15	3.97	3.59	3.67	5.28	7.36	5.68	4.18	3.27	2.21	1.89	1.04	3.12	2.50	2.28	3.81	3.87	3.96	4.15	4.23	4.17	4.19	4.12	4.03	4.21	4.44	4.42	4.49	0.56	4.20	4.40	4.77	4.95	5.20	5.40	5.56	5.77	6.05	6.39	6.07	4.84	4.85	4.67	4.51	3.80	2.86	2.53	2.34	2.25	2.24	2.29	2.07	1.51	0.89	0.46	0.24	0.11	0.23	0.49	0.44	2.19	2.37	2.30	1.98	2.74	2.61	2.62	2.83	3.03	3.06	3.16	3.38	3.36	3.03	2.72	2.44	1.98	1.71	1.86	2.17	2.42	2.64	2.83	2.97	3.09	3.19	3.27	3.36	3.47	3.58	3.67	3.72	3.75	3.76	3.79	3.83	3.89	3.94	3.94	4.01	4.06	4.02	3.99	3.99	4.01	4.05	4.09	4.12	4.14	4.14	4.15	4.17	4.17	4.17	4.17	4.18	4.18	4.18	4.21	4.20	4.15	4.12	4.12	4.12	4.12	
2.66	2.64	2.58	2.49	2.41	2.33	2.23	2.16	2.12	2.14	1.86	1.88	5.90	11.13	7.30	4.74	6.04	5.62	4.84	1.95	3.92	6.90	5.73	7.34	5.89	6.60	8.33	4.67	6.19	5.54	5.12	4.76	4.60	4.49	0.30	0.63	0.47	3.85	3.90	4.24	4.58	4.44	3.96	3.73	3.74	3.88	4.06	4.04	3.78	3.59	3.49	3.44	3.60	3.89	3.90	3.61	3.60	4.67	6.77	5.81	1.43	3.34	1.85	2.65	2.28	3.41	2.82	2.63	3.83	3.85	3.96	4.13	4.23	4.21	4.21	4.12	3.95	4.03	4.28	4.41	4.47	2.46	4.23	4.19	4.45	4.72	4.96	5.16	5.38	5.63	6.00	6.20	5.65	4.44	4.24	4.05	3.77	3.37	2.96	2.53	2.33	2.24	2.03	1.93	1.64	1.30	0.98	0.56	0.38	0.39	0.40	0.26	0.35	2.30	3.28	3.23	1.95	1.47	1.64	2.04	2.52	2.48	2.59	2.84	2.83	2.33	3.14	2.79	2.55	2.16	1.78	1.72	1.93	2.19	2.43	2.68	2.87	3.02	3.16	3.26	3.32	3.41	3.52	3.61	3.68	3.73	3.77	3.78	3.82	3.90	3.95	3.93	3.99	4.08	4.06	4.02	4.01	4.03	4.05	4.07	4.11	4.12	4.13	4.15	4.17	4.18	4.18	4.16	4.15	4.15	4.15	4.20	4.27	4.26	4.17	4.08	4.06	4.06	
2.70	2.67	2.61	2.52	2.43	2.35	2.25	2.17	2.12	2.13	2.10	2.30	4.70	9.66	8.30	6.31	7.57	6.40	5.16	3.18	2.93	4.78	6.12	5.98	6.69	6.70	7.39	8.83	6.54	4.41	5.93	6.08	5.79	5.52	5.11	4.64	3.99	1.14	3.99	4.12	4.56	0.94	4.22	3.86	3.86	3.92	4.02	4.05	3.95	3.73	3.49	3.36	3.45	3.66	3.74	3.56	3.70	3.98	6.21	2.20	4.31	4.19	5.02	3.77	3.34	3.88	4.01	3.87	3.85	3.86	3.96	4.09	4.24	4.33	4.29	4.05	3.76	3.83	4.04	4.26	0.98	4.46	4.25	4.20	4.32	4.58	4.81	4.98	5.20	5.53	5.95	6.23	5.22	4.31	3.84	3.61	3.50	3.29	3.02	2.60	2.27	2.25	2.25	2.26	1.72	1.35	1.29	0.98	0.64	0.41	0.14	0.09	0.43	0.85	2.07	1.91	1.58	1.73	1.76	1.97	2.44	2.65	2.91	2.95	2.67	2.38	3.30	2.98	2.67	2.34	2.05	1.84	1.86	1.99	2.20	2.50	2.76	2.93	3.10	3.23	3.30	3.38	3.50	3.58	3.63	3.68	3.75	3.78	3.79	3.87	3.95	3.93	3.94	4.03	4.07	4.06	4.04	4.05	4.07	4.07	4.10	4.12	4.14	4.17	4.18	4.18	4.15	4.12	4.10	4.08	4.05	4.07	4.17	4.32	4.33	4.18	4.07	4.07	
2.70	2.68	2.63	2.54	2.44	2.37	2.28	2.18	2.13	2.12	2.35	2.65	3.45	9.29	8.11	7.61	10.29	9.54	5.89	5.05	3.38	4.81	5.76	6.52	6.43	3.90	4.42	7.82	8.65	7.89	8.11	6.33	6.36	4.25	5.10	4.70	5.70	4.64	4.53	4.26	4.43	4.61	4.31	4.00	4.01	4.07	4.10	4.12	4.14	4.05	3.81	3.64	3.64	3.70	3.73	3.64	3.47	3.50	5.69	2.27	3.87	4.44	4.70	5.01	4.71	4.50	4.12	3.87	3.74	3.73	3.85	4.01	4.17	4.37	4.42	4.06	3.60	3.59	0.46	3.94	4.29	4.49	4.34	4.22	4.28	4.50	4.69	4.79	4.94	5.32	5.81	6.15	5.07	3.85	3.57	3.44	3.54	3.37	3.15	2.92	2.48	2.41	2.54	2.35	1.66	1.31	1.40	1.35	1.24	1.04	0.73	0.49	0.42	0.57	1.97	1.67	1.63	1.87	1.76	1.74	2.06	2.73	3.28	2.94	2.55	2.46	2.13	3.20	2.88	2.57	2.35	2.19	2.10	2.02	2.06	2.33	2.64	2.86	3.04	3.19	3.29	3.36	3.47	3.57	3.62	3.66	3.74	3.80	3.79	3.82	3.94	3.97	3.91	3.94	4.02	4.05	4.06	4.08	4.10	4.09	4.11	4.12	4.13	4.17	4.22	4.25	4.23	4.19	4.18	4.15	4.05	3.94	3.97	4.14	4.31	4.27	4.17	4.17	
2.72	2.70	2.65	2.56	2.45	2.36	2.28	2.18	2.12	2.16	2.23	2.19	3.00	8.97	12.53	10.60	9.80	8.68	8.78	5.91	4.59	3.48	4.42	6.15	5.85	7.39	4.25	4.75	8.29	7.66	7.86	7.73	8.29	7.45	7.96	7.05	7.19	6.92	6.13	5.37	5.04	4.73	4.29	4.13	2.96	4.21	2.45	4.10	4.14	4.13	3.97	3.89	3.91	3.79	3.80	3.72	3.50	4.91	5.36	2.69	3.99	4.42	4.56	4.85	4.89	4.70	4.38	4.10	3.84	3.58	3.74	4.07	4.19	4.38	1.10	4.21	0.68	3.52	3.57	3.62	3.81	4.17	4.38	4.39	4.39	4.51	4.68	4.73	4.77	5.09	5.54	5.92	4.58	2.86	3.15	3.45	3.62	3.34	3.39	3.29	2.84	2.66	2.52	2.17	1.56	1.31	1.33	1.26	1.14	1.17	1.11	0.86	0.87	1.00	1.04	2.13	2.05	1.93	1.82	1.70	1.70	2.21	3.19	2.57	2.50	2.35	2.15	2.08	3.08	2.81	2.56	2.39	2.31	2.14	2.03	2.19	2.51	2.77	2.99	3.17	3.28	3.36	3.44	3.54	3.61	3.65	3.72	3.81	3.82	3.79	3.90	4.03	3.99	3.92	3.96	4.01	4.04	4.08	4.10	4.10	4.11	4.10	4.10	4.14	4.23	4.33	4.36	4.36	4.37	4.39	4.28	4.02	3.90	3.99	4.14	4.22	4.20	4.20	
2.74	2.70	2.65	2.57	2.47	2.37	2.28	2.18	2.13	2.15	2.08	2.15	2.86	8.89	11.64	10.07	8.34	7.93	7.47	7.38	5.58	4.71	3.90	3.73	5.24	5.96	7.31	6.62	7.63	7.59	6.94	5.93	6.95	8.64	8.84	9.76	6.63	10.02	7.37	7.18	6.75	5.86	4.23	4.14	4.28	4.31	4.19	4.13	4.09	3.97	2.77	3.78	4.02	3.80	3.63	3.61	4.64	4.91	7.61	4.49	4.07	4.42	4.43	4.69	4.84	4.85	4.64	4.46	1.01	3.93	3.93	4.33	4.52	4.57	4.61	4.47	4.08	3.79	3.67	3.53	3.42	3.66	4.14	4.42	4.48	4.54	4.68	4.53	4.75	5.00	5.37	5.72	3.13	2.34	3.04	3.60	3.63	3.26	3.48	3.54	2.96	2.90	2.74	2.40	2.08	1.87	1.82	1.63	1.33	1.25	1.32	1.05	0.95	1.19	1.41	1.56	1.38	1.04	2.04	2.11	2.06	1.97	2.35	2.69	2.50	2.21	2.09	2.15	3.27	3.11	2.89	2.62	2.43	2.25	2.06	2.10	2.39	2.68	2.92	3.13	3.27	3.36	3.44	3.52	3.58	3.62	3.67	3.77	3.83	3.81	3.82	3.95	4.04	3.99	3.96	3.98	4.01	4.05	4.08	4.08	4.10	4.12	4.10	4.10	4.16	4.23	4.27	4.29	4.34	4.45	4.47	4.20	3.96	4.00	4.10	4.16	4.16	4.16	
2.76	2.72	2.65	2.57	2.47	2.36	2.27	2.18	2.12	2.13	2.15	2.40	2.75	9.05	11.40	10.19	8.66	8.17	8.09	8.16	7.57	5.16	5.24	4.60	3.89	4.66	5.08	6.13	6.83	7.01	7.13	4.21	4.22	7.84	7.91	8.42	8.98	9.72	6.81	7.25	7.49	5.16	5.47	4.18	4.13	2.87	4.29	4.24	4.13	2.80	2.44	3.53	3.97	4.14	3.82	3.44	4.65	4.86	4.49	4.77	4.53	4.40	4.31	4.52	4.68	4.77	4.69	4.58	1.19	4.40	4.25	4.44	0.64	0.84	4.73	4.68	4.40	4.12	4.08	3.99	3.61	3.48	3.89	4.30	4.47	4.54	4.62	4.70	4.72	4.92	5.29	3.92	1.58	1.99	3.18	3.73	3.69	3.19	3.48	3.67	3.35	3.28	3.16	2.68	2.48	3.24	2.53	1.99	1.59	1.60	1.78	1.55	1.15	1.11	1.39	1.48	1.18	0.93	1.35	2.03	2.12	1.82	2.33	2.59	2.61	2.31	2.06	2.05	1.94	3.35	3.27	3.04	2.71	2.47	2.22	2.06	2.25	2.58	2.82	3.04	3.22	3.33	3.42	3.52	3.58	3.62	3.66	3.72	3.79	3.83	3.82	3.85	3.96	4.02	4.00	4.00	4.03	4.05	4.09	4.08	4.07	4.12	4.12	4.06	4.06	4.10	4.14	4.15	4.19	4.36	4.48	4.30	4.04	4.03	4.12	4.14	4.14	4.14	
2.77	2.74	2.66	2.58	2.50	2.37	2.26	2.17	2.12	2.13	2.21	2.47	2.62	9.32	11.28	10.12	9.72	8.55	7.72	6.90	4.88	5.26	7.52	5.46	4.43	4.79	5.35	5.67	6.10	6.94	6.41	4.34	3.85	7.61	7.52	7.71	6.00	6.11	6.16	6.19	7.08	7.62	6.29	4.42	3.97	4.06	4.33	4.47	3.85	1.68	2.97	3.61	4.01	4.35	4.49	4.15	4.65	4.29	4.66	4.36	4.29	4.19	4.24	4.40	4.45	4.47	4.47	4.41	4.41	4.44	4.43	4.46	4.63	4.76	4.76	4.70	4.46	4.14	4.10	1.73	1.73	3.59	3.65	4.13	4.42	4.52	4.53	4.59	4.67	4.79	5.11	1.87	1.56	2.87	3.72	4.16	3.73	3.08	3.41	3.82	4.08	4.12	3.82	3.13	2.66	2.43	2.42	1.95	1.54	1.61	1.93	1.99	1.39	1.15	1.49	1.57	1.45	1.14	1.36	2.42	2.51	1.97	1.54	1.42	1.42	2.60	2.29	2.11	1.90	1.87	3.54	3.41	3.09	2.81	2.54	2.16	2.15	2.45	2.75	2.98	3.17	3.31	3.41	3.50	3.58	3.63	3.67	3.71	3.77	3.83	3.85	3.85	3.89	3.96	4.00	4.00	4.03	4.06	4.09	4.08	4.03	4.05	4.09	4.08	4.06	4.07	4.12	4.13	4.16	4.32	4.44	4.30	4.11	4.09	4.15	4.14	4.12	4.12	
2.79	2.75	2.67	2.58	2.51	2.40	2.28	2.18	2.11	2.11	2.20	2.45	2.63	8.57	11.69	10.90	10.16	7.78	6.92	5.84	7.37	4.80	5.41	7.52	5.40	5.26	5.41	4.05	5.84	6.24	6.55	4.14	3.98	3.68	7.52	5.82	5.96	6.09	6.07	5.97	6.68	10.72	7.03	4.94	0.67	3.82	4.17	4.54	2.03	4.09	3.90	3.99	4.23	4.99	4.55	3.41	5.44	4.27	4.37	4.14	3.93	3.80	4.10	4.44	4.37	4.16	4.01	3.96	4.04	4.19	4.41	4.51	4.54	4.59	4.70	4.75	4.51	4.19	1.65	3.99	3.81	3.79	3.57	3.93	4.30	4.42	4.53	4.61	4.65	4.73	4.12	0.61	2.58	3.61	4.14	3.94	3.46	3.23	3.43	3.64	4.04	3.95	3.60	3.14	3.08	3.56	3.63	3.26	1.86	1.57	1.67	1.89	1.36	1.20	1.53	1.55	1.52	1.43	1.54	2.39	2.67	2.35	2.16	1.76	1.69	1.87	2.78	2.42	2.06	1.94	2.13	3.63	3.41	3.16	2.93	2.52	2.23	2.37	2.70	2.97	3.16	3.30	3.40	3.49	3.58	3.64	3.67	3.71	3.77	3.82	3.86	3.88	3.89	3.94	3.97	3.96	4.00	4.04	4.07	4.08	4.03	4.01	4.07	4.11	4.11	4.09	4.10	4.10	4.14	4.32	4.42	4.27	4.13	4.13	4.17	4.15	4.11	4.11	
2.84	2.80	2.71	2.61	2.53	2.42	2.28	2.18	2.10	2.07	2.18	2.14	2.10	5.36	11.01	11.89	10.39	8.16	6.44	5.56	6.81	3.82	4.07	7.08	6.58	5.61	4.42	4.12	4.06	5.91	6.85	4.07	4.15	3.93	3.65	6.18	3.77	4.20	4.68	5.27	6.39	7.81	5.89	3.11	3.84	3.88	4.11	4.38	4.34	1.56	4.03	4.22	4.47	5.24	4.99	4.24	3.61	4.10	4.27	4.01	3.67	3.43	3.78	0.20	4.55	4.21	3.63	3.39	3.61	3.92	4.27	4.51	4.56	4.54	4.65	4.84	1.35	0.97	1.00	4.11	1.99	2.03	3.89	3.97	4.25	4.37	4.36	4.35	4.42	4.61	1.90	2.23	2.92	3.76	4.64	4.43	3.86	3.52	3.66	3.82	4.19	3.94	3.61	2.95	2.98	3.25	2.96	2.44	2.07	1.96	1.84	1.71	1.30	1.47	1.57	1.56	1.47	1.47	1.59	1.80	2.43	2.13	2.24	2.06	1.92	2.26	3.41	2.92	2.39	2.19	2.41	3.61	3.54	3.38	3.26	2.95	2.52	2.42	2.66	2.95	3.15	3.29	3.39	3.48	3.57	3.64	3.68	3.71	3.76	3.82	3.85	3.87	3.89	3.94	3.97	3.96	3.97	4.02	4.07	4.10	4.07	4.03	4.05	4.09	4.10	4.11	4.08	4.04	4.08	4.28	4.38	4.25	4.14	4.14	4.17	4.15	4.12	4.12	
2.87	2.83	2.74	2.63	2.55	2.44	2.29	2.16	2.07	2.03	2.10	1.89	1.99	3.81	9.45	12.37	10.61	6.30	5.55	5.40	5.69	6.25	3.87	4.31	7.85	6.44	4.63	4.43	3.94	3.53	7.08	6.62	4.02	4.05	3.80	3.64	3.74	4.05	4.47	4.96	6.01	7.19	8.17	5.44	4.09	4.56	4.40	1.94	4.15	3.91	3.95	4.03	4.28	5.19	5.56	4.61	3.75	4.22	4.44	4.05	2.55	3.35	3.51	4.15	4.62	1.19	3.60	2.94	3.08	3.62	4.13	4.45	4.61	4.68	4.71	0.52	0.49	0.43	0.75	4.38	1.45	4.34	4.13	4.15	4.30	4.43	4.41	4.30	3.16	1.38	5.00	4.05	3.99	4.32	4.88	5.44	4.55	3.78	3.57	3.84	4.20	3.68	3.23	2.76	3.04	3.53	3.21	2.73	2.26	2.55	2.02	1.52	1.61	1.67	1.56	1.63	1.76	1.76	1.35	0.77	0.38	1.74	2.94	3.05	3.23	3.44	3.21	3.48	2.95	2.64	2.65	3.59	3.58	3.54	3.50	3.31	2.87	2.57	2.65	2.92	3.13	3.28	3.38	3.47	3.56	3.64	3.69	3.72	3.76	3.81	3.85	3.87	3.89	3.94	3.99	4.00	3.98	4.01	4.09	4.13	4.09	4.03	4.04	4.06	4.09	4.11	4.09	4.04	4.06	4.20	4.30	4.24	4.17	4.14	4.16	4.16	4.13	4.13	
2.88	2.84	2.77	2.66	2.55	2.44	2.30	2.13	2.03	1.98	2.00	1.91	2.38	2.57	8.52	12.41	8.31	6.52	5.00	4.53	4.73	5.31	3.32	3.88	4.24	4.84	7.79	4.90	4.33	3.96	3.67	3.61	5.92	3.99	3.75	3.58	3.67	3.92	4.26	4.65	5.53	6.04	8.88	7.28	5.78	4.96	3.31	4.53	1.27	3.89	3.92	3.84	3.96	5.00	4.78	4.67	4.19	2.43	1.13	4.63	4.15	3.86	3.84	4.26	4.77	4.82	4.12	3.20	2.97	3.42	4.02	4.37	4.50	4.68	0.45	0.35	0.78	1.18	4.31	4.28	2.30	4.30	4.13	4.17	4.31	4.49	4.65	2.78	0.68	2.41	4.76	4.63	4.86	5.40	5.04	5.24	4.33	3.50	3.05	3.43	3.69	2.88	2.79	3.01	3.24	3.23	2.99	2.58	2.47	2.46	2.30	1.54	1.65	1.65	1.54	1.59	1.88	1.81	1.39	1.35	1.38	3.60	4.11	3.54	3.38	3.68	3.97	3.84	3.53	3.28	3.13	3.74	3.68	3.64	3.62	3.49	3.11	2.74	2.67	2.88	3.11	3.27	3.37	3.46	3.55	3.64	3.69	3.73	3.76	3.81	3.84	3.86	3.89	3.92	3.98	4.03	4.00	3.98	4.06	4.14	4.13	4.06	4.03	4.05	4.09	4.13	4.11	4.09	4.10	4.14	4.20	4.21	4.18	4.14	4.15	4.16	4.15	4.15	
2.91	2.87	2.80	2.70	2.58	2.45	2.30	2.13	1.99	1.91	1.95	1.92	2.40	2.56	8.04	12.01	11.05	8.34	5.85	4.66	4.13	3.75	5.79	3.07	3.63	3.97	4.11	5.74	5.16	4.08	3.75	3.54	7.42	3.93	3.79	3.51	3.52	3.77	4.10	4.38	5.28	5.17	8.24	8.20	7.61	5.62	4.47	4.77	2.67	3.79	4.19	4.32	4.47	9.62	5.32	4.62	4.48	4.69	2.64	0.97	1.88	0.86	4.30	4.50	4.94	4.49	4.04	4.43	4.04	3.87	4.20	4.52	4.47	3.27	0.60	0.37	0.59	4.04	4.21	4.28	4.38	4.39	4.26	4.31	4.55	3.72	2.10	0.31	2.00	2.72	4.06	5.10	4.48	4.93	4.98	5.01	3.30	3.04	2.89	3.03	2.79	2.09	2.62	2.52	2.58	2.79	2.91	2.65	2.45	2.87	2.68	1.61	1.26	1.57	1.63	1.42	1.64	1.64	1.76	1.97	2.13	3.23	4.26	3.57	3.14	3.24	3.56	3.65	3.74	3.77	3.56	3.92	3.76	3.70	3.64	3.52	3.23	2.85	2.69	2.85	3.09	3.26	3.37	3.47	3.56	3.64	3.69	3.74	3.77	3.80	3.84	3.86	3.89	3.91	3.96	4.01	4.00	3.98	4.02	4.11	4.15	4.10	4.04	4.05	4.09	4.13	4.15	4.14	4.13	4.12	4.15	4.18	4.16	4.12	4.13	4.15	4.16	4.16	
2.93	2.89	2.81	2.72	2.60	2.46	2.32	2.14	1.97	1.87	1.87	1.96	2.55	2.27	7.89	11.57	11.33	8.82	6.53	4.45	3.85	2.83	2.96	5.80	2.84	3.28	3.62	3.79	6.46	3.93	3.60	3.48	6.50	3.79	3.51	3.30	3.30	3.59	3.97	4.23	5.20	7.89	7.78	9.86	10.86	11.67	7.29	7.12	3.68	5.18	5.24	5.34	5.45	5.49	4.85	4.38	4.40	4.65	4.98	4.78	4.24	4.01	3.97	4.15	4.50	4.63	4.51	4.62	1.12	4.37	4.40	4.79	3.96	1.22	0.68	0.40	0.97	4.11	4.26	4.50	4.66	4.74	4.78	4.07	4.23	2.01	0.75	1.99	2.70	3.46	3.80	4.09	4.70	4.86	5.41	5.61	3.92	3.08	2.92	3.04	2.82	2.20	2.13	2.55	2.47	2.36	2.64	2.70	2.72	3.22	3.30	2.17	1.26	1.65	1.82	1.62	1.30	1.90	2.59	2.93	2.96	3.23	4.02	3.98	3.48	3.41	3.53	3.43	3.54	3.81	3.75	4.01	3.85	3.83	3.74	3.57	3.32	2.96	2.71	2.79	3.05	3.24	3.38	3.48	3.57	3.65	3.70	3.75	3.79	3.81	3.84	3.87	3.89	3.92	3.96	3.99	4.00	4.00	4.01	4.06	4.12	4.10	4.05	4.05	4.07	4.10	4.16	4.18	4.14	4.12	4.15	4.17	4.14	4.11	4.12	4.13	4.14	4.14	
2.95	2.91	2.82	2.74	2.63	2.46	2.33	2.15	1.97	1.82	1.79	1.93	2.76	2.78	7.83	11.23	11.28	8.16	7.09	7.01	5.08	4.14	3.58	3.03	3.06	5.54	6.08	3.14	6.08	3.67	3.43	3.20	6.70	6.78	6.89	3.01	3.08	3.35	3.72	4.07	5.31	7.73	8.03	9.29	9.74	9.15	9.43	7.43	7.29	10.00	8.70	9.69	6.22	5.81	4.49	4.11	4.12	4.52	1.49	4.75	4.05	3.70	3.64	3.90	4.12	3.93	3.64	3.73	4.00	4.05	4.11	4.55	1.04	0.35	1.05	0.81	3.40	4.78	4.71	3.67	4.73	4.23	4.41	4.40	3.98	4.56	4.95	4.68	4.34	4.73	4.40	4.27	4.80	4.77	5.63	5.47	4.46	3.86	3.17	3.05	2.74	2.36	2.15	2.02	2.30	2.31	2.40	2.73	3.52	3.95	3.79	2.97	2.04	1.30	1.79	2.98	4.35	5.15	4.34	3.97	3.65	3.69	4.29	4.32	3.92	3.80	3.70	3.60	3.51	3.54	3.62	3.95	3.88	3.97	3.94	3.74	3.52	3.17	2.82	2.77	2.98	3.22	3.38	3.50	3.59	3.65	3.70	3.75	3.80	3.83	3.84	3.87	3.90	3.95	3.98	3.99	4.00	4.01	4.02	4.06	4.09	4.09	4.06	4.05	4.07	4.12	4.17	4.18	4.15	4.14	4.17	4.18	4.14	4.12	4.14	4.13	4.12	4.12	
2.97	2.94	2.86	2.78	2.68	2.52	2.36	2.17	1.98	1.80	1.73	1.82	2.71	2.69	7.70	10.71	10.44	11.43	11.76	8.21	6.42	4.85	4.12	3.61	3.21	2.90	2.69	2.89	3.19	5.41	3.29	3.41	6.61	4.14	3.20	3.06	3.00	3.13	3.43	3.78	5.40	7.86	8.53	9.14	7.45	7.32	7.29	7.38	7.33	10.40	9.44	10.79	6.84	5.64	4.17	3.87	3.90	4.30	4.83	4.64	4.07	3.85	3.80	4.02	3.92	3.58	3.02	3.07	3.30	3.53	3.67	3.96	0.93	0.47	0.98	0.71	3.68	0.31	2.31	7.50	4.03	4.10	4.23	5.30	5.25	7.12	4.83	5.25	5.60	5.59	5.76	4.93	4.62	4.63	4.92	3.81	5.03	5.62	4.71	3.54	2.33	1.45	1.53	1.85	2.48	2.51	2.56	2.77	3.35	4.12	4.12	3.93	4.14	5.29	5.01	4.03	4.81	6.20	5.64	4.89	4.15	3.78	4.56	4.91	4.28	3.91	3.74	3.77	3.49	3.25	3.29	3.87	3.85	4.00	4.10	3.99	3.79	3.50	3.14	2.90	2.97	3.21	3.39	3.51	3.60	3.66	3.70	3.75	3.81	3.85	3.86	3.86	3.90	3.96	3.99	4.00	4.02	4.02	4.04	4.09	4.13	4.12	4.08	4.05	4.07	4.14	4.18	4.16	4.15	4.16	4.16	4.16	4.15	4.14	4.15	4.14	4.12	4.12	
3.01	2.98	2.90	2.82	2.71	2.56	2.40	2.21	2.01	1.80	1.66	1.72	2.25	2.16	7.20	10.29	10.12	10.50	11.76	8.44	7.36	5.97	4.74	4.10	3.66	3.36	3.12	2.95	2.93	2.86	2.72	2.77	4.25	3.25	3.36	3.25	3.11	3.13	3.24	3.45	5.63	7.81	8.31	7.75	4.90	4.91	5.02	5.23	7.92	9.33	9.91	10.99	7.48	5.93	4.14	3.75	3.86	4.35	4.70	4.33	3.88	3.90	4.11	4.35	4.35	3.55	2.81	2.73	2.91	3.25	3.52	3.45	0.78	0.96	0.78	4.22	3.89	5.54	5.77	7.60	3.58	3.53	3.57	7.52	7.06	6.95	7.33	7.87	5.04	5.29	5.62	5.88	4.33	3.60	2.61	4.59	5.16	5.60	5.37	2.97	1.64	1.99	2.24	1.87	2.61	2.80	2.91	2.83	2.82	3.41	3.69	3.08	3.61	4.88	5.25	4.52	4.69	5.58	5.60	5.63	4.93	4.07	4.44	5.15	4.62	3.87	3.53	3.57	3.58	3.42	3.37	3.87	3.82	3.92	4.07	4.10	3.99	3.74	3.47	3.19	3.07	3.23	3.42	3.53	3.63	3.68	3.72	3.76	3.81	3.86	3.87	3.85	3.88	3.96	3.99	3.99	4.00	4.02	4.05	4.09	4.12	4.15	4.11	4.03	4.04	4.13	4.15	4.13	4.15	4.16	4.14	4.13	4.14	4.14	4.15	4.15	4.14	4.14	
3.05	3.02	2.94	2.85	2.75	2.61	2.43	2.25	2.05	1.82	1.63	1.60	1.66	1.40	5.17	10.06	10.23	10.11	10.91	7.82	7.79	6.19	4.38	4.53	3.92	3.49	3.35	3.29	3.18	3.02	2.74	2.65	2.80	3.04	3.23	3.29	3.29	3.32	3.27	6.07	6.00	7.62	5.58	5.52	5.43	5.37	5.29	5.36	8.79	9.57	9.61	10.61	8.04	6.95	4.70	3.90	3.93	4.59	5.27	4.72	4.11	3.98	4.34	4.86	4.80	3.80	2.91	2.80	2.84	3.15	3.49	1.19	3.51	1.31	4.06	3.30	5.68	6.30	6.69	3.78	3.53	3.47	3.62	7.19	6.75	6.63	6.95	7.29	7.11	7.70	8.28	5.31	5.67	4.51	4.35	4.61	4.62	4.64	3.93	1.39	1.78	2.16	2.43	2.24	2.73	2.77	2.57	2.43	2.58	2.75	2.35	2.24	3.22	4.11	4.85	4.42	4.43	4.88	4.99	5.54	5.77	4.93	4.52	4.89	4.84	4.14	3.76	3.51	3.57	3.49	3.84	3.82	3.78	3.79	3.87	3.98	4.03	3.84	3.58	3.37	3.23	3.30	3.46	3.55	3.64	3.70	3.72	3.75	3.80	3.85	3.88	3.86	3.87	3.94	3.99	4.00	3.99	4.00	4.04	4.05	4.07	4.12	4.12	4.07	4.07	4.11	4.12	4.14	4.17	4.16	4.13	4.11	4.13	4.14	4.14	4.14	4.13	4.13	
3.07	3.05	2.99	2.89	2.79	2.66	2.49	2.30	2.08	1.85	1.65	1.55	1.47	1.46	4.66	9.35	10.15	9.85	10.25	7.04	7.95	6.79	4.91	4.86	4.19	3.65	3.41	3.35	3.23	3.13	2.91	2.69	4.47	2.89	3.18	3.30	3.35	3.45	3.43	6.77	7.05	5.85	5.81	4.17	4.38	4.43	8.94	5.97	8.87	8.80	9.01	9.89	7.81	7.99	6.37	4.80	4.28	4.62	4.02	5.87	2.75	4.79	4.90	5.55	5.93	5.25	4.46	4.11	3.86	3.68	1.77	3.55	3.43	3.29	3.90	3.91	4.16	6.13	6.78	3.29	3.29	3.51	3.74	3.98	7.25	6.88	6.57	6.54	6.67	7.46	8.03	4.64	5.24	5.73	5.95	5.91	5.92	3.84	2.93	1.03	1.92	3.32	2.90	2.72	2.78	2.57	2.36	2.36	2.66	2.64	2.25	3.26	3.66	3.78	4.28	4.18	3.91	4.11	4.41	5.00	5.42	5.03	4.67	4.80	4.77	4.17	4.17	3.86	3.53	3.23	3.76	3.72	3.72	3.75	3.77	3.85	4.03	3.99	3.64	3.34	3.27	3.37	3.50	3.58	3.65	3.71	3.73	3.76	3.79	3.83	3.88	3.90	3.90	3.93	3.98	4.03	4.02	4.00	4.03	4.04	4.04	4.07	4.08	4.10	4.14	4.12	4.09	4.15	4.19	4.17	4.13	4.09	4.11	4.15	4.15	4.13	4.11	4.11	
3.09	3.08	3.03	2.94	2.82	2.69	2.52	2.35	2.14	1.91	1.68	1.57	1.43	1.76	3.05	8.68	10.23	9.62	9.86	10.67	11.52	6.92	5.37	5.23	4.49	3.90	3.52	3.33	3.14	3.00	2.85	2.68	2.63	2.78	3.07	3.26	3.33	3.87	7.16	3.58	3.41	3.39	3.55	3.83	4.10	4.36	6.68	8.51	5.50	7.95	7.27	8.93	9.83	7.57	7.39	6.10	4.40	4.20	6.94	6.13	5.20	1.78	5.21	5.67	6.26	6.25	5.61	5.23	5.56	1.46	4.14	2.32	3.06	4.91	3.48	3.27	5.62	5.84	6.30	2.86	3.04	3.48	3.57	3.81	7.27	7.54	7.52	6.99	7.25	7.68	7.98	7.98	8.07	5.17	5.69	5.83	5.81	6.10	0.88	5.79	5.80	6.37	4.05	3.00	2.91	2.57	2.58	2.90	2.92	2.77	3.03	3.56	3.81	3.36	3.61	3.85	3.67	3.67	3.99	4.57	4.92	4.72	4.40	4.40	3.73	3.69	3.84	3.90	3.62	3.22	3.83	3.73	3.69	3.73	3.76	3.77	3.98	4.19	3.96	3.48	3.32	3.44	3.56	3.61	3.66	3.72	3.75	3.78	3.80	3.82	3.86	3.91	3.92	3.93	3.95	4.01	4.04	4.02	4.03	4.04	4.04	4.06	4.06	4.09	4.15	4.12	4.07	4.11	4.17	4.17	4.14	4.12	4.10	4.14	4.18	4.15	4.11	4.11	
3.13	3.10	3.05	2.98	2.86	2.73	2.57	2.39	2.18	1.96	1.73	1.59	1.53	2.03	1.97	8.32	10.25	9.33	9.62	5.98	11.36	5.98	5.98	5.82	4.83	4.19	3.65	3.42	3.15	2.92	2.71	2.57	2.51	2.59	2.84	3.08	3.23	4.18	4.00	3.49	3.28	3.31	3.90	3.77	3.98	7.69	7.19	6.20	5.54	7.72	7.20	8.43	8.99	9.44	9.90	6.90	4.11	4.05	5.74	6.49	7.45	8.89	4.53	4.75	5.62	8.82	9.43	8.96	5.96	4.10	3.42	2.83	2.89	3.39	3.78	3.16	3.46	5.97	5.98	2.67	2.85	5.93	3.06	3.49	7.12	3.87	3.95	7.68	7.35	7.46	8.03	4.59	8.29	8.80	9.39	5.42	5.72	0.71	5.93	5.73	5.60	6.05	3.70	3.05	2.96	2.86	3.31	3.60	3.38	3.47	3.57	3.46	3.70	3.38	3.35	3.50	3.56	3.58	3.72	4.14	4.61	4.68	4.27	4.06	3.57	3.35	3.25	3.35	3.56	3.37	3.98	3.78	3.73	3.69	3.66	3.59	3.79	4.17	4.27	3.99	3.63	3.54	3.61	3.65	3.69	3.74	3.77	3.82	3.85	3.82	3.85	3.92	3.93	3.91	3.92	3.97	4.02	4.06	4.05	4.04	4.04	4.04	4.07	4.10	4.11	4.12	4.11	4.10	4.13	4.14	4.13	4.15	4.14	4.13	4.19	4.21	4.18	4.18	
3.16	3.13	3.08	3.02	2.91	2.78	2.65	2.48	2.25	2.03	1.78	1.60	1.67	2.52	2.20	8.29	6.60	8.87	4.86	9.78	6.40	10.71	6.44	5.12	5.34	4.49	3.85	3.22	3.11	2.86	2.60	2.39	2.33	2.42	2.67	2.94	3.16	4.62	3.68	3.43	3.13	3.12	3.38	3.72	7.66	7.39	4.18	4.26	5.28	4.77	7.06	8.09	8.44	8.76	10.44	7.48	4.10	3.21	4.92	6.24	6.48	4.68	4.84	5.06	5.23	5.42	9.07	8.69	7.88	5.69	4.01	3.33	3.66	3.14	3.68	3.34	3.47	3.77	3.47	2.97	4.93	4.75	5.61	3.00	6.86	3.50	3.76	7.56	6.95	7.32	4.03	4.17	8.86	5.61	4.78	6.28	5.65	6.00	6.06	5.95	5.76	6.09	2.25	3.19	3.20	3.35	3.62	3.71	3.49	3.31	3.32	3.27	3.57	3.61	3.63	3.59	3.50	3.58	3.61	3.56	3.85	4.32	4.53	3.96	3.84	3.64	3.44	3.29	3.36	3.43	3.12	3.86	3.77	3.73	3.64	3.41	3.49	3.88	4.12	4.09	3.85	3.66	3.65	3.69	3.73	3.75	3.77	3.82	3.87	3.86	3.86	3.93	3.95	3.92	3.92	3.96	4.00	4.07	4.10	4.07	4.04	4.03	4.09	4.13	4.09	4.09	4.15	4.14	4.13	4.12	4.11	4.13	4.16	4.14	4.17	4.24	4.25	4.25	
3.21	3.18	3.13	3.07	2.97	2.84	2.70	2.54	2.32	2.11	1.83	1.62	1.65	2.74	2.87	8.32	6.88	7.57	4.37	8.77	5.69	10.66	9.15	5.85	4.38	4.83	3.98	3.21	3.03	2.78	2.51	2.24	2.19	2.29	2.51	2.82	3.10	4.94	3.76	3.57	3.21	3.08	4.89	4.78	4.47	3.98	4.14	4.21	5.17	7.40	7.00	7.97	8.26	8.63	10.41	7.14	6.43	5.11	4.51	4.16	3.70	7.10	7.87	4.88	5.42	5.81	5.94	8.95	7.50	5.72	4.48	3.75	3.93	4.37	4.09	3.75	3.61	3.76	3.76	3.62	3.67	3.40	2.84	5.49	6.14	2.87	3.33	7.04	7.28	8.16	4.12	4.47	4.82	6.08	4.99	5.37	5.80	6.12	6.38	6.50	6.33	4.14	2.79	3.47	3.50	3.57	3.37	3.06	2.87	2.68	2.75	3.00	3.25	3.46	3.86	3.87	3.48	3.55	3.75	3.45	3.35	3.83	4.41	3.79	3.95	3.88	3.83	3.65	3.46	3.52	3.33	3.98	3.83	3.75	3.65	3.33	3.23	3.51	3.74	3.82	3.80	3.72	3.68	3.71	3.75	3.76	3.76	3.80	3.86	3.88	3.87	3.92	3.97	3.94	3.93	3.95	3.97	4.04	4.10	4.09	4.05	4.02	4.09	4.16	4.09	4.08	4.14	4.14	4.11	4.09	4.08	4.09	4.12	4.11	4.14	4.21	4.25	4.25	
3.24	3.23	3.18	3.10	3.01	2.89	2.75	2.58	2.37	2.15	1.89	1.63	1.53	2.16	2.32	8.13	7.41	5.55	8.05	8.37	9.11	10.23	10.28	6.41	4.86	3.67	4.20	3.32	3.09	2.78	2.51	2.21	2.00	1.99	2.22	2.61	4.86	5.12	3.70	3.69	3.42	3.31	3.31	3.33	3.51	3.90	4.12	5.47	5.04	7.48	7.04	8.14	8.55	9.18	10.67	6.98	6.74	6.05	5.30	4.81	4.32	3.80	6.79	3.49	3.85	6.13	6.29	9.41	8.60	5.81	4.48	4.88	4.29	4.67	4.43	4.09	3.78	3.73	3.90	3.99	4.02	3.89	3.51	3.18	2.91	5.49	5.71	6.25	3.65	3.82	4.04	4.40	4.81	4.94	4.96	5.30	5.83	6.13	6.36	6.77	4.91	2.50	3.72	3.75	3.59	3.53	3.18	2.73	2.68	2.75	2.66	2.93	3.31	3.41	3.79	3.97	3.34	3.05	3.25	3.36	3.38	3.84	3.53	3.82	4.06	4.02	3.93	3.81	3.56	3.51	4.11	4.01	3.90	3.77	3.59	3.28	3.15	3.33	3.56	3.67	3.72	3.73	3.70	3.70	3.76	3.79	3.77	3.79	3.84	3.88	3.89	3.90	3.94	3.95	3.94	3.95	3.96	4.01	4.08	4.07	4.04	4.01	4.08	4.16	4.09	4.07	4.13	4.13	4.12	4.09	4.07	4.07	4.07	4.08	4.15	4.20	4.19	4.19	
3.27	3.26	3.22	3.14	3.05	2.94	2.81	2.65	2.45	2.21	1.94	1.63	1.40	1.17	1.21	4.30	10.61	6.47	8.25	4.75	9.24	9.98	10.64	6.61	4.95	3.74	4.25	3.43	3.31	2.86	2.56	2.28	1.92	6.15	1.98	2.53	2.90	5.42	3.44	3.56	3.49	3.51	3.53	3.43	3.47	3.76	4.02	5.49	7.49	7.85	8.18	8.60	9.26	9.86	10.73	6.12	6.70	7.91	5.68	5.48	5.25	4.59	3.90	7.10	3.43	3.87	4.26	9.38	9.22	7.85	4.49	6.07	5.63	5.05	4.66	4.34	3.94	3.75	3.89	4.02	3.93	4.13	3.92	3.58	3.37	3.19	3.09	5.60	7.11	3.22	3.61	4.01	4.45	4.75	4.85	5.10	5.60	6.02	6.14	6.58	2.31	4.68	4.48	4.01	3.62	3.23	2.78	2.41	2.44	2.84	2.72	2.48	2.70	2.74	3.02	3.64	3.42	3.11	2.79	2.79	2.96	2.81	3.30	3.25	3.50	3.84	4.20	4.01	3.84	3.78	4.06	3.95	3.89	3.78	3.53	3.31	3.24	3.35	3.51	3.58	3.66	3.71	3.69	3.69	3.75	3.80	3.80	3.79	3.82	3.88	3.93	3.92	3.93	3.95	3.94	3.96	3.97	4.02	4.10	4.10	4.05	4.02	4.09	4.16	4.09	4.07	4.12	4.14	4.14	4.13	4.10	4.08	4.05	4.04	4.17	4.23	4.18	4.18	
3.30	3.29	3.26	3.18	3.09	2.99	2.86	2.70	2.53	2.30	2.03	1.70	1.36	1.02	1.31	1.55	9.42	6.89	8.83	4.98	9.22	5.64	10.43	7.14	4.92	3.61	4.31	3.59	3.65	3.10	2.72	2.49	2.19	1.96	2.05	2.56	3.10	3.29	3.40	3.42	3.41	3.53	3.68	3.70	3.73	3.90	5.83	7.36	7.79	8.27	8.70	9.09	9.66	9.45	10.27	5.71	5.39	5.37	5.60	5.72	6.54	5.13	4.30	5.63	8.10	3.60	4.26	9.24	9.10	9.41	9.09	6.48	6.91	6.17	5.23	4.71	4.28	3.96	3.88	3.94	3.88	4.02	4.14	3.78	3.61	3.42	3.23	3.03	6.34	2.59	2.99	3.55	4.05	4.40	4.64	4.93	5.35	5.80	5.85	6.26	5.29	5.14	4.49	3.84	3.36	2.95	2.84	2.76	2.41	2.17	2.03	1.84	1.76	1.63	1.43	1.70	2.43	3.00	3.11	2.80	2.80	2.67	2.84	3.15	3.16	3.47	4.11	4.07	4.10	3.95	3.96	3.83	3.79	3.74	3.50	3.33	3.31	3.38	3.48	3.52	3.59	3.67	3.69	3.69	3.72	3.77	3.80	3.80	3.80	3.85	3.93	3.97	3.97	3.96	3.95	3.96	3.97	4.02	4.12	4.14	4.08	4.03	4.10	4.15	4.10	4.09	4.12	4.12	4.12	4.13	4.12	4.09	4.06	4.03	4.13	4.23	4.22	4.22	
3.33	3.32	3.30	3.23	3.13	3.03	2.91	2.75	2.59	2.36	2.12	1.80	1.47	1.33	1.69	1.39	8.86	7.00	5.33	5.11	9.26	5.68	10.46	6.90	4.69	3.50	4.34	3.78	3.28	3.37	2.96	2.73	2.47	2.17	2.37	2.50	3.19	3.58	3.71	3.67	3.60	3.68	3.90	4.12	4.27	6.25	6.56	7.98	8.26	8.64	8.98	9.22	9.79	9.03	9.87	5.52	4.85	4.41	4.39	4.61	5.09	7.24	4.74	4.09	6.86	3.45	8.55	8.83	9.34	5.02	5.19	11.11	7.74	7.05	5.86	4.53	3.58	4.37	4.03	3.88	3.73	4.26	3.96	4.03	3.82	3.52	3.22	2.97	2.55	6.10	2.21	2.82	3.49	3.91	4.19	4.52	5.72	5.78	9.21	10.10	9.53	5.34	5.06	4.66	4.25	3.63	3.63	3.66	3.38	2.63	1.94	1.97	1.92	1.72	1.66	1.40	1.49	2.20	2.91	2.54	2.44	2.61	2.78	2.67	2.92	3.27	3.40	3.55	3.57	3.76	3.87	3.68	3.59	3.59	3.41	3.25	3.26	3.36	3.46	3.50	3.55	3.64	3.69	3.70	3.72	3.75	3.79	3.81	3.82	3.83	3.88	3.95	3.97	3.96	3.96	3.95	3.95	3.99	4.08	4.13	4.07	4.04	4.10	4.11	4.08	4.10	4.13	4.10	4.07	4.08	4.10	4.09	4.07	4.05	4.09	4.16	4.20	4.20	
3.36	3.35	3.32	3.27	3.17	3.08	2.97	2.82	2.66	2.45	2.20	1.91	1.62	1.46	1.81	1.55	8.44	6.90	9.23	5.22	9.31	9.66	10.43	6.85	4.70	3.67	4.29	3.76	3.44	3.46	3.05	2.77	2.47	2.14	6.29	2.45	3.13	3.63	3.92	4.02	4.01	4.02	4.51	7.00	7.89	8.30	8.36	8.42	8.49	8.75	9.05	9.37	9.88	10.52	9.22	5.42	4.58	4.24	4.13	4.26	4.71	7.26	4.99	4.49	4.01	8.04	7.74	8.69	4.24	5.09	9.89	9.79	10.27	9.01	6.04	4.74	4.16	3.44	4.33	3.97	3.64	4.30	4.11	3.57	4.05	3.80	3.42	3.06	2.62	2.09	6.36	2.11	2.79	3.30	3.59	3.86	5.45	8.32	9.05	9.62	11.25	8.54	7.12	5.80	5.73	5.16	4.82	4.70	4.24	3.51	2.62	2.50	2.42	2.18	2.12	2.03	2.10	2.14	2.57	2.39	2.16	2.35	2.58	2.80	2.81	3.03	3.16	3.16	3.35	3.65	3.90	3.67	3.39	3.33	3.27	3.19	3.21	3.33	3.46	3.51	3.53	3.61	3.67	3.70	3.72	3.75	3.78	3.81	3.83	3.83	3.86	3.92	3.94	3.94	3.95	3.94	3.94	3.96	4.04	4.08	4.04	4.05	4.11	4.08	4.04	4.09	4.13	4.13	4.09	4.07	4.07	4.08	4.07	4.08	4.10	4.11	4.12	4.12	
3.40	3.38	3.34	3.30	3.22	3.12	3.02	2.88	2.73	2.54	2.32	2.04	1.72	1.49	1.75	1.57	8.02	9.90	9.16	8.91	9.32	9.73	10.09	6.90	5.05	3.97	3.35	3.50	3.24	2.99	2.95	2.67	2.38	2.12	2.89	2.50	2.97	3.40	3.70	3.87	5.57	5.36	7.49	8.07	8.12	8.23	8.27	8.36	8.51	8.79	9.11	9.62	10.16	10.92	6.26	5.33	4.42	4.18	3.98	4.04	4.39	4.75	6.73	4.48	5.64	7.00	7.73	3.78	4.12	4.38	9.41	9.20	9.51	9.44	7.68	5.58	4.31	3.73	3.16	4.29	3.74	3.54	3.97	3.67	3.51	3.94	3.64	3.36	2.93	2.40	1.96	1.91	2.26	2.79	3.15	3.40	5.50	7.63	8.42	9.24	10.48	9.52	9.94	10.18	8.26	6.88	5.99	5.68	5.15	4.17	3.39	3.20	3.07	2.72	2.60	2.65	2.61	2.16	2.13	2.53	2.38	2.48	2.25	2.38	2.46	2.69	2.89	3.25	3.15	3.45	3.86	3.76	3.34	3.12	3.10	3.14	3.20	3.29	3.41	3.49	3.53	3.58	3.65	3.69	3.72	3.74	3.77	3.80	3.84	3.85	3.87	3.91	3.94	3.94	3.95	3.95	3.94	3.99	4.07	4.08	4.02	4.07	4.16	4.11	4.04	4.08	4.12	4.14	4.13	4.11	4.08	4.06	4.05	4.09	4.14	4.12	4.09	4.09	
3.45	3.41	3.37	3.33	3.26	3.16	3.07	2.94	2.79	2.62	2.42	2.17	1.86	1.56	1.51	1.39	7.67	10.58	9.32	9.16	9.55	9.89	9.45	6.63	5.76	4.24	3.45	3.33	3.02	2.80	2.83	2.53	2.24	2.01	2.15	2.38	2.72	3.07	3.33	5.83	5.78	5.52	7.59	7.76	7.88	7.78	7.90	8.19	8.56	8.90	9.26	9.72	10.07	11.16	5.40	4.25	4.26	4.93	3.87	3.77	3.89	4.09	4.17	6.00	6.43	6.85	7.68	3.48	3.78	4.28	9.34	9.27	9.30	9.32	8.53	6.99	5.00	4.11	3.60	3.42	4.03	3.60	4.09	4.17	3.48	4.02	3.69	3.55	3.23	2.66	2.03	5.43	1.69	2.22	2.76	3.14	5.76	6.04	6.20	8.87	9.32	8.83	8.76	9.17	9.42	8.66	7.19	6.14	5.45	4.76	4.54	4.26	3.74	3.34	3.21	3.22	3.01	2.55	1.95	1.93	2.35	2.73	2.33	2.03	2.11	2.23	2.35	3.25	3.08	3.23	3.62	3.68	3.34	3.00	2.88	2.97	3.13	3.26	3.36	3.46	3.52	3.58	3.64	3.68	3.72	3.74	3.76	3.79	3.84	3.87	3.89	3.91	3.93	3.95	3.97	3.96	3.95	4.02	4.11	4.09	4.01	4.04	4.17	4.17	4.07	4.08	4.12	4.12	4.12	4.13	4.11	4.07	4.04	4.08	4.15	4.15	4.11	4.11	
3.50	3.46	3.39	3.37	3.32	3.22	3.12	3.01	2.86	2.70	2.50	2.26	1.97	1.66	1.38	1.30	5.61	9.83	9.55	9.52	9.91	10.20	6.49	6.30	5.01	3.90	3.07	3.01	2.55	3.10	2.77	2.46	2.01	1.75	1.89	2.12	2.44	2.82	3.07	6.02	6.01	6.96	7.01	7.25	7.20	7.42	8.10	8.52	8.60	8.82	9.13	9.43	9.67	11.19	5.79	6.00	3.83	4.21	4.52	3.69	3.60	3.72	3.84	5.99	6.59	6.59	7.00	7.99	3.14	8.73	8.83	9.00	9.13	9.34	9.25	8.22	6.63	4.80	4.03	3.47	4.16	4.47	4.36	3.57	3.61	3.31	3.78	3.61	3.43	2.98	2.35	1.67	6.24	1.76	2.39	2.87	5.82	6.15	6.39	9.25	8.92	8.77	8.44	8.29	8.76	9.02	7.75	6.29	5.31	5.13	5.34	5.21	4.29	3.84	3.62	3.43	3.21	2.85	2.41	2.38	2.60	2.89	2.52	2.28	2.29	2.17	2.03	3.40	3.22	3.28	3.52	3.58	3.35	2.97	2.68	2.72	2.97	3.19	3.33	3.43	3.51	3.57	3.63	3.67	3.71	3.73	3.75	3.77	3.81	3.86	3.90	3.91	3.91	3.94	3.96	3.95	3.92	3.99	4.09	4.09	4.01	3.99	4.12	4.20	4.09	4.07	4.14	4.12	4.11	4.14	4.14	4.10	4.04	4.04	4.11	4.15	4.13	4.13	
3.55	3.50	3.43	3.40	3.35	3.27	3.16	3.07	2.94	2.78	2.59	2.34	2.06	1.73	1.47	1.57	4.86	8.79	9.73	9.93	10.13	10.20	7.09	3.96	3.23	2.66	3.66	2.85	2.33	3.22	2.92	2.62	2.04	1.63	1.70	1.89	2.17	2.53	2.88	6.30	6.35	6.83	6.33	5.86	4.99	6.93	4.08	4.02	8.48	8.57	8.82	9.14	9.62	11.10	7.34	6.86	5.33	4.24	4.22	4.29	3.45	3.51	3.58	5.72	4.52	6.31	6.63	7.71	3.07	8.64	8.66	8.74	9.07	9.45	9.68	9.23	7.71	5.98	4.42	5.14	4.64	4.24	4.00	3.76	3.61	3.37	4.00	3.75	3.51	3.19	2.82	2.29	1.82	1.72	2.14	2.81	3.04	3.40	6.63	8.61	8.55	8.92	8.76	8.43	8.85	9.02	7.72	6.53	5.73	5.48	5.64	5.69	4.48	4.12	3.62	3.19	3.19	3.03	2.91	2.93	2.79	2.96	2.68	2.48	2.30	3.69	3.75	3.65	3.46	3.47	3.68	3.75	3.54	3.15	2.68	2.57	2.80	3.09	3.28	3.40	3.48	3.55	3.62	3.67	3.71	3.74	3.76	3.77	3.79	3.83	3.88	3.89	3.90	3.93	3.96	3.95	3.91	3.96	4.06	4.07	4.02	3.97	4.07	4.19	4.10	4.07	4.15	4.14	4.10	4.12	4.16	4.14	4.09	4.05	4.08	4.13	4.13	4.13	
3.57	3.54	3.46	3.42	3.38	3.30	3.19	3.10	2.98	2.83	2.64	2.43	2.16	1.84	1.53	1.71	2.99	6.41	9.46	9.80	10.29	10.18	7.47	7.56	6.54	5.04	3.84	2.89	2.54	3.45	3.17	2.91	2.43	1.88	1.69	1.76	1.93	2.23	2.96	6.30	6.81	3.59	3.56	3.22	5.27	6.71	7.22	7.73	8.06	8.21	8.45	8.94	9.67	10.83	10.32	5.86	6.52	5.17	3.78	3.34	3.11	5.32	3.33	4.34	5.97	4.43	6.46	7.32	3.05	3.97	4.35	9.29	9.63	7.36	9.87	9.53	8.39	6.88	5.14	4.19	3.19	4.60	4.12	3.75	3.43	3.21	2.95	3.94	3.61	3.16	2.89	2.51	1.84	6.04	1.83	2.51	3.28	3.43	8.24	8.17	8.13	8.57	8.46	8.56	9.33	9.33	7.98	7.25	6.43	5.91	5.85	5.90	4.95	4.63	3.90	3.48	3.73	3.64	3.34	2.95	2.43	2.17	2.89	2.58	3.82	3.83	2.39	2.40	3.75	3.58	3.73	3.94	3.87	3.55	2.96	2.61	2.74	3.04	3.28	3.42	3.50	3.55	3.61	3.66	3.71	3.75	3.80	3.81	3.81	3.83	3.86	3.88	3.88	3.91	3.98	3.99	3.94	3.96	4.04	4.05	4.03	3.98	4.04	4.17	4.11	4.06	4.14	4.16	4.11	4.10	4.15	4.15	4.12	4.10	4.10	4.10	4.10	4.10	
3.58	3.56	3.50	3.45	3.41	3.33	3.23	3.12	3.01	2.88	2.71	2.51	2.23	1.93	1.63	1.64	1.90	6.01	7.09	9.33	10.06	10.36	10.23	7.98	5.12	3.43	2.57	3.27	2.64	2.36	3.32	3.08	2.68	2.16	1.81	1.82	1.88	2.13	3.48	3.78	3.80	3.81	3.91	3.78	3.42	5.15	6.93	7.05	7.41	7.72	8.11	8.88	9.81	10.66	10.81	9.12	7.47	6.67	5.27	4.30	3.90	3.74	3.47	3.41	3.31	3.16	5.76	6.75	7.66	3.43	4.40	9.66	4.57	9.83	9.75	9.39	8.83	7.18	5.60	5.51	4.36	5.19	4.70	4.29	3.86	3.25	4.14	2.75	2.76	3.23	2.84	2.35	1.79	5.20	1.66	2.21	3.32	6.74	7.83	7.95	8.29	8.32	8.18	8.83	9.71	9.45	8.53	8.21	7.54	6.53	6.34	7.47	6.11	5.24	4.72	4.50	4.64	4.47	3.95	3.38	2.85	2.72	3.39	3.02	4.05	2.51	2.45	2.52	2.49	3.75	3.62	3.85	4.05	3.95	3.43	2.82	2.77	3.02	3.27	3.42	3.52	3.58	3.62	3.66	3.70	3.73	3.78	3.80	3.82	3.84	3.86	3.87	3.86	3.88	3.95	3.99	3.97	3.98	4.00	4.00	4.01	3.99	4.02	4.14	4.12	4.05	4.11	4.16	4.14	4.10	4.13	4.15	4.10	4.08	4.13	4.13	4.10	4.10	
3.61	3.58	3.53	3.48	3.44	3.37	3.28	3.19	3.06	2.93	2.76	2.57	2.31	2.01	1.76	1.64	1.71	5.80	7.13	8.93	9.50	9.99	10.63	7.99	4.73	3.94	2.95	2.64	3.06	2.50	3.55	3.26	2.87	2.40	2.03	1.96	1.93	2.16	2.66	3.12	3.73	3.77	4.07	4.27	4.10	3.69	3.31	6.37	6.80	7.43	8.11	9.16	9.92	9.89	10.31	11.28	11.67	7.68	7.20	5.73	4.73	4.28	3.92	3.64	3.40	3.28	3.25	2.92	7.28	7.75	3.68	9.25	9.55	9.70	9.72	9.82	9.69	7.16	5.31	4.10	5.81	3.61	5.51	5.24	4.72	3.99	3.34	3.08	3.15	3.47	2.98	2.44	2.07	1.71	1.69	1.90	3.42	7.51	7.89	8.06	8.09	8.08	8.12	8.81	9.47	9.47	9.10	8.96	8.16	7.11	7.08	8.28	7.43	6.07	5.92	5.91	5.53	5.09	4.46	4.08	3.82	3.50	3.94	3.80	3.32	2.93	2.62	2.55	2.61	2.58	3.65	3.66	3.95	4.14	3.81	3.14	2.87	3.01	3.24	3.39	3.49	3.58	3.63	3.67	3.70	3.73	3.77	3.79	3.81	3.85	3.87	3.86	3.85	3.86	3.92	3.98	4.00	4.02	4.01	3.97	3.97	3.98	4.00	4.07	4.11	4.07	4.07	4.12	4.12	4.10	4.11	4.14	4.12	4.08	4.12	4.18	4.19	4.19	
3.63	3.61	3.57	3.52	3.46	3.40	3.32	3.24	3.11	2.98	2.80	2.63	2.38	2.10	1.82	1.69	1.76	5.73	7.08	8.55	8.94	9.62	10.53	11.69	5.34	4.43	3.54	3.35	3.17	3.15	3.05	3.55	3.17	2.70	2.36	2.06	1.96	2.12	2.57	2.98	3.59	3.69	6.04	5.99	5.35	4.29	3.84	6.15	6.84	7.51	8.49	9.22	8.79	9.09	9.82	10.59	11.56	12.30	7.82	7.71	6.87	5.81	4.94	4.33	3.91	3.68	3.46	3.36	6.76	7.69	3.08	8.99	5.19	5.27	10.21	8.53	10.40	8.19	6.18	5.23	6.76	5.20	4.63	4.17	3.82	4.80	4.15	3.86	3.48	3.13	3.17	2.61	2.27	1.69	5.72	1.64	2.41	4.36	8.15	8.40	8.09	7.66	7.51	7.95	8.45	8.75	8.97	9.32	8.82	7.60	7.59	8.66	8.04	6.74	6.58	6.43	6.30	5.57	4.78	4.31	4.34	4.38	3.38	4.04	3.75	3.33	2.90	2.57	2.69	2.88	3.78	3.56	3.73	4.05	4.00	3.50	3.10	3.10	3.27	3.40	3.48	3.55	3.61	3.65	3.69	3.73	3.78	3.80	3.81	3.85	3.88	3.88	3.86	3.86	3.90	3.96	4.01	4.07	4.07	4.00	3.97	4.00	4.01	4.04	4.09	4.09	4.07	4.09	4.11	4.11	4.12	4.13	4.14	4.11	4.08	4.13	4.19	4.19	
3.63	3.63	3.60	3.55	3.49	3.43	3.35	3.26	3.16	3.04	2.87	2.69	2.45	2.17	1.86	1.65	1.64	5.66	7.01	6.44	8.42	9.24	10.35	11.03	5.89	4.82	4.15	3.96	4.07	4.25	3.80	3.58	3.25	2.92	2.56	2.22	2.14	2.26	2.58	2.91	3.51	3.67	5.99	5.80	5.66	5.33	4.84	6.32	6.85	7.82	8.91	7.89	7.75	8.49	9.21	9.90	10.65	11.40	11.71	11.51	6.95	6.89	5.74	5.47	4.75	4.22	3.68	3.50	3.35	7.58	7.80	8.31	4.05	4.89	5.66	5.37	10.37	9.53	8.42	7.62	8.60	8.46	7.07	6.78	5.62	5.00	4.61	4.23	4.08	3.57	3.73	2.99	2.60	1.86	4.68	1.34	1.82	6.41	7.33	8.10	7.88	7.57	7.03	7.25	7.61	8.03	8.43	8.82	8.80	7.90	8.21	8.99	7.97	7.19	7.01	6.59	6.21	6.13	5.42	4.69	4.49	4.71	4.44	2.31	4.19	3.70	3.09	2.67	2.90	3.15	3.87	3.58	3.58	3.82	3.93	3.67	3.31	3.25	3.36	3.45	3.51	3.55	3.60	3.65	3.68	3.72	3.76	3.78	3.80	3.83	3.88	3.89	3.89	3.89	3.90	3.92	3.97	4.05	4.10	4.04	3.99	4.04	4.06	4.05	4.07	4.09	4.08	4.09	4.10	4.11	4.13	4.12	4.10	4.09	4.08	4.09	4.13	4.13	
3.67	3.65	3.61	3.57	3.51	3.46	3.39	3.31	3.21	3.09	2.93	2.75	2.52	2.24	1.89	1.58	1.55	3.79	7.07	6.54	8.11	8.91	10.12	10.79	5.87	4.63	3.82	3.47	3.36	3.66	3.79	3.78	2.79	2.66	2.35	2.27	2.41	2.53	2.78	3.53	3.59	3.75	5.94	5.87	7.38	7.36	5.18	6.27	7.09	8.81	7.97	6.97	7.71	8.46	8.92	9.37	10.02	10.55	10.56	10.72	10.77	9.83	7.36	5.92	5.43	4.69	4.01	3.61	6.05	7.69	7.91	7.95	8.31	3.91	5.34	10.10	9.84	9.34	9.34	8.63	8.82	9.13	8.75	8.04	7.41	7.20	7.14	5.89	5.40	4.76	3.90	3.77	3.06	2.52	1.76	5.08	5.04	5.56	6.46	7.31	7.96	7.70	6.96	6.79	7.38	8.00	8.31	8.50	8.57	8.09	8.28	8.67	7.61	7.22	7.44	6.96	6.57	6.62	6.33	5.86	5.35	4.59	5.42	5.85	2.93	4.39	3.66	3.15	3.25	3.37	3.95	3.68	3.58	3.63	3.73	3.67	3.43	3.33	3.41	3.51	3.55	3.57	3.60	3.65	3.68	3.72	3.76	3.78	3.78	3.80	3.84	3.87	3.89	3.92	3.92	3.91	3.92	3.99	4.07	4.03	3.99	4.04	4.07	4.06	4.06	4.08	4.08	4.08	4.08	4.08	4.08	4.09	4.07	4.08	4.09	4.09	4.10	4.10	
3.70	3.68	3.64	3.60	3.55	3.49	3.42	3.34	3.25	3.14	2.99	2.82	2.60	2.33	1.96	1.57	1.59	3.61	4.43	6.54	6.26	8.70	10.25	10.73	6.07	4.71	3.80	3.31	2.80	2.46	2.76	2.96	2.23	2.18	1.83	1.89	2.25	2.51	2.76	3.63	3.60	6.07	6.22	7.79	8.38	8.71	8.70	8.56	9.23	8.79	7.03	6.70	7.49	8.21	8.67	9.11	9.64	9.91	9.80	9.88	10.22	9.97	8.26	6.70	5.74	4.93	4.20	3.74	3.62	8.39	8.56	8.40	3.15	8.37	8.74	9.37	9.24	8.57	8.80	8.63	8.83	9.22	9.15	8.38	7.57	7.41	7.31	6.26	5.94	6.30	5.69	5.14	4.39	3.10	2.36	1.64	5.28	5.40	2.47	6.96	7.71	7.52	6.89	6.63	7.12	7.54	7.74	7.96	8.25	8.68	8.68	8.18	7.09	6.84	7.34	7.06	6.83	6.90	6.65	5.96	5.39	5.15	5.33	5.84	3.61	5.10	4.47	3.89	3.62	3.50	4.00	3.81	3.65	3.52	3.49	3.53	3.44	3.36	3.39	3.49	3.56	3.57	3.60	3.62	3.66	3.71	3.76	3.80	3.81	3.78	3.80	3.83	3.86	3.90	3.90	3.90	3.89	3.93	4.02	4.00	3.94	3.98	4.03	4.05	4.07	4.08	4.08	4.07	4.07	4.09	4.06	4.06	4.06	4.08	4.10	4.10	4.10	4.10	
3.73	3.71	3.66	3.62	3.58	3.52	3.45	3.38	3.28	3.17	3.04	2.87	2.67	2.41	2.07	1.66	1.70	3.38	4.25	6.52	6.25	8.74	10.19	11.23	5.36	4.27	3.62	3.34	2.92	2.47	2.24	2.41	1.86	1.81	1.57	1.60	1.93	2.18	2.41	3.48	3.43	6.34	6.36	7.58	7.99	8.42	8.70	9.33	8.99	7.97	6.97	6.32	7.24	8.05	8.25	8.85	8.79	8.93	8.97	9.24	10.28	10.63	8.97	7.02	6.05	5.18	4.50	3.91	3.57	8.07	8.37	8.35	8.42	8.55	3.71	9.28	9.01	7.78	7.79	7.57	7.95	8.49	8.59	8.18	7.26	6.95	7.03	6.23	5.62	5.69	5.18	4.81	4.34	4.10	4.01	2.17	4.60	4.87	2.05	6.45	7.36	7.26	6.74	6.53	6.65	6.78	6.87	7.08	7.43	8.08	8.48	8.19	7.64	7.18	7.19	7.19	7.18	7.23	6.88	5.61	5.57	5.38	6.21	8.54	6.66	5.95	5.36	4.61	4.09	3.66	4.14	3.98	3.77	3.48	3.29	3.30	3.37	3.39	3.42	3.48	3.54	3.57	3.60	3.62	3.64	3.68	3.73	3.79	3.82	3.79	3.79	3.79	3.82	3.88	3.89	3.88	3.88	3.89	3.97	4.02	3.96	3.95	3.99	4.03	4.05	4.06	4.08	4.07	4.07	4.12	4.11	4.07	4.05	4.07	4.09	4.10	4.11	4.11	
3.76	3.73	3.69	3.65	3.60	3.54	3.48	3.41	3.32	3.20	3.07	2.91	2.72	2.48	2.16	1.80	1.82	3.19	4.06	6.43	6.33	8.74	9.93	11.71	4.89	4.00	3.01	2.75	2.74	2.34	1.93	2.66	2.08	2.09	1.85	1.77	1.89	1.97	2.07	2.26	3.37	6.02	6.51	6.95	7.24	7.70	8.39	9.05	8.17	7.76	7.35	6.23	7.51	8.23	8.16	8.40	7.60	7.92	8.10	8.40	9.61	10.98	9.69	7.64	6.60	5.47	4.92	4.20	3.62	7.18	7.67	7.91	8.33	8.56	8.78	9.06	8.58	7.44	6.99	6.95	7.49	8.10	8.47	8.19	6.91	6.18	6.39	6.46	5.82	5.20	4.63	4.32	4.02	3.98	4.25	3.97	3.77	4.82	1.71	2.60	6.66	6.29	6.47	6.23	6.29	6.45	6.55	6.75	7.02	7.26	7.41	7.59	7.86	7.71	7.25	7.40	7.93	8.30	8.24	6.97	5.69	5.12	5.89	5.94	5.82	6.29	6.35	5.47	4.75	4.05	4.45	4.28	4.01	3.61	3.28	3.20	3.32	3.42	3.47	3.52	3.56	3.59	3.62	3.63	3.65	3.68	3.70	3.75	3.80	3.79	3.80	3.81	3.82	3.89	3.94	3.92	3.89	3.90	3.96	4.03	4.03	3.97	3.97	4.00	4.02	4.04	4.07	4.07	4.07	4.11	4.14	4.12	4.07	4.07	4.08	4.09	4.10	4.10	
3.79	3.76	3.71	3.68	3.63	3.56	3.50	3.44	3.35	3.24	3.11	2.95	2.77	2.54	2.25	1.93	1.96	2.89	3.94	6.46	6.43	8.57	9.49	11.48	5.05	4.46	3.02	2.45	2.71	2.52	2.33	3.35	2.77	2.29	2.16	1.90	1.88	1.93	1.89	1.89	3.34	3.42	6.25	6.84	7.06	7.48	8.38	8.60	7.53	7.52	7.57	6.49	7.60	7.95	7.91	7.78	7.09	7.57	7.78	8.45	9.07	10.62	9.90	8.37	6.83	5.64	5.20	4.61	4.12	3.81	7.59	8.00	8.28	8.45	8.51	8.77	8.14	7.21	6.68	6.52	7.00	7.88	8.90	8.64	6.60	5.62	5.44	6.02	5.90	4.96	4.43	4.28	4.03	3.95	4.08	3.95	3.37	4.43	5.09	5.59	6.18	6.25	6.24	5.91	5.98	6.13	6.39	6.56	6.61	6.64	6.71	6.82	7.16	7.06	6.51	6.50	7.23	7.69	7.92	7.74	5.94	5.48	5.56	5.61	5.65	6.13	6.55	6.02	5.27	5.27	4.82	4.58	4.31	3.86	3.42	3.24	3.30	3.42	3.47	3.52	3.57	3.59	3.62	3.62	3.64	3.68	3.70	3.75	3.78	3.78	3.80	3.82	3.82	3.88	3.97	3.96	3.91	3.90	3.96	4.02	4.03	3.99	4.00	4.02	4.02	4.04	4.07	4.07	4.06	4.09	4.14	4.14	4.10	4.09	4.10	4.10	4.09	4.09	
3.79	3.79	3.75	3.71	3.66	3.58	3.52	3.47	3.38	3.27	3.14	2.99	2.82	2.58	2.31	1.98	1.97	2.70	3.87	6.54	6.39	8.41	9.12	10.95	5.40	4.92	3.50	2.57	2.35	2.83	3.13	3.18	3.16	2.56	2.18	1.74	1.62	1.68	1.69	1.62	3.45	3.62	3.61	6.37	6.72	7.56	8.30	8.36	7.30	7.48	7.56	6.36	7.35	7.54	7.44	7.47	6.77	7.16	7.70	8.44	7.94	10.42	9.96	8.20	6.17	5.66	5.31	4.90	4.47	4.30	7.18	8.18	8.36	3.74	8.85	8.90	7.79	6.99	6.09	5.55	6.23	7.30	8.58	8.99	7.54	6.53	5.38	5.34	5.62	5.23	4.63	4.17	3.95	3.63	3.68	3.92	3.74	3.90	4.70	5.07	3.12	6.37	6.18	5.79	5.72	5.89	6.17	6.10	5.97	5.97	6.22	6.34	6.45	6.45	5.09	4.84	4.97	5.23	5.51	5.72	5.66	5.34	5.16	5.20	5.43	5.89	6.23	6.35	5.81	5.62	5.17	4.83	4.53	4.10	3.58	3.34	3.34	3.41	3.46	3.50	3.55	3.59	3.63	3.61	3.62	3.66	3.68	3.74	3.79	3.79	3.80	3.80	3.78	3.85	3.95	3.96	3.92	3.90	3.93	4.00	4.01	3.98	4.01	4.04	4.03	4.05	4.08	4.07	4.05	4.07	4.12	4.14	4.10	4.08	4.10	4.10	4.09	4.09	
3.80	3.80	3.79	3.75	3.69	3.60	3.54	3.51	3.42	3.30	3.18	3.03	2.86	2.63	2.35	2.02	1.88	2.22	3.84	6.53	6.37	8.31	8.91	10.42	8.28	5.24	4.02	3.10	3.07	3.59	3.68	3.53	3.17	2.66	2.33	1.78	1.44	4.75	1.48	1.45	1.70	3.66	3.70	5.92	6.84	7.36	7.68	7.53	7.04	7.16	7.44	6.81	7.42	7.59	7.48	7.18	6.22	6.67	7.27	7.85	6.28	10.27	9.89	8.89	6.60	5.80	5.42	4.97	4.62	6.51	7.73	8.88	3.87	4.03	7.27	8.62	7.70	7.19	5.82	4.78	5.66	7.34	3.96	9.04	7.82	7.36	6.44	5.73	5.46	5.52	5.11	4.59	3.94	3.84	3.72	3.97	4.26	3.62	2.16	2.50	2.63	3.68	5.72	5.74	5.82	6.00	6.11	5.82	4.35	4.38	4.62	4.80	4.85	4.80	4.75	4.69	4.67	4.79	5.01	5.27	5.31	5.15	4.38	4.27	4.27	4.40	4.70	5.13	5.55	5.64	5.42	5.02	4.61	4.17	3.66	3.40	3.40	3.43	3.45	3.49	3.51	3.56	3.63	3.65	3.63	3.64	3.66	3.71	3.76	3.80	3.80	3.78	3.76	3.80	3.90	3.93	3.91	3.91	3.92	3.96	4.01	3.98	3.98	4.01	4.02	4.05	4.09	4.09	4.05	4.05	4.08	4.11	4.11	4.09	4.09	4.09	4.09	4.09	
3.81	3.81	3.81	3.78	3.71	3.61	3.57	3.54	3.46	3.34	3.21	3.07	2.89	2.66	2.38	2.05	1.85	2.08	3.73	6.46	6.35	8.28	8.84	10.04	9.18	5.61	4.62	4.02	3.81	3.74	3.50	3.07	3.03	2.90	2.74	2.18	1.72	1.51	1.47	1.39	1.60	2.02	3.79	5.97	6.72	7.21	7.08	6.84	6.68	6.81	7.09	7.02	7.07	7.06	7.05	6.90	6.19	6.72	7.37	7.41	6.11	10.00	9.27	9.06	9.18	7.70	5.81	4.78	4.59	4.77	9.29	4.55	4.32	4.26	9.00	8.17	7.31	6.98	6.08	4.91	5.43	7.06	7.74	9.16	8.13	7.52	6.79	5.67	5.05	4.97	4.81	4.82	5.11	4.94	4.57	4.34	4.61	3.80	2.13	2.61	2.41	3.65	3.93	4.18	4.31	4.41	4.51	4.50	4.41	4.42	4.62	4.68	4.58	4.36	4.32	4.47	4.50	3.86	3.88	4.16	4.43	4.38	4.23	4.25	4.32	4.39	4.47	4.55	4.84	5.25	5.41	5.18	4.74	4.21	3.70	3.46	3.47	3.48	3.44	3.45	3.47	3.50	3.57	3.65	3.66	3.65	3.66	3.67	3.71	3.78	3.80	3.78	3.75	3.76	3.84	3.90	3.88	3.88	3.90	3.91	3.96	3.98	3.97	3.98	3.98	4.02	4.07	4.09	4.07	4.06	4.07	4.09	4.11	4.10	4.11	4.12	4.12	4.12	
3.82	3.82	3.82	3.81	3.73	3.64	3.59	3.57	3.49	3.38	3.26	3.10	2.93	2.69	2.39	2.02	1.76	1.90	3.56	6.38	6.37	8.45	9.02	9.88	9.27	6.65	5.73	5.34	4.89	4.45	3.93	3.42	3.20	3.15	2.87	2.61	2.11	1.68	1.48	1.42	1.52	1.83	3.95	4.10	6.37	6.71	6.78	6.75	6.69	6.85	6.97	6.85	6.44	6.39	6.47	6.35	6.05	6.61	7.22	3.51	6.39	9.65	8.67	8.70	9.64	8.13	5.51	4.43	4.06	7.56	8.82	8.97	9.02	9.14	8.69	7.51	6.81	6.62	6.20	4.80	4.84	6.58	6.85	8.31	8.65	7.77	7.04	5.93	5.28	4.83	4.27	4.14	4.53	4.56	4.37	4.58	3.48	3.30	2.76	2.36	2.22	2.98	4.00	4.11	4.11	4.28	4.43	4.45	4.41	4.43	4.66	4.71	4.60	4.40	4.06	4.05	4.02	3.83	3.69	3.86	4.17	4.16	3.90	3.94	4.21	4.41	4.49	4.37	4.34	4.69	5.06	5.18	4.99	4.47	3.88	3.59	3.57	3.58	3.49	3.40	3.41	3.45	3.50	3.58	3.64	3.64	3.66	3.69	3.70	3.74	3.80	3.79	3.76	3.75	3.82	3.91	3.88	3.84	3.86	3.89	3.93	3.97	3.98	3.98	3.98	3.99	4.04	4.07	4.08	4.07	4.08	4.09	4.12	4.09	4.09	4.15	4.18	4.18	
3.87	3.84	3.84	3.84	3.77	3.67	3.63	3.60	3.53	3.42	3.30	3.14	2.96	2.73	2.41	1.98	1.55	1.62	3.38	6.48	6.27	8.39	8.86	9.54	9.38	7.83	7.19	7.07	6.50	5.78	5.57	4.96	4.18	3.58	3.17	2.87	2.31	1.79	1.49	1.44	1.42	1.63	4.17	4.65	6.85	6.38	6.36	6.62	6.55	6.72	6.92	6.98	6.09	6.13	6.32	5.92	5.64	6.51	6.79	3.55	7.11	8.30	8.03	8.57	10.01	9.10	5.95	4.47	3.68	7.44	8.50	8.75	8.95	8.91	7.96	7.09	6.65	6.45	6.58	5.31	4.52	6.55	6.62	7.55	8.47	7.81	7.43	6.94	6.66	6.07	4.87	4.01	3.95	3.94	3.91	3.41	3.60	3.46	3.22	2.01	2.67	2.55	4.16	4.31	4.05	4.25	4.28	4.24	4.26	4.32	4.49	4.29	4.38	4.23	4.11	4.15	4.08	3.81	3.58	3.68	3.99	4.04	3.72	3.59	3.84	4.12	4.37	4.32	4.14	4.21	4.43	4.67	4.85	4.65	4.11	3.67	3.58	3.62	3.56	3.40	3.32	3.37	3.43	3.49	3.57	3.60	3.61	3.68	3.72	3.72	3.78	3.82	3.77	3.75	3.83	3.94	3.93	3.84	3.82	3.87	3.92	3.96	3.97	3.99	4.00	3.99	4.02	4.06	4.07	4.05	4.05	4.08	4.11	4.08	4.05	4.12	4.19	4.19	
3.93	3.88	3.85	3.87	3.81	3.70	3.66	3.63	3.55	3.46	3.35	3.18	2.99	2.77	2.46	1.99	1.36	1.30	2.99	3.74	6.16	6.23	8.21	9.02	8.97	8.00	7.37	7.31	7.10	6.78	6.67	6.53	5.41	4.52	3.71	3.17	2.38	1.77	1.37	1.27	1.20	1.37	1.96	4.91	5.58	5.85	5.70	6.10	6.35	6.66	6.93	7.12	5.79	5.42	5.86	5.91	5.73	6.70	2.60	3.98	7.43	7.05	7.14	8.10	9.40	9.92	6.73	5.07	4.09	8.06	4.24	4.62	5.08	8.33	6.98	6.37	6.06	5.79	6.11	5.88	4.72	5.87	6.26	7.25	8.19	7.59	7.33	7.09	6.96	6.49	5.42	4.39	4.01	4.12	3.41	3.50	3.67	3.69	3.26	3.21	2.35	2.13	2.83	4.58	3.85	4.35	4.38	4.02	3.99	3.97	3.99	4.14	4.26	4.20	4.19	4.28	4.14	3.72	3.47	3.58	3.86	3.95	3.74	3.57	3.65	3.77	3.93	4.05	4.04	4.00	3.90	3.91	4.15	4.24	3.97	3.64	3.49	3.53	3.56	3.45	3.31	3.29	3.34	3.41	3.50	3.55	3.56	3.63	3.71	3.73	3.77	3.82	3.79	3.75	3.82	3.94	3.96	3.88	3.81	3.83	3.91	3.96	3.95	3.96	3.99	3.99	3.98	4.02	4.06	4.03	4.02	4.04	4.07	4.08	4.05	4.08	4.13	4.13	
3.96	3.92	3.87	3.89	3.85	3.74	3.69	3.66	3.59	3.49	3.39	3.24	3.04	2.83	2.51	2.05	1.38	1.18	2.29	3.37	5.98	6.30	7.99	8.55	8.26	7.62	7.09	6.95	6.69	6.51	6.26	6.22	6.28	5.99	4.54	3.95	2.87	1.89	1.17	1.59	0.98	1.17	1.64	2.47	5.77	5.03	4.98	5.63	6.32	6.84	7.03	7.20	5.24	2.85	5.11	5.55	5.83	6.31	3.94	6.98	6.65	6.58	6.92	7.69	8.73	9.05	7.20	5.10	4.18	8.14	4.08	5.39	8.58	7.04	6.71	5.95	5.58	5.38	5.57	5.76	4.48	4.72	5.77	6.59	7.58	7.26	7.23	7.11	7.05	6.62	5.64	4.68	4.19	3.73	3.61	3.58	3.71	4.03	4.02	3.32	3.27	2.38	2.48	3.45	3.86	3.74	3.84	4.00	4.03	3.97	3.94	4.00	4.04	4.11	4.29	4.48	4.33	3.77	3.51	3.64	3.78	3.80	3.79	3.79	3.85	3.81	3.61	3.58	3.74	3.84	3.71	3.56	3.60	3.56	3.42	3.38	3.37	3.40	3.46	3.43	3.35	3.31	3.29	3.33	3.43	3.49	3.53	3.57	3.65	3.70	3.75	3.79	3.79	3.77	3.83	3.95	4.01	3.95	3.84	3.80	3.87	3.94	3.94	3.93	3.97	3.99	3.98	3.99	4.03	4.03	4.04	4.04	4.04	4.08	4.10	4.10	4.10	4.10	
3.98	3.95	3.90	3.91	3.89	3.77	3.71	3.70	3.64	3.54	3.44	3.31	3.13	2.92	2.62	2.21	1.59	1.25	1.95	3.13	3.42	6.28	6.97	8.32	7.90	7.45	7.08	6.76	6.21	5.94	5.65	5.35	5.52	6.00	6.31	4.61	3.92	2.67	1.48	1.00	0.83	0.93	1.48	2.23	6.02	5.12	4.16	4.76	5.28	6.66	6.96	7.09	5.16	3.09	4.21	4.79	5.31	5.35	6.06	6.46	5.86	6.09	6.60	7.17	8.26	8.20	6.52	5.65	5.92	7.37	3.50	5.75	7.50	6.44	6.72	6.16	5.62	5.25	5.33	5.70	4.58	4.27	5.54	5.98	7.19	6.98	7.21	7.13	6.96	6.93	6.11	5.01	4.40	3.83	3.72	3.55	3.57	3.97	4.28	4.27	3.52	3.26	2.64	3.20	3.79	3.70	3.72	3.93	4.03	3.99	3.95	3.90	3.79	3.88	4.18	4.52	4.52	4.05	3.80	3.88	3.81	3.66	3.72	3.99	4.20	4.02	3.53	3.29	3.32	3.48	3.65	3.64	3.47	3.18	2.91	2.88	3.06	3.24	3.34	3.34	3.31	3.31	3.30	3.31	3.36	3.42	3.47	3.51	3.56	3.63	3.70	3.74	3.76	3.76	3.81	3.93	4.03	3.99	3.87	3.79	3.84	3.92	3.94	3.94	3.96	3.99	3.99	3.98	4.00	4.01	4.03	4.05	4.03	4.05	4.12	4.14	4.12	4.12	
3.98	3.96	3.93	3.93	3.92	3.81	3.74	3.74	3.69	3.60	3.50	3.39	3.24	3.04	2.77	2.44	1.93	1.49	1.80	2.47	3.25	3.61	4.52	8.23	7.57	7.39	7.19	6.78	6.23	5.91	5.38	4.84	4.78	4.70	5.64	6.03	4.67	3.62	2.28	1.21	0.77	0.75	1.21	2.23	6.02	4.93	4.16	4.85	5.32	5.65	5.72	5.81	5.63	3.46	4.07	5.09	5.57	5.48	6.33	6.21	5.53	5.93	6.39	6.69	7.78	7.97	6.15	5.14	5.40	6.19	2.98	8.59	7.26	6.26	6.39	6.14	5.71	5.16	5.05	5.28	5.01	4.27	5.19	5.95	6.62	6.91	7.34	7.07	6.85	6.67	5.83	5.06	4.27	3.97	3.80	3.58	3.48	3.36	3.60	3.91	4.18	3.96	3.24	3.21	3.69	3.67	3.63	3.81	3.98	4.04	3.96	3.83	3.74	3.78	3.96	4.27	4.42	4.24	4.15	4.12	3.90	3.66	3.68	4.09	4.41	4.16	3.61	3.24	3.05	3.07	3.43	3.76	3.62	3.15	2.72	2.48	2.57	2.89	3.12	3.22	3.23	3.23	3.28	3.34	3.37	3.40	3.45	3.48	3.51	3.59	3.66	3.71	3.72	3.72	3.76	3.86	3.98	4.02	3.93	3.82	3.83	3.91	3.94	3.94	3.98	4.01	4.00	4.00	4.01	4.01	4.01	4.03	4.02	4.01	4.07	4.14	4.14	4.14	
3.97	3.98	3.96	3.96	3.96	3.86	3.79	3.79	3.75	3.66	3.56	3.46	3.35	3.18	2.95	2.69	2.33	1.90	1.73	1.92	2.21	3.57	4.54	8.03	7.09	6.89	6.87	6.42	5.97	5.84	5.55	5.08	4.24	4.31	5.19	5.97	5.54	4.30	3.06	1.80	1.02	0.81	1.33	2.45	5.41	5.24	4.59	5.00	5.57	5.67	5.43	5.50	5.24	4.22	4.09	2.41	5.63	5.65	5.27	5.08	5.15	5.72	5.90	6.82	7.53	8.13	5.98	4.22	4.17	4.80	5.71	7.94	7.32	6.32	6.10	5.96	5.80	5.08	4.95	5.16	5.01	4.12	2.65	5.14	5.95	6.70	7.19	7.37	7.50	6.57	5.29	4.73	4.29	4.03	3.79	3.63	3.56	3.42	3.49	3.70	4.03	4.22	3.85	3.52	3.69	3.70	3.63	3.73	3.94	4.02	3.85	3.74	3.82	3.88	3.86	3.98	4.13	4.16	4.25	4.24	4.01	3.83	3.82	4.15	4.43	4.21	3.74	3.39	3.11	2.98	3.20	3.63	3.78	3.42	2.89	2.44	2.26	2.43	2.74	2.97	3.07	3.07	3.15	3.30	3.38	3.39	3.43	3.47	3.51	3.57	3.64	3.70	3.71	3.71	3.74	3.83	3.93	4.02	3.99	3.85	3.82	3.90	3.92	3.93	3.98	4.02	4.01	3.99	4.03	4.03	4.01	4.02	4.03	3.99	4.01	4.09	4.13	4.13	
3.98	3.99	3.99	3.99	3.98	3.90	3.84	3.83	3.80	3.72	3.65	3.57	3.47	3.34	3.14	2.97	2.75	2.42	2.25	1.25	1.67	2.47	4.45	7.25	7.06	7.03	6.85	6.07	5.64	5.29	5.24	4.80	4.42	4.28	3.16	3.35	3.94	4.03	3.41	2.45	1.47	1.10	1.66	2.72	3.24	3.57	3.35	2.82	2.78	5.67	5.17	5.26	5.28	4.25	2.71	2.69	2.67	5.90	4.79	4.72	5.17	5.61	5.74	5.86	7.13	7.82	6.26	4.11	3.68	5.03	5.13	7.35	7.30	6.40	5.77	5.56	5.72	5.37	5.30	5.16	4.75	3.25	2.73	2.98	3.53	4.22	4.63	5.05	7.77	7.42	5.71	5.07	4.60	4.31	4.11	3.97	3.74	3.59	3.55	3.59	3.82	4.15	4.14	3.88	3.78	3.75	3.73	3.83	4.00	3.92	3.62	3.57	3.86	4.04	3.94	3.90	3.98	4.06	4.15	4.16	4.02	3.87	3.88	4.08	4.29	4.18	3.79	3.52	3.36	3.25	3.22	3.45	3.72	3.61	3.21	2.77	2.31	2.14	2.30	2.60	2.82	2.87	2.95	3.13	3.29	3.35	3.38	3.42	3.48	3.54	3.61	3.69	3.71	3.71	3.75	3.82	3.87	3.96	4.02	3.89	3.81	3.86	3.89	3.89	3.94	4.01	4.00	3.97	4.00	4.03	4.03	4.03	4.04	4.00	4.00	4.06	4.10	4.10	
4.03	4.02	4.00	4.01	4.02	3.95	3.89	3.88	3.85	3.78	3.73	3.68	3.60	3.51	3.35	3.25	3.19	2.98	1.97	2.05	1.17	2.30	4.42	5.31	6.91	7.33	7.05	6.11	5.75	4.89	4.41	4.69	4.47	3.64	3.23	3.29	3.69	3.76	3.37	2.61	1.81	1.59	2.10	2.54	2.76	3.17	3.22	2.88	2.89	3.38	3.54	3.33	3.34	3.17	2.74	2.80	3.04	5.78	3.29	2.71	2.67	2.87	5.38	5.67	6.10	6.68	6.27	4.47	3.59	4.97	5.36	6.71	6.87	6.19	5.42	5.40	5.56	5.16	5.08	4.05	4.06	3.61	2.96	3.00	3.20	3.70	4.22	4.64	5.37	5.93	5.78	5.40	5.05	4.71	4.27	4.05	3.88	3.84	3.79	3.70	3.79	4.03	4.18	4.15	3.94	3.77	3.79	3.96	4.10	3.83	3.41	3.44	3.79	4.06	4.13	4.08	4.07	4.12	4.13	4.13	4.10	3.93	3.83	3.88	4.01	3.99	3.69	3.47	3.49	3.50	3.43	3.47	3.62	3.58	3.40	3.17	2.72	2.21	2.04	2.21	2.50	2.65	2.76	2.96	3.17	3.29	3.35	3.41	3.48	3.51	3.55	3.63	3.68	3.70	3.74	3.81	3.82	3.88	4.01	3.95	3.83	3.84	3.86	3.87	3.91	3.96	3.97	3.97	3.98	4.00	4.02	4.05	4.06	4.03	4.02	4.05	4.08	4.08	
4.07	4.05	4.03	4.04	4.05	4.00	3.94	3.92	3.89	3.83	3.81	3.79	3.73	3.65	3.58	3.52	3.59	3.63	2.45	0.58	0.76	2.06	3.11	5.07	5.63	7.25	6.92	6.17	5.46	4.61	4.26	4.62	3.84	3.65	3.34	3.17	3.51	3.61	3.23	2.65	2.12	2.16	2.58	2.69	2.60	2.64	2.84	2.73	2.62	3.36	3.50	3.15	2.84	2.61	2.23	2.92	3.23	3.60	3.44	2.79	2.65	2.88	3.16	3.42	5.80	6.34	6.46	5.10	3.69	2.45	5.18	6.67	6.81	6.24	5.53	5.13	4.20	4.05	3.83	3.84	4.04	3.99	3.48	3.02	2.72	2.80	3.94	4.47	4.97	5.46	5.45	5.03	4.80	4.46	4.09	3.90	3.85	3.95	4.02	3.89	3.86	4.01	4.15	4.26	4.19	3.90	3.77	3.97	4.20	3.93	3.41	3.40	3.70	3.98	4.21	4.23	4.19	4.19	4.20	4.26	4.33	4.09	3.64	3.33	3.27	2.99	3.48	3.27	3.33	3.47	3.59	3.65	3.61	3.48	3.42	3.40	3.19	2.67	2.14	2.01	2.18	2.40	2.57	2.78	3.01	3.18	3.28	3.39	3.49	3.51	3.53	3.57	3.62	3.67	3.73	3.79	3.79	3.82	3.98	4.02	3.90	3.84	3.86	3.87	3.90	3.95	3.95	3.97	4.00	4.00	4.00	4.03	4.06	4.03	4.01	4.03	4.05	4.05	
4.10	4.07	4.05	4.06	4.08	4.04	3.99	3.97	3.94	3.88	3.89	3.91	3.86	3.82	3.83	3.79	3.97	4.35	3.25	0.82	0.65	1.64	2.64	3.46	5.29	5.99	6.30	5.91	5.76	4.88	4.18	3.54	3.44	3.44	3.23	3.34	3.64	3.65	3.36	2.90	2.56	2.69	2.93	2.85	2.63	2.58	2.76	2.83	2.70	2.90	3.22	3.00	2.60	2.37	2.27	2.58	3.24	3.41	3.41	2.94	2.65	2.83	3.16	3.49	3.85	4.24	4.71	4.71	3.56	2.77	3.15	4.35	6.43	5.10	4.77	4.39	4.10	3.95	3.77	3.80	3.67	3.83	3.84	3.48	2.93	2.59	2.93	3.65	4.20	4.62	4.86	4.89	4.73	4.38	4.01	3.84	3.82	3.96	4.08	3.96	3.89	4.02	4.19	4.35	4.34	4.07	3.78	3.86	4.14	4.02	3.55	3.39	3.58	3.95	4.32	4.28	4.22	4.15	4.23	4.45	4.52	4.12	3.40	2.93	2.98	2.79	2.34	2.12	1.82	3.19	3.52	3.88	3.77	3.49	3.41	3.42	3.35	3.04	2.58	2.19	2.04	2.15	2.38	2.62	2.84	3.02	3.15	3.29	3.43	3.47	3.51	3.56	3.58	3.63	3.72	3.77	3.75	3.77	3.90	4.05	4.02	3.90	3.86	3.87	3.90	3.94	3.96	3.97	3.99	4.01	4.00	4.01	4.04	4.05	4.03	4.02	4.03	4.03	
4.11	4.10	4.07	4.08	4.12	4.09	4.03	4.02	3.99	3.94	3.96	4.01	3.97	4.01	4.11	4.02	4.30	3.45	3.83	0.89	0.87	1.14	2.03	2.93	3.51	4.13	6.19	5.94	5.93	5.28	4.44	3.53	3.24	3.14	3.17	3.50	3.78	3.69	3.53	3.31	3.12	3.12	3.11	2.97	2.78	2.74	2.87	2.90	2.78	2.82	3.00	2.84	2.52	2.41	2.50	2.84	3.05	3.07	3.14	2.95	2.56	2.47	2.75	3.13	3.74	3.92	4.20	4.55	3.98	3.22	3.51	4.38	4.96	4.83	4.62	4.26	3.86	3.63	3.48	3.51	3.64	3.80	3.95	3.83	3.32	2.80	2.88	3.48	4.02	4.19	4.37	4.63	4.58	4.36	4.10	3.90	3.92	4.06	4.08	3.90	3.79	3.89	4.23	4.52	4.44	4.18	3.90	3.85	4.05	3.99	3.60	3.32	3.36	4.03	4.43	4.52	4.42	4.31	4.31	4.50	4.58	4.13	3.25	2.58	2.66	2.55	2.28	1.98	1.49	1.20	3.08	2.30	2.55	3.87	3.70	3.57	3.33	3.09	2.92	2.64	2.25	2.07	2.21	2.52	2.74	2.90	3.05	3.21	3.36	3.42	3.47	3.55	3.58	3.62	3.72	3.77	3.74	3.72	3.79	3.95	4.07	4.01	3.88	3.85	3.89	3.93	3.94	3.97	4.00	4.01	4.01	4.02	4.05	4.07	4.07	4.05	4.03	4.03	
4.10	4.11	4.10	4.10	4.15	4.14	4.08	4.06	4.04	4.02	4.03	4.08	4.06	4.15	2.82	4.24	4.53	3.68	4.28	1.04	0.73	0.90	1.53	2.37	3.09	3.81	5.88	4.87	4.96	4.96	4.43	3.90	3.44	3.23	3.34	3.69	3.93	3.79	3.68	3.67	3.59	3.45	3.23	3.06	3.00	2.98	3.01	2.96	2.86	2.82	2.83	2.74	2.56	2.56	2.70	2.89	2.98	2.96	3.02	3.00	2.80	2.65	2.78	3.06	3.34	3.52	3.56	3.82	3.89	3.43	3.67	4.12	4.62	4.70	4.71	4.45	3.98	3.53	3.31	3.41	3.66	3.75	3.88	3.94	3.71	3.38	3.24	3.40	3.70	3.87	4.05	4.24	4.13	4.10	4.12	3.97	4.04	4.27	4.26	3.95	3.61	3.61	4.11	4.63	4.63	4.05	4.08	3.85	4.03	3.90	3.34	2.97	3.19	3.75	4.40	4.74	4.69	4.58	4.85	5.02	4.61	3.47	2.23	2.62	2.98	2.97	2.65	2.22	1.63	1.09	2.50	3.02	2.90	3.26	3.35	2.93	3.54	3.05	2.96	2.92	2.63	2.20	2.10	2.38	2.67	2.84	3.00	3.16	3.31	3.39	3.44	3.51	3.56	3.60	3.69	3.76	3.74	3.72	3.75	3.82	3.98	4.06	3.95	3.85	3.89	3.92	3.92	3.94	4.00	4.01	4.00	4.02	4.06	4.07	4.08	4.06	4.05	4.05	
4.11	4.12	4.12	4.13	4.17	4.18	4.13	4.10	4.10	4.09	4.12	4.15	4.15	4.26	4.43	4.44	4.67	5.36	4.81	1.98	0.34	0.78	1.22	1.80	2.60	3.50	4.36	4.73	4.66	4.40	4.18	3.94	3.66	3.55	3.70	4.01	4.17	3.99	3.90	3.98	3.88	3.70	3.43	3.23	3.26	3.23	3.14	3.03	2.98	2.88	2.67	2.57	2.58	2.68	2.75	2.79	2.85	2.94	3.06	3.11	3.03	2.90	2.89	2.98	3.21	3.44	3.40	3.47	3.65	3.56	3.56	3.76	4.01	4.23	4.47	4.50	4.06	3.59	3.46	3.59	3.79	3.77	3.72	3.74	3.82	3.96	3.76	3.40	3.41	3.56	3.80	3.99	3.71	3.62	3.90	3.96	4.05	4.37	4.51	4.20	3.64	3.40	3.84	4.59	4.58	4.28	3.95	4.03	4.22	4.03	3.39	2.72	3.00	3.59	4.21	5.20	5.06	4.92	5.20	5.45	4.45	3.18	1.85	2.62	3.35	3.33	2.83	2.34	1.83	2.45	1.16	2.32	2.75	3.49	3.72	2.98	2.71	3.17	2.92	2.95	2.84	2.42	2.11	2.26	2.57	2.79	2.96	3.11	3.24	3.36	3.44	3.47	3.52	3.59	3.66	3.73	3.74	3.72	3.76	3.80	3.90	4.02	3.97	3.87	3.89	3.93	3.92	3.93	3.98	3.99	3.97	3.99	4.03	4.05	4.04	4.04	4.04	4.04	
4.13	4.14	4.15	4.16	4.20	4.22	4.17	4.14	4.16	4.15	4.18	4.24	4.26	4.33	4.51	4.64	4.79	5.35	3.97	3.28	1.04	0.80	1.14	1.44	2.09	3.09	4.02	4.55	4.50	4.26	4.04	3.84	3.76	3.85	4.11	4.54	4.65	4.35	4.24	4.32	4.10	3.85	3.65	3.47	3.45	3.49	3.37	3.14	3.07	2.87	2.48	2.34	2.58	2.82	2.76	2.65	2.73	2.97	3.10	3.08	3.08	3.10	3.04	2.97	3.13	3.39	3.35	3.34	3.47	3.54	3.65	3.69	3.72	3.88	4.16	4.31	3.99	3.63	3.65	3.86	4.02	3.89	3.62	3.49	3.71	4.14	4.10	3.58	3.31	3.32	3.53	3.80	3.52	3.25	3.64	3.90	3.95	4.28	4.60	4.04	3.37	3.24	3.79	4.40	4.67	4.56	4.27	4.28	4.47	4.26	3.57	2.66	2.55	3.33	5.07	5.55	5.50	5.27	5.46	5.51	4.36	3.14	1.61	2.59	4.13	3.12	2.26	2.24	2.59	1.51	2.41	0.85	2.05	2.55	3.50	2.74	2.99	3.53	2.98	2.93	2.92	2.60	2.22	2.23	2.49	2.74	2.94	3.08	3.18	3.30	3.43	3.48	3.50	3.58	3.64	3.70	3.73	3.71	3.73	3.79	3.88	3.98	3.94	3.86	3.87	3.91	3.93	3.95	3.97	3.97	3.95	3.96	4.00	4.04	4.05	4.03	4.02	4.02	
4.13	4.15	4.17	4.18	4.22	4.26	4.21	4.18	4.20	4.21	4.23	4.30	4.36	4.40	4.58	3.15	4.89	5.35	4.03	3.79	1.64	1.42	1.49	1.45	1.78	2.43	3.39	4.22	4.33	4.15	4.07	3.86	3.74	3.87	4.22	4.76	4.98	4.75	4.64	4.63	4.30	4.01	3.90	3.73	3.63	3.75	3.59	3.18	3.06	2.84	2.36	2.19	2.52	2.88	2.71	2.47	2.60	2.88	2.89	2.84	3.08	3.32	3.24	3.03	3.09	3.32	3.37	3.28	3.27	3.41	3.58	3.57	3.58	3.73	3.88	3.97	3.86	3.55	3.56	4.00	4.34	4.15	3.71	3.47	3.67	4.08	4.11	3.70	3.39	3.32	3.37	3.58	3.45	3.14	3.48	3.90	3.93	4.40	4.57	4.07	3.48	3.22	3.50	4.07	4.52	4.70	4.69	4.88	5.06	4.61	3.74	2.81	2.06	2.66	5.09	6.00	6.13	5.96	6.10	5.49	3.66	2.72	1.05	2.95	4.43	3.56	2.55	1.49	1.57	2.40	1.42	2.14	1.78	1.96	2.71	3.77	2.87	2.66	3.20	2.95	2.93	2.72	2.34	2.24	2.43	2.69	2.91	3.06	3.16	3.25	3.38	3.47	3.49	3.54	3.59	3.64	3.69	3.68	3.67	3.73	3.85	3.95	3.92	3.88	3.87	3.88	3.93	3.96	3.96	3.95	3.96	3.97	3.99	4.03	4.05	4.04	4.02	4.02	
4.14	4.16	4.18	4.20	4.24	4.29	4.26	4.22	4.24	4.27	4.29	4.34	4.43	4.46	4.66	3.26	4.97	5.39	4.11	4.12	1.57	1.60	1.84	1.44	1.83	2.17	2.98	3.79	3.91	3.80	3.89	3.88	3.78	3.84	4.21	4.78	5.18	5.12	4.95	4.82	4.51	4.18	4.14	4.11	4.07	4.06	3.69	3.24	3.29	3.10	2.45	2.17	2.50	2.80	2.56	2.27	2.43	2.54	2.52	2.73	3.24	3.54	3.38	3.10	3.06	3.25	3.37	3.24	3.11	3.19	3.36	3.44	3.51	3.64	3.66	3.65	3.69	3.38	3.18	3.85	4.55	4.40	3.92	3.66	3.74	4.00	3.98	3.67	3.50	3.43	3.33	3.33	3.25	3.01	3.29	4.07	4.06	4.36	4.56	4.08	3.54	3.28	3.32	3.64	4.00	5.34	5.45	5.63	5.82	5.29	4.06	3.26	1.60	2.74	4.50	5.52	5.80	5.99	6.17	4.67	3.30	2.29	0.82	3.76	4.78	4.09	3.36	2.69	2.02	1.70	2.38	2.19	1.78	1.68	2.12	2.98	3.34	2.76	3.50	3.02	2.88	2.74	2.45	2.25	2.34	2.60	2.85	3.03	3.15	3.23	3.35	3.45	3.50	3.54	3.58	3.63	3.68	3.69	3.69	3.72	3.82	3.89	3.90	3.92	3.90	3.87	3.92	3.96	3.97	3.96	3.96	3.97	3.99	4.01	4.03	4.03	4.02	4.02	
4.16	4.17	4.21	4.22	4.25	4.31	4.30	4.26	4.27	4.31	4.34	4.38	4.46	4.52	4.75	3.31	5.04	5.44	2.63	4.49	0.98	1.11	1.97	2.30	2.26	2.36	2.87	3.46	3.62	3.55	3.58	3.72	3.83	4.04	4.49	5.00	5.49	5.70	5.37	4.91	4.35	4.21	4.42	4.57	4.65	4.02	3.14	3.28	3.81	3.62	2.68	2.18	2.43	2.68	2.41	1.95	1.57	2.21	2.41	2.95	3.53	3.69	3.46	3.18	3.10	3.24	3.38	3.26	3.03	2.96	3.02	3.20	3.41	3.55	3.53	3.50	3.62	3.23	2.79	3.57	4.62	4.58	4.10	3.76	3.74	3.71	3.47	3.36	3.41	3.36	3.10	3.27	3.06	2.74	3.34	4.01	4.16	4.35	4.49	4.10	3.67	3.44	3.34	3.44	4.41	4.83	5.24	5.65	6.04	5.63	4.30	2.85	1.73	1.95	4.15	5.44	6.11	6.51	5.76	3.62	4.73	2.03	1.74	4.17	5.20	4.59	3.66	2.89	1.95	1.99	2.23	2.18	1.93	1.65	1.74	2.30	3.27	2.72	3.66	3.15	2.91	2.75	2.52	2.32	2.34	2.54	2.78	2.97	3.10	3.19	3.31	3.43	3.51	3.58	3.63	3.68	3.72	3.74	3.77	3.81	3.85	3.84	3.84	3.90	3.92	3.90	3.91	3.95	3.98	3.99	3.97	3.96	3.97	4.00	4.02	4.03	4.03	4.03	
4.19	4.19	4.22	4.24	4.26	4.33	4.34	4.28	4.29	4.34	4.39	4.43	4.49	4.58	4.90	3.39	5.16	5.54	6.22	4.89	0.66	0.81	1.73	2.39	2.59	2.81	3.09	3.37	3.47	3.54	3.49	3.52	3.72	4.13	4.50	4.96	6.45	6.52	6.01	5.21	4.37	4.18	4.28	4.57	4.90	4.38	3.25	2.98	4.16	3.77	2.81	2.29	2.12	2.01	1.32	1.99	1.94	2.15	2.62	3.35	3.80	3.65	3.34	3.28	3.16	3.26	3.39	3.31	3.09	2.86	2.78	2.93	3.22	3.46	3.45	3.45	3.58	3.10	2.53	3.40	4.77	4.68	4.20	3.88	3.72	3.64	3.53	3.44	3.42	3.31	3.14	3.08	2.61	2.12	3.12	4.06	4.35	4.69	4.56	3.96	3.78	3.66	3.34	3.63	4.38	4.85	5.33	5.82	6.32	5.88	4.87	3.66	2.96	2.06	3.10	5.02	6.61	7.29	4.92	3.54	4.44	1.57	2.65	4.30	5.19	4.96	4.72	2.51	1.91	1.76	1.89	2.23	2.06	1.83	1.69	1.90	2.65	2.86	3.61	3.27	3.06	2.90	2.66	2.43	2.41	2.57	2.78	2.96	3.08	3.16	3.28	3.40	3.48	3.55	3.60	3.65	3.69	3.69	3.73	3.82	3.88	3.85	3.81	3.85	3.90	3.93	3.93	3.93	3.94	3.97	3.98	3.97	3.97	4.00	4.03	4.03	4.03	4.03	
4.21	4.21	4.23	4.25	4.27	4.35	4.37	4.32	4.32	4.38	4.43	4.48	4.52	4.62	3.20	1.71	5.35	5.75	6.43	5.13	0.98	0.49	1.35	2.09	2.48	2.88	3.23	3.36	3.31	3.45	3.49	3.46	3.58	3.90	4.19	4.63	6.29	6.64	6.54	5.54	4.53	4.46	4.55	4.83	5.22	4.38	3.01	2.81	3.99	4.15	3.32	2.27	1.20	0.48	2.25	1.87	1.84	2.23	3.00	3.87	4.12	3.84	3.47	3.18	3.04	3.16	3.23	3.20	3.06	2.96	2.76	2.82	3.08	3.34	3.40	3.46	3.41	2.56	2.29	3.44	4.74	4.93	4.53	4.12	3.89	3.73	3.64	3.55	3.46	3.33	3.21	3.12	2.50	1.72	2.82	3.95	5.26	4.52	4.30	4.10	4.09	3.91	3.21	2.98	3.71	4.84	5.64	6.47	7.08	6.71	5.28	4.10	2.97	2.67	1.97	4.05	6.12	7.22	4.28	3.38	2.22	1.49	3.29	4.48	5.20	4.81	4.17	3.27	2.14	1.94	2.01	1.87	2.13	1.97	1.85	0.42	0.76	2.29	3.36	3.27	3.09	2.99	2.79	2.51	2.44	2.60	2.80	2.98	3.11	3.17	3.25	3.38	3.46	3.48	3.51	3.58	3.62	3.62	3.66	3.73	3.83	3.86	3.82	3.82	3.85	3.89	3.91	3.92	3.92	3.94	3.96	3.99	4.00	4.00	4.03	4.03	4.02	4.02	
4.22	4.21	4.23	4.27	4.29	4.36	4.40	4.34	4.34	4.42	4.48	4.52	4.56	4.65	4.99	5.37	5.54	5.98	6.74	5.54	0.97	0.15	0.83	1.60	2.21	2.64	3.00	3.14	3.10	3.22	3.36	3.38	3.56	3.63	3.75	5.51	5.98	6.93	7.12	5.94	4.83	4.86	4.76	5.06	5.40	3.03	1.78	3.18	4.25	4.03	2.26	0.94	0.55	2.44	2.34	2.04	1.93	2.29	3.13	4.30	4.67	4.07	3.56	3.28	3.13	3.18	3.23	3.23	3.11	2.78	2.63	2.78	3.03	3.22	3.33	3.44	3.32	2.60	1.92	2.94	4.35	5.03	4.82	4.42	3.73	3.83	3.73	3.49	3.63	3.40	3.49	3.26	2.61	1.56	2.24	3.44	5.65	4.79	4.41	4.35	4.34	4.15	3.44	3.00	3.23	3.96	4.92	6.04	6.92	7.19	5.71	4.32	3.47	2.51	1.88	3.65	5.90	6.71	4.30	3.52	2.50	1.67	3.70	4.56	4.92	4.31	3.64	3.33	2.58	2.16	2.18	2.08	0.46	1.98	0.90	0.63	0.48	1.07	3.02	3.13	3.00	2.89	2.75	2.51	2.42	2.56	2.76	2.93	3.08	3.17	3.22	3.35	3.47	3.48	3.48	3.54	3.59	3.62	3.65	3.67	3.73	3.80	3.81	3.80	3.81	3.84	3.88	3.91	3.92	3.92	3.92	3.96	3.99	3.98	4.02	4.03	4.01	4.01	
4.24	4.22	4.23	4.28	4.31	4.36	4.41	4.37	4.35	4.44	4.52	4.55	4.63	4.75	4.98	5.33	5.63	6.16	7.05	6.04	1.99	0.23	0.68	1.57	1.92	2.52	2.79	2.88	2.91	3.06	3.22	3.41	3.55	3.57	3.52	5.00	5.63	7.12	7.61	6.55	5.40	5.22	4.93	5.10	5.05	4.08	2.84	3.30	4.33	2.75	1.26	1.86	1.61	2.59	2.45	2.26	2.15	2.39	3.18	4.55	4.84	3.46	3.01	3.45	3.24	3.25	3.33	3.25	3.10	2.86	2.76	2.86	3.03	3.16	3.27	3.37	3.21	2.62	1.95	2.73	4.11	5.78	4.81	4.44	3.87	3.42	3.40	3.53	3.57	3.73	3.79	3.03	1.99	0.88	1.77	4.53	5.77	5.19	4.62	4.46	4.32	4.13	3.63	3.23	3.45	3.55	4.28	5.54	6.69	7.06	6.08	4.97	4.15	4.26	2.60	3.43	3.77	6.24	4.25	3.44	2.51	1.94	3.91	4.79	4.45	3.99	3.33	2.90	2.34	1.56	2.38	1.21	1.91	1.31	0.96	0.67	0.59	1.17	2.69	2.89	2.90	2.82	2.68	2.46	2.39	2.52	2.71	2.87	3.02	3.13	3.20	3.32	3.45	3.48	3.48	3.52	3.58	3.64	3.68	3.70	3.72	3.76	3.79	3.78	3.78	3.80	3.86	3.90	3.91	3.93	3.91	3.92	3.95	3.94	3.98	4.02	4.00	4.00	
4.24	4.23	4.24	4.29	4.32	4.36	4.41	4.40	4.37	4.46	4.56	4.59	4.69	4.84	5.02	5.33	5.67	6.22	7.23	6.58	3.28	1.00	0.85	1.86	1.64	2.48	2.81	2.84	2.88	3.09	3.22	3.43	3.73	4.24	4.35	4.59	5.78	6.84	7.59	7.10	6.01	5.67	5.51	5.64	4.97	4.12	2.86	3.25	3.66	2.52	2.16	2.31	2.15	2.99	2.73	2.56	1.89	2.67	3.48	4.79	4.97	3.70	3.09	2.89	2.74	3.10	3.21	2.75	3.12	3.03	2.98	3.04	3.14	3.17	3.15	3.20	2.34	3.02	2.00	2.52	3.46	6.64	5.71	4.84	3.99	3.51	3.48	3.66	3.65	3.70	3.81	3.00	2.94	2.17	2.35	2.38	3.70	5.93	5.19	4.78	4.19	3.97	3.80	3.47	3.55	3.33	3.37	5.08	6.18	6.95	6.51	5.47	4.71	4.81	3.41	3.15	4.73	5.39	3.97	3.00	1.73	2.45	4.06	4.74	4.04	3.14	2.74	2.67	2.24	2.04	1.59	1.13	1.04	0.79	1.09	0.73	0.65	0.99	2.45	2.65	2.79	2.80	2.66	2.43	2.37	2.49	2.68	2.83	2.97	3.09	3.19	3.31	3.41	3.46	3.48	3.51	3.57	3.64	3.69	3.74	3.76	3.80	3.82	3.79	3.75	3.75	3.81	3.85	3.86	3.92	3.94	3.92	3.93	3.93	3.96	3.99	3.99	3.99	
4.23	4.23	4.24	4.29	4.34	4.36	4.41	4.42	4.41	4.48	4.58	4.63	4.73	4.88	5.04	5.30	5.65	6.17	7.23	6.23	4.74	0.97	1.23	0.86	1.64	2.51	2.97	3.09	3.08	3.30	3.30	3.25	4.64	4.57	4.53	5.09	5.52	6.42	7.31	7.36	6.37	5.65	5.72	5.87	4.49	3.08	2.14	3.12	2.07	1.98	2.38	2.78	2.74	3.40	3.07	2.85	2.35	2.77	3.32	4.63	5.49	4.10	3.41	2.99	2.93	3.11	3.14	2.82	2.66	2.82	3.14	3.32	3.29	3.12	2.71	2.33	2.17	1.80	1.48	2.26	3.05	6.19	6.47	5.25	4.23	3.86	3.82	3.84	3.82	3.90	3.71	2.78	2.90	2.30	1.76	3.91	3.12	6.09	5.94	5.39	4.37	4.15	4.05	3.61	3.57	3.37	2.80	3.82	5.22	6.54	7.09	6.08	5.34	4.84	3.97	3.43	4.24	4.72	3.68	2.74	1.87	3.04	4.03	4.21	3.11	2.27	2.20	2.15	2.09	1.82	1.84	1.68	1.79	1.38	1.51	1.10	0.80	0.82	2.35	2.48	2.66	2.75	2.64	2.40	2.33	2.47	2.65	2.79	2.92	3.05	3.18	3.31	3.43	3.49	3.50	3.52	3.57	3.61	3.65	3.69	3.73	3.81	3.89	3.89	3.83	3.78	3.79	3.81	3.81	3.87	3.95	3.95	3.96	3.97	3.96	3.98	3.99	3.99	
4.22	4.23	4.25	4.29	4.34	4.37	4.40	4.43	4.44	4.49	4.58	4.64	4.74	4.89	5.03	5.24	5.59	6.08	7.11	6.52	6.18	1.68	2.07	1.42	1.85	2.59	3.13	3.49	3.67	3.75	3.61	3.43	3.96	4.33	4.49	5.35	5.68	6.07	6.79	7.67	6.91	5.71	5.61	5.34	4.62	4.76	2.27	1.29	2.07	2.74	3.09	3.02	3.62	3.52	3.28	3.02	2.96	3.08	3.39	4.32	5.84	4.52	3.60	3.19	3.11	3.06	2.96	2.79	2.74	2.82	3.00	3.22	3.15	2.85	2.15	1.73	2.27	2.20	1.38	2.45	2.87	5.57	6.21	5.72	4.87	4.41	4.13	3.82	3.87	4.35	3.69	2.80	2.73	2.39	1.35	3.11	4.08	5.21	5.80	5.64	4.70	4.45	4.37	3.80	3.72	3.69	3.11	3.04	4.48	5.88	7.18	6.60	5.74	5.20	4.23	3.83	4.42	4.30	3.06	2.82	1.98	3.51	4.00	3.42	2.49	1.93	1.78	1.97	1.95	1.82	1.68	1.72	1.99	2.07	1.65	1.60	1.25	1.16	2.41	2.41	2.54	2.67	2.59	2.36	2.27	2.41	2.61	2.74	2.86	3.01	3.16	3.27	3.40	3.52	3.55	3.56	3.59	3.61	3.62	3.66	3.70	3.78	3.89	3.95	3.96	3.92	3.85	3.81	3.79	3.84	3.93	3.94	3.96	4.01	3.98	3.96	3.97	3.97	
4.22	4.23	4.26	4.30	4.34	4.37	4.40	4.43	4.45	4.49	4.56	4.63	4.74	4.88	5.01	5.20	5.52	5.99	6.91	6.64	6.75	2.47	2.84	2.02	2.21	2.63	3.15	3.68	4.26	4.30	4.00	3.48	3.57	4.01	4.75	5.00	5.40	5.44	5.99	7.33	7.55	5.97	5.86	4.89	5.77	2.33	1.36	1.77	2.27	3.00	2.66	3.35	3.48	3.49	3.36	2.94	3.26	3.66	4.08	4.70	5.45	5.12	4.30	3.59	3.06	2.83	2.80	2.72	2.82	2.98	3.08	3.02	2.73	2.38	1.88	1.69	2.16	2.25	2.90	1.70	4.33	5.19	6.64	6.46	5.58	5.00	4.47	3.91	3.83	4.35	3.56	2.81	2.48	2.30	1.15	3.10	4.42	5.13	5.70	5.88	5.09	4.65	4.57	4.11	3.98	3.84	3.28	2.76	3.95	5.27	6.45	7.11	6.08	5.06	4.26	4.21	4.53	3.80	2.81	1.96	2.29	3.90	3.68	2.52	2.07	1.62	1.71	1.77	1.53	1.39	1.56	1.76	1.66	1.43	1.55	1.95	1.60	1.51	1.53	2.52	2.54	2.62	2.55	2.33	2.21	2.34	2.58	2.72	2.81	2.96	3.11	3.19	3.27	3.41	3.50	3.56	3.61	3.66	3.68	3.67	3.70	3.75	3.82	3.86	3.91	3.97	3.95	3.86	3.79	3.82	3.90	3.90	3.91	3.98	4.01	3.97	3.95	3.95	
4.23	4.24	4.26	4.30	4.33	4.36	4.40	4.42	4.45	4.50	4.56	4.62	4.74	4.88	5.01	5.18	5.47	5.90	6.71	7.99	6.96	3.16	3.48	2.70	2.84	2.90	3.20	3.55	4.29	4.52	4.38	3.83	4.06	4.63	5.02	5.07	5.37	5.53	5.65	6.58	7.27	5.92	5.69	4.06	1.74	1.98	2.26	2.67	2.49	3.06	2.58	3.20	3.30	3.46	3.50	3.32	3.36	3.90	4.72	4.80	5.53	5.48	4.76	4.01	3.19	2.80	2.79	2.81	2.98	3.15	3.15	2.64	1.96	1.74	1.59	1.65	1.84	1.82	2.86	1.29	3.71	4.57	6.11	7.04	6.45	5.67	4.93	4.32	4.33	4.27	3.26	2.82	2.31	2.17	0.59	2.72	2.80	3.73	5.60	5.91	5.78	5.26	4.90	4.36	4.38	4.14	3.29	2.53	3.13	4.46	5.65	7.09	6.64	4.92	4.35	4.47	4.56	3.26	2.64	2.04	2.99	3.72	3.03	2.39	1.74	1.75	1.58	1.61	1.73	1.75	1.86	1.90	1.76	1.61	1.80	1.78	1.90	1.80	1.86	2.65	2.63	2.63	2.51	2.29	2.17	2.28	2.52	2.70	2.78	2.90	3.07	3.15	3.20	3.29	3.39	3.49	3.56	3.62	3.66	3.66	3.66	3.70	3.76	3.77	3.79	3.87	3.95	3.93	3.83	3.79	3.85	3.87	3.86	3.93	3.99	3.97	3.94	3.94	
4.24	4.24	4.26	4.29	4.32	4.35	4.39	4.42	4.45	4.50	4.56	4.62	4.73	4.87	5.00	5.17	5.44	5.83	6.57	7.80	6.96	3.67	4.03	3.09	3.30	3.38	3.43	3.61	4.17	4.59	4.99	4.32	4.01	4.56	5.18	5.54	5.68	5.92	6.04	6.47	6.45	5.02	5.52	3.00	2.03	2.45	3.07	3.05	2.81	3.55	3.10	3.37	3.30	3.50	1.04	3.70	3.73	4.04	4.80	5.08	5.68	5.82	4.97	3.75	3.00	2.70	2.57	2.87	3.22	3.19	2.90	2.24	1.68	1.45	1.37	1.20	3.20	1.37	2.97	1.19	2.79	4.78	5.68	6.63	6.69	6.22	5.39	4.81	4.86	3.91	3.19	2.86	2.34	2.05	0.41	1.57	2.36	3.49	5.17	5.03	5.56	5.68	5.40	4.60	4.72	4.74	3.67	2.66	2.46	3.98	5.13	6.48	6.33	5.01	4.34	4.58	4.41	2.81	2.47	1.89	3.69	3.93	2.87	2.30	1.95	2.09	1.98	1.89	1.76	1.91	2.06	1.93	1.90	1.97	2.07	2.03	2.14	2.10	2.04	2.71	2.68	2.68	2.54	2.27	2.08	2.16	2.39	2.61	2.73	2.84	3.02	3.13	3.20	3.27	3.34	3.42	3.50	3.55	3.60	3.61	3.63	3.68	3.73	3.76	3.79	3.81	3.89	3.97	3.90	3.81	3.83	3.86	3.87	3.90	3.95	3.95	3.93	3.93	
4.24	4.23	4.25	4.28	4.32	4.35	4.39	4.42	4.45	4.50	4.56	4.62	4.71	4.83	4.98	5.14	5.39	5.75	6.44	7.61	7.04	4.28	4.07	3.46	3.61	3.67	3.54	3.72	4.20	5.17	5.64	5.14	4.29	4.17	4.59	5.19	5.38	5.43	5.83	6.20	4.61	2.77	4.74	1.36	2.38	2.65	3.05	3.10	3.99	3.79	3.53	3.74	3.52	3.57	3.73	3.91	4.14	4.34	4.81	5.56	5.78	5.89	5.27	4.37	3.58	2.84	2.30	3.02	3.56	3.37	2.61	1.75	1.48	1.85	1.68	3.07	3.07	1.51	1.09	1.36	2.50	2.98	4.01	5.61	7.42	7.10	6.11	5.41	4.95	4.05	3.48	3.18	2.05	1.87	1.85	1.24	2.11	3.19	5.43	5.05	5.08	5.18	5.58	4.96	4.66	5.00	3.98	2.53	2.08	3.98	5.06	6.18	6.11	4.80	4.36	4.55	4.28	3.27	2.75	2.33	3.80	3.68	2.50	1.99	1.73	2.00	2.10	2.10	2.11	2.21	2.16	2.05	2.12	2.25	2.16	2.00	2.21	2.24	2.10	2.83	2.75	2.76	2.68	2.39	2.09	2.06	2.26	2.52	2.69	2.79	2.95	3.09	3.18	3.25	3.33	3.40	3.48	3.54	3.58	3.61	3.65	3.71	3.74	3.76	3.80	3.80	3.82	3.95	3.98	3.86	3.83	3.86	3.88	3.90	3.93	3.94	3.93	3.93	
4.23	4.23	4.25	4.28	4.31	4.34	4.37	4.40	4.43	4.48	4.55	4.61	4.68	4.78	4.94	5.10	5.32	5.62	6.23	7.38	6.41	5.12	4.47	4.09	4.30	3.79	3.42	3.44	3.92	4.86	5.61	6.13	5.01	4.43	4.69	5.12	5.45	5.60	5.79	5.31	3.62	3.56	3.56	1.53	2.29	2.51	2.71	2.71	3.79	3.61	3.99	3.83	3.61	3.56	3.61	3.89	4.33	4.60	4.97	5.96	6.23	6.31	5.69	4.90	4.15	3.99	3.33	2.88	3.54	3.14	1.85	2.43	1.93	1.72	1.52	3.00	2.98	1.51	1.82	1.62	2.34	2.33	3.12	4.26	5.80	8.60	7.61	6.39	5.22	4.27	3.66	2.98	2.69	2.03	1.65	0.51	2.79	2.66	3.99	6.02	5.58	4.91	5.50	5.54	5.00	4.86	4.08	3.17	2.36	2.95	4.71	6.23	6.16	5.12	4.93	4.78	4.08	3.48	3.02	2.47	3.10	2.85	2.57	2.44	1.83	1.88	2.20	2.49	2.51	2.56	2.35	2.07	2.19	2.42	2.32	2.15	2.39	2.32	2.17	2.03	2.87	2.88	2.86	2.64	2.34	2.16	2.21	2.45	2.67	2.77	2.89	3.03	3.13	3.20	3.28	3.36	3.45	3.52	3.57	3.59	3.64	3.72	3.76	3.76	3.78	3.79	3.75	3.86	4.00	3.91	3.82	3.86	3.89	3.88	3.90	3.92	3.93	3.93	
4.22	4.22	4.24	4.27	4.30	4.33	4.36	4.39	4.42	4.46	4.52	4.59	4.65	4.74	4.88	5.05	5.24	5.49	5.98	7.00	7.40	5.93	4.76	4.53	4.89	4.68	4.03	3.74	3.92	4.82	5.33	6.20	5.46	4.67	4.92	5.36	5.75	6.22	6.51	4.87	4.78	2.21	2.12	1.70	2.03	2.47	2.82	2.82	3.88	3.58	3.89	3.74	3.59	3.60	3.73	4.12	4.58	4.88	5.24	6.13	6.41	6.72	6.23	5.27	4.53	4.64	2.84	2.78	3.42	2.55	1.82	2.52	1.99	1.68	2.82	2.85	2.84	1.84	2.55	2.27	1.29	3.17	2.57	3.43	4.86	7.60	8.88	7.77	5.51	4.59	3.63	3.01	2.30	2.64	1.99	1.75	2.22	2.21	3.33	4.41	6.49	5.30	5.36	6.13	5.95	5.39	4.52	3.72	3.42	2.20	3.66	5.30	5.53	5.04	5.16	4.73	3.52	3.08	2.24	1.68	1.61	1.80	2.69	2.91	2.34	2.22	2.70	2.91	2.90	2.82	2.57	2.21	2.43	2.77	2.67	2.45	2.53	2.34	2.20	2.16	2.97	2.98	3.00	2.84	2.58	2.37	2.26	2.37	2.61	2.77	2.86	2.98	3.10	3.18	3.24	3.30	3.40	3.48	3.54	3.56	3.59	3.67	3.74	3.77	3.80	3.82	3.76	3.77	3.93	3.93	3.81	3.84	3.91	3.89	3.88	3.91	3.92	3.92	
4.21	4.21	4.23	4.26	4.29	4.31	4.34	4.36	4.40	4.44	4.50	4.56	4.62	4.70	4.82	4.98	5.16	5.40	5.79	6.57	7.25	6.18	4.72	4.54	4.96	5.28	4.95	4.27	4.36	4.89	5.48	6.20	5.82	5.00	4.87	5.08	5.42	6.05	6.51	3.56	1.57	1.10	1.09	1.48	2.46	3.46	3.36	3.37	4.13	3.79	4.03	3.82	3.62	0.54	3.45	3.74	4.61	5.04	5.49	6.77	6.83	6.86	6.59	5.94	5.03	3.73	2.56	2.91	3.24	2.42	1.84	1.47	1.29	1.93	1.61	1.46	1.43	2.52	2.86	2.55	2.53	2.11	2.33	3.10	4.27	6.98	7.67	8.38	6.69	5.50	4.38	3.32	2.76	3.31	2.58	2.05	2.06	3.55	2.75	3.77	5.72	5.90	5.10	5.31	6.29	6.20	5.03	3.89	2.63	2.01	3.23	4.50	4.82	4.79	4.66	3.94	2.76	2.00	1.55	1.34	1.92	2.82	2.82	2.92	3.08	3.35	3.43	3.39	3.34	3.27	3.25	3.28	3.26	3.25	3.11	2.71	2.63	2.37	2.25	2.27	3.09	3.05	3.09	2.99	2.73	2.52	2.36	2.29	2.48	2.71	2.85	2.95	3.06	3.17	3.24	3.29	3.37	3.46	3.52	3.54	3.56	3.62	3.69	3.74	3.78	3.83	3.82	3.80	3.88	3.91	3.83	3.82	3.89	3.91	3.90	3.90	3.90	3.90	
4.20	4.20	4.22	4.25	4.27	4.30	4.32	4.34	4.37	4.42	4.47	4.52	4.58	4.66	4.76	4.89	5.06	5.29	5.59	6.17	6.96	6.29	4.53	4.23	4.76	5.30	5.47	4.94	4.40	4.57	5.38	6.22	6.29	5.61	5.37	5.47	5.68	5.80	5.12	1.78	1.39	1.42	2.30	3.20	3.97	3.97	3.92	4.61	4.32	4.38	4.18	3.99	3.70	3.23	2.72	2.60	3.14	4.37	4.90	7.44	7.60	7.90	7.31	6.71	5.72	5.69	3.57	3.19	2.97	2.51	1.81	1.49	1.50	2.31	1.91	1.74	1.47	2.44	2.85	2.04	2.54	1.67	2.32	2.87	3.83	6.41	7.01	8.48	7.62	5.93	4.71	3.67	3.09	3.51	2.95	2.49	1.95	3.10	4.27	3.19	5.06	6.26	5.72	4.96	5.56	6.12	5.42	4.26	3.12	1.92	3.14	4.57	4.95	4.81	3.80	2.29	1.68	1.54	1.95	2.86	4.09	5.02	5.62	4.88	4.32	3.96	3.46	3.03	2.81	2.91	3.15	3.37	3.23	2.97	2.79	2.55	2.49	2.28	2.29	2.46	3.15	3.08	3.11	3.10	2.92	2.69	2.53	2.35	2.36	2.57	2.79	2.90	3.00	3.13	3.21	3.28	3.36	3.44	3.50	3.55	3.56	3.60	3.67	3.71	3.74	3.79	3.83	3.86	3.90	3.90	3.86	3.84	3.85	3.88	3.91	3.89	3.87	3.87	
4.19	4.19	4.20	4.23	4.26	4.28	4.30	4.32	4.34	4.39	4.44	4.49	4.54	4.61	4.70	4.81	4.95	5.14	5.39	5.81	6.60	6.46	4.83	4.12	4.39	5.10	5.73	6.08	5.41	4.77	5.14	5.93	6.40	6.08	5.70	5.78	5.91	4.95	2.21	1.49	1.77	2.32	3.43	3.63	3.92	4.13	4.64	4.52	4.54	4.45	4.15	3.95	0.83	3.45	2.77	2.08	2.04	2.77	3.84	4.53	7.17	7.60	8.71	8.12	6.52	5.02	3.88	3.39	2.99	3.21	2.43	2.08	1.85	1.74	2.25	1.12	1.70	2.43	3.08	2.52	2.61	1.95	2.59	3.06	3.69	5.72	7.20	7.42	8.18	6.41	4.85	3.56	3.22	3.59	3.24	0.41	1.98	3.03	3.53	4.28	3.32	4.89	6.71	5.97	5.49	5.93	5.50	3.65	1.84	1.19	2.25	4.45	5.24	4.33	1.79	0.90	1.03	1.90	2.15	2.48	3.55	4.46	4.63	5.27	5.67	4.48	3.84	3.02	2.40	2.21	2.06	2.07	2.13	1.90	1.65	1.71	2.20	2.01	2.20	2.43	3.11	3.07	3.08	3.07	3.01	2.87	2.74	2.57	2.40	2.43	2.64	2.80	2.91	3.04	3.15	3.24	3.35	3.42	3.48	3.53	3.56	3.59	3.65	3.69	3.73	3.76	3.79	3.85	3.90	3.88	3.86	3.87	3.87	3.86	3.89	3.88	3.86	3.86	
4.18	4.18	4.19	4.22	4.24	4.27	4.28	4.29	4.31	4.36	4.41	4.44	4.49	4.56	4.63	4.72	4.84	5.00	5.20	5.47	6.12	6.55	3.24	4.66	4.24	4.61	5.29	5.79	6.38	5.54	5.14	5.75	6.40	6.65	6.25	5.73	5.26	3.12	1.62	1.52	2.05	2.18	3.02	3.02	3.86	4.12	4.39	4.38	4.38	4.40	4.01	3.66	3.65	3.63	3.25	2.34	1.72	1.91	2.93	3.61	4.43	6.93	8.83	9.25	7.86	5.60	4.28	3.35	2.98	2.98	2.51	2.37	2.16	1.79	1.64	1.56	1.78	2.20	2.56	2.87	2.53	2.93	2.94	4.53	5.25	5.42	7.05	7.48	7.87	7.30	5.27	3.96	3.45	3.54	3.24	3.16	2.52	3.56	4.25	3.88	4.45	3.93	6.15	6.80	6.19	5.69	4.52	1.69	1.43	0.91	1.57	4.10	5.23	3.15	0.97	0.59	1.82	2.72	2.54	2.30	2.37	3.15	4.57	3.95	4.88	6.20	4.47	3.78	3.38	3.09	2.65	2.49	2.44	2.24	2.27	2.13	1.75	2.00	2.10	2.26	2.08	3.05	3.08	3.03	2.97	2.95	2.90	2.78	2.57	2.45	2.51	2.63	2.76	2.92	3.06	3.19	3.32	3.41	3.47	3.51	3.54	3.59	3.65	3.68	3.70	3.74	3.75	3.82	3.87	3.85	3.82	3.84	3.88	3.88	3.87	3.87	3.86	3.86	
4.17	4.17	4.18	4.21	4.23	4.25	4.27	4.26	4.29	4.33	4.37	4.40	4.44	4.50	4.56	4.63	4.72	4.85	4.99	5.19	5.59	6.20	6.30	5.53	4.72	4.53	4.85	5.35	6.37	6.27	5.42	5.62	6.18	6.92	7.30	6.45	3.96	2.11	1.74	1.91	2.55	2.57	3.20	2.92	3.62	3.77	4.10	4.21	4.20	4.28	3.97	3.57	3.52	3.71	3.43	2.88	1.95	1.71	1.96	2.73	3.53	4.40	6.48	9.13	9.10	7.03	5.97	4.75	3.87	2.78	2.25	2.04	2.09	1.83	1.86	2.06	2.12	1.93	3.06	2.86	2.36	2.27	2.73	3.42	3.93	5.21	5.75	7.63	8.23	8.39	5.69	4.51	3.87	3.49	3.15	2.97	2.54	3.33	3.97	5.10	4.46	4.99	5.23	5.91	6.72	6.23	4.03	5.19	1.14	1.56	2.05	3.74	4.66	1.63	0.51	1.40	2.48	3.29	3.41	3.15	2.91	2.79	3.17	4.24	3.54	4.77	6.58	4.97	4.05	3.75	3.55	3.48	3.28	2.90	2.80	2.45	2.07	2.33	2.00	1.93	1.95	3.16	3.16	3.11	3.02	3.03	3.06	2.99	2.82	2.69	2.65	2.59	2.60	2.77	2.95	3.11	3.24	3.36	3.44	3.49	3.52	3.57	3.65	3.67	3.69	3.69	3.72	3.82	3.85	3.81	3.78	3.79	3.84	3.85	3.85	3.85	3.85	3.85	
4.15	4.15	4.17	4.19	4.21	4.23	4.24	4.24	4.26	4.30	4.34	4.35	4.39	4.43	4.48	4.55	4.61	4.71	4.81	4.96	5.18	5.63	6.17	6.03	5.27	4.78	4.74	5.83	6.19	6.95	6.20	5.74	6.09	6.90	7.68	6.73	2.23	2.37	2.21	2.54	2.65	3.57	3.23	3.64	3.49	3.55	3.79	4.03	4.12	4.18	1.81	3.75	3.70	3.97	4.03	3.50	2.61	1.89	1.76	2.17	2.82	3.54	4.45	6.21	9.66	8.98	6.84	5.67	4.79	3.04	2.45	2.42	2.08	1.86	1.98	2.15	2.11	1.75	3.33	3.01	2.50	2.17	2.45	3.10	3.74	5.09	5.59	7.06	7.82	8.91	6.11	5.11	4.44	3.62	3.23	2.91	2.27	3.03	3.65	4.28	5.21	4.71	5.07	6.01	6.42	6.89	4.95	4.67	0.29	2.61	3.20	3.39	2.84	0.87	1.19	2.16	2.79	3.06	3.06	2.93	3.05	3.13	2.83	2.73	3.43	3.43	4.36	5.30	6.66	5.26	4.66	4.49	4.14	3.60	3.15	2.63	2.36	2.86	2.24	1.96	2.04	3.26	3.24	3.18	3.11	3.10	3.17	3.19	3.09	3.03	3.04	2.86	2.62	2.66	2.87	3.06	3.19	3.31	3.40	3.46	3.49	3.54	3.60	3.66	3.71	3.69	3.69	3.81	3.89	3.82	3.77	3.78	3.79	3.81	3.84	3.85	3.85	3.85	
4.14	4.14	4.15	4.18	4.20	4.21	4.22	4.21	4.22	4.27	4.29	4.30	4.33	4.37	4.41	4.45	4.50	4.57	4.65	4.75	4.87	5.16	5.81	6.18	5.64	4.94	4.62	5.41	5.66	7.08	7.04	6.67	6.82	7.13	7.53	5.00	2.71	2.60	2.48	2.60	2.19	3.33	2.97	3.51	3.38	3.42	3.54	3.79	4.03	4.15	4.08	3.82	3.79	4.09	4.36	3.28	3.29	2.51	2.57	2.00	2.34	2.90	3.63	5.22	8.56	10.35	8.64	5.52	4.58	3.11	2.68	2.68	2.63	3.33	2.60	1.87	2.09	3.74	3.60	3.40	1.42	1.92	2.24	2.33	2.85	3.61	4.44	5.67	8.06	9.02	7.53	5.66	5.19	3.79	3.27	2.83	2.72	2.81	3.42	4.16	5.27	5.39	5.00	5.10	6.02	4.63	4.83	4.37	1.61	4.00	3.75	2.61	0.63	1.19	2.06	2.47	2.79	2.85	2.52	2.27	2.20	2.19	1.95	1.60	1.46	2.76	3.15	3.79	4.66	5.37	5.52	5.06	4.84	4.12	3.36	2.98	2.87	2.73	2.50	2.12	2.12	2.20	3.18	3.15	3.10	3.09	3.19	3.30	3.26	3.25	3.38	3.27	2.87	2.68	2.81	3.02	3.17	3.28	3.37	3.43	3.47	3.52	3.57	3.63	3.71	3.73	3.68	3.74	3.89	3.90	3.85	3.84	3.81	3.78	3.81	3.84	3.85	3.85	
4.12	4.13	4.14	4.16	4.18	4.19	4.19	4.19	4.20	4.23	4.25	4.25	4.27	4.30	4.33	4.36	4.39	4.44	4.49	4.56	4.61	4.83	5.45	6.19	6.00	5.25	5.22	5.08	5.11	6.68	7.11	7.56	8.02	8.06	7.77	3.75	3.30	2.47	2.24	2.24	2.18	2.28	3.14	3.64	3.43	3.42	3.56	3.80	4.09	4.36	4.39	4.09	3.96	4.13	4.32	3.61	3.63	2.83	2.26	3.31	1.98	2.35	2.95	4.42	5.19	8.47	10.41	5.57	5.12	3.57	2.81	2.55	2.74	2.52	1.77	1.74	3.97	3.90	3.77	1.37	2.35	1.49	2.38	1.93	1.90	2.44	3.34	4.36	5.45	8.56	10.13	5.98	6.09	4.22	3.45	0.63	2.36	2.46	2.80	3.68	5.33	5.81	6.01	5.56	5.20	2.60	4.79	0.64	2.68	3.57	3.13	1.19	2.60	3.01	3.38	3.46	3.36	3.30	3.24	3.18	4.20	4.88	4.69	4.28	3.82	3.39	0.60	2.20	3.77	4.34	3.89	3.48	3.49	3.39	3.10	2.91	2.89	3.25	2.67	2.00	1.77	2.01	3.04	3.01	3.02	3.01	3.08	3.24	3.23	3.23	3.43	3.50	3.18	2.85	2.80	2.97	3.13	3.24	3.34	3.40	3.45	3.51	3.56	3.59	3.66	3.74	3.72	3.70	3.78	3.86	3.91	3.94	3.88	3.79	3.78	3.81	3.82	3.82	
4.11	4.11	4.13	4.15	4.16	4.16	4.17	4.16	4.16	4.20	4.21	4.20	4.21	4.23	4.24	4.27	4.28	4.31	4.33	4.37	4.39	4.56	5.05	6.04	6.07	6.11	5.49	5.04	6.22	6.69	6.99	7.50	8.19	8.47	7.63	3.41	3.69	2.71	2.07	2.30	2.63	3.76	3.42	3.89	3.63	3.52	3.66	0.34	4.27	4.55	4.71	4.57	4.32	4.19	4.47	3.85	3.92	3.10	2.45	2.80	3.14	3.51	2.35	3.09	4.41	7.66	9.79	8.01	5.13	4.30	3.00	2.22	1.92	2.32	4.10	4.35	4.06	3.83	3.61	2.45	3.86	2.45	3.04	2.08	3.61	2.02	2.59	3.56	4.86	5.52	8.90	5.86	6.50	4.78	3.95	1.29	1.84	2.41	2.43	2.94	3.87	4.94	6.00	6.49	4.60	2.54	5.14	1.68	2.60	2.98	3.29	4.23	4.40	4.49	4.51	4.48	4.28	4.32	4.57	4.39	3.92	4.47	2.88	5.12	4.46	4.18	1.84	3.60	0.80	1.00	1.24	1.63	1.72	2.11	2.44	2.26	2.36	2.61	3.05	2.69	2.26	2.01	3.09	2.94	2.90	2.89	2.94	3.12	3.17	3.14	3.31	3.48	3.34	3.06	2.91	2.95	3.07	3.17	3.29	3.37	3.42	3.48	3.53	3.56	3.60	3.68	3.76	3.79	3.77	3.74	3.76	3.87	3.89	3.83	3.82	3.82	3.81	3.81	
4.09	4.10	4.11	4.13	4.14	4.14	4.15	4.14	4.13	4.15	4.16	4.15	4.15	4.16	4.16	4.17	4.17	4.18	4.19	4.20	4.20	4.29	4.69	5.98	6.15	6.47	5.87	4.97	6.05	6.49	6.96	7.60	8.43	9.03	6.79	3.36	3.80	3.14	2.64	3.15	2.93	3.73	3.47	4.06	3.82	3.61	3.60	3.87	4.28	4.63	4.84	4.83	4.24	4.39	4.73	4.36	3.74	3.43	2.87	2.59	2.89	3.67	4.41	2.64	3.70	4.74	7.21	9.96	4.16	4.07	2.76	2.90	4.94	4.44	4.54	4.34	4.09	3.78	3.41	2.53	3.62	4.00	2.34	2.83	2.25	3.84	2.24	3.02	4.39	7.43	8.54	5.66	6.27	4.96	1.71	2.13	2.34	1.28	2.72	2.67	3.34	4.28	5.57	6.54	3.01	2.78	2.46	1.44	3.02	5.93	5.05	4.96	5.16	5.21	5.01	4.96	5.04	5.29	5.65	5.55	5.20	4.62	3.83	3.27	3.06	3.04	2.58	2.09	2.09	2.05	2.10	2.40	2.58	2.81	2.80	2.74	2.93	3.09	3.31	3.19	2.94	2.51	2.16	3.20	3.00	2.91	2.97	3.13	3.27	3.25	3.26	3.37	3.33	3.16	3.04	3.03	3.07	3.12	3.23	3.34	3.42	3.49	3.55	3.53	3.52	3.57	3.68	3.81	3.90	3.84	3.72	3.75	3.81	3.81	3.82	3.81	3.80	3.80	
4.08	4.08	4.10	4.12	4.12	4.12	4.13	4.12	4.10	4.11	4.12	4.10	4.09	4.10	4.09	4.09	4.08	4.07	4.07	4.05	4.03	4.05	4.35	5.89	7.39	6.50	5.86	6.04	5.72	6.20	6.81	7.41	8.04	9.42	2.47	4.21	4.02	3.63	3.33	3.63	3.06	3.84	3.58	4.22	4.04	3.78	3.54	3.64	4.10	4.61	5.00	5.10	4.63	4.58	5.06	4.87	4.30	3.62	3.13	3.02	2.76	3.44	4.02	4.93	3.24	4.24	8.19	9.21	5.41	5.89	5.34	5.14	4.84	4.58	4.46	4.35	2.96	2.73	2.29	1.82	3.49	4.06	3.18	3.29	2.46	1.97	2.02	2.68	3.85	4.96	8.29	4.70	5.99	1.90	3.27	3.08	2.68	3.11	1.85	2.35	3.25	3.82	5.52	4.12	7.80	6.86	6.14	6.52	6.48	6.36	6.30	5.82	5.57	5.45	5.30	5.35	5.34	5.49	6.12	6.37	6.04	5.57	5.15	4.39	4.05	3.85	3.27	2.75	2.52	2.29	2.88	3.42	3.70	3.88	3.94	3.71	3.42	3.11	2.95	3.00	2.98	2.68	3.74	3.58	3.32	3.12	3.09	3.15	3.31	3.38	3.30	3.30	3.26	3.15	3.08	3.11	3.16	3.15	3.21	3.30	3.38	3.51	3.65	3.62	3.48	3.49	3.57	3.66	3.84	3.97	3.88	3.76	3.76	3.77	3.78	3.79	3.78	3.78	
4.07	4.07	4.08	4.10	4.10	4.10	4.10	4.10	4.07	4.07	4.08	4.06	4.05	4.03	4.02	4.01	3.99	3.96	3.95	3.92	3.89	3.89	4.06	5.36	7.39	6.77	6.94	6.21	5.93	5.84	6.06	6.54	7.38	9.23	5.19	4.94	4.39	4.15	3.90	4.00	3.34	4.03	3.78	4.33	4.18	3.99	3.65	3.50	3.76	4.26	4.82	5.20	5.21	5.16	5.29	5.35	3.80	3.80	3.16	3.13	3.35	4.33	4.52	4.51	5.49	6.44	7.79	5.89	4.62	5.21	4.99	5.06	4.81	4.26	3.92	3.61	3.16	2.94	2.69	1.89	3.71	4.12	3.89	3.75	2.83	2.21	2.18	2.69	3.72	4.73	7.73	5.84	4.93	2.99	3.90	3.81	2.83	2.00	1.41	2.22	3.09	3.52	3.65	6.16	6.49	6.92	6.00	5.68	5.88	6.30	6.78	6.79	6.61	6.32	5.71	5.40	5.11	5.17	5.63	6.20	6.17	5.91	6.00	5.60	5.12	5.05	5.14	4.66	4.41	4.43	4.12	3.89	4.05	4.26	4.45	4.09	3.44	2.78	2.55	2.24	2.29	2.65	2.83	2.80	3.51	3.31	3.21	3.16	3.26	3.38	3.32	3.30	3.24	3.10	3.02	3.05	3.14	3.16	3.20	3.25	3.29	3.40	3.66	3.77	3.58	3.50	3.54	3.55	3.66	3.87	3.95	3.83	3.76	3.78	3.78	3.77	3.77	3.77	
4.06	4.06	4.06	4.08	4.08	4.08	4.08	4.08	4.05	4.04	4.05	4.03	4.00	3.97	3.95	3.92	3.89	3.86	3.83	3.80	3.77	3.79	4.06	5.27	6.93	7.92	7.73	6.67	6.08	5.89	5.95	6.39	7.47	9.74	5.27	5.24	5.04	5.53	5.06	4.41	4.91	4.15	4.35	4.26	4.10	3.98	0.35	3.33	3.36	3.75	4.30	4.85	5.41	6.06	5.93	5.98	4.16	3.97	3.16	3.11	3.77	4.62	4.30	3.71	4.54	5.77	7.42	3.69	4.64	3.52	4.84	2.63	2.06	2.34	4.44	3.92	1.75	1.66	2.86	2.31	3.77	4.14	4.21	4.07	3.30	2.68	2.14	2.80	3.74	4.64	8.00	6.96	4.16	3.68	4.66	4.47	2.94	3.90	1.81	3.13	3.40	3.29	5.96	6.12	6.59	6.92	6.49	5.64	5.57	5.91	6.35	6.62	6.84	6.95	6.61	6.16	5.67	5.26	5.23	5.43	5.62	5.49	5.76	5.55	4.88	4.54	4.91	4.83	4.49	4.75	4.34	3.64	3.38	3.42	3.42	3.10	2.32	1.68	2.33	2.12	1.98	2.38	2.60	2.78	3.51	3.43	3.32	3.23	3.30	3.39	3.33	3.33	3.32	3.17	3.06	3.04	3.02	3.05	3.15	3.20	3.20	3.24	3.46	3.70	3.65	3.56	3.56	3.55	3.57	3.70	3.88	3.89	3.78	3.77	3.77	3.76	3.77	3.77	
4.05	4.04	4.05	4.06	4.06	4.06	4.06	4.06	4.02	4.00	4.01	3.98	3.94	3.91	3.88	3.84	3.79	3.74	3.71	3.67	3.68	3.68	4.03	4.95	6.61	7.75	7.86	7.37	6.32	5.87	6.13	7.05	8.74	5.34	5.75	5.75	5.46	5.41	5.34	5.72	5.18	4.41	4.41	4.23	3.98	1.50	3.57	3.20	3.08	3.35	3.79	4.29	4.99	6.47	6.26	6.37	4.74	4.08	3.07	2.55	3.99	4.74	4.26	3.56	3.94	4.83	6.04	3.82	3.69	3.67	2.95	2.40	2.37	5.26	4.89	4.47	2.01	2.05	3.25	2.01	3.73	4.23	4.97	4.26	3.61	3.05	2.75	2.88	3.67	4.47	6.14	8.10	5.34	4.69	4.10	4.22	3.18	4.67	4.06	5.92	3.57	3.58	3.87	4.32	4.68	5.15	6.76	6.17	5.64	5.28	5.81	6.27	6.66	6.78	6.79	6.60	6.22	5.89	5.52	5.18	5.06	4.93	5.01	4.42	3.28	2.32	2.08	2.56	2.72	2.82	2.75	2.21	1.55	1.16	1.05	1.19	1.31	1.40	1.38	2.35	2.10	2.18	2.48	2.85	3.38	3.41	3.41	3.36	3.42	3.46	3.36	3.36	3.42	3.33	3.25	3.20	3.07	3.01	3.10	3.15	3.14	3.17	3.31	3.50	3.57	3.57	3.58	3.58	3.55	3.58	3.74	3.87	3.85	3.77	3.72	3.72	3.74	3.74	
4.04	4.03	4.03	4.04	4.05	4.05	4.04	4.03	4.00	3.97	3.96	3.94	3.89	3.85	3.80	3.75	3.70	3.64	3.58	3.55	3.55	3.62	3.86	4.11	6.10	7.72	7.71	8.23	7.70	6.97	6.63	7.40	4.78	5.14	5.40	5.34	5.42	5.47	5.70	5.68	5.31	4.82	4.51	4.32	2.16	3.79	0.97	0.66	2.95	3.01	3.32	3.70	4.34	6.28	6.36	7.01	5.39	4.41	3.13	1.98	3.55	4.77	4.52	3.82	4.01	4.71	6.05	3.67	4.85	3.70	3.10	4.60	4.88	5.10	5.02	1.72	3.06	2.57	2.01	1.79	3.82	4.40	4.32	4.45	3.92	3.54	2.94	3.16	3.53	4.10	5.37	7.41	7.21	6.04	3.66	4.86	5.23	5.35	5.24	3.53	3.49	3.69	4.06	4.65	4.96	5.29	5.74	5.88	5.54	5.24	5.53	6.00	6.22	6.33	6.67	6.74	6.36	6.29	6.01	5.72	5.11	4.55	4.13	3.65	3.18	3.15	2.95	2.60	2.49	2.37	2.25	2.19	2.44	2.31	1.80	1.59	1.50	1.51	1.73	1.88	2.56	2.56	2.82	2.97	3.23	3.26	3.36	3.43	3.53	3.57	3.41	3.32	3.37	3.36	3.33	3.32	3.21	3.12	3.15	3.18	3.15	3.19	3.30	3.40	3.46	3.50	3.55	3.59	3.56	3.53	3.60	3.76	3.88	3.85	3.74	3.69	3.69	3.69	
4.02	4.02	4.02	4.03	4.04	4.03	4.02	4.00	3.98	3.94	3.92	3.90	3.85	3.80	3.74	3.67	3.61	3.53	3.47	3.42	3.43	3.58	4.01	4.15	7.05	7.79	7.57	8.06	8.47	9.10	6.08	5.21	4.52	4.62	4.97	5.18	5.19	5.20	5.39	5.48	5.27	4.84	4.53	4.38	4.28	3.98	3.44	3.02	2.84	2.94	3.20	3.55	3.68	4.03	5.85	7.81	4.43	5.23	3.59	2.28	3.25	4.30	4.28	3.66	6.58	8.89	9.29	10.74	5.43	5.10	3.97	3.34	2.60	2.10	2.29	5.21	5.16	2.80	4.29	1.73	3.81	4.30	3.60	4.43	4.09	3.94	2.98	3.90	3.66	3.95	4.76	4.74	6.69	6.96	4.93	4.83	4.95	3.96	3.81	3.71	3.64	2.92	2.90	3.13	3.52	3.87	5.89	6.17	5.96	5.12	4.84	4.10	4.36	4.67	5.14	5.61	5.87	6.13	6.28	6.83	6.62	6.14	5.85	5.60	5.18	4.53	4.12	3.78	3.55	3.17	2.87	2.57	2.57	2.47	2.13	1.89	1.61	1.61	2.08	2.37	2.79	2.73	2.82	3.29	3.22	3.20	3.28	3.39	3.55	3.61	3.42	3.22	3.16	3.16	3.21	3.25	3.18	3.13	3.16	3.20	3.17	3.19	3.29	3.37	3.41	3.44	3.50	3.58	3.58	3.53	3.54	3.62	3.78	3.87	3.81	3.70	3.65	3.65	
4.00	4.01	4.01	4.02	4.02	4.02	4.00	3.98	3.96	3.92	3.88	3.85	3.80	3.74	3.66	3.59	3.52	3.42	3.35	3.28	3.30	3.47	4.28	4.56	7.50	7.32	6.88	7.18	7.72	9.68	4.48	5.45	4.21	4.23	4.52	4.83	4.96	4.96	5.06	5.21	5.16	4.82	4.50	4.38	4.31	3.41	3.60	3.11	2.98	3.18	3.50	3.66	3.63	4.64	4.88	7.47	4.22	5.95	4.80	2.70	3.98	4.95	4.82	6.60	7.43	7.67	8.22	9.41	11.12	8.13	5.20	4.66	3.80	3.10	6.47	6.61	5.60	4.50	3.30	2.23	4.12	4.40	3.37	4.21	3.85	3.69	3.55	3.63	3.83	4.11	4.58	6.35	6.51	4.63	4.33	4.11	3.84	3.74	3.54	3.61	3.49	2.94	2.70	2.74	3.20	3.74	4.05	4.38	4.73	4.75	4.86	3.97	4.07	4.31	4.74	5.25	5.68	6.04	6.34	6.59	6.59	6.68	6.92	6.77	6.29	5.70	5.21	4.95	4.50	3.68	3.41	3.25	3.03	2.99	2.78	2.35	1.84	2.02	2.37	2.56	2.78	2.76	2.76	3.25	3.23	3.21	3.24	3.34	3.53	3.64	3.54	3.34	3.13	3.00	3.03	3.11	3.06	2.99	3.04	3.14	3.15	3.16	3.25	3.34	3.38	3.39	3.45	3.54	3.59	3.54	3.52	3.55	3.66	3.79	3.83	3.73	3.65	3.65	
3.99	4.00	4.01	4.01	4.00	4.00	3.98	3.96	3.94	3.88	3.84	3.81	3.76	3.68	3.60	3.51	3.43	3.31	3.22	3.12	3.12	3.28	4.17	4.51	8.03	7.31	6.42	6.38	7.31	9.40	3.55	3.51	3.85	3.42	4.34	4.64	4.85	4.86	4.87	4.95	4.94	4.76	4.60	4.55	4.42	3.70	3.74	0.99	3.31	3.28	3.55	3.87	4.34	4.18	5.38	7.18	7.57	5.95	5.52	5.14	5.08	8.37	6.81	5.86	6.33	7.31	7.73	8.34	9.53	10.96	9.45	7.63	7.37	2.51	7.43	7.66	4.18	6.48	4.73	3.73	4.93	4.95	4.14	4.33	3.79	3.51	3.50	3.73	4.06	4.50	4.70	6.22	7.66	4.11	3.82	3.66	3.33	3.36	3.46	3.39	3.29	3.01	2.55	2.49	2.83	3.29	3.59	3.90	4.67	4.73	4.56	4.22	3.96	4.03	3.70	3.92	4.26	4.49	4.67	6.23	6.07	6.04	6.52	7.14	7.22	6.94	6.51	6.22	5.56	4.73	4.46	4.19	3.89	3.69	3.25	3.00	2.75	2.38	2.27	2.38	2.60	3.06	2.69	3.16	3.15	3.14	3.15	3.24	3.43	3.63	3.72	3.65	3.38	3.11	3.02	3.09	3.07	2.93	2.92	3.02	3.09	3.13	3.22	3.32	3.36	3.35	3.38	3.46	3.53	3.53	3.50	3.53	3.59	3.69	3.80	3.76	3.68	3.68	
3.99	3.99	4.00	4.00	3.99	3.98	3.97	3.94	3.91	3.86	3.81	3.78	3.72	3.64	3.55	3.45	3.35	3.22	3.10	2.97	2.92	3.04	3.51	3.75	8.42	9.09	6.57	6.00	7.23	9.03	4.43	4.03	2.29	3.85	4.47	4.67	4.84	4.90	4.88	4.83	4.74	4.17	4.75	4.86	2.93	4.12	3.71	2.84	3.49	3.41	3.46	3.65	4.35	5.43	6.20	4.40	6.79	6.93	7.42	7.51	7.31	7.28	6.99	5.80	6.04	7.02	7.52	7.95	8.56	9.36	10.05	8.89	7.61	10.61	10.74	10.83	11.59	12.22	4.28	6.99	6.96	5.68	6.10	5.48	4.67	3.01	3.92	4.46	4.82	5.04	5.83	6.89	4.14	3.48	3.23	3.16	2.84	2.88	2.99	3.36	3.02	2.91	2.67	2.46	2.61	2.96	3.25	3.60	4.07	4.37	4.38	4.29	4.14	3.86	3.58	3.60	3.92	4.21	4.42	4.61	4.60	4.37	4.36	4.82	5.35	5.71	5.91	6.82	7.01	6.65	6.09	5.39	4.94	4.46	4.09	3.92	3.51	2.83	2.48	2.44	2.51	2.92	3.03	3.09	3.11	3.11	3.12	3.20	3.30	3.48	3.73	3.78	3.53	3.26	3.12	3.13	3.19	3.13	3.00	2.95	3.00	3.06	3.14	3.25	3.32	3.33	3.33	3.38	3.46	3.50	3.50	3.52	3.55	3.58	3.71	3.76	3.71	3.71	
3.98	3.99	3.99	3.99	3.98	3.97	3.95	3.93	3.89	3.84	3.78	3.75	3.69	3.60	3.50	3.40	3.27	3.12	2.97	2.82	2.71	2.74	2.74	2.67	5.93	9.85	8.37	8.46	9.67	11.72	6.69	4.89	5.20	4.67	4.48	4.68	4.83	4.91	4.93	4.91	1.38	4.70	4.86	4.96	4.67	4.16	3.78	3.26	3.66	3.71	3.55	3.41	4.25	3.70	3.84	6.65	6.17	6.01	6.41	6.63	6.81	6.99	6.92	4.77	5.12	6.47	6.92	7.04	7.28	8.76	9.23	7.95	7.22	9.24	9.29	9.26	9.73	10.50	11.16	8.32	7.81	10.81	7.62	7.12	6.30	3.06	5.65	5.55	5.62	5.65	5.50	6.91	4.02	3.64	3.42	3.41	3.04	2.93	2.74	2.30	2.57	2.69	2.61	2.52	2.56	2.66	2.91	3.27	3.71	4.14	4.32	4.26	4.12	3.98	3.70	3.48	3.52	3.82	4.21	4.37	4.34	4.05	3.86	3.77	4.67	5.04	5.38	5.69	6.12	6.41	6.47	6.40	6.29	5.57	4.96	4.59	4.01	3.48	3.08	2.77	2.74	3.01	3.00	3.01	3.08	3.16	3.22	3.26	3.24	3.34	3.67	3.84	3.58	3.28	3.16	3.12	3.22	3.36	3.29	3.05	2.93	2.96	3.05	3.14	3.24	3.30	3.31	3.33	3.39	3.45	3.50	3.55	3.55	3.49	3.56	3.67	3.68	3.68	
3.99	3.98	3.98	3.98	3.97	3.96	3.95	3.91	3.88	3.83	3.77	3.72	3.66	3.57	3.45	3.34	3.19	3.03	2.85	2.66	2.51	2.45	2.31	2.44	4.11	8.48	10.70	10.25	10.00	10.77	10.06	6.36	4.19	4.92	4.35	4.45	4.67	4.89	4.96	1.34	4.89	4.77	4.93	3.24	4.70	4.24	3.92	3.60	3.76	3.74	3.49	3.60	3.01	3.20	3.57	6.18	5.68	5.75	6.06	5.61	6.00	6.39	6.95	4.38	3.51	5.64	3.73	6.59	7.47	7.86	8.59	7.02	7.26	8.70	8.85	9.02	9.09	9.35	9.51	9.64	9.89	10.66	10.79	7.16	6.42	9.95	8.71	9.11	9.50	5.38	8.09	10.14	5.61	3.91	3.22	3.64	3.64	3.09	3.10	2.17	3.23	2.90	2.77	2.73	1.29	2.54	2.67	3.01	3.31	3.73	4.17	4.23	3.99	3.86	3.82	3.69	3.48	3.53	3.89	4.12	4.14	3.85	3.44	3.34	3.57	3.81	3.96	4.12	4.42	4.85	6.23	6.42	6.66	6.69	6.20	5.39	4.77	4.14	4.48	3.07	3.17	2.54	2.26	3.01	3.02	3.14	3.26	3.31	3.26	3.34	3.72	4.01	3.80	3.34	3.11	3.04	3.08	3.32	3.48	3.31	3.05	2.93	2.95	3.03	3.12	3.22	3.28	3.29	3.30	3.33	3.41	3.51	3.56	3.52	3.51	3.57	3.60	3.60	
3.98	3.98	3.98	3.97	3.96	3.95	3.94	3.90	3.87	3.82	3.75	3.70	3.62	3.53	3.41	3.28	3.12	2.95	2.74	2.54	2.33	2.22	2.07	2.50	2.33	7.67	10.08	9.64	9.66	10.28	11.69	8.92	5.87	4.10	3.61	2.71	4.37	2.55	1.23	4.76	4.71	4.71	4.92	5.07	4.67	4.27	1.81	3.97	3.92	3.94	3.74	3.11	3.57	2.86	3.29	4.74	5.39	5.26	5.44	5.91	6.27	6.86	7.10	4.64	3.71	2.91	4.25	4.09	6.84	7.64	8.07	6.67	6.56	7.91	8.21	8.41	8.66	8.80	9.02	9.13	9.33	9.65	9.72	8.65	8.74	9.42	4.61	5.88	5.52	8.44	8.71	10.15	7.57	4.58	3.95	3.01	3.01	2.83	2.39	4.33	3.85	3.51	3.24	3.13	3.00	2.69	0.83	2.87	3.14	3.36	3.81	4.12	3.84	3.63	3.68	3.87	3.71	3.38	3.58	3.92	3.99	3.72	3.38	3.22	3.15	3.14	3.07	3.14	3.59	4.08	4.42	4.67	4.96	5.47	5.93	6.20	5.81	4.64	4.91	4.42	3.78	3.57	2.39	3.15	3.01	3.02	3.17	3.31	3.27	3.31	3.65	4.01	3.95	3.49	3.06	2.88	2.88	3.14	3.45	3.51	3.36	3.13	2.99	2.98	3.04	3.12	3.21	3.26	3.23	3.20	3.28	3.40	3.51	3.57	3.57	3.54	3.53	3.53	
3.97	3.97	3.97	3.96	3.96	3.95	3.93	3.89	3.86	3.81	3.74	3.67	3.60	3.50	3.38	3.24	3.07	2.90	2.67	2.44	2.20	2.03	1.94	2.40	2.42	7.21	9.74	9.38	9.56	10.03	10.88	12.35	8.70	5.66	3.99	2.42	4.75	4.48	4.46	4.48	4.57	4.73	4.02	4.93	4.45	3.99	3.88	4.02	4.20	4.29	3.34	3.62	2.42	2.70	2.91	4.59	4.86	4.99	5.18	3.49	3.74	4.12	7.08	4.57	3.76	2.90	4.56	4.44	3.21	7.37	7.95	4.84	4.43	7.39	7.64	7.81	8.04	8.11	8.43	8.86	9.00	9.37	9.17	7.70	7.79	8.40	4.01	4.24	6.10	5.97	8.82	9.78	11.24	7.05	5.12	4.63	3.64	3.01	4.70	4.61	4.31	4.04	3.78	3.64	3.44	3.07	2.81	2.91	1.20	3.20	3.44	3.83	3.76	3.62	3.68	3.05	1.37	3.42	3.36	3.69	3.86	3.67	3.45	3.30	3.14	3.02	2.75	2.60	2.94	3.33	3.68	3.94	4.11	4.56	5.01	5.37	5.99	5.90	4.78	4.46	4.32	4.03	3.47	3.26	3.05	2.89	2.99	3.17	3.17	3.16	3.46	3.88	3.98	3.67	3.16	2.82	2.75	2.96	3.30	3.50	3.54	3.44	3.23	3.07	3.04	3.08	3.15	3.22	3.19	3.15	3.20	3.28	3.39	3.53	3.59	3.53	3.47	3.47	
3.97	3.97	3.97	3.97	3.96	3.95	3.92	3.89	3.85	3.80	3.73	3.65	3.58	3.49	3.37	3.23	3.06	2.87	2.64	2.39	2.10	1.87	1.87	2.36	2.02	6.86	9.20	9.14	9.45	9.79	10.15	11.15	11.77	8.33	5.01	7.42	6.74	6.08	5.44	5.12	5.15	5.29	4.01	4.97	4.48	3.98	3.72	3.87	4.22	4.78	4.63	3.26	2.47	3.68	2.74	2.96	3.35	4.79	3.39	3.77	3.06	4.41	4.78	4.43	3.72	2.93	6.12	2.68	4.99	5.28	7.80	4.98	4.44	7.16	7.50	7.64	7.85	7.82	8.04	8.43	8.30	9.19	8.78	7.04	7.09	7.55	3.60	3.88	6.41	6.48	6.48	9.54	10.55	11.29	5.63	6.21	4.31	5.07	4.89	4.80	4.57	4.11	3.62	4.05	3.95	3.58	3.16	3.13	3.34	3.32	3.37	3.59	3.69	3.74	3.84	4.04	4.05	3.70	3.48	3.65	3.83	3.71	3.54	3.47	3.42	3.30	2.97	2.55	2.50	2.82	3.18	3.41	3.47	3.76	3.99	4.11	4.88	5.56	5.25	4.84	4.53	3.57	3.52	1.66	1.63	2.98	2.95	3.02	3.00	3.01	3.28	3.72	4.02	3.94	3.47	2.97	2.76	2.86	3.14	3.35	3.46	3.54	3.42	3.15	3.04	3.07	3.12	3.17	3.15	3.12	3.13	3.17	3.26	3.44	3.59	3.55	3.47	3.47	
3.97	3.97	3.97	3.96	3.95	3.94	3.92	3.88	3.84	3.80	3.72	3.64	3.57	3.49	3.36	3.22	3.05	2.86	2.62	2.36	2.05	1.76	1.68	2.20	2.00	6.63	9.12	9.14	9.34	9.61	9.82	10.26	10.34	10.11	10.24	7.76	7.80	3.56	3.17	6.01	6.48	4.35	5.41	4.50	1.99	2.78	4.27	4.27	4.47	4.71	3.65	3.52	2.89	3.34	3.31	2.59	2.91	3.14	3.25	2.49	2.78	3.39	4.89	4.40	3.66	3.02	2.81	2.83	3.16	3.74	6.05	4.98	3.86	3.30	7.22	7.31	7.55	7.62	7.80	5.28	5.11	8.82	8.70	5.69	5.55	6.73	3.10	3.64	3.90	6.72	6.85	9.30	10.19	11.52	8.66	6.03	6.04	5.81	5.25	5.07	4.97	4.63	3.98	3.54	3.31	2.86	3.67	3.51	3.54	3.57	3.54	3.56	3.72	3.90	3.96	4.01	4.13	4.09	3.90	3.79	3.82	3.76	3.59	3.66	3.78	3.68	3.32	2.64	2.33	2.67	2.99	3.03	3.11	3.31	3.49	3.53	4.09	4.78	4.54	4.23	4.19	3.83	1.90	1.64	3.22	3.10	3.04	3.02	2.95	2.91	3.01	3.34	3.80	4.04	3.82	3.26	2.84	2.81	3.03	3.18	3.27	3.45	3.46	3.19	3.01	3.02	3.07	3.10	3.08	3.03	3.04	3.06	3.11	3.28	3.49	3.54	3.50	3.50	
3.97	3.97	3.97	3.96	3.95	3.93	3.91	3.88	3.84	3.80	3.73	3.64	3.57	3.49	3.36	3.22	3.05	2.86	2.62	2.35	2.03	1.70	1.46	1.75	1.57	6.27	9.03	8.96	9.00	9.36	9.66	9.85	9.05	8.73	9.17	9.61	7.41	7.70	7.78	7.09	11.04	4.53	6.83	3.13	3.84	4.97	5.36	5.12	4.95	4.29	4.27	3.90	3.57	3.28	2.96	2.87	4.06	2.76	2.95	2.09	2.38	3.10	4.98	5.17	3.50	2.84	5.81	2.86	3.20	3.73	6.33	4.96	3.81	3.12	6.79	6.96	7.34	6.19	3.82	5.48	5.33	9.04	8.49	4.77	3.45	6.38	2.84	3.23	3.95	4.01	7.27	7.45	9.59	10.49	12.16	8.85	6.05	6.17	4.56	3.63	3.06	2.59	2.20	2.06	1.88	3.04	4.13	3.99	3.88	3.81	3.69	3.65	3.88	4.07	3.72	3.95	4.18	4.36	4.32	4.11	3.96	3.89	3.79	3.94	4.20	4.10	3.58	2.63	2.12	2.53	2.88	2.87	2.93	3.09	2.28	3.38	3.69	4.20	4.20	4.01	3.18	2.40	1.66	1.75	2.96	2.93	2.99	3.03	3.00	2.93	2.80	2.86	3.31	3.79	3.91	3.54	2.98	2.80	2.93	3.01	3.05	3.27	3.38	3.19	3.00	2.95	2.97	3.00	3.00	2.95	2.92	2.94	2.98	3.08	3.27	3.42	3.46	3.46	
3.98	3.98	3.97	3.96	3.95	3.93	3.91	3.89	3.85	3.80	3.73	3.65	3.57	3.49	3.37	3.23	3.07	2.88	2.66	2.39	2.07	1.70	1.35	1.12	1.05	4.46	8.32	8.79	8.68	9.10	9.32	9.12	8.23	6.54	6.77	6.90	6.89	6.99	7.15	10.32	10.31	10.71	6.85	4.35	6.54	6.08	5.66	8.80	5.81	4.72	4.28	3.98	3.82	3.82	3.31	2.61	2.21	3.71	1.89	1.69	2.02	2.77	3.67	5.53	3.54	2.78	5.51	2.63	3.09	3.63	6.55	5.11	3.85	3.15	6.61	6.71	6.55	3.62	3.80	4.01	5.51	8.85	8.15	4.54	3.28	5.53	2.72	3.03	3.42	4.22	4.28	7.72	9.04	9.54	10.35	12.10	10.45	5.82	6.12	4.66	3.09	2.69	2.26	2.11	3.64	4.52	4.43	4.40	4.31	4.14	3.91	3.84	4.04	4.19	3.92	4.01	4.17	4.40	4.04	3.83	3.57	4.13	4.14	4.35	4.64	4.58	3.92	2.76	2.08	2.42	2.81	2.86	2.86	2.87	3.00	3.21	3.46	3.83	4.03	4.02	2.70	2.50	2.81	1.62	2.70	2.75	2.90	3.01	3.05	3.03	2.77	2.50	2.78	3.32	3.70	3.61	3.11	2.83	2.89	2.94	2.93	3.09	3.22	3.14	2.98	2.90	2.86	2.85	2.86	2.84	2.79	2.79	2.86	2.96	3.10	3.25	3.32	3.32	
3.98	3.98	3.97	3.96	3.95	3.93	3.92	3.89	3.85	3.80	3.74	3.66	3.57	3.49	3.38	3.24	3.09	2.91	2.70	2.44	2.14	1.78	1.37	0.93	0.99	1.74	6.93	8.67	8.77	9.04	8.99	8.12	6.75	6.61	6.73	6.83	6.86	5.17	9.39	9.69	9.70	9.74	9.86	5.66	6.33	6.05	5.79	8.21	7.97	6.09	4.73	3.96	3.52	3.42	3.46	3.10	2.25	2.02	2.74	1.34	1.64	2.36	3.19	3.76	3.57	2.93	5.43	2.48	2.97	3.57	6.66	4.49	3.85	3.24	3.07	7.09	3.46	3.67	3.86	4.13	5.63	6.01	7.39	4.69	3.03	2.29	2.29	2.65	3.14	4.45	4.41	7.86	8.77	9.38	9.57	10.60	12.51	8.78	6.40	4.96	3.71	2.96	2.59	4.41	4.10	3.83	4.61	4.63	4.60	3.14	2.55	4.08	2.17	4.27	4.32	4.29	4.23	4.21	4.11	3.88	3.64	3.53	3.84	4.30	4.52	4.55	4.45	3.17	2.23	2.36	2.77	2.99	2.95	2.61	2.48	2.86	3.32	3.63	3.91	4.09	2.09	2.75	1.88	1.44	2.49	2.61	2.79	2.96	3.10	3.18	2.88	2.35	2.37	2.82	3.31	3.49	3.13	2.78	2.81	2.90	2.89	2.97	3.05	3.02	2.91	2.81	2.69	2.59	2.57	2.55	2.49	2.46	2.53	2.67	2.84	3.03	3.14	3.14	
3.98	3.98	3.98	3.96	3.95	3.94	3.92	3.90	3.86	3.81	3.75	3.67	3.58	3.50	3.41	3.27	3.12	2.95	2.75	2.50	2.22	1.88	1.49	1.19	1.18	1.15	4.94	8.57	8.72	8.85	8.73	6.93	4.80	4.60	4.47	4.41	4.53	8.35	8.86	9.26	9.40	9.33	5.03	4.97	5.87	5.86	5.96	6.24	8.40	8.01	5.47	4.14	3.28	2.78	2.63	2.59	2.16	2.41	1.77	1.24	1.38	1.96	2.57	3.09	3.20	2.71	2.31	2.41	2.88	3.51	6.80	4.51	4.00	3.37	3.06	3.54	3.30	3.63	3.92	4.26	5.67	6.15	6.17	4.84	3.05	2.09	5.77	2.18	2.81	3.26	4.62	7.62	8.35	8.74	8.71	9.68	11.26	11.37	8.98	5.79	4.91	3.75	2.98	4.97	4.69	4.27	4.14	4.09	3.86	3.40	2.71	2.29	2.18	4.31	4.45	4.62	4.68	4.64	4.37	4.04	3.78	3.87	4.34	4.63	4.77	4.82	4.50	3.58	2.78	2.50	2.84	3.24	3.28	2.67	2.14	2.40	2.94	3.25	3.44	2.13	3.58	2.91	2.12	2.44	2.35	2.46	2.62	2.79	3.04	3.25	3.02	2.41	2.22	2.47	2.93	3.28	3.10	2.70	2.63	2.68	2.71	2.83	2.87	2.81	2.75	2.71	2.53	2.34	2.28	2.20	2.07	1.97	1.95	2.08	2.27	2.58	2.79	2.79	
3.99	3.98	3.98	3.97	3.95	3.95	3.93	3.90	3.87	3.82	3.76	3.68	3.60	3.52	3.43	3.31	3.17	3.00	2.81	2.58	2.32	1.99	1.65	1.36	1.27	1.18	4.93	8.44	8.47	8.66	8.23	4.97	4.60	4.57	4.30	4.24	7.90	8.42	8.76	8.99	9.08	8.81	4.81	4.76	4.61	4.49	4.56	6.58	7.17	9.05	7.04	4.92	3.99	4.46	3.41	3.63	3.19	2.69	2.09	1.44	1.32	1.64	1.97	2.33	2.59	2.31	1.97	2.12	2.64	3.34	6.64	4.48	4.15	3.50	3.12	3.05	3.24	3.57	3.92	5.87	5.81	9.03	6.37	4.57	3.27	2.29	4.57	1.94	2.48	2.99	4.84	7.33	7.50	8.07	8.12	9.05	10.22	11.17	12.46	9.30	6.95	5.57	6.22	5.58	5.23	4.79	4.60	4.35	4.03	2.15	1.97	2.59	2.49	4.37	4.46	4.65	3.24	2.92	2.52	2.22	2.18	4.21	4.75	5.03	5.09	5.12	3.83	4.64	3.05	2.44	2.51	2.74	2.86	2.56	2.62	2.45	2.90	3.24	1.25	1.16	1.87	3.29	2.43	2.54	2.33	2.35	2.45	2.63	2.93	3.20	3.02	2.45	2.13	2.23	2.63	3.00	2.98	2.73	2.59	2.47	2.46	2.68	2.78	2.64	2.59	2.62	2.45	2.25	2.19	2.08	1.86	1.69	1.52	1.47	1.64	2.07	2.37	2.37	
4.00	3.99	3.98	3.98	3.96	3.95	3.93	3.91	3.88	3.83	3.77	3.70	3.62	3.54	3.46	3.35	3.21	3.06	2.87	2.66	2.42	2.12	1.77	1.43	1.26	1.16	5.02	6.39	8.35	8.39	5.44	4.76	4.01	3.92	4.07	4.23	8.06	8.39	5.38	5.02	8.92	4.69	4.54	4.40	6.65	4.00	4.09	4.48	5.06	7.89	9.46	7.05	5.11	5.42	4.18	4.14	3.63	3.15	2.55	1.92	1.56	1.60	1.63	1.67	1.86	1.78	1.68	1.79	2.26	3.24	3.93	6.39	4.03	3.39	4.24	3.15	3.29	3.48	3.80	6.03	6.00	9.56	6.57	4.81	3.67	2.61	1.97	1.84	2.09	2.58	4.83	6.91	7.45	5.84	7.61	8.73	9.72	10.64	11.80	13.22	9.36	7.44	6.29	6.57	5.92	5.50	3.11	2.12	1.76	1.83	1.87	2.97	3.04	4.57	4.59	3.35	3.35	3.04	2.61	2.24	2.30	4.39	4.89	3.84	4.03	4.00	3.90	3.90	3.79	3.49	3.35	3.32	3.20	3.05	2.59	1.56	1.37	1.24	0.98	1.46	2.23	2.46	2.89	2.11	2.48	2.28	2.29	2.50	2.90	3.19	2.97	2.39	2.05	2.16	2.56	2.75	2.71	2.70	2.68	2.54	3.90	2.67	2.82	2.64	2.54	2.54	2.38	2.29	2.23	2.06	1.81	1.65	1.32	0.87	0.85	1.72	2.23	2.23	
4.01	4.00	3.99	3.98	3.97	3.96	3.94	3.92	3.88	3.84	3.79	3.72	3.64	3.56	3.48	3.38	3.26	3.11	2.94	2.74	2.51	2.23	1.89	1.50	1.22	1.17	5.08	6.59	8.14	7.95	5.42	4.55	3.92	3.75	3.93	6.34	4.43	4.58	4.99	5.28	8.94	4.74	6.12	5.69	5.80	3.53	3.64	4.08	4.52	5.23	8.62	9.60	6.44	4.83	5.30	4.08	4.15	3.63	3.08	2.47	2.09	1.87	1.69	1.51	1.32	1.07	1.12	1.39	1.78	3.08	3.82	6.60	3.95	3.41	3.13	3.24	3.42	3.54	3.75	6.13	8.25	9.70	7.45	5.28	4.33	3.10	2.13	1.68	1.79	2.19	2.75	5.67	7.10	5.91	7.52	8.41	9.06	9.84	10.90	11.82	12.81	9.11	7.75	7.01	6.17	5.14	3.74	2.51	1.97	1.79	1.81	3.36	3.62	4.03	3.95	3.56	3.32	2.45	2.94	2.90	2.84	3.29	3.65	3.77	3.80	3.92	3.88	5.37	3.95	3.58	3.64	3.78	3.50	2.91	2.75	2.19	2.01	1.91	1.77	2.11	3.60	3.68	3.24	2.55	2.79	2.32	2.10	2.29	2.83	3.25	2.99	2.32	2.04	2.36	2.77	2.68	2.44	2.53	2.76	2.75	2.61	2.73	2.86	2.73	2.61	2.47	2.34	2.40	2.39	2.17	2.00	1.94	1.60	0.97	0.56	1.43	2.30	2.30	
4.00	4.01	4.00	3.99	3.98	3.96	3.95	3.93	3.90	3.85	3.80	3.74	3.67	3.59	3.50	3.41	3.30	3.17	3.00	2.81	2.60	2.33	1.98	1.56	1.11	1.08	5.00	6.69	6.56	6.14	4.96	4.43	3.94	3.84	6.62	4.29	4.51	4.71	5.14	5.55	5.40	5.18	3.87	4.42	4.98	2.90	3.11	3.49	4.01	4.99	5.63	9.34	9.34	5.78	6.68	5.35	4.11	4.20	3.64	3.11	2.68	2.34	2.06	1.77	1.35	0.84	0.62	0.79	1.21	1.90	2.86	4.35	3.85	3.52	3.26	3.25	3.45	3.67	3.83	6.54	8.43	8.92	8.18	6.05	5.07	3.73	2.51	1.65	1.53	1.91	2.64	3.09	3.26	5.99	6.21	7.96	8.40	8.82	9.67	10.55	11.43	12.31	12.61	7.24	7.15	5.36	4.46	3.24	2.49	2.24	2.35	3.98	4.29	4.48	3.23	2.57	2.36	2.38	2.61	2.64	3.04	3.49	3.77	3.81	3.76	3.93	6.36	4.13	4.26	3.96	3.89	3.78	3.96	3.98	3.71	3.47	3.41	3.13	4.15	3.63	3.69	3.81	3.80	3.45	3.02	2.53	2.14	2.20	2.82	3.26	2.98	2.25	2.03	2.63	3.04	2.66	2.22	2.37	2.85	2.99	2.81	2.96	3.69	3.48	2.88	2.64	2.34	2.25	2.32	2.36	4.20	2.78	2.55	2.16	2.19	3.72	4.38	4.38	
4.02	4.01	4.00	3.99	3.98	3.97	3.96	3.94	3.91	3.87	3.82	3.77	3.70	3.62	3.53	3.45	3.36	3.23	3.07	2.89	2.69	2.44	2.12	1.67	1.10	1.04	2.73	6.66	6.95	6.19	4.84	4.15	3.78	3.89	4.14	4.39	4.63	4.89	5.65	5.70	5.92	5.81	4.85	3.68	3.37	4.49	2.36	2.85	3.42	4.05	5.38	6.10	9.61	10.50	5.21	6.65	5.31	4.07	4.34	3.82	3.35	2.93	2.58	2.20	1.79	1.34	0.82	0.55	0.65	1.24	2.17	4.18	3.49	3.34	3.21	3.20	3.30	3.56	6.80	8.05	8.28	8.30	8.60	7.28	5.16	4.51	3.12	1.82	2.16	1.47	2.13	2.85	3.18	6.39	6.62	7.76	8.16	8.29	8.69	9.39	10.30	11.23	11.20	11.57	12.39	5.30	5.55	4.53	3.50	3.14	3.06	4.65	4.99	3.89	3.04	2.61	2.71	2.75	2.70	2.61	2.71	3.58	3.41	3.53	3.45	4.30	3.62	5.48	6.23	6.70	6.47	6.67	6.49	5.45	4.82	4.43	4.87	4.79	4.52	4.05	3.60	3.46	3.53	3.51	3.28	2.87	2.38	2.35	2.87	3.16	2.86	2.31	4.72	2.95	3.22	2.68	4.94	3.52	2.82	3.15	5.49	3.17	3.03	3.27	3.40	2.48	1.71	0.31	1.66	2.56	2.37	2.86	2.69	2.30	2.40	3.44	5.12	5.12	
4.03	4.02	4.01	4.00	3.99	3.98	3.97	3.94	3.91	3.88	3.83	3.79	3.73	3.65	3.56	3.49	3.41	3.30	3.15	2.98	2.79	2.56	2.26	1.84	1.29	1.12	2.36	3.98	6.93	5.15	4.91	4.14	3.70	3.80	4.02	4.29	4.60	5.70	5.68	5.72	6.19	6.34	5.31	4.09	3.27	2.41	3.05	2.09	2.67	3.31	3.99	5.77	6.44	7.02	10.64	5.32	6.63	5.42	4.21	3.36	4.11	3.69	3.35	2.84	2.38	1.96	1.53	0.99	0.59	0.76	1.46	2.50	4.17	3.03	3.03	3.15	3.69	6.70	7.29	7.55	7.33	7.68	8.30	8.68	6.41	5.42	4.10	2.54	1.49	1.31	1.62	2.35	3.24	6.52	6.78	7.02	8.14	6.78	7.97	8.69	9.76	9.84	9.90	10.39	11.19	12.46	5.33	5.54	5.09	4.85	4.30	4.20	4.56	3.81	2.98	2.74	2.97	3.01	3.03	2.96	2.88	2.59	1.97	3.71	5.71	6.32	6.48	6.54	5.83	5.68	5.47	5.85	6.44	6.66	6.12	5.27	4.78	4.68	4.54	4.18	3.74	3.38	3.38	3.63	3.60	3.19	2.74	2.67	2.88	2.77	2.57	5.36	4.88	3.47	3.35	2.85	4.43	0.83	2.12	3.29	3.18	3.49	3.47	3.24	3.07	2.93	2.59	1.95	2.10	2.27	1.64	4.79	5.82	5.54	4.82	3.79	3.48	3.48	
4.03	4.03	4.02	4.01	4.00	3.99	3.97	3.95	3.92	3.90	3.85	3.81	3.77	3.69	3.59	3.53	3.46	3.35	3.21	3.07	2.89	2.68	2.39	2.03	1.55	1.17	1.58	3.67	4.69	4.95	4.85	4.20	3.66	3.62	3.76	4.01	4.38	5.72	5.67	8.76	9.20	6.74	5.71	4.47	3.68	2.87	2.07	3.53	2.05	2.71	3.34	4.01	6.02	6.58	7.21	10.29	6.43	4.85	5.61	4.61	3.86	4.77	4.41	4.03	3.45	2.95	2.50	2.01	1.35	0.94	1.11	1.96	2.69	2.90	2.93	3.96	3.87	7.05	7.19	6.73	6.70	7.00	7.40	8.05	7.96	6.26	5.20	3.78	2.35	1.69	1.67	2.08	3.61	3.83	3.73	7.24	7.11	6.34	5.91	8.76	9.16	8.84	9.32	9.94	10.41	11.18	11.74	7.94	4.66	4.68	4.62	5.34	5.62	4.45	4.08	3.71	3.45	3.34	3.36	2.93	2.43	2.83	4.78	5.72	6.51	5.93	6.40	6.16	5.29	4.68	4.61	5.09	5.90	6.56	6.52	5.73	4.83	4.50	4.52	4.34	3.85	3.20	3.22	3.97	4.35	5.87	5.54	5.21	3.26	2.74	1.36	2.70	3.12	3.40	3.24	2.88	2.36	1.84	2.69	3.04	2.48	6.43	7.83	7.78	7.69	7.53	7.47	7.01	5.84	5.20	5.04	5.44	5.83	5.59	4.97	4.01	3.43	3.43	
4.04	4.04	4.03	4.02	4.01	4.00	3.98	3.96	3.94	3.91	3.88	3.83	3.79	3.72	3.62	3.56	3.50	3.40	3.27	3.14	2.97	2.78	2.53	2.22	1.79	1.29	1.59	3.59	4.45	4.69	4.58	4.03	3.86	3.57	3.70	3.89	4.22	5.58	5.56	9.19	10.28	5.39	6.20	4.54	3.92	3.19	2.45	1.80	1.69	2.14	2.75	3.37	4.04	6.20	6.69	9.74	9.80	8.62	6.17	5.00	5.05	4.29	3.80	3.61	4.65	4.04	3.36	3.14	2.46	1.66	1.31	1.56	2.20	2.59	2.75	4.12	4.08	6.71	6.70	6.66	6.69	6.92	7.30	7.85	8.28	7.73	6.49	4.62	3.36	2.28	1.97	2.11	2.78	3.20	3.96	3.81	6.35	6.01	8.14	8.68	8.01	8.08	8.77	9.35	9.80	10.33	10.61	10.51	10.31	9.97	9.82	10.97	5.30	4.52	4.40	4.55	4.48	4.06	3.34	2.80	4.12	4.77	4.59	4.71	4.45	5.02	5.92	6.26	5.72	4.62	4.03	4.26	5.21	6.23	6.70	6.39	5.51	5.21	5.34	5.03	4.39	3.33	1.74	3.53	4.57	4.25	3.89	3.33	3.19	2.70	1.79	2.88	2.70	6.88	8.57	8.54	8.58	7.99	6.67	6.06	6.02	6.84	7.63	7.72	7.62	7.50	7.35	6.88	6.08	5.58	5.25	4.83	4.59	4.39	4.03	3.49	3.18	3.18	
4.06	4.05	4.04	4.03	4.02	4.00	3.99	3.97	3.95	3.92	3.89	3.85	3.82	3.75	3.66	3.59	3.54	3.45	3.34	3.22	3.07	2.89	2.67	2.40	2.01	1.51	1.69	3.19	4.27	4.41	4.31	3.89	3.66	3.66	3.76	3.91	4.16	5.45	8.53	9.23	9.97	6.75	6.65	5.26	4.46	3.63	2.89	2.12	3.17	1.64	2.12	2.71	3.36	4.06	6.31	8.56	9.19	9.08	8.68	7.83	7.04	6.41	5.88	5.48	5.50	5.22	4.17	3.71	3.36	2.59	1.80	1.59	1.79	2.14	2.47	4.26	4.29	4.23	4.26	4.30	4.31	4.40	4.55	7.36	7.48	7.53	5.53	5.10	3.86	2.67	2.13	2.15	2.64	4.03	3.93	3.60	6.61	7.82	8.04	6.12	7.54	7.95	8.42	8.88	9.26	9.52	9.60	9.40	9.19	9.31	9.67	10.03	10.36	10.27	9.87	8.48	5.11	4.41	5.36	5.49	5.17	4.94	4.61	4.61	4.27	4.39	5.09	6.08	6.17	5.09	3.90	3.55	4.40	5.47	6.31	6.79	6.16	5.67	5.53	4.91	4.18	3.24	2.01	3.65	3.57	4.91	8.04	8.86	8.93	8.94	8.12	6.72	6.41	7.43	8.31	8.44	8.32	7.77	6.89	6.42	6.12	5.79	5.82	5.92	5.89	5.80	5.62	5.38	5.16	4.86	4.63	4.47	4.26	4.04	3.78	3.48	3.32	3.32	
4.07	4.06	4.05	4.04	4.03	4.01	4.00	3.99	3.96	3.94	3.91	3.88	3.84	3.79	3.70	3.63	3.58	3.51	3.40	3.30	3.17	3.01	2.82	2.58	2.24	1.79	1.85	2.92	3.72	3.98	3.93	3.69	3.65	3.72	3.76	3.89	5.67	7.93	8.71	9.35	9.37	8.73	6.08	6.14	4.72	4.29	3.52	2.72	1.90	3.58	1.67	2.20	2.79	3.44	4.14	6.71	8.26	8.25	8.05	7.82	7.71	7.37	6.36	5.74	5.48	5.43	4.26	4.06	3.86	3.10	2.32	1.86	1.77	1.98	2.32	4.36	4.52	4.49	4.26	4.21	4.22	4.38	4.50	4.72	4.81	4.91	5.25	5.25	4.17	2.83	2.17	2.12	2.35	3.95	4.00	6.51	6.97	6.93	6.16	6.20	6.52	6.71	8.47	8.76	9.00	8.88	8.80	8.59	8.39	8.58	8.95	9.22	9.34	9.46	9.52	9.69	9.99	9.53	8.22	7.11	6.01	5.52	5.22	5.82	5.49	5.34	5.30	5.98	6.57	6.18	4.88	3.84	4.24	4.96	5.68	6.46	5.94	5.70	7.20	7.72	8.14	8.55	8.26	7.32	6.92	7.40	8.34	8.90	8.99	8.82	8.08	7.12	6.55	6.22	6.22	6.32	6.20	5.99	5.80	5.54	5.37	5.33	5.27	5.26	5.26	5.18	5.07	4.94	4.77	4.60	4.44	4.28	4.14	3.96	3.75	3.53	3.41	3.41	
4.07	4.07	4.06	4.05	4.04	4.02	4.01	4.00	3.98	3.95	3.93	3.90	3.86	3.81	3.73	3.66	3.61	3.55	3.46	3.36	3.24	3.11	2.95	2.74	2.47	2.09	2.07	2.77	3.42	3.64	3.59	3.47	3.58	3.72	5.77	5.81	5.75	8.11	8.66	8.96	9.11	9.26	8.73	6.26	5.79	4.41	4.22	3.45	2.58	1.82	1.74	1.86	2.53	3.10	3.69	6.62	7.00	6.89	6.84	6.74	6.87	6.96	6.63	5.95	5.37	4.29	4.01	3.86	3.39	3.16	2.57	1.93	1.72	1.91	2.18	2.50	4.53	4.71	4.49	4.33	4.33	4.45	4.60	4.79	4.83	4.73	4.99	5.14	4.32	2.96	2.08	1.95	2.10	2.51	4.04	3.89	7.29	3.98	4.12	4.19	7.07	8.11	8.25	8.44	8.66	8.41	8.37	8.11	7.88	8.03	8.44	8.78	8.87	8.91	8.91	8.96	9.39	9.89	9.65	8.88	7.58	7.22	7.29	6.97	6.87	6.48	6.28	6.27	6.74	7.02	6.89	6.56	6.45	6.66	6.96	7.29	7.34	7.35	7.61	7.97	8.43	8.69	8.37	7.68	7.24	6.94	6.71	6.69	6.69	6.52	6.28	6.02	5.75	5.65	5.60	5.55	5.52	5.43	5.31	5.20	5.11	5.04	5.03	5.00	4.95	4.90	4.81	4.70	4.58	4.44	4.31	4.19	4.06	3.93	3.78	3.62	3.54	3.54	
4.08	4.07	4.06	4.05	4.04	4.03	4.02	4.01	3.98	3.96	3.94	3.92	3.88	3.85	3.78	3.70	3.65	3.59	3.53	3.44	3.33	3.21	3.07	2.88	2.65	2.35	2.28	2.72	3.23	3.52	3.54	3.44	3.55	3.67	6.09	6.10	6.13	7.88	8.08	8.26	8.52	8.88	9.20	8.74	6.27	5.32	5.03	4.09	3.19	2.31	1.56	1.52	2.12	2.83	3.38	3.94	6.95	6.87	6.80	6.54	6.47	6.44	6.16	5.10	4.80	4.30	3.87	3.34	3.12	3.00	2.63	1.99	1.66	1.81	2.02	2.26	2.65	3.15	3.33	3.26	3.16	3.10	3.25	3.56	3.82	3.80	3.79	4.23	4.20	3.05	2.00	1.72	1.88	2.24	3.93	4.04	3.97	4.08	4.13	4.04	7.32	7.86	8.43	8.42	8.43	8.09	7.96	7.85	7.86	8.03	8.49	8.89	8.99	7.46	6.86	6.83	6.80	7.30	8.02	8.59	9.07	8.38	7.11	6.70	6.15	6.15	6.40	6.39	6.54	6.79	7.02	7.08	7.06	7.11	7.14	7.17	7.17	6.97	6.70	6.60	6.65	6.63	6.53	6.38	6.16	6.03	5.98	5.92	5.85	5.78	5.66	5.53	5.42	5.33	5.29	5.26	5.20	5.13	5.05	4.98	4.91	4.86	4.81	4.77	4.73	4.67	4.60	4.53	4.45	4.35	4.24	4.14	4.04	3.93	3.82	3.69	3.63	3.63	
4.10	4.09	4.08	4.07	4.05	4.04	4.03	4.02	4.00	3.98	3.96	3.94	3.90	3.87	3.82	3.75	3.69	3.63	3.58	3.51	3.41	3.30	3.18	3.03	2.83	2.55	2.39	2.62	3.06	3.46	3.57	3.59	3.49	3.55	6.42	6.27	6.19	6.13	7.56	7.56	7.84	8.35	8.80	8.90	7.92	6.36	5.05	4.97	3.86	2.90	1.98	1.77	1.63	2.39	3.05	3.82	4.35	4.83	6.74	5.16	5.07	5.00	5.07	5.09	4.85	4.30	3.73	3.20	2.94	2.85	2.69	2.24	1.84	1.80	1.90	2.08	2.42	2.88	3.12	3.15	3.05	2.91	3.09	3.43	3.70	3.74	3.56	3.71	3.90	3.18	2.08	1.69	1.82	2.10	3.98	4.11	3.62	3.72	4.25	6.90	6.54	7.69	8.58	8.69	8.79	6.38	6.08	6.05	5.97	5.98	5.37	6.12	6.46	6.00	4.15	4.23	3.93	3.26	4.00	4.89	5.76	6.41	6.36	6.15	5.86	5.71	5.90	6.03	6.11	6.17	6.21	6.20	6.15	6.11	6.08	6.08	6.09	6.10	6.09	6.05	6.00	5.96	5.89	5.79	5.71	5.63	5.59	5.57	5.53	5.44	5.35	5.26	5.17	5.11	5.05	5.01	4.97	4.93	4.88	4.83	4.78	4.74	4.71	4.67	4.63	4.57	4.51	4.44	4.37	4.29	4.20	4.11	4.02	3.93	3.85	3.76	3.71	3.71	
4.10	4.10	4.09	4.08	4.07	4.06	4.04	4.03	4.01	4.00	3.98	3.96	3.92	3.89	3.84	3.77	3.72	3.67	3.62	3.56	3.48	3.39	3.27	3.14	2.97	2.70	2.42	2.37	2.69	3.18	3.40	3.60	3.40	3.50	6.31	6.19	6.08	6.06	6.12	6.26	6.51	6.76	6.89	7.06	7.22	7.29	6.48	5.00	4.86	3.82	2.81	1.90	1.60	2.09	2.82	3.96	4.36	4.65	4.81	4.91	4.91	4.86	4.99	5.15	5.04	4.66	4.02	3.37	3.02	2.92	2.90	2.67	2.23	1.97	1.91	2.02	2.26	2.59	2.86	3.06	3.04	2.82	2.89	3.24	3.61	3.74	3.38	3.09	3.30	2.97	1.95	1.52	1.81	2.16	2.68	3.11	3.32	3.35	3.62	3.33	5.24	4.78	4.96	5.75	5.94	5.57	3.96	3.75	3.30	2.73	3.23	3.78	4.30	4.66	4.48	4.25	3.79	3.44	3.93	4.66	5.26	5.68	5.84	5.83	5.74	5.63	5.61	5.64	5.69	5.76	5.79	5.78	5.74	5.71	5.67	5.64	5.63	5.65	5.65	5.65	5.64	5.60	5.54	5.48	5.42	5.37	5.31	5.26	5.22	5.17	5.11	5.06	5.02	4.97	4.93	4.89	4.85	4.81	4.76	4.72	4.68	4.65	4.61	4.57	4.52	4.48	4.42	4.37	4.30	4.24	4.18	4.10	4.02	3.95	3.88	3.81	3.77	3.77	
4.10	4.11	4.10	4.08	4.08	4.07	4.05	4.04	4.02	4.01	3.99	3.97	3.95	3.92	3.88	3.82	3.77	3.72	3.67	3.62	3.55	3.47	3.37	3.26	3.10	2.85	2.44	2.10	2.21	2.73	3.13	3.64	3.56	3.62	3.56	3.50	3.63	3.76	6.12	6.28	6.47	6.59	6.71	6.91	7.26	7.51	7.26	6.26	5.03	4.83	3.90	2.85	1.97	1.98	2.59	3.39	4.44	4.28	4.65	4.41	4.40	4.36	4.35	4.49	4.73	4.74	4.32	3.69	3.31	3.24	3.29	3.17	2.72	2.26	2.09	2.12	2.26	2.40	2.54	2.88	3.16	2.97	2.78	3.05	3.60	3.93	3.56	2.96	2.61	2.33	1.77	1.39	1.72	2.36	2.78	2.96	3.12	3.19	3.04	3.22	3.35	2.68	2.82	3.42	4.01	4.44	4.25	3.81	3.22	2.90	3.29	3.76	4.12	4.41	4.45	4.32	4.15	4.04	4.16	4.49	4.82	5.06	5.25	5.35	5.37	5.38	5.38	5.41	5.44	5.46	5.48	5.47	5.46	5.44	5.42	5.40	5.38	5.37	5.37	5.36	5.34	5.32	5.29	5.24	5.21	5.18	5.15	5.10	5.06	5.02	4.97	4.92	4.88	4.85	4.81	4.77	4.74	4.70	4.67	4.64	4.60	4.57	4.54	4.50	4.46	4.42	4.38	4.33	4.27	4.21	4.16	4.10	4.03	3.97	3.91	3.85	3.82	3.82	
4.12	4.11	4.10	4.10	4.08	4.07	4.06	4.04	4.04	4.02	4.01	3.99	3.97	3.94	3.90	3.86	3.81	3.75	3.72	3.69	3.62	3.54	3.46	3.36	3.24	3.06	2.62	2.02	1.88	2.32	2.83	3.07	3.75	3.76	3.74	3.66	3.67	3.75	3.79	3.86	3.99	6.51	6.54	6.78	7.21	7.52	7.24	6.76	5.75	5.27	4.52	3.87	2.88	2.22	2.41	3.22	3.88	4.24	4.34	4.24	4.16	4.15	4.16	4.24	4.43	4.52	4.29	3.80	3.51	3.58	3.72	3.67	3.26	2.68	2.43	2.51	2.64	2.69	2.51	2.55	2.90	3.18	2.81	2.75	3.23	3.92	3.82	3.07	2.43	2.08	1.88	1.60	1.84	2.53	2.79	2.85	3.10	3.27	3.17	3.25	3.21	2.83	2.92	3.41	3.84	4.14	4.16	3.92	3.63	3.42	3.44	3.64	3.85	3.97	4.07	4.12	4.14	4.18	4.29	4.44	4.64	4.82	4.95	5.05	5.11	5.15	5.17	5.19	5.22	5.24	5.24	5.24	5.24	5.23	5.22	5.21	5.20	5.19	5.18	5.18	5.16	5.14	5.12	5.09	5.04	5.02	4.99	4.95	4.91	4.88	4.85	4.82	4.78	4.76	4.74	4.71	4.67	4.64	4.61	4.57	4.54	4.51	4.48	4.46	4.42	4.38	4.34	4.30	4.26	4.21	4.17	4.12	4.06	4.00	3.96	3.91	3.88	3.88	
4.13	4.12	4.11	4.11	4.09	4.08	4.07	4.06	4.05	4.03	4.02	4.01	3.99	3.96	3.93	3.89	3.84	3.79	3.75	3.73	3.69	3.61	3.53	3.45	3.37	3.28	2.96	2.21	1.74	2.02	2.48	2.84	3.12	3.28	3.36	3.76	3.72	3.80	3.86	3.94	4.08	4.25	4.42	4.59	4.82	5.27	5.60	5.59	5.49	5.20	4.76	4.31	3.71	2.86	2.56	3.12	3.82	4.22	4.29	4.13	4.00	3.87	3.80	3.91	4.17	4.28	4.04	3.60	3.34	3.46	3.74	3.91	3.76	3.11	2.63	2.71	2.76	2.65	2.33	2.20	2.94	3.25	3.04	2.79	2.75	3.53	3.87	3.57	3.20	2.79	2.53	2.29	2.27	2.62	2.85	2.90	3.04	3.20	3.25	3.25	3.23	3.18	3.24	3.42	3.60	3.71	3.75	3.73	3.67	3.62	3.62	3.69	3.79	3.90	3.98	4.04	4.12	4.19	4.28	4.40	4.52	4.65	4.77	4.85	4.91	4.96	4.99	5.02	5.04	5.06	5.07	5.07	5.07	5.07	5.06	5.06	5.06	5.05	5.04	5.03	5.01	5.00	4.97	4.95	4.92	4.89	4.88	4.86	4.83	4.80	4.77	4.75	4.72	4.69	4.66	4.63	4.61	4.57	4.55	4.53	4.50	4.48	4.46	4.43	4.40	4.36	4.33	4.29	4.25	4.21	4.17	4.13	4.09	4.03	3.99	3.95	3.94	3.94	
4.14	4.13	4.13	4.12	4.11	4.09	4.08	4.07	4.06	4.05	4.04	4.02	4.00	3.98	3.95	3.92	3.87	3.81	3.78	3.78	3.75	3.70	3.60	3.52	3.48	3.47	3.33	2.59	1.77	1.82	2.20	2.56	2.97	3.23	3.31	3.29	3.24	3.26	3.38	3.49	4.11	4.23	4.35	4.56	4.79	5.13	5.32	5.30	5.17	4.96	4.55	4.27	4.03	3.49	2.95	3.16	3.80	4.27	4.38	4.27	4.08	3.67	3.32	3.22	3.62	4.06	3.84	3.53	3.47	3.52	3.70	4.03	4.21	3.70	3.03	3.43	3.85	3.89	3.71	3.42	3.38	3.56	3.69	3.57	3.35	3.57	3.85	3.81	3.60	3.29	3.03	2.85	2.75	2.81	2.95	3.05	3.11	3.18	3.25	3.28	3.26	3.27	3.36	3.47	3.55	3.62	3.66	3.66	3.67	3.68	3.69	3.73	3.79	3.87	3.94	4.01	4.08	4.16	4.24	4.34	4.44	4.53	4.62	4.70	4.75	4.80	4.83	4.87	4.89	4.91	4.93	4.94	4.94	4.94	4.93	4.93	4.92	4.92	4.91	4.90	4.89	4.89	4.87	4.85	4.83	4.81	4.79	4.78	4.76	4.73	4.71	4.69	4.66	4.64	4.62	4.60	4.58	4.55	4.52	4.50	4.48	4.45	4.43	4.41	4.38	4.34	4.31	4.29	4.25	4.21	4.18	4.14	4.10	4.06	4.01	3.98	3.97	3.97	
4.15	4.14	4.13	4.12	4.12	4.10	4.09	4.08	4.07	4.06	4.04	4.03	4.01	3.99	3.97	3.94	3.90	3.84	3.81	3.82	3.81	3.80	3.71	3.62	3.59	3.64	3.70	3.07	1.95	1.81	2.14	2.38	2.77	3.13	3.26	3.22	3.18	3.19	3.27	3.38	3.54	3.62	3.71	3.96	4.32	4.72	4.93	4.95	5.00	4.88	4.51	4.22	4.07	3.72	3.17	3.05	3.60	4.24	4.45	4.55	4.49	3.86	3.25	2.90	3.26	3.98	3.89	4.01	4.46	4.46	4.42	4.64	4.90	3.78	3.37	4.04	4.27	4.38	4.27	4.01	3.76	3.78	3.89	3.87	3.73	3.63	3.64	3.60	3.46	3.30	3.17	3.08	3.04	3.06	3.09	3.15	3.21	3.25	3.28	3.33	3.36	3.34	3.38	3.49	3.56	3.60	3.63	3.65	3.66	3.69	3.72	3.75	3.80	3.86	3.91	3.98	4.05	4.12	4.19	4.27	4.36	4.44	4.52	4.59	4.63	4.67	4.72	4.74	4.78	4.80	4.81	4.82	4.83	4.83	4.83	4.83	4.83	4.83	4.83	4.82	4.80	4.80	4.79	4.78	4.77	4.76	4.74	4.72	4.72	4.70	4.66	4.65	4.64	4.61	4.58	4.57	4.55	4.53	4.50	4.48	4.46	4.43	4.40	4.38	4.36	4.33	4.29	4.27	4.25	4.21	4.18	4.15	4.12	4.08	4.04	4.01	4.00	4.00	
4.16	4.15	4.14	4.14	4.12	4.11	4.10	4.09	4.08	4.07	4.06	4.04	4.03	4.01	3.99	3.96	3.92	3.87	3.83	3.83	3.86	3.85	3.79	3.73	3.71	3.78	4.00	3.55	2.33	2.01	2.25	2.40	2.66	2.98	3.16	3.19	3.17	3.17	3.24	3.31	3.43	3.48	3.51	3.74	4.06	4.35	4.56	4.66	4.76	4.75	4.51	4.34	4.30	4.02	3.52	3.21	3.50	4.14	4.42	4.72	5.12	4.97	4.52	4.18	4.22	4.51	4.47	4.47	4.72	4.81	4.77	4.82	4.87	4.75	4.40	4.08	4.05	4.08	4.00	3.87	3.77	3.73	3.75	3.76	3.75	3.72	3.67	3.60	3.51	3.40	3.32	3.26	3.22	3.22	3.24	3.25	3.29	3.32	3.34	3.38	3.43	3.43	3.43	3.50	3.58	3.60	3.62	3.64	3.65	3.68	3.72	3.75	3.79	3.84	3.89	3.95	4.01	4.07	4.14	4.21	4.28	4.34	4.41	4.48	4.53	4.56	4.61	4.65	4.67	4.70	4.72	4.73	4.74	4.75	4.75	4.75	4.75	4.76	4.77	4.76	4.75	4.75	4.75	4.73	4.73	4.72	4.69	4.67	4.67	4.66	4.62	4.61	4.61	4.58	4.55	4.54	4.52	4.50	4.47	4.45	4.44	4.41	4.39	4.37	4.35	4.33	4.30	4.28	4.26	4.22	4.19	4.17	4.13	4.10	4.07	4.05	4.04	4.04	
4.17	4.16	4.15	4.15	4.14	4.13	4.11	4.11	4.09	4.08	4.07	4.06	4.04	4.03	4.00	3.98	3.95	3.90	3.86	3.86	3.91	3.88	3.82	3.80	3.80	3.88	4.16	3.99	3.00	2.41	2.47	2.60	2.73	2.92	3.10	3.17	3.19	3.20	3.25	3.25	3.28	3.39	3.45	3.61	3.88	4.06	4.21	4.34	4.46	4.54	4.46	4.41	4.53	4.52	4.34	4.17	4.18	4.41	4.59	4.81	5.18	5.30	5.05	4.74	4.58	4.58	4.51	4.38	4.39	4.46	4.49	4.50	4.45	4.32	4.18	4.06	4.02	4.02	3.97	3.86	3.78	3.76	3.75	3.75	3.73	3.71	3.69	3.65	3.57	3.50	3.45	3.41	3.38	3.36	3.36	3.35	3.36	3.38	3.40	3.42	3.46	3.49	3.48	3.49	3.55	3.60	3.60	3.63	3.65	3.67	3.70	3.73	3.77	3.82	3.86	3.91	3.96	4.02	4.07	4.14	4.21	4.27	4.32	4.38	4.44	4.48	4.52	4.56	4.59	4.61	4.64	4.66	4.67	4.69	4.70	4.70	4.70	4.71	4.71	4.71	4.71	4.70	4.71	4.69	4.68	4.67	4.65	4.63	4.63	4.63	4.60	4.57	4.57	4.56	4.53	4.51	4.51	4.49	4.46	4.44	4.43	4.42	4.40	4.38	4.35	4.33	4.30	4.28	4.26	4.23	4.20	4.18	4.16	4.12	4.10	4.07	4.06	4.06	
4.18	4.17	4.16	4.16	4.15	4.14	4.13	4.12	4.11	4.09	4.08	4.07	4.06	4.04	4.02	4.00	3.97	3.93	3.88	3.90	3.94	3.91	3.86	3.83	3.84	3.91	4.17	4.26	3.69	2.97	2.80	2.92	2.96	3.05	3.16	3.18	3.26	3.30	3.31	3.25	3.20	3.32	3.40	3.50	3.72	3.87	3.97	4.09	4.20	4.32	4.34	4.32	4.41	4.51	4.52	4.50	4.49	4.53	4.59	4.66	4.76	4.79	4.69	4.51	4.39	4.35	4.31	4.27	4.29	4.33	4.37	4.39	4.34	4.24	4.17	4.10	4.06	4.04	4.00	3.92	3.84	3.80	3.80	3.79	3.75	3.70	3.68	3.67	3.62	3.57	3.53	3.49	3.48	3.46	3.46	3.43	3.41	3.42	3.43	3.45	3.48	3.51	3.52	3.51	3.54	3.59	3.59	3.59	3.63	3.65	3.67	3.71	3.75	3.79	3.82	3.87	3.92	3.96	4.01	4.07	4.13	4.19	4.25	4.30	4.34	4.39	4.43	4.47	4.51	4.55	4.57	4.59	4.61	4.64	4.65	4.66	4.67	4.68	4.68	4.67	4.67	4.66	4.66	4.65	4.64	4.63	4.63	4.61	4.60	4.60	4.57	4.56	4.56	4.55	4.53	4.51	4.51	4.49	4.47	4.45	4.44	4.42	4.39	4.38	4.35	4.33	4.31	4.28	4.27	4.24	4.21	4.19	4.17	4.14	4.12	4.10	4.08	4.08	
4.19	4.18	4.18	4.17	4.16	4.15	4.14	4.13	4.12	4.11	4.10	4.08	4.07	4.06	4.04	4.02	3.99	3.95	3.89	3.90	3.94	3.92	3.89	3.88	3.87	3.91	4.07	4.29	4.17	3.70	3.41	3.40	3.34	3.33	3.35	3.32	3.38	3.42	3.40	3.35	3.28	3.32	3.39	3.44	3.56	3.68	3.77	3.86	3.97	4.07	4.14	4.16	4.17	4.20	4.24	4.25	4.26	4.31	4.39	4.49	4.57	4.60	4.59	4.52	4.43	4.38	4.34	4.30	4.29	4.31	4.32	4.34	4.33	4.27	4.22	4.18	4.12	4.10	4.06	4.02	3.96	3.89	3.86	3.86	3.84	3.77	3.72	3.69	3.66	3.63	3.59	3.55	3.53	3.52	3.51	3.49	3.46	3.45	3.44	3.46	3.48	3.50	3.52	3.52	3.52	3.56	3.59	3.58	3.60	3.63	3.64	3.67	3.70	3.74	3.77	3.81	3.85	3.90	3.95	4.00	4.05	4.11	4.16	4.22	4.27	4.32	4.36	4.41	4.45	4.49	4.52	4.55	4.57	4.59	4.61	4.62	4.63	4.64	4.65	4.65	4.65	4.65	4.65	4.65	4.64	4.63	4.62	4.61	4.59	4.59	4.57	4.56	4.55	4.55	4.53	4.51	4.50	4.49	4.46	4.45	4.43	4.41	4.40	4.38	4.37	4.34	4.32	4.30	4.28	4.26	4.24	4.21	4.19	4.17	4.14	4.13	4.11	4.11	
4.20	4.19	4.18	4.17	4.16	4.15	4.14	4.13	4.12	4.11	4.10	4.09	4.08	4.06	4.05	4.03	4.01	3.97	3.91	3.90	3.94	3.93	3.91	3.91	3.90	3.91	4.00	4.24	4.38	4.16	3.84	3.70	3.58	3.52	3.50	3.44	3.45	3.48	3.48	3.44	3.39	3.37	3.41	3.43	3.48	3.58	3.66	3.75	3.85	3.94	4.02	4.08	4.12	4.15	4.19	4.21	4.22	4.24	4.31	4.42	4.51	4.56	4.56	4.53	4.46	4.39	4.38	4.35	4.32	4.31	4.31	4.33	4.34	4.30	4.25	4.20	4.15	4.13	4.09	4.06	4.03	3.96	3.91	3.88	3.88	3.84	3.78	3.74	3.69	3.66	3.63	3.59	3.56	3.53	3.52	3.51	3.49	3.48	3.45	3.46	3.47	3.48	3.50	3.51	3.51	3.53	3.57	3.58	3.58	3.61	3.62	3.64	3.68	3.71	3.74	3.77	3.81	3.87	3.91	3.96	4.01	4.07	4.12	4.18	4.24	4.29	4.34	4.38	4.41	4.46	4.50	4.53	4.55	4.57	4.59	4.59	4.60	4.61	4.63	4.64	4.65	4.66	4.66	4.66	4.65	4.64	4.63	4.62	4.60	4.60	4.58	4.56	4.55	4.54	4.52	4.50	4.49	4.48	4.45	4.44	4.43	4.41	4.40	4.38	4.37	4.35	4.33	4.31	4.29	4.28	4.26	4.23	4.21	4.18	4.16	4.14	4.12	4.12	
