ncols	178
nrows	225
xllcorner	1669333.329241
yllcorner	496308.452995
cellsize	90.000000
NODATA_value	nan
3.42	3.45	3.51	3.59	3.69	3.82	3.99	4.20	4.45	4.73	5.04	5.32	5.49	5.49	5.33	5.08	4.78	4.49	4.17	4.05	4.30	2.85	2.36	1.99	1.69	1.54	1.38	1.21	0.45	0.16	0.38	2.57	2.15	2.45	2.45	2.49	2.57	2.74	2.93	3.09	3.25	3.41	3.58	3.71	3.78	3.84	3.90	3.92	3.90	3.87	3.85	3.80	3.73	3.68	3.65	3.58	3.79	4.25	3.22	2.80	2.47	2.28	2.26	2.27	2.20	2.19	2.21	2.10	1.97	1.91	1.80	1.63	1.49	1.33	1.04	0.85	0.71	0.57	2.57	2.59	2.60	2.61	2.61	2.62	2.70	2.81	2.91	3.01	3.09	3.16	3.22	3.26	3.28	3.30	3.32	3.33	3.34	3.35	3.36	3.37	3.38	3.39	3.40	3.41	3.41	3.41	3.42	3.38	3.35	3.34	3.32	3.32	3.32	3.33	3.34	3.36	3.38	3.39	3.40	3.42	3.43	3.45	3.48	3.51	3.54	3.57	3.60	3.63	3.66	3.70	3.75	3.79	3.85	3.91	4.00	4.10	4.23	4.40	4.57	4.74	4.87	5.00	5.12	5.21	5.30	5.42	5.54	5.63	5.69	5.74	5.81	5.84	5.85	5.84	5.80	5.74	5.69	5.63	5.56	5.48	5.42	5.37	5.36	5.39	5.34	5.23	5.05	4.84	4.60	4.36	4.17	4.00	3.86	3.81	3.62	9.15	3.48	3.48	
3.42	3.45	3.51	3.59	3.69	3.82	3.99	4.20	4.45	4.73	5.04	5.32	5.49	5.49	5.33	5.08	4.78	4.49	4.17	4.05	4.30	2.85	2.36	1.99	1.69	1.54	1.38	1.21	0.45	0.16	0.38	2.57	2.15	2.45	2.45	2.49	2.57	2.74	2.93	3.09	3.25	3.41	3.58	3.71	3.78	3.84	3.90	3.92	3.90	3.87	3.85	3.80	3.73	3.68	3.65	3.58	3.79	4.25	3.22	2.80	2.47	2.28	2.26	2.27	2.20	2.19	2.21	2.10	1.97	1.91	1.80	1.63	1.49	1.33	1.04	0.85	0.71	0.57	2.57	2.59	2.60	2.61	2.61	2.62	2.70	2.81	2.91	3.01	3.09	3.16	3.22	3.26	3.28	3.30	3.32	3.33	3.34	3.35	3.36	3.37	3.38	3.39	3.40	3.41	3.41	3.41	3.42	3.38	3.35	3.34	3.32	3.32	3.32	3.33	3.34	3.36	3.38	3.39	3.40	3.42	3.43	3.45	3.48	3.51	3.54	3.57	3.60	3.63	3.66	3.70	3.75	3.79	3.85	3.91	4.00	4.10	4.23	4.40	4.57	4.74	4.87	5.00	5.12	5.21	5.30	5.42	5.54	5.63	5.69	5.74	5.81	5.84	5.85	5.84	5.80	5.74	5.69	5.63	5.56	5.48	5.42	5.37	5.36	5.39	5.34	5.23	5.05	4.84	4.60	4.36	4.17	4.00	3.86	3.81	3.62	9.15	3.48	3.48	
3.38	3.41	3.46	3.53	3.62	3.73	3.86	4.04	4.24	4.46	4.70	4.93	5.07	5.04	5.28	4.95	4.60	4.32	4.04	3.97	2.01	2.69	2.53	2.25	2.04	1.88	1.66	1.49	0.68	0.71	2.40	2.27	1.88	2.29	2.33	2.41	2.50	2.68	2.87	3.04	3.19	3.32	3.45	3.58	3.65	3.70	3.75	3.80	3.79	3.78	3.76	3.73	3.69	3.65	3.63	3.47	3.60	2.87	2.86	2.75	2.46	2.24	2.16	2.08	1.89	1.78	1.80	1.69	1.54	1.55	1.51	1.36	1.27	0.79	0.64	0.64	0.64	2.41	2.42	2.47	2.51	2.54	2.55	2.57	2.67	2.78	2.88	2.98	3.07	3.14	3.20	3.24	3.27	3.29	3.31	3.32	3.33	3.34	3.35	3.36	3.37	3.38	3.39	3.39	3.39	3.40	3.42	3.39	3.36	3.34	3.32	3.31	3.32	3.32	3.33	3.34	3.36	3.37	3.39	3.41	3.43	3.44	3.46	3.49	3.52	3.55	3.58	3.61	3.64	3.68	3.72	3.77	3.81	3.87	3.95	4.03	4.14	4.27	4.41	4.56	4.68	4.79	4.90	4.99	5.06	5.15	5.24	5.34	5.41	5.67	5.64	5.61	5.59	5.56	5.50	5.45	5.39	5.32	5.27	5.55	5.42	5.30	5.18	5.10	5.04	4.96	4.84	4.68	4.51	4.33	4.19	4.04	3.90	3.87	3.79	3.61	3.56	3.56	
3.30	3.33	3.37	3.42	3.48	3.55	3.64	3.76	3.89	4.03	4.18	4.40	4.43	4.99	4.80	5.72	6.10	5.92	3.95	4.02	2.40	2.69	2.66	2.52	2.44	2.32	2.16	1.45	1.45	1.58	2.40	2.16	1.90	2.28	2.34	2.41	2.49	2.64	2.80	2.95	3.08	3.18	3.30	3.41	3.47	3.50	3.56	3.62	3.64	3.64	3.64	3.64	3.63	3.60	3.55	3.41	3.61	2.51	2.61	2.69	2.53	2.43	2.47	2.40	2.23	2.20	2.24	2.12	2.03	2.07	2.01	1.85	1.83	0.84	0.89	0.98	1.07	2.28	2.33	2.42	2.47	2.51	2.51	2.56	2.65	2.75	2.85	2.94	3.03	3.10	3.16	3.21	3.24	3.27	3.29	3.30	3.32	3.33	3.33	3.34	3.35	3.36	3.37	3.37	3.37	3.39	3.42	3.40	3.37	3.35	3.34	3.32	3.32	3.31	3.31	3.32	3.34	3.35	3.38	3.40	3.42	3.43	3.45	3.47	3.49	3.52	3.55	3.58	3.61	3.64	3.68	3.72	3.76	3.80	3.85	3.91	3.98	4.07	4.18	4.29	4.38	4.46	4.55	4.62	4.67	4.73	5.33	5.34	5.30	5.24	5.21	6.14	6.22	6.25	6.09	5.94	5.79	5.63	5.46	5.29	6.23	6.24	6.23	6.06	5.81	5.58	5.34	5.08	4.83	4.61	4.21	4.09	3.97	3.92	3.90	3.81	3.73	3.73	
3.23	3.25	3.29	3.33	3.37	3.42	3.48	3.56	3.65	3.76	3.89	4.05	4.09	4.70	5.42	5.92	6.21	6.51	5.53	4.29	2.46	2.65	2.71	2.67	2.62	2.52	2.41	1.76	1.81	2.00	2.53	2.22	2.40	2.38	2.41	2.44	2.52	2.65	2.77	2.89	2.99	3.09	3.21	3.32	3.37	3.42	3.49	3.54	3.58	3.61	3.90	3.83	3.78	3.68	3.51	3.49	0.68	2.37	2.51	2.62	2.57	2.57	2.64	2.56	2.46	2.49	2.48	2.36	2.34	2.37	2.27	2.16	1.13	1.16	1.22	1.29	1.37	2.29	2.36	2.43	2.48	2.51	2.50	2.56	2.65	2.74	2.83	2.92	3.00	3.07	3.13	3.18	3.22	3.25	3.27	3.29	3.30	3.31	3.32	3.33	3.34	3.35	3.36	3.36	3.36	3.40	3.42	3.39	3.37	3.36	3.34	3.32	3.31	3.31	3.30	3.31	3.32	3.33	3.35	3.38	3.39	3.41	3.43	3.45	3.47	3.49	3.51	3.54	3.57	3.60	3.64	3.67	3.70	3.73	3.77	3.81	3.87	3.95	4.04	4.13	4.20	4.27	4.34	4.39	4.43	5.12	5.12	5.10	5.04	5.94	6.04	6.12	6.19	6.17	6.28	6.34	6.40	6.41	6.42	6.41	6.41	6.44	6.45	6.38	6.34	6.36	6.35	6.54	6.62	4.61	4.45	4.15	4.01	3.86	3.89	3.92	3.89	3.89	
3.15	3.17	3.21	3.24	3.27	3.30	3.35	3.41	3.47	3.57	3.70	3.82	4.59	4.53	5.53	6.16	6.58	6.67	5.44	1.86	2.54	2.71	2.76	2.76	2.74	2.64	2.56	2.00	2.10	2.67	2.55	2.28	2.47	2.46	2.48	2.48	2.55	2.65	2.76	2.85	2.94	3.03	3.15	3.24	3.29	3.36	3.45	3.51	3.56	3.60	3.88	3.82	3.77	3.65	3.39	3.55	1.95	2.34	2.52	2.60	2.61	2.69	2.75	2.69	2.64	2.70	2.65	2.56	2.59	2.58	2.46	2.40	1.36	1.41	1.47	1.53	2.31	2.33	2.40	2.45	2.49	2.50	2.51	2.56	2.65	2.73	2.82	2.90	2.98	3.06	3.12	3.16	3.20	3.22	3.25	3.27	3.28	3.29	3.30	3.31	3.32	3.34	3.35	3.34	3.36	3.40	3.41	3.38	3.37	3.35	3.33	3.31	3.31	3.30	3.29	3.30	3.31	3.31	3.33	3.35	3.36	3.38	3.40	3.42	3.44	3.47	3.49	3.50	3.53	3.55	3.58	3.60	3.63	3.66	3.69	3.73	3.78	3.84	3.92	4.00	4.06	4.13	4.19	4.24	4.28	4.96	4.94	4.92	5.78	5.87	6.00	6.08	6.17	6.27	6.35	6.41	6.48	6.50	6.53	6.58	6.62	6.66	6.65	6.59	6.56	6.65	6.74	6.98	6.97	6.93	4.48	4.46	4.11	4.02	3.96	4.07	3.99	3.99	
3.07	3.09	3.13	3.15	3.17	3.20	3.24	3.29	3.34	3.43	3.57	3.69	4.43	4.40	5.72	6.30	6.71	6.84	4.36	2.23	2.62	2.78	2.82	2.84	2.81	2.72	2.67	2.19	2.33	2.73	2.51	2.31	2.53	2.52	2.53	2.54	2.59	2.67	2.75	2.83	2.91	3.00	3.12	3.19	3.24	3.32	3.41	3.49	3.55	3.91	3.85	3.81	3.75	3.64	3.39	3.69	2.04	2.34	2.55	2.61	2.66	2.79	2.83	2.78	2.80	2.84	2.79	2.73	2.76	2.70	2.58	2.56	1.56	1.60	1.66	1.72	2.32	2.37	2.44	2.47	2.50	2.49	2.51	2.57	2.65	2.73	2.81	2.89	2.97	3.04	3.10	3.15	3.18	3.21	3.23	3.25	3.26	3.28	3.29	3.30	3.31	3.33	3.33	3.34	3.37	3.40	3.40	3.38	3.36	3.34	3.33	3.31	3.30	3.29	3.28	3.28	3.29	3.30	3.31	3.33	3.34	3.36	3.38	3.40	3.41	3.44	3.46	3.48	3.50	3.52	3.53	3.55	3.56	3.58	3.61	3.64	3.69	3.75	3.83	3.89	3.95	4.02	4.08	4.12	4.85	4.81	4.80	4.77	5.68	5.81	5.96	6.03	6.16	6.30	6.40	6.46	6.54	6.61	6.64	6.70	6.78	6.83	6.80	6.81	6.78	6.97	7.15	7.23	7.17	7.05	6.62	4.58	4.32	8.22	4.11	4.17	4.11	4.11	
3.00	3.02	3.05	3.08	3.09	3.11	3.15	3.19	3.24	3.33	3.52	3.60	4.33	5.24	5.95	6.61	6.81	6.93	0.91	2.43	2.68	2.82	2.85	2.86	2.83	2.77	2.29	2.35	2.52	2.79	2.50	2.61	2.57	2.56	2.55	2.58	2.64	2.70	2.77	2.83	2.89	2.99	3.10	3.16	3.22	3.31	3.41	3.48	3.53	3.87	3.83	3.80	3.73	3.57	3.53	4.08	2.06	2.36	2.57	2.63	2.72	2.86	2.88	2.85	2.92	2.95	2.88	2.86	2.89	2.80	2.70	1.66	1.71	1.75	1.79	1.86	2.37	2.42	2.47	2.50	2.50	2.49	2.52	2.58	2.65	2.73	2.81	2.88	2.95	3.03	3.09	3.13	3.16	3.19	3.21	3.23	3.25	3.26	3.27	3.28	3.30	3.31	3.32	3.33	3.38	3.40	3.38	3.37	3.35	3.33	3.32	3.30	3.28	3.27	3.26	3.26	3.27	3.28	3.30	3.32	3.33	3.34	3.36	3.38	3.39	3.41	3.43	3.44	3.46	3.48	3.50	3.51	3.52	3.52	3.54	3.57	3.61	3.68	3.75	3.80	3.85	3.91	3.97	4.01	4.72	4.69	4.69	4.64	5.63	5.78	5.93	6.00	6.13	6.31	6.42	6.49	6.61	6.71	6.72	6.76	6.90	6.96	6.95	6.88	6.95	7.16	7.39	7.54	7.52	7.10	6.69	4.61	4.47	4.06	4.15	4.17	4.22	4.22	
2.94	2.95	2.99	3.00	3.02	3.03	3.07	3.11	3.16	3.27	3.42	3.53	4.26	5.42	6.21	6.76	6.92	6.46	1.96	2.53	2.74	2.83	2.87	2.87	2.84	2.82	2.38	2.49	2.92	2.76	2.51	2.62	2.59	2.58	2.56	2.60	2.65	2.72	2.79	2.84	2.90	3.00	3.09	3.14	3.21	3.31	3.41	3.49	3.89	3.85	3.82	3.79	3.72	3.46	3.62	1.26	2.16	2.42	2.58	2.66	2.80	2.92	2.92	2.92	3.01	3.01	2.95	2.99	2.99	2.88	2.81	1.78	1.81	1.86	1.90	2.40	2.41	2.47	2.50	2.51	2.50	2.50	2.54	2.60	2.66	2.73	2.81	2.87	2.94	3.02	3.08	3.12	3.15	3.17	3.20	3.21	3.23	3.24	3.25	3.27	3.28	3.30	3.30	3.32	3.38	3.39	3.37	3.36	3.34	3.33	3.31	3.29	3.27	3.25	3.25	3.25	3.26	3.27	3.29	3.31	3.32	3.33	3.34	3.36	3.37	3.39	3.41	3.41	3.42	3.44	3.46	3.47	3.48	3.48	3.49	3.51	3.55	3.61	3.67	3.71	3.76	3.81	3.85	3.89	4.60	4.58	4.57	5.48	5.60	5.77	5.89	5.98	6.15	6.33	6.43	6.53	6.67	6.75	6.75	6.88	7.04	7.12	7.02	6.93	7.09	7.47	7.66	7.71	7.62	7.13	6.73	4.56	4.54	4.29	4.31	4.21	4.25	4.25	
2.87	2.89	2.92	2.94	2.95	2.96	2.99	3.04	3.11	3.22	3.37	4.16	4.21	5.66	6.46	6.87	7.06	4.50	2.20	2.59	2.79	2.85	2.89	2.92	2.89	2.89	2.50	2.63	2.93	2.70	2.50	2.66	2.62	2.60	2.59	2.62	2.66	2.72	2.78	2.84	2.90	3.00	3.08	3.14	3.22	3.32	3.42	3.49	3.87	3.84	3.81	3.77	3.72	3.42	3.70	1.71	2.28	2.50	2.60	2.71	2.88	2.96	2.95	3.00	3.08	3.05	3.02	3.06	3.02	2.92	2.91	1.91	1.93	1.96	2.00	2.39	2.42	2.48	2.52	2.53	2.50	2.52	2.57	2.62	2.68	2.75	2.82	2.87	2.93	3.01	3.07	3.10	3.13	3.15	3.18	3.20	3.21	3.22	3.24	3.25	3.27	3.28	3.30	3.33	3.37	3.37	3.35	3.34	3.33	3.31	3.29	3.27	3.25	3.23	3.23	3.24	3.25	3.26	3.28	3.30	3.31	3.32	3.32	3.34	3.35	3.36	3.38	3.39	3.39	3.41	3.42	3.42	3.42	3.42	3.42	3.45	3.49	3.55	3.60	3.64	3.68	3.73	3.76	4.53	4.49	4.49	4.47	5.43	5.60	5.77	5.86	5.99	6.18	6.33	6.43	6.57	6.72	6.77	6.80	6.98	7.21	7.23	7.04	6.98	7.30	7.69	7.85	7.96	7.76	7.06	6.60	4.72	4.67	4.46	4.47	4.46	4.37	4.37	
2.81	2.83	2.86	2.88	2.89	2.91	2.94	2.99	3.07	3.25	3.34	4.10	5.10	5.94	6.69	6.99	7.13	1.42	2.37	2.67	2.83	2.89	2.93	2.96	2.93	2.52	2.59	2.74	2.96	2.66	2.75	2.69	2.65	2.61	2.62	2.65	2.69	2.75	2.79	2.83	2.91	3.00	3.06	3.13	3.22	3.33	3.42	3.48	3.85	3.82	3.80	3.76	3.68	3.52	3.96	1.88	2.31	2.54	2.64	2.77	2.93	2.98	2.99	3.08	3.12	3.07	3.09	3.12	3.04	2.96	1.97	2.02	2.05	2.07	2.11	2.42	2.45	2.48	2.52	2.51	2.49	2.52	2.58	2.64	2.70	2.77	2.83	2.88	2.94	3.01	3.06	3.09	3.11	3.14	3.16	3.18	3.19	3.21	3.22	3.24	3.26	3.26	3.28	3.33	3.35	3.34	3.33	3.32	3.31	3.30	3.27	3.24	3.22	3.21	3.22	3.23	3.24	3.25	3.27	3.29	3.31	3.31	3.31	3.32	3.33	3.34	3.35	3.35	3.36	3.36	3.36	3.35	3.34	3.34	3.35	3.38	3.43	3.49	3.54	3.59	3.63	3.68	3.71	4.44	4.41	4.41	4.37	5.40	5.61	5.76	5.83	6.00	6.20	6.32	6.46	6.63	6.76	6.78	6.87	7.12	7.33	7.26	7.01	7.01	7.44	7.85	7.89	7.97	7.87	6.91	7.19	5.00	4.86	4.52	4.73	4.77	4.58	4.58	
2.76	2.77	2.80	2.83	2.84	2.86	2.90	2.95	3.04	3.20	3.33	4.07	5.31	6.15	6.82	7.10	4.75	2.05	2.52	2.76	2.86	2.92	2.95	2.95	2.94	2.54	2.64	2.83	2.89	2.64	2.75	2.70	2.67	2.63	2.64	2.66	2.70	2.77	2.81	2.85	2.93	3.01	3.06	3.14	3.23	3.35	3.43	3.85	3.84	3.82	3.79	3.75	3.58	3.64	1.33	2.02	2.34	2.54	2.65	2.81	2.96	2.99	3.03	3.12	3.13	3.11	3.15	3.15	3.06	3.01	2.02	2.07	2.12	2.15	2.48	2.48	2.50	2.50	2.51	2.49	2.47	2.50	2.57	2.63	2.70	2.77	2.83	2.88	2.94	3.01	3.07	3.08	3.11	3.13	3.15	3.17	3.18	3.19	3.21	3.22	3.24	3.25	3.27	3.32	3.33	3.31	3.30	3.29	3.28	3.27	3.24	3.21	3.19	3.20	3.21	3.23	3.24	3.25	3.27	3.29	3.30	3.31	3.30	3.30	3.31	3.32	3.32	3.32	3.32	3.31	3.31	3.30	3.29	3.29	3.30	3.34	3.39	3.46	3.50	3.54	3.59	3.64	3.66	4.37	4.36	4.35	5.26	5.42	5.63	5.74	5.82	6.02	6.23	6.34	6.49	6.68	6.77	6.79	7.00	7.30	7.49	7.31	7.01	7.04	7.57	7.89	7.86	8.02	7.53	5.05	9.68	4.95	4.85	4.42	10.03	4.92	4.68	4.68	
2.70	2.72	2.75	2.77	2.79	2.82	2.86	2.92	3.03	3.19	3.95	4.06	5.59	6.52	6.95	7.20	0.55	2.31	2.63	2.82	2.89	2.94	2.97	2.96	2.97	2.61	2.74	3.07	2.82	2.63	2.76	2.71	2.67	2.65	2.66	2.67	2.71	2.76	2.81	2.87	2.95	3.02	3.08	3.16	3.26	3.37	3.44	3.84	3.83	3.82	3.78	3.74	3.48	3.69	1.10	2.13	2.39	2.56	2.69	2.87	2.98	3.00	3.08	3.17	3.16	3.14	3.18	3.14	3.04	3.04	2.09	2.12	2.15	2.19	2.47	2.49	2.53	2.53	2.52	2.49	2.48	2.51	2.56	2.63	2.69	2.75	2.82	2.86	2.92	3.00	3.05	3.07	3.09	3.12	3.14	3.15	3.16	3.17	3.19	3.21	3.22	3.24	3.27	3.31	3.30	3.27	3.26	3.25	3.24	3.22	3.18	3.14	3.17	3.20	3.22	3.24	3.25	3.26	3.27	3.28	3.30	3.31	3.30	3.29	3.29	3.30	3.30	3.29	3.29	3.28	3.27	3.26	3.25	3.24	3.25	3.29	3.36	3.43	3.48	3.52	3.58	3.61	4.36	4.33	4.32	4.31	5.26	5.46	5.66	5.74	5.88	6.11	6.30	6.44	6.59	6.76	6.81	6.79	7.10	7.48	7.66	7.30	7.12	7.41	8.25	9.03	9.45	10.23	7.92	8.05	9.10	6.60	4.73	9.83	8.96	5.02	4.73	4.73	
2.65	2.67	2.71	2.73	2.75	2.78	2.82	2.89	3.03	3.19	3.91	4.94	5.93	6.74	7.09	6.98	1.81	2.46	2.74	2.87	2.93	2.97	3.00	2.98	2.60	2.67	2.83	3.06	2.76	2.84	2.77	2.73	2.68	2.67	2.68	2.71	2.74	2.78	2.82	2.88	2.95	3.01	3.08	3.18	3.29	3.39	3.83	3.82	3.83	3.80	3.77	3.73	3.45	3.79	1.55	2.20	2.44	2.60	2.74	2.90	2.98	3.02	3.13	3.18	3.16	3.17	3.21	3.13	3.05	2.09	2.13	2.16	2.19	2.23	2.49	2.50	2.52	2.52	2.50	2.49	2.51	2.54	2.59	2.65	2.71	2.76	2.81	2.85	2.91	2.98	3.02	3.04	3.06	3.09	3.11	3.13	3.14	3.15	3.17	3.19	3.20	3.22	3.27	3.28	3.26	3.24	3.23	3.21	3.20	3.18	3.12	3.05	3.17	3.22	3.24	3.25	3.26	3.27	3.27	3.28	3.30	3.30	3.29	3.28	3.27	3.27	3.28	3.27	3.26	3.24	3.23	3.21	3.19	3.18	3.19	3.24	3.31	3.39	3.44	3.50	3.57	3.62	4.32	4.31	4.32	4.31	5.31	5.53	5.70	5.77	5.97	6.24	6.38	6.46	6.69	7.36	7.64	7.61	8.79	9.55	8.73	8.43	8.19	8.46	9.56	10.04	9.90	10.01	7.24	7.80	8.60	7.67	7.36	9.57	9.54	5.11	5.01	5.01	
2.60	2.62	2.65	2.68	2.70	2.74	2.80	2.89	3.08	3.20	3.90	5.19	6.25	6.88	7.23	2.80	2.16	2.57	2.82	2.92	2.96	2.99	3.00	2.99	2.60	2.70	2.90	2.96	2.71	2.82	2.76	2.72	2.68	2.67	2.68	2.71	2.77	2.80	2.83	2.90	2.97	3.02	3.10	3.20	3.32	3.40	3.81	3.81	3.82	3.79	3.76	3.71	3.57	4.08	1.75	2.24	2.46	2.60	2.75	2.90	2.98	3.04	3.14	3.17	3.16	3.20	3.20	3.10	3.06	2.11	2.15	2.19	2.22	2.52	2.52	2.54	2.54	2.52	2.48	2.47	2.50	2.54	2.60	2.66	2.72	2.78	2.82	2.86	2.93	2.98	3.01	3.03	3.05	3.07	3.09	3.11	3.12	3.13	3.15	3.17	3.19	3.21	3.26	3.26	3.23	3.21	3.20	3.18	3.17	3.16	3.15	3.17	3.22	3.26	3.27	3.28	3.28	3.28	3.28	3.29	3.30	3.30	3.29	3.27	3.26	3.25	3.25	3.24	3.22	3.20	3.18	3.15	3.12	3.11	3.14	3.21	3.30	3.38	3.44	3.52	3.62	3.68	4.34	4.33	4.37	5.17	5.34	5.68	6.01	6.31	6.73	7.20	7.43	7.91	8.84	8.93	8.21	7.87	8.61	8.68	8.31	8.28	8.12	8.20	9.04	9.55	9.65	10.02	8.05	7.56	8.79	8.42	9.12	9.49	9.23	5.02	5.31	5.31	
2.56	2.57	2.60	2.63	2.67	2.71	2.77	2.88	3.07	3.75	4.52	5.51	6.54	7.04	7.29	1.43	2.36	2.69	2.88	2.95	2.97	3.00	3.00	3.00	2.64	2.78	3.13	2.88	2.68	2.82	2.77	2.71	2.68	2.68	2.68	2.71	2.76	2.80	2.85	2.91	2.97	3.04	3.12	3.23	3.34	3.41	3.80	3.81	3.81	3.78	3.74	3.62	3.70	2.08	1.87	2.23	2.46	2.60	2.78	2.92	2.97	3.06	3.16	3.17	3.17	3.20	3.16	3.06	3.06	2.13	2.17	2.20	2.24	2.50	2.51	2.54	2.54	2.52	2.47	2.48	2.51	2.54	2.59	2.65	2.72	2.78	2.81	2.86	2.94	2.98	3.00	3.02	3.04	3.07	3.09	3.10	3.11	3.12	3.14	3.16	3.18	3.22	3.25	3.23	3.20	3.19	3.17	3.16	3.16	3.16	3.18	3.21	3.25	3.28	3.29	3.30	3.29	3.29	3.29	3.29	3.30	3.30	3.29	3.26	3.25	3.24	3.23	3.21	3.19	3.16	3.12	3.09	3.04	3.03	3.06	3.16	3.31	3.45	3.53	3.60	3.67	4.70	4.61	4.52	4.51	5.87	6.47	6.89	7.15	7.19	7.10	7.62	8.06	8.02	7.80	7.58	7.23	7.21	7.81	8.06	7.84	8.15	8.21	8.10	8.79	9.62	9.77	10.00	9.00	8.15	8.98	9.00	8.97	9.39	8.31	8.29	10.07	10.07	
2.52	2.53	2.56	2.59	2.63	2.69	2.75	2.88	3.07	3.71	4.73	5.88	6.76	7.21	4.49	2.04	2.53	2.81	2.92	2.96	2.99	3.02	3.01	3.02	2.70	2.88	3.10	2.80	2.87	2.81	2.76	2.70	2.68	2.68	2.69	2.72	2.77	2.81	2.86	2.92	2.97	3.05	3.14	3.26	3.37	3.81	3.80	3.81	3.80	3.77	3.74	3.49	3.75	0.63	1.99	2.26	2.47	2.63	2.83	2.93	2.98	3.09	3.16	3.14	3.16	3.19	3.11	3.04	2.11	2.16	2.18	2.19	2.24	2.48	2.51	2.52	2.51	2.47	2.45	2.47	2.52	2.57	2.62	2.67	2.72	2.78	2.81	2.85	2.92	2.96	2.98	3.00	3.03	3.05	3.07	3.08	3.10	3.11	3.13	3.15	3.17	3.22	3.23	3.20	3.18	3.17	3.16	3.16	3.16	3.17	3.20	3.24	3.27	3.29	3.31	3.31	3.30	3.30	3.29	3.29	3.29	3.29	3.28	3.26	3.23	3.22	3.21	3.19	3.16	3.13	3.08	3.03	2.96	2.92	2.92	2.98	3.12	3.28	3.38	3.43	3.45	3.43	4.87	4.57	4.45	6.21	6.78	7.10	7.26	7.09	6.73	7.07	7.59	7.51	7.43	7.60	7.46	7.56	8.02	7.85	7.77	8.21	8.17	7.88	8.64	9.78	10.02	9.93	9.15	8.86	9.21	8.65	9.13	8.72	8.44	8.64	9.70	9.70	
2.48	2.49	2.52	2.55	2.59	2.66	2.75	2.94	3.09	3.71	5.02	6.24	6.96	7.37	0.83	2.30	2.68	2.90	2.95	2.97	3.01	3.04	3.02	2.66	2.76	2.96	3.00	2.75	2.85	2.79	2.75	2.69	2.67	2.68	2.69	2.73	2.77	2.82	2.87	2.93	2.98	3.07	3.17	3.30	3.38	3.79	3.80	3.81	3.79	3.76	3.74	3.46	3.86	1.24	2.10	2.32	2.49	2.66	2.84	2.92	2.97	3.07	3.12	3.12	3.16	3.15	3.05	3.04	2.11	2.15	2.18	2.21	2.48	2.48	2.51	2.52	2.49	2.44	2.42	2.45	2.50	2.55	2.61	2.67	2.73	2.78	2.82	2.87	2.92	2.95	2.96	2.99	3.01	3.03	3.05	3.06	3.08	3.09	3.11	3.14	3.18	3.21	3.20	3.18	3.16	3.15	3.15	3.16	3.17	3.19	3.21	3.25	3.28	3.30	3.31	3.31	3.31	3.30	3.30	3.29	3.28	3.29	3.28	3.25	3.23	3.21	3.19	3.16	3.13	3.09	3.04	2.98	2.88	2.81	2.76	2.70	2.70	2.77	2.86	2.97	3.06	3.06	3.02	4.32	4.28	4.28	6.32	6.56	6.96	6.96	6.66	6.88	7.31	7.43	7.79	7.59	6.73	6.79	7.35	7.47	7.65	7.86	7.80	8.17	9.12	9.83	10.12	10.00	9.55	9.73	9.23	7.89	7.90	8.81	9.17	9.51	8.73	8.73	
2.43	2.45	2.48	2.51	2.55	2.63	2.74	2.94	3.51	4.25	5.42	6.54	7.16	6.88	1.90	2.48	2.79	2.93	2.97	2.99	3.03	3.04	3.04	2.69	2.84	3.16	2.91	2.71	2.84	2.79	2.74	2.69	2.67	2.67	2.69	2.72	2.77	2.83	2.88	2.93	3.00	3.09	3.20	3.33	3.81	3.79	3.81	3.81	3.79	3.75	3.74	3.57	4.10	1.49	2.12	2.33	2.49	2.69	2.84	2.87	2.95	3.05	3.08	3.10	3.14	3.09	3.01	2.07	2.10	2.13	2.16	2.20	2.44	2.46	2.50	2.49	2.46	2.40	2.40	2.44	2.49	2.55	2.60	2.66	2.71	2.75	2.81	2.88	2.93	2.94	2.96	2.98	3.00	3.02	3.04	3.05	3.06	3.08	3.10	3.14	3.19	3.20	3.19	3.16	3.15	3.14	3.15	3.16	3.18	3.20	3.22	3.25	3.28	3.30	3.31	3.31	3.31	3.30	3.30	3.29	3.28	3.28	3.27	3.25	3.22	3.19	3.17	3.14	3.10	3.06	3.00	2.92	2.81	2.72	2.66	2.54	2.48	2.52	2.56	2.62	2.72	2.80	2.83	4.22	4.33	4.35	4.19	6.18	6.47	6.51	6.46	6.81	7.35	7.79	7.28	6.26	6.19	7.19	7.98	7.83	7.76	8.14	8.55	9.06	9.34	9.40	9.63	9.77	9.80	9.98	9.36	7.37	5.60	8.81	9.24	8.73	8.35	8.35	
2.39	2.40	2.44	2.49	2.52	2.59	2.73	2.95	3.48	4.50	5.87	6.82	7.35	0.57	2.26	2.63	2.89	2.96	2.97	3.01	3.04	3.03	3.05	2.73	2.92	3.13	2.83	2.91	2.84	2.79	2.71	2.67	2.66	2.66	2.69	2.73	2.78	2.85	2.90	2.94	3.03	3.12	3.24	3.36	3.79	3.78	3.81	3.81	3.79	3.73	3.68	3.77	4.56	1.61	2.11	2.35	2.51	2.72	2.83	2.84	2.93	3.02	3.03	3.07	3.10	3.02	2.98	2.04	2.08	2.11	2.13	2.19	2.42	2.44	2.47	2.45	2.40	2.35	2.37	2.42	2.48	2.55	2.61	2.67	2.71	2.74	2.79	2.87	2.90	2.91	2.94	2.96	2.98	3.01	3.03	3.04	3.05	3.07	3.11	3.15	3.18	3.18	3.17	3.15	3.13	3.13	3.15	3.16	3.18	3.20	3.22	3.25	3.28	3.29	3.31	3.31	3.31	3.30	3.29	3.28	3.28	3.27	3.26	3.25	3.22	3.18	3.15	3.12	3.08	3.03	2.97	2.89	2.75	2.64	2.58	2.49	2.44	2.51	2.57	2.57	2.56	2.57	2.63	4.30	4.43	4.42	4.28	4.09	6.20	6.16	6.26	6.81	7.40	7.11	6.31	6.17	6.87	7.75	7.87	7.51	7.45	8.26	9.03	9.32	9.31	9.12	9.03	9.28	9.74	10.08	10.02	6.19	5.57	8.11	9.34	8.78	9.73	9.73	
2.36	2.37	2.39	2.44	2.49	2.56	2.71	2.97	3.54	4.92	6.32	7.13	7.32	1.66	2.44	2.78	2.95	2.99	3.00	3.04	3.07	3.04	2.68	2.79	3.01	3.01	2.78	2.89	2.83	2.78	2.71	2.67	2.65	2.66	2.70	2.75	2.80	2.87	2.91	2.96	3.05	3.15	3.28	3.38	3.79	3.79	3.81	3.81	3.77	3.73	3.57	3.91	0.82	1.84	2.13	2.35	2.52	2.71	2.78	2.79	2.90	2.97	2.99	3.04	3.03	2.93	2.94	2.01	2.04	2.08	2.12	2.40	2.41	2.44	2.45	2.42	2.34	2.32	2.35	2.40	2.46	2.52	2.60	2.67	2.70	2.73	2.80	2.87	2.89	2.90	2.93	2.95	2.96	2.98	3.01	3.01	3.01	3.05	3.12	3.18	3.16	3.16	3.17	3.12	3.11	3.13	3.15	3.17	3.18	3.20	3.23	3.25	3.27	3.29	3.30	3.31	3.31	3.30	3.29	3.28	3.27	3.26	3.25	3.24	3.21	3.17	3.14	3.11	3.06	3.01	2.95	2.86	2.72	2.57	2.47	2.38	2.30	2.37	2.54	2.64	2.59	2.44	2.39	2.50	4.41	4.49	4.47	4.38	4.29	6.16	6.17	6.41	6.59	6.53	6.62	6.84	7.29	7.63	7.64	7.26	7.12	8.04	8.76	8.99	9.10	8.97	8.87	9.14	9.53	10.05	10.15	5.98	4.92	8.97	9.32	9.49	9.77	9.77	
2.33	2.34	2.36	2.40	2.46	2.53	2.71	3.13	3.91	5.49	6.73	7.41	2.38	2.15	2.58	2.90	2.99	3.01	3.03	3.05	3.06	3.05	2.70	2.86	3.16	2.92	2.75	2.88	2.83	2.76	2.70	2.67	2.66	2.68	2.71	2.76	2.83	2.88	2.92	2.98	3.08	3.19	3.31	3.80	3.79	3.80	3.81	3.79	3.74	3.73	3.50	3.99	0.68	1.99	2.17	2.34	2.53	2.68	2.70	2.73	2.85	2.92	2.94	2.97	2.91	2.84	1.92	1.96	1.99	2.02	2.07	2.34	2.37	2.42	2.41	2.36	2.28	2.27	2.32	2.38	2.45	2.51	2.58	2.64	2.67	2.72	2.81	2.85	2.87	2.88	2.91	2.95	2.95	2.98	3.01	2.99	2.98	3.02	3.16	3.23	3.14	3.14	3.19	3.13	3.09	3.13	3.15	3.17	3.19	3.21	3.23	3.25	3.27	3.28	3.30	3.30	3.30	3.30	3.28	3.27	3.26	3.25	3.24	3.22	3.20	3.16	3.13	3.09	3.05	3.00	2.94	2.85	2.73	2.58	2.43	2.29	2.16	2.12	2.26	2.47	2.56	2.43	2.29	2.33	2.52	4.46	4.64	4.57	4.43	4.19	5.89	5.89	6.24	6.65	6.93	7.14	7.41	7.42	7.47	7.36	7.20	7.89	8.45	8.61	8.73	8.80	9.13	9.30	9.37	9.98	10.12	5.76	4.94	8.64	9.42	9.46	9.51	9.51	
2.30	2.32	2.35	2.38	2.44	2.50	2.62	2.84	4.09	6.01	7.11	7.52	1.40	2.37	2.72	2.95	3.01	3.02	3.03	3.05	3.04	3.07	2.75	2.96	3.13	2.85	2.93	2.86	2.81	2.74	2.67	2.64	2.65	2.69	2.73	2.78	2.84	2.89	2.93	3.00	3.11	3.24	3.34	3.78	3.78	3.80	3.82	3.78	3.71	3.73	3.61	4.21	1.12	2.02	2.19	2.33	2.53	2.65	2.62	2.67	2.77	2.83	2.86	2.86	2.77	2.73	1.81	1.86	1.90	1.93	2.00	2.27	2.33	2.38	2.35	2.29	2.22	2.21	2.27	2.34	2.42	2.50	2.57	2.61	2.63	2.70	2.81	2.84	2.85	2.86	2.89	2.93	2.92	2.96	3.00	2.99	2.96	2.99	3.16	3.29	3.15	3.11	3.18	3.14	3.09	3.12	3.15	3.17	3.19	3.20	3.22	3.24	3.26	3.28	3.29	3.30	3.30	3.29	3.28	3.27	3.26	3.24	3.23	3.21	3.19	3.16	3.13	3.09	3.04	2.99	2.93	2.85	2.75	2.63	2.49	2.33	2.15	1.99	1.97	2.14	2.36	2.36	2.24	2.21	2.33	4.32	4.59	4.59	4.41	4.24	5.88	5.88	6.27	6.69	6.84	7.03	7.39	7.33	7.36	7.49	7.55	7.99	8.45	8.59	8.67	9.00	9.26	9.25	9.37	9.93	9.37	5.87	4.85	8.25	9.37	9.55	8.77	8.77	
2.27	2.29	2.34	2.39	2.42	2.46	2.48	2.64	4.40	6.43	7.46	4.74	1.94	2.48	2.84	2.99	3.02	3.01	3.04	3.08	3.06	2.69	2.82	3.05	3.01	2.79	2.88	2.83	2.78	2.70	2.61	2.59	2.65	2.70	2.75	2.81	2.86	2.90	2.95	3.03	3.15	3.28	3.79	3.77	3.77	3.80	3.82	3.75	3.66	3.69	3.86	4.69	1.42	2.01	2.17	2.31	2.48	2.54	2.50	2.54	2.65	2.72	2.76	2.70	2.60	2.63	1.67	1.73	1.77	1.81	2.17	2.19	2.29	2.34	2.28	2.19	2.14	2.15	2.22	2.30	2.37	2.47	2.56	2.58	2.57	2.66	2.78	2.82	2.84	2.85	2.88	2.92	2.93	2.94	2.97	2.98	2.95	2.95	3.12	3.30	3.20	3.09	3.12	3.12	3.09	3.11	3.15	3.16	3.18	3.20	3.22	3.24	3.26	3.27	3.28	3.29	3.29	3.29	3.28	3.27	3.25	3.24	3.22	3.20	3.18	3.16	3.12	3.08	3.04	2.99	2.93	2.85	2.77	2.67	2.56	2.41	2.22	2.01	1.89	1.96	2.18	2.26	2.16	2.09	2.17	2.39	4.37	4.39	4.35	4.35	6.13	6.08	6.37	6.66	6.72	6.82	7.22	7.35	7.42	7.60	7.78	8.12	8.62	8.91	9.13	8.98	8.78	9.34	9.45	9.89	8.67	5.50	4.63	7.85	9.13	8.38	9.52	9.52	
2.24	2.27	2.35	2.42	2.45	2.45	2.33	2.46	4.77	6.76	7.60	0.96	2.20	2.63	2.95	3.03	3.02	3.03	3.08	3.11	3.09	2.71	2.89	3.15	2.91	2.74	2.86	2.81	2.74	2.67	2.60	2.61	2.69	2.73	2.77	2.84	2.88	2.89	2.95	3.05	3.20	3.32	3.79	3.75	3.76	3.80	3.82	3.73	3.63	3.54	4.01	2.71	1.72	1.97	2.09	2.23	2.36	2.34	2.28	2.34	2.49	2.60	2.60	2.48	2.44	1.49	1.50	1.61	1.62	1.68	1.99	2.05	2.20	2.30	2.26	2.13	2.05	2.08	2.16	2.27	2.33	2.43	2.57	2.60	2.55	2.61	2.72	2.77	2.82	2.84	2.86	2.90	2.94	2.95	2.94	2.95	2.93	2.95	3.09	3.29	3.28	3.12	3.09	3.10	3.08	3.11	3.14	3.16	3.18	3.20	3.22	3.24	3.25	3.27	3.28	3.29	3.29	3.28	3.28	3.26	3.25	3.23	3.22	3.20	3.18	3.15	3.12	3.08	3.03	2.99	2.94	2.87	2.78	2.70	2.59	2.46	2.30	2.10	1.91	1.87	2.04	2.18	2.13	2.06	2.11	2.28	2.46	4.23	4.34	4.39	4.17	5.99	6.22	6.40	6.41	6.57	7.06	7.36	7.71	7.90	7.93	8.19	8.74	9.24	9.00	8.54	8.93	9.33	9.42	9.70	8.16	5.38	4.53	7.95	9.03	8.94	7.94	7.94	
2.20	2.25	2.36	2.46	2.53	2.58	2.40	2.58	5.13	6.97	5.62	1.80	2.40	2.81	3.03	3.05	3.04	3.06	3.11	3.11	3.10	2.76	2.99	3.12	2.84	2.91	2.85	2.79	2.71	2.66	2.63	2.66	2.72	2.76	2.79	2.85	2.88	2.90	2.95	3.07	3.24	3.84	3.80	3.74	3.73	3.77	3.78	3.69	3.62	3.42	4.11	0.32	1.79	1.86	1.91	2.06	2.17	2.13	2.05	2.21	2.51	2.48	2.24	2.10	2.09	1.11	1.09	1.30	1.40	1.94	1.81	1.82	1.96	2.11	2.18	2.11	2.02	2.03	2.12	2.23	2.31	2.38	2.53	2.62	2.56	2.59	2.68	2.72	2.78	2.82	2.85	2.88	2.92	2.94	2.94	2.93	2.92	2.93	3.04	3.25	3.33	3.17	3.09	3.09	3.08	3.10	3.14	3.16	3.18	3.20	3.21	3.23	3.25	3.26	3.27	3.28	3.28	3.28	3.27	3.26	3.25	3.23	3.21	3.19	3.17	3.15	3.11	3.08	3.04	2.99	2.94	2.88	2.81	2.72	2.62	2.51	2.37	2.19	1.99	1.86	1.93	2.09	2.10	2.02	2.03	2.16	2.31	4.16	4.30	4.41	4.31	4.09	6.09	6.07	6.00	6.32	6.92	7.40	7.96	8.19	8.11	8.16	8.44	8.73	8.70	8.77	9.14	9.44	9.42	9.08	7.43	5.14	4.53	7.73	8.77	7.96	10.28	10.28	
2.17	2.23	2.35	2.46	2.55	2.76	2.80	3.06	5.54	7.07	0.52	2.04	2.58	2.94	3.05	3.04	3.04	3.09	3.13	3.10	3.11	2.85	3.10	3.03	2.81	2.90	2.84	2.79	2.71	2.67	2.65	2.68	2.73	2.77	2.81	2.85	2.86	2.88	2.94	3.08	3.27	3.86	3.79	3.72	3.71	3.73	3.70	3.55	3.45	3.48	4.42	1.10	1.94	1.79	1.65	1.68	1.62	1.42	1.30	1.39	1.64	1.66	1.53	1.45	1.57	0.83	0.68	0.72	0.81	1.97	1.78	1.68	1.72	1.78	1.88	1.96	1.96	1.99	2.07	2.18	2.28	2.34	2.49	2.62	2.58	2.60	2.67	2.68	2.73	2.78	2.82	2.86	2.90	2.94	2.94	2.92	2.91	2.91	2.99	3.20	3.36	3.25	3.10	3.07	3.06	3.08	3.12	3.15	3.17	3.19	3.21	3.23	3.24	3.25	3.27	3.27	3.28	3.28	3.27	3.26	3.24	3.23	3.21	3.19	3.17	3.14	3.11	3.08	3.04	2.99	2.94	2.89	2.83	2.75	2.66	2.55	2.43	2.28	2.10	1.94	1.91	1.98	2.00	1.92	1.88	1.99	2.17	2.29	4.23	4.32	4.34	4.24	4.05	5.89	5.83	6.15	6.73	7.36	7.82	8.17	8.18	7.82	7.98	8.46	8.79	8.97	9.36	9.77	9.21	7.50	6.28	4.79	4.54	7.19	8.43	9.39	10.58	10.58	
2.15	2.22	2.34	2.44	2.56	2.87	3.30	3.58	6.12	5.60	1.61	2.28	2.78	3.01	3.04	3.03	3.04	3.12	3.14	3.13	2.78	2.98	3.20	2.97	2.81	2.92	2.87	2.80	2.73	2.68	2.67	2.70	2.73	2.77	2.81	2.82	2.81	2.83	2.89	3.06	3.33	3.92	3.82	3.73	3.72	3.73	3.64	3.39	3.21	3.45	4.59	1.77	1.37	0.75	0.46	0.41	0.59	0.55	0.42	0.70	1.02	1.17	1.19	1.18	1.35	0.76	0.59	0.41	0.25	0.32	1.94	1.76	1.70	1.64	1.58	1.64	1.79	1.90	2.00	2.10	2.20	2.27	2.42	2.59	2.57	2.60	2.67	2.65	2.69	2.74	2.78	2.82	2.87	2.92	2.92	2.91	2.91	2.90	2.95	3.13	3.35	3.35	3.19	3.10	3.07	3.07	3.11	3.14	3.17	3.18	3.20	3.22	3.24	3.25	3.26	3.27	3.27	3.27	3.27	3.26	3.24	3.23	3.21	3.18	3.16	3.14	3.11	3.08	3.05	3.00	2.95	2.90	2.84	2.77	2.69	2.59	2.48	2.35	2.18	2.02	1.95	1.97	1.95	1.85	1.77	1.85	2.06	2.25	2.33	4.24	4.24	4.22	4.08	5.89	5.80	5.90	6.65	7.32	7.63	7.96	7.74	7.57	8.08	8.46	8.62	8.81	9.59	9.64	7.70	6.48	4.68	4.57	4.33	5.16	8.79	9.83	10.44	10.44	
2.14	2.22	2.35	2.52	2.63	2.99	3.73	3.96	6.73	0.76	2.02	2.56	2.94	3.03	3.02	3.00	3.08	3.16	3.16	3.15	2.86	3.11	3.21	2.95	3.04	2.97	2.93	2.83	2.75	2.69	2.67	2.71	2.73	2.76	2.82	2.80	2.77	2.78	2.79	2.96	3.73	3.80	3.60	3.50	3.67	3.84	3.65	3.27	3.09	3.16	5.55	3.06	2.77	2.16	1.75	1.14	0.70	0.55	0.35	0.41	0.70	0.88	1.03	1.14	1.21	0.71	0.53	0.43	0.35	0.52	2.02	1.96	1.90	1.77	1.54	1.42	1.58	1.80	1.95	2.06	2.14	2.20	2.34	2.50	2.53	2.57	2.64	2.64	2.67	2.72	2.75	2.79	2.84	2.90	2.91	2.91	2.92	2.89	2.90	3.02	3.25	3.36	3.26	3.16	3.09	3.06	3.10	3.13	3.15	3.18	3.20	3.21	3.23	3.24	3.25	3.26	3.26	3.26	3.26	3.25	3.24	3.23	3.21	3.18	3.16	3.14	3.11	3.08	3.05	3.01	2.96	2.91	2.86	2.79	2.72	2.63	2.52	2.40	2.25	2.08	2.01	2.06	2.05	1.93	1.81	1.80	1.97	2.21	2.34	2.37	4.17	4.18	4.11	3.93	5.81	5.76	6.37	7.04	7.31	7.43	7.41	7.53	8.12	8.45	8.32	8.60	9.78	9.20	6.46	4.90	4.63	4.20	4.03	5.38	9.26	5.55	10.87	10.87	
2.16	2.24	2.36	2.53	2.72	3.10	3.90	4.10	4.98	1.78	2.32	2.79	3.00	3.01	2.98	3.01	3.12	3.19	3.18	2.83	2.98	3.27	3.19	2.99	3.09	3.05	3.01	2.92	2.81	2.70	2.63	2.66	2.71	2.77	2.83	2.81	2.78	2.79	2.74	2.87	3.42	3.64	3.65	3.65	4.15	4.08	3.67	3.22	3.12	3.00	6.39	2.10	1.63	2.13	1.70	0.84	0.19	0.20	0.30	0.33	0.42	0.57	0.69	0.85	0.99	1.10	0.56	0.34	0.38	0.57	1.90	1.93	2.02	1.99	1.70	1.40	1.44	1.67	1.87	2.01	2.12	2.19	2.28	2.40	2.48	2.55	2.58	2.60	2.64	2.69	2.75	2.78	2.80	2.85	2.89	2.91	2.93	2.90	2.87	2.94	3.13	3.29	3.29	3.20	3.11	3.05	3.08	3.12	3.14	3.17	3.19	3.21	3.22	3.23	3.24	3.25	3.26	3.26	3.26	3.25	3.24	3.23	3.21	3.18	3.16	3.14	3.11	3.08	3.06	3.02	2.97	2.92	2.87	2.81	2.74	2.66	2.57	2.45	2.31	2.15	2.05	2.10	2.19	2.10	1.93	1.86	1.94	2.13	2.32	2.39	4.22	4.19	4.09	4.08	5.98	5.92	6.04	6.67	6.93	7.03	7.33	7.50	7.94	8.31	8.20	8.47	9.84	8.81	5.44	4.75	4.50	4.07	3.45	7.65	4.34	5.71	10.84	10.84	
2.16	2.26	3.43	2.52	2.74	3.41	4.08	4.29	1.07	2.13	2.57	2.90	2.97	2.95	2.94	3.03	3.15	3.22	3.23	2.92	3.16	3.43	3.29	3.33	3.23	3.17	3.12	3.02	2.90	2.77	2.66	2.64	2.71	2.81	2.88	2.87	2.89	2.91	2.88	3.09	3.50	3.72	3.93	4.02	4.05	3.82	3.72	3.26	3.11	2.67	3.28	3.89	4.68	0.62	1.58	1.17	0.48	0.32	0.24	0.06	0.15	0.30	0.38	0.60	0.82	0.93	0.97	0.53	0.29	0.43	1.76	1.76	1.86	1.98	1.83	1.47	1.38	1.55	1.76	1.92	2.06	2.19	2.28	2.33	2.44	2.55	2.54	2.56	2.62	2.66	2.73	2.77	2.78	2.80	2.84	2.87	2.91	2.91	2.88	2.90	3.02	3.19	3.25	3.23	3.15	3.06	3.07	3.11	3.14	3.16	3.18	3.20	3.21	3.22	3.23	3.24	3.25	3.25	3.25	3.24	3.24	3.22	3.21	3.19	3.17	3.14	3.12	3.09	3.06	3.03	2.98	2.94	2.89	2.83	2.76	2.69	2.61	2.51	2.38	2.22	2.05	2.00	2.12	2.16	2.02	1.91	1.92	2.03	2.19	2.34	4.29	4.23	4.13	4.19	4.24	6.20	6.00	6.19	6.64	6.93	7.33	7.69	7.89	8.02	8.14	8.47	9.81	8.80	5.64	4.91	4.69	4.28	3.37	7.69	4.08	9.93	10.71	10.71	
2.19	2.31	2.49	2.85	2.89	3.76	4.39	2.51	1.98	2.26	2.62	2.84	2.91	2.93	2.95	2.98	3.11	3.31	3.45	3.16	3.49	3.44	3.43	3.49	3.41	3.31	3.23	3.13	3.04	2.96	2.89	2.83	2.86	2.96	3.03	3.00	2.99	3.01	3.04	3.23	4.01	4.01	4.16	4.56	3.96	4.01	3.76	3.39	2.16	3.12	2.17	2.35	3.79	4.92	2.51	1.25	0.62	0.30	0.18	0.42	0.55	0.51	0.36	0.32	0.52	0.76	0.77	0.78	0.37	0.41	1.67	1.66	1.69	1.76	1.75	1.48	1.33	1.46	1.65	1.82	1.96	2.13	2.27	2.29	2.40	2.54	2.52	2.54	2.59	2.63	2.69	2.73	2.76	2.78	2.81	2.86	2.90	2.91	2.92	2.92	2.98	3.12	3.22	3.22	3.16	3.07	3.06	3.10	3.12	3.15	3.17	3.19	3.20	3.21	3.22	3.23	3.24	3.24	3.24	3.24	3.23	3.22	3.21	3.19	3.17	3.14	3.12	3.10	3.07	3.03	3.00	2.95	2.91	2.85	2.79	2.72	2.64	2.55	2.44	2.30	2.10	1.92	1.92	2.02	1.99	1.88	1.86	1.93	2.03	2.21	2.37	4.26	4.22	4.26	4.32	4.16	5.96	5.95	6.44	6.97	7.40	7.83	7.98	7.86	8.01	8.62	9.70	8.61	5.99	5.27	4.87	4.56	3.76	8.01	4.17	5.91	6.91	6.91	
2.23	2.39	3.06	3.14	3.16	4.37	4.66	1.64	2.19	2.30	2.50	2.45	2.34	2.37	2.46	2.75	3.09	3.48	3.25	3.46	3.44	3.32	3.36	3.42	3.44	3.40	3.34	3.27	3.19	3.14	3.10	3.06	3.07	3.16	3.26	3.18	3.12	3.17	3.36	3.59	3.85	3.95	4.76	4.92	4.04	3.31	3.68	1.66	3.27	2.20	3.28	3.51	1.53	3.50	2.46	1.30	0.63	0.53	0.54	0.77	0.83	0.64	0.48	0.35	0.32	0.47	0.51	0.74	0.49	0.39	0.66	1.62	1.67	1.64	1.60	1.43	1.26	1.32	1.53	1.71	1.84	2.01	2.19	2.24	2.36	2.50	2.49	2.51	2.56	2.62	2.69	2.71	2.72	2.76	2.80	2.85	2.89	2.91	2.94	2.95	2.96	3.08	3.23	3.24	3.17	3.07	3.05	3.09	3.12	3.14	3.16	3.18	3.19	3.21	3.22	3.22	3.22	3.23	3.23	3.23	3.23	3.22	3.21	3.19	3.17	3.14	3.12	3.10	3.08	3.04	3.01	2.97	2.92	2.87	2.81	2.75	2.67	2.59	2.49	2.37	2.20	2.00	1.85	1.86	1.89	1.85	1.81	1.86	1.93	2.06	2.24	2.37	4.24	4.27	4.28	4.15	6.05	5.76	6.21	7.08	7.50	7.72	8.02	7.92	7.99	8.80	9.49	8.42	6.22	5.43	5.03	4.67	4.08	8.41	4.26	5.88	7.05	7.05	
2.33	2.46	3.02	3.21	4.53	5.30	1.55	0.35	1.00	1.33	1.00	0.76	1.27	2.21	3.12	3.51	3.76	3.29	3.61	3.56	3.47	3.35	3.32	3.34	3.38	3.42	3.45	3.44	3.38	3.32	3.25	3.18	3.12	3.19	3.33	3.50	3.39	3.48	3.50	3.57	3.90	4.10	4.61	4.83	4.32	3.48	3.54	3.25	3.31	3.46	3.27	3.42	2.09	1.37	0.52	0.39	0.70	0.78	0.64	0.50	0.36	0.42	0.57	0.75	0.94	1.03	0.80	0.55	0.83	0.37	0.52	1.57	1.68	1.69	1.58	1.40	1.22	1.20	1.39	1.59	1.72	1.88	2.04	2.14	2.30	2.42	2.43	2.46	2.52	2.59	2.68	2.71	2.72	2.73	2.76	2.81	2.86	2.89	2.92	2.94	2.91	2.99	3.19	3.28	3.19	3.08	3.04	3.07	3.10	3.13	3.15	3.17	3.18	3.20	3.21	3.22	3.21	3.22	3.22	3.23	3.22	3.21	3.20	3.19	3.17	3.15	3.13	3.11	3.08	3.05	3.02	2.99	2.94	2.89	2.84	2.78	2.70	2.62	2.54	2.44	2.31	2.14	1.97	1.86	1.83	1.85	1.83	1.84	1.87	1.94	2.08	2.21	2.35	4.23	4.21	4.12	6.05	5.77	6.02	7.03	7.47	7.49	7.94	8.12	8.13	8.58	8.89	7.97	6.39	5.91	5.14	4.74	4.36	4.22	4.44	5.94	7.22	7.22	
2.42	2.57	2.86	2.98	5.08	9.22	2.53	2.01	0.88	0.40	0.52	0.43	1.65	2.69	3.57	3.71	2.99	3.24	3.21	3.35	3.40	3.41	3.43	3.46	3.43	3.43	3.52	3.61	3.63	3.59	3.53	3.44	3.37	3.32	3.29	3.19	3.27	3.47	4.13	4.28	4.23	4.33	4.43	3.18	0.74	1.19	1.74	3.21	3.38	1.84	3.47	1.80	1.80	1.71	1.48	0.56	0.30	0.53	0.55	0.44	0.58	0.50	0.35	0.65	1.00	1.25	1.04	0.60	0.55	0.69	0.40	1.59	1.66	1.73	1.64	1.43	1.20	1.10	1.24	1.47	1.65	1.80	1.93	2.04	2.21	2.33	2.36	2.41	2.47	2.52	2.61	2.66	2.70	2.74	2.75	2.78	2.85	2.89	2.91	2.92	2.90	2.92	3.08	3.25	3.24	3.12	3.03	3.05	3.09	3.12	3.14	3.15	3.17	3.18	3.20	3.21	3.21	3.21	3.21	3.22	3.22	3.21	3.20	3.19	3.17	3.15	3.13	3.11	3.09	3.06	3.03	3.00	2.96	2.90	2.86	2.81	2.74	2.66	2.58	2.49	2.39	2.28	2.14	1.97	1.85	1.82	1.82	1.85	1.88	1.91	2.00	2.09	2.23	4.15	4.09	4.09	4.13	5.96	5.81	6.70	7.34	7.28	7.84	8.34	8.26	8.37	8.38	7.43	6.37	6.03	4.98	4.52	4.16	4.23	4.50	6.14	9.33	9.33	
2.51	2.64	2.48	2.34	3.73	8.92	2.92	1.28	0.41	1.22	2.08	2.91	3.05	3.06	3.31	3.44	2.81	2.94	3.03	3.10	3.23	3.37	3.51	3.66	3.66	3.57	3.60	3.68	3.73	3.73	3.72	3.70	3.59	3.43	2.93	2.88	3.41	3.56	3.95	4.34	4.56	4.84	4.00	3.99	1.09	1.02	3.81	3.60	1.58	3.53	1.51	1.40	1.49	1.66	1.29	0.26	0.24	0.51	0.77	0.78	0.58	0.47	0.26	0.21	0.53	0.63	0.76	0.82	0.85	1.07	0.54	0.29	1.71	1.78	1.73	1.54	1.26	1.03	1.07	1.31	1.55	1.74	1.87	1.97	2.14	2.25	2.29	2.36	2.43	2.48	2.55	2.61	2.66	2.72	2.74	2.78	2.84	2.87	2.90	2.93	2.92	2.92	3.00	3.16	3.24	3.18	3.05	3.03	3.07	3.11	3.13	3.14	3.16	3.17	3.19	3.20	3.20	3.20	3.20	3.20	3.21	3.21	3.19	3.18	3.17	3.15	3.14	3.12	3.10	3.08	3.05	3.01	2.97	2.93	2.88	2.84	2.78	2.71	2.63	2.54	2.46	2.37	2.25	2.10	1.93	1.79	1.72	1.77	1.86	1.91	1.98	2.05	2.17	2.31	4.04	4.14	4.25	3.97	5.61	6.40	7.20	7.14	7.65	8.10	8.18	8.51	8.46	6.80	6.37	5.09	4.75	4.15	8.16	4.18	8.74	10.00	11.41	11.41	
2.61	2.63	2.36	2.48	3.04	7.08	1.64	1.44	2.18	2.35	2.94	3.33	3.49	3.44	3.44	2.92	2.98	3.13	3.10	3.12	3.23	3.39	3.57	3.79	3.91	3.89	3.88	3.90	4.00	3.84	3.74	3.74	3.71	3.72	2.96	3.33	3.74	3.85	4.08	4.39	4.57	4.71	2.89	4.03	3.72	3.37	3.01	1.30	1.39	1.52	1.34	1.23	1.28	1.15	0.53	0.24	0.15	0.39	0.65	0.75	0.49	0.32	0.31	0.25	0.41	0.50	0.58	0.72	0.88	0.84	0.85	0.47	1.76	1.83	1.84	1.73	1.46	1.10	0.96	1.11	1.36	1.62	1.81	1.91	2.07	2.19	2.22	2.30	2.41	2.46	2.52	2.58	2.62	2.65	2.70	2.75	2.80	2.82	2.85	2.90	2.93	2.93	2.96	3.07	3.18	3.21	3.10	3.02	3.05	3.09	3.11	3.13	3.15	3.16	3.18	3.19	3.19	3.19	3.19	3.19	3.20	3.20	3.19	3.18	3.17	3.15	3.14	3.13	3.11	3.09	3.06	3.03	2.99	2.95	2.90	2.87	2.82	2.76	2.68	2.59	2.52	2.43	2.33	2.20	2.04	1.85	1.68	1.63	1.70	1.81	1.91	1.98	2.05	2.21	4.07	4.24	4.31	4.10	5.56	6.22	7.08	7.12	7.48	7.64	7.77	8.33	8.48	7.10	6.59	5.12	4.73	4.03	3.77	4.38	8.93	10.32	11.95	11.95	
2.61	2.63	2.40	3.02	2.75	5.76	1.83	1.05	1.76	2.25	2.62	2.84	3.22	3.50	3.56	2.97	3.01	3.09	3.07	3.17	3.29	3.46	3.59	3.73	3.91	4.06	4.21	4.34	4.33	4.18	4.06	4.09	3.94	3.36	2.87	3.44	3.90	4.20	4.54	4.82	5.02	4.27	2.65	1.63	3.85	3.39	3.09	1.40	1.52	1.75	1.58	1.45	1.57	1.55	0.90	0.40	0.30	0.42	0.97	0.95	0.83	0.91	0.64	0.63	0.66	0.73	0.64	0.71	0.95	1.11	1.16	0.74	0.35	1.90	1.90	1.85	1.69	1.32	0.98	0.95	1.15	1.42	1.68	1.80	1.97	2.13	2.15	2.22	2.35	2.42	2.48	2.54	2.57	2.60	2.67	2.73	2.76	2.78	2.81	2.88	2.93	2.95	2.96	3.02	3.12	3.21	3.16	3.04	3.02	3.07	3.10	3.12	3.13	3.15	3.17	3.18	3.18	3.18	3.18	3.18	3.20	3.20	3.18	3.18	3.17	3.15	3.14	3.13	3.12	3.10	3.07	3.04	3.00	2.97	2.93	2.89	2.85	2.80	2.73	2.64	2.56	2.49	2.39	2.28	2.15	1.98	1.78	1.61	1.55	1.62	1.77	1.88	1.93	2.08	2.32	4.23	4.38	4.22	5.68	6.05	6.87	7.22	7.58	7.45	7.41	7.85	8.28	7.31	5.36	5.24	4.81	3.90	7.75	8.43	9.28	6.64	7.95	7.95	
2.62	2.64	2.52	3.49	2.81	6.48	2.97	1.62	1.84	2.68	3.01	2.78	2.87	3.24	2.85	3.01	3.11	3.11	3.09	3.16	3.28	3.47	3.63	3.73	3.84	3.97	4.16	4.64	4.69	4.59	4.87	4.77	4.33	3.25	2.92	3.67	4.08	4.26	4.45	4.76	5.17	3.38	2.79	0.96	1.41	1.60	1.70	1.62	1.66	1.83	1.89	2.17	2.40	2.14	1.84	1.96	1.98	2.04	1.85	1.01	0.65	0.90	1.08	1.01	0.83	0.78	0.73	0.85	1.07	1.18	1.18	0.91	0.68	0.45	1.99	1.90	1.81	1.57	1.18	0.95	0.98	1.22	1.50	1.66	1.83	2.04	2.10	2.12	2.24	2.35	2.43	2.49	2.52	2.55	2.64	2.70	2.74	2.76	2.79	2.84	2.92	2.95	2.95	2.98	3.06	3.18	3.22	3.10	3.01	3.04	3.08	3.10	3.12	3.14	3.15	3.17	3.17	3.17	3.17	3.17	3.19	3.19	3.18	3.17	3.17	3.15	3.14	3.14	3.13	3.11	3.08	3.06	3.02	2.98	2.95	2.91	2.88	2.83	2.77	2.69	2.61	2.54	2.46	2.36	2.24	2.11	1.94	1.74	1.56	1.49	1.60	1.76	1.86	2.02	2.25	4.16	4.42	4.47	4.10	5.92	6.50	7.12	7.53	7.35	7.16	7.31	7.96	7.45	5.31	5.30	4.92	4.04	7.64	8.11	4.99	6.63	7.97	7.97	
2.59	2.59	2.64	4.18	2.86	6.62	4.72	3.22	2.67	2.66	2.77	2.71	2.80	3.07	2.84	3.11	3.30	3.27	3.25	3.24	3.30	3.45	3.62	3.78	3.92	3.97	3.97	4.54	4.68	5.25	5.13	5.00	4.64	3.21	3.26	4.21	4.33	4.36	4.54	4.84	5.03	2.40	0.58	1.33	1.64	1.74	1.77	1.68	1.71	1.78	1.80	1.86	1.85	1.58	1.38	1.67	2.25	2.54	2.35	1.93	1.99	2.17	1.90	1.49	1.21	1.07	0.84	0.77	0.92	1.00	1.12	0.87	0.79	0.61	0.38	2.02	1.89	1.72	1.43	1.14	0.97	1.05	1.30	1.49	1.66	1.90	2.04	2.05	2.13	2.26	2.37	2.46	2.49	2.52	2.60	2.67	2.71	2.73	2.75	2.78	2.86	2.92	2.94	2.95	3.00	3.11	3.21	3.18	3.03	3.02	3.07	3.09	3.11	3.13	3.14	3.15	3.16	3.17	3.16	3.16	3.18	3.18	3.18	3.17	3.16	3.15	3.14	3.14	3.13	3.11	3.09	3.07	3.03	3.00	2.97	2.93	2.90	2.86	2.81	2.74	2.67	2.60	2.52	2.43	2.33	2.22	2.08	1.91	1.70	1.52	1.47	1.57	1.73	1.94	2.17	2.49	4.37	4.60	4.38	6.21	6.38	6.95	7.17	7.21	6.91	6.93	7.33	7.80	5.16	5.25	5.06	4.47	8.00	7.70	4.82	6.65	12.35	12.35	
2.51	2.50	2.59	3.08	2.96	6.58	7.02	5.31	4.02	3.16	2.80	2.81	2.81	3.01	2.96	3.20	3.29	3.28	3.31	3.33	3.37	3.49	3.60	3.73	3.92	3.98	4.34	4.38	4.46	5.36	5.34	4.94	4.55	3.50	3.43	3.94	4.31	4.60	4.87	5.20	5.05	0.84	1.24	1.95	2.18	2.13	1.90	1.61	1.43	1.48	1.64	1.69	1.64	1.52	1.31	1.39	1.85	2.08	2.25	2.38	2.00	1.85	1.98	1.90	1.70	1.32	0.91	0.59	0.44	0.58	0.77	0.91	0.58	0.42	0.39	0.42	2.05	1.87	1.63	1.36	1.12	1.03	1.14	1.31	1.46	1.70	1.94	2.01	2.06	2.17	2.29	2.41	2.47	2.52	2.58	2.63	2.67	2.70	2.73	2.76	2.81	2.87	2.90	2.91	2.96	3.04	3.15	3.21	3.07	3.00	3.05	3.08	3.10	3.12	3.13	3.14	3.15	3.16	3.15	3.15	3.16	3.17	3.17	3.16	3.16	3.15	3.14	3.14	3.14	3.12	3.10	3.08	3.05	3.02	2.99	2.95	2.92	2.88	2.84	2.78	2.73	2.66	2.58	2.50	2.41	2.30	2.19	2.04	1.87	1.66	1.48	1.43	1.56	1.80	2.03	2.35	4.23	4.67	4.72	4.47	6.56	6.83	6.84	6.97	6.74	6.91	7.16	7.54	4.96	4.89	4.81	4.62	8.02	4.14	4.84	6.70	10.76	10.76	
2.42	2.39	2.39	2.56	2.41	5.66	7.13	6.29	4.95	4.36	4.03	4.00	3.84	3.72	3.41	3.54	3.39	3.29	3.29	3.35	3.43	3.59	3.74	3.83	3.92	3.95	4.44	4.32	5.13	5.56	5.74	5.34	5.04	4.12	3.77	3.92	4.03	4.17	4.30	4.78	3.67	0.89	1.76	2.31	2.41	2.12	1.70	1.50	1.38	1.47	1.77	2.05	2.37	2.52	2.24	1.97	1.99	2.14	2.22	1.78	0.72	0.88	1.34	1.60	1.40	0.82	0.40	0.18	0.13	0.24	0.53	0.69	0.81	0.49	0.44	0.45	0.45	2.06	1.85	1.59	1.36	1.20	1.15	1.20	1.28	1.48	1.75	1.92	1.99	2.08	2.19	2.31	2.41	2.47	2.54	2.60	2.62	2.66	2.72	2.76	2.79	2.83	2.87	2.88	2.92	3.00	3.10	3.20	3.12	3.00	3.01	3.06	3.08	3.10	3.11	3.12	3.14	3.15	3.15	3.15	3.15	3.16	3.16	3.16	3.15	3.15	3.14	3.14	3.14	3.12	3.11	3.09	3.06	3.03	3.00	2.97	2.94	2.91	2.87	2.82	2.77	2.71	2.63	2.55	2.47	2.38	2.27	2.14	1.99	1.80	1.58	1.40	1.44	1.67	1.89	2.18	4.13	4.75	4.95	4.77	4.58	6.55	6.49	6.63	6.70	6.97	7.22	7.53	4.43	4.20	4.15	8.16	4.26	4.35	4.93	6.69	12.42	12.42	
2.31	2.24	2.16	1.82	1.69	2.37	6.45	6.26	5.17	4.84	4.53	4.30	4.32	3.79	3.84	3.67	3.44	3.29	3.25	3.31	3.39	3.51	3.70	3.87	3.97	4.47	4.28	4.84	5.20	5.59	5.64	5.45	5.41	4.98	4.53	4.40	4.22	4.06	3.95	4.36	2.01	0.67	1.55	1.89	2.03	1.95	1.82	1.93	2.10	2.20	2.21	2.52	2.87	2.92	2.30	1.75	1.74	1.91	1.53	0.74	0.35	1.18	1.54	1.40	1.06	0.74	0.51	0.32	0.31	0.35	0.47	0.61	0.69	0.73	0.54	0.46	0.43	2.15	2.04	1.87	1.67	1.48	1.35	1.23	1.18	1.28	1.54	1.78	1.89	1.98	2.09	2.21	2.32	2.42	2.50	2.57	2.59	2.61	2.69	2.76	2.79	2.80	2.84	2.87	2.88	2.95	3.08	3.20	3.18	3.06	2.99	3.02	3.06	3.09	3.10	3.11	3.12	3.14	3.14	3.14	3.14	3.15	3.15	3.16	3.15	3.15	3.14	3.14	3.14	3.13	3.11	3.10	3.08	3.05	3.02	2.99	2.96	2.93	2.89	2.85	2.81	2.75	2.68	2.60	2.52	2.44	2.34	2.23	2.09	1.92	1.71	1.45	1.35	1.53	1.77	2.04	4.04	4.61	5.06	4.96	4.78	4.66	4.63	4.69	4.77	6.91	6.98	7.06	4.27	4.06	7.59	4.07	4.33	4.52	5.15	10.35	12.29	12.29	
2.17	2.11	1.96	1.58	1.71	1.76	6.07	7.02	5.89	5.20	4.71	4.35	4.18	3.77	3.78	3.62	3.44	3.29	3.23	3.27	3.30	3.36	3.49	3.61	3.76	4.52	4.27	5.07	5.47	5.68	5.58	5.20	4.85	4.56	4.35	4.25	4.05	3.86	4.07	4.18	0.41	0.97	1.30	1.52	1.80	2.15	2.72	2.84	2.60	2.37	2.32	2.48	2.46	2.18	1.97	2.12	1.96	1.92	1.79	1.21	0.97	1.59	1.74	1.44	1.13	0.88	0.58	0.42	0.42	0.47	0.40	0.40	0.39	0.49	0.85	0.58	0.45	0.41	2.07	1.99	1.88	1.72	1.57	1.39	1.19	1.13	1.30	1.59	1.80	1.92	2.03	2.13	2.23	2.36	2.47	2.53	2.56	2.57	2.64	2.74	2.78	2.78	2.80	2.84	2.85	2.87	3.01	3.17	3.21	3.14	3.03	3.00	3.03	3.07	3.09	3.10	3.11	3.12	3.13	3.13	3.13	3.14	3.15	3.15	3.15	3.15	3.14	3.14	3.14	3.13	3.12	3.11	3.09	3.07	3.04	3.01	2.98	2.94	2.91	2.88	2.84	2.79	2.73	2.65	2.58	2.50	2.41	2.30	2.18	2.03	1.84	1.56	1.33	1.35	1.59	1.89	2.24	4.37	4.94	5.09	5.03	4.83	4.82	4.84	4.94	5.04	5.00	3.92	4.08	5.56	3.91	4.12	4.44	5.00	5.44	6.80	12.14	12.14	
2.09	2.01	1.85	1.75	1.99	1.53	5.92	7.42	6.19	5.25	4.75	4.50	3.94	3.88	3.82	3.69	3.57	3.40	3.30	3.27	3.29	3.36	3.47	3.47	3.54	4.23	5.26	5.61	5.94	6.03	5.93	5.59	5.15	4.69	4.39	4.28	3.63	2.88	3.91	3.14	2.57	2.27	2.11	2.19	2.25	2.48	3.04	3.08	2.43	2.14	2.34	2.34	2.07	1.72	1.37	1.18	1.65	2.38	2.76	2.45	1.92	1.82	1.79	1.50	1.02	0.72	0.61	0.62	0.54	0.46	0.43	0.30	0.31	0.37	0.49	0.82	0.57	0.45	0.33	2.02	1.97	1.88	1.78	1.61	1.36	1.13	1.10	1.30	1.59	1.82	1.98	2.09	2.16	2.27	2.41	2.49	2.53	2.54	2.59	2.68	2.74	2.75	2.76	2.80	2.82	2.82	2.90	3.08	3.18	3.18	3.11	3.01	3.00	3.04	3.07	3.09	3.10	3.11	3.13	3.13	3.13	3.13	3.14	3.14	3.14	3.14	3.14	3.14	3.14	3.14	3.13	3.12	3.10	3.08	3.06	3.03	2.99	2.96	2.94	2.90	2.87	2.83	2.77	2.69	2.63	2.56	2.48	2.38	2.27	2.13	1.96	1.71	1.42	1.27	1.40	1.68	2.01	2.62	4.87	5.12	5.18	4.93	4.81	4.74	4.90	5.10	3.89	3.89	5.64	3.93	3.91	4.18	4.98	5.10	5.63	9.71	12.11	12.11	
2.03	1.94	1.80	1.79	2.16	1.83	5.73	7.58	6.41	5.06	4.64	4.07	3.93	3.93	3.85	3.70	3.61	3.47	3.32	3.21	3.20	3.29	3.41	3.44	4.07	4.02	5.21	5.47	5.75	5.77	5.68	5.66	5.68	5.35	4.93	4.67	3.10	0.62	3.94	4.72	4.41	3.86	3.36	3.16	3.02	3.01	3.20	2.94	2.18	2.31	2.53	1.97	1.40	1.14	1.00	1.03	1.58	2.13	2.34	2.51	2.68	2.27	2.03	1.53	1.09	0.95	0.81	0.94	0.88	0.68	0.55	0.30	0.15	0.36	0.39	1.12	0.75	0.57	0.45	0.36	2.06	2.05	2.01	1.87	1.64	1.36	1.09	1.08	1.30	1.62	1.87	2.03	2.11	2.19	2.31	2.42	2.49	2.51	2.54	2.63	2.70	2.72	2.74	2.77	2.79	2.79	2.82	2.95	3.10	3.17	3.17	3.09	3.00	3.01	3.04	3.07	3.09	3.10	3.12	3.12	3.12	3.12	3.13	3.13	3.14	3.14	3.14	3.14	3.14	3.14	3.13	3.12	3.11	3.09	3.07	3.05	3.01	2.98	2.96	2.93	2.89	2.86	2.81	2.74	2.68	2.62	2.54	2.45	2.35	2.23	2.08	1.87	1.61	1.38	1.34	1.52	1.84	2.48	3.11	5.12	5.13	5.11	4.76	4.59	4.78	4.97	3.76	5.49	3.79	3.82	6.89	4.81	4.99	5.17	9.06	10.38	12.27	12.27	
1.97	1.89	1.74	1.71	2.11	1.82	5.60	7.20	6.75	5.70	4.69	3.99	3.98	3.88	3.77	3.59	3.51	3.42	3.29	3.16	3.12	3.18	3.28	3.32	3.97	3.87	5.10	5.11	5.53	5.65	5.61	5.79	5.84	5.50	4.96	4.38	1.52	3.38	3.89	4.41	4.57	4.81	4.31	3.54	3.45	3.58	3.48	2.78	2.37	2.48	1.98	0.95	1.09	1.40	1.64	2.27	2.59	2.63	2.69	2.80	2.96	2.57	1.96	1.53	1.45	1.32	1.03	1.09	1.16	1.04	0.80	0.61	0.43	0.18	0.15	0.21	1.21	0.85	0.57	0.42	0.49	2.18	2.22	2.15	1.99	1.74	1.37	1.08	1.08	1.36	1.70	1.92	2.05	2.14	2.22	2.32	2.43	2.48	2.51	2.58	2.66	2.69	2.72	2.75	2.76	2.77	2.79	2.85	2.98	3.11	3.16	3.15	3.07	3.00	3.00	3.04	3.07	3.09	3.10	3.11	3.12	3.12	3.12	3.12	3.13	3.14	3.14	3.14	3.14	3.14	3.14	3.13	3.12	3.11	3.09	3.07	3.04	3.01	2.98	2.95	2.92	2.88	2.84	2.78	2.72	2.67	2.60	2.51	2.42	2.32	2.20	2.04	1.83	1.60	1.39	1.41	1.74	2.31	2.96	3.23	5.00	5.27	4.83	3.37	4.98	5.11	5.39	5.33	3.64	3.73	3.76	4.65	4.89	8.30	9.47	11.15	12.23	12.23	
1.95	1.85	1.68	1.59	1.81	1.53	5.30	7.86	6.62	5.80	4.64	4.03	3.90	3.83	3.73	3.58	3.44	3.34	3.24	3.14	3.15	3.25	3.30	3.78	3.69	4.56	4.96	5.32	5.75	5.88	5.93	6.21	6.42	6.02	5.65	1.61	2.80	3.76	4.64	4.84	4.59	5.12	5.21	4.20	3.65	3.70	3.63	3.12	3.12	2.94	2.38	2.21	2.95	2.93	2.57	2.61	2.82	2.95	3.03	3.09	3.35	3.76	3.24	2.30	1.95	1.70	1.39	1.28	1.25	1.26	1.00	0.70	0.56	0.48	0.25	0.11	0.10	0.14	0.93	0.63	0.62	0.75	0.63	2.30	2.25	2.13	1.86	1.43	1.09	1.17	1.50	1.78	1.97	2.10	2.19	2.27	2.38	2.45	2.48	2.53	2.60	2.63	2.67	2.72	2.74	2.75	2.76	2.79	2.87	3.02	3.13	3.16	3.14	3.06	2.99	3.01	3.05	3.07	3.09	3.10	3.11	3.11	3.11	3.11	3.13	3.14	3.14	3.13	3.14	3.14	3.14	3.13	3.13	3.12	3.10	3.08	3.06	3.03	3.00	2.98	2.95	2.91	2.87	2.81	2.76	2.72	2.66	2.57	2.49	2.40	2.30	2.17	2.01	1.81	1.54	1.41	1.66	2.22	2.78	3.07	3.13	3.44	5.05	3.52	3.39	5.49	5.26	3.52	3.63	3.65	6.73	7.01	7.85	8.61	9.34	10.89	11.83	11.83	
1.95	1.84	1.63	1.47	1.45	1.17	4.16	9.15	5.52	4.83	4.31	4.12	3.76	3.67	3.62	3.56	3.42	3.28	3.17	3.07	3.09	3.25	3.38	3.79	4.44	4.70	4.88	5.34	5.58	5.70	5.88	6.23	6.56	6.61	7.57	3.28	3.26	3.80	4.37	4.75	4.62	4.89	5.45	5.03	4.38	3.56	3.39	3.43	3.71	3.88	4.03	4.15	3.94	3.48	3.05	2.83	2.87	3.03	3.14	3.11	2.95	3.41	4.36	4.23	3.19	2.42	1.99	1.76	1.65	1.73	1.48	1.05	0.74	0.60	0.44	0.13	0.07	0.11	0.12	1.05	0.79	0.71	0.63	0.49	2.25	2.23	2.13	1.83	1.41	1.18	1.33	1.61	1.85	2.03	2.14	2.22	2.32	2.41	2.46	2.48	2.54	2.59	2.61	2.66	2.70	2.73	2.74	2.75	2.78	2.90	3.06	3.16	3.18	3.14	3.04	2.99	3.00	3.03	3.06	3.09	3.10	3.10	3.09	3.10	3.12	3.13	3.13	3.13	3.13	3.14	3.14	3.13	3.13	3.12	3.11	3.10	3.07	3.05	3.03	3.00	2.97	2.93	2.90	2.85	2.80	2.76	2.71	2.63	2.55	2.48	2.40	2.28	2.15	1.97	1.70	1.51	1.67	2.16	2.61	2.86	2.98	3.28	3.59	3.54	3.49	5.21	3.56	3.64	3.74	5.00	6.84	7.34	8.06	8.57	9.16	10.70	11.87	11.87	
1.97	1.85	1.62	1.41	1.30	1.22	3.46	9.55	5.28	4.35	4.02	4.11	3.78	3.57	3.48	3.47	3.40	3.28	3.17	3.09	3.08	3.21	3.79	3.85	4.99	5.23	5.29	5.34	5.47	5.65	5.86	6.22	6.42	7.02	5.81	3.64	3.62	3.91	4.34	4.80	4.52	4.38	3.43	4.03	4.95	3.94	3.67	3.72	3.77	4.07	4.18	4.27	3.98	3.51	2.97	2.82	2.97	3.16	3.11	2.57	2.27	3.14	4.23	4.99	5.05	4.25	3.12	2.50	1.94	2.08	2.26	2.01	1.57	1.21	1.17	1.15	0.75	0.33	0.14	0.07	1.28	0.93	0.72	0.54	2.19	2.15	2.13	1.99	1.72	1.42	1.32	1.45	1.67	1.87	2.02	2.12	2.22	2.32	2.40	2.44	2.48	2.55	2.59	2.60	2.65	2.71	2.72	2.72	2.74	2.79	2.92	3.09	3.17	3.18	3.14	3.07	3.03	3.02	3.03	3.07	3.10	3.11	3.09	3.09	3.10	3.12	3.13	3.13	3.13	3.14	3.14	3.14	3.14	3.13	3.12	3.10	3.09	3.07	3.05	3.02	2.99	2.96	2.92	2.88	2.83	2.80	2.76	2.69	2.63	2.57	2.49	2.39	2.28	2.10	1.85	1.65	1.74	2.08	2.41	2.65	2.83	3.10	3.35	3.40	3.39	5.00	5.02	5.13	5.28	5.22	7.21	7.36	7.96	8.61	9.24	10.54	12.01	12.01	
1.99	1.90	1.67	1.45	1.21	1.34	3.17	8.76	4.91	3.97	4.27	4.17	3.90	3.63	3.45	3.43	3.39	3.30	3.19	3.12	3.09	3.18	3.79	4.72	5.03	5.00	5.33	5.45	5.70	6.06	6.31	6.58	6.80	7.88	4.05	3.85	4.01	3.85	3.61	3.93	2.92	4.17	3.14	3.94	4.03	4.08	4.30	4.16	4.20	4.25	4.45	4.46	4.36	4.65	3.97	3.31	2.89	2.63	2.66	2.59	3.19	3.83	4.36	4.97	5.18	5.36	5.14	4.95	4.66	3.55	2.99	2.69	2.54	2.07	1.97	1.98	1.66	1.09	0.66	0.43	0.32	1.66	1.26	0.87	0.59	2.16	2.13	2.07	1.93	1.70	1.49	1.48	1.58	1.72	1.88	2.01	2.11	2.21	2.30	2.37	2.42	2.50	2.56	2.57	2.60	2.67	2.69	2.70	2.72	2.74	2.79	2.94	3.11	3.17	3.17	3.17	3.15	3.10	3.04	3.05	3.10	3.13	3.12	3.10	3.10	3.10	3.11	3.12	3.13	3.13	3.13	3.13	3.14	3.15	3.14	3.12	3.11	3.08	3.06	3.04	3.01	2.98	2.95	2.92	2.87	2.83	2.80	2.75	2.70	2.65	2.58	2.50	2.40	2.25	2.02	1.83	1.86	2.05	2.23	2.43	2.65	2.89	3.09	3.17	3.22	5.07	5.12	5.31	5.49	5.55	5.42	7.40	7.69	8.40	9.09	10.51	12.01	12.01	
2.07	1.98	1.75	1.51	1.23	1.32	1.26	7.72	4.99	4.57	4.22	4.10	3.86	3.64	3.45	3.39	3.32	3.23	3.08	2.94	2.82	2.94	3.77	5.18	5.27	5.38	5.58	5.82	6.02	6.35	6.75	7.06	7.87	4.70	3.73	3.77	3.96	3.54	3.24	3.50	3.91	3.59	2.94	2.47	4.12	4.03	4.04	4.87	4.76	4.60	4.73	4.72	4.50	4.64	4.88	4.55	4.18	3.97	3.89	4.20	4.16	3.98	4.08	4.53	4.73	5.10	5.28	5.10	5.60	5.11	5.66	5.00	3.95	3.17	2.04	2.02	2.19	2.07	1.50	1.15	0.87	0.62	2.14	1.60	1.12	0.76	2.23	2.14	2.04	1.86	1.69	1.67	1.67	1.68	1.78	1.91	2.03	2.11	2.18	2.24	2.32	2.41	2.49	2.52	2.55	2.60	2.64	2.68	2.71	2.72	2.74	2.81	2.97	3.12	3.14	3.11	3.17	3.19	3.10	3.04	3.07	3.11	3.14	3.15	3.14	3.12	3.12	3.12	3.13	3.14	3.15	3.14	3.14	3.16	3.18	3.17	3.14	3.12	3.09	3.07	3.04	3.01	2.97	2.95	2.92	2.89	2.85	2.80	2.76	2.71	2.65	2.58	2.50	2.39	2.23	2.07	2.02	2.07	2.17	2.29	2.44	2.65	2.83	2.95	3.08	3.16	5.05	5.29	5.54	5.67	5.66	5.38	7.47	8.12	9.02	10.74	12.18	12.18	
2.12	2.05	1.82	1.56	1.34	1.24	0.83	7.43	5.63	4.85	4.34	4.07	3.84	3.66	3.45	3.36	3.28	3.20	3.02	2.70	2.42	3.38	3.40	5.35	5.67	6.09	6.10	6.14	6.32	6.69	7.10	7.79	4.70	5.13	4.23	3.93	3.60	3.42	2.96	2.90	3.42	3.35	4.06	3.50	2.66	3.21	3.67	3.98	4.08	3.99	3.88	3.81	4.83	4.87	5.04	4.92	4.51	4.64	4.78	4.77	4.78	4.46	4.57	4.83	4.66	4.72	4.88	4.71	4.21	4.59	4.67	5.11	5.35	4.92	5.37	5.50	4.54	3.30	2.57	2.07	1.86	1.72	1.59	2.32	1.77	1.24	2.45	2.27	2.11	1.92	1.76	1.76	1.79	1.75	1.75	1.83	1.97	2.07	2.12	2.14	2.18	2.27	2.38	2.45	2.49	2.53	2.56	2.63	2.70	2.70	2.72	2.75	2.81	2.99	3.11	3.09	3.10	3.18	3.15	3.07	3.05	3.07	3.10	3.14	3.16	3.15	3.14	3.13	3.13	3.15	3.16	3.17	3.15	3.14	3.16	3.18	3.17	3.15	3.13	3.10	3.09	3.05	3.00	2.97	2.95	2.94	2.90	2.87	2.84	2.78	2.71	2.64	2.56	2.48	2.40	2.29	2.20	2.14	2.15	2.20	2.27	2.42	2.59	2.73	2.90	3.06	5.05	5.21	5.52	5.69	5.61	5.37	7.33	7.60	8.45	10.59	12.23	12.23	
2.18	2.11	1.89	1.65	1.38	1.19	0.92	6.51	6.02	4.79	4.38	4.13	3.86	3.69	3.48	3.34	3.25	3.21	3.05	2.62	2.15	3.14	2.94	5.23	5.79	6.46	6.22	6.21	6.54	6.97	7.36	5.18	4.99	5.07	4.22	3.58	3.38	3.31	3.50	3.83	4.03	3.72	3.68	4.11	3.69	3.03	3.32	3.65	3.84	3.90	4.00	4.04	4.06	3.85	3.83	4.39	4.33	4.19	4.68	4.75	4.69	4.69	3.78	3.90	3.86	3.86	4.09	4.07	3.99	4.17	4.06	4.21	4.35	4.21	4.42	4.29	5.30	4.65	3.57	2.76	2.44	2.45	2.58	2.71	2.32	1.76	1.24	2.50	2.26	2.03	1.87	1.83	1.84	1.80	1.75	1.77	1.87	1.98	2.06	2.12	2.11	2.12	2.24	2.34	2.40	2.46	2.48	2.55	2.63	2.67	2.70	2.73	2.74	2.82	2.99	3.10	3.14	3.17	3.16	3.13	3.09	3.06	3.07	3.10	3.13	3.14	3.14	3.14	3.12	3.12	3.15	3.18	3.16	3.12	3.13	3.16	3.16	3.15	3.13	3.11	3.11	3.09	3.05	3.00	2.98	2.97	2.93	2.91	2.90	2.86	2.78	2.70	2.63	2.56	2.51	2.45	2.36	2.24	2.15	2.08	2.09	2.24	2.40	2.50	2.62	2.84	3.05	5.05	5.36	5.57	5.47	5.32	5.22	5.29	7.52	9.79	11.97	11.97	
2.27	2.20	2.00	1.77	1.44	1.17	1.07	6.67	5.81	4.72	4.31	4.09	3.87	3.73	3.57	3.46	3.39	3.42	3.20	2.72	2.18	3.06	2.74	4.72	5.47	6.32	6.49	6.55	6.72	6.13	5.76	5.56	5.25	4.34	3.21	3.06	3.04	3.41	3.69	3.96	3.80	3.52	3.84	3.87	4.03	3.24	3.15	3.38	3.52	3.54	3.57	3.70	3.75	3.68	3.73	3.99	4.46	4.57	3.94	4.51	4.11	4.14	3.45	3.66	3.69	3.56	3.76	3.80	3.65	3.78	3.69	3.64	3.78	3.79	3.66	3.71	4.07	4.42	4.22	3.61	3.20	2.96	2.78	2.75	2.56	2.23	1.65	2.76	2.46	2.22	2.08	2.01	1.95	1.85	1.76	1.77	1.82	1.86	1.92	2.02	2.05	1.97	2.05	2.20	2.29	2.37	2.42	2.48	2.55	2.62	2.67	2.71	2.73	2.74	2.82	2.98	3.13	3.21	3.17	3.14	3.13	3.11	3.08	3.08	3.10	3.12	3.13	3.15	3.14	3.11	3.12	3.17	3.18	3.12	3.12	3.15	3.15	3.14	3.13	3.12	3.12	3.11	3.07	3.03	3.01	3.00	2.96	2.93	2.94	2.91	2.84	2.77	2.71	2.65	2.61	2.57	2.50	2.38	2.24	2.10	2.02	2.10	2.25	2.33	2.42	2.62	2.85	3.04	5.11	5.40	5.50	5.50	5.49	5.55	5.60	9.36	11.91	11.91	
2.36	2.30	2.12	1.92	1.57	1.14	1.10	4.89	5.67	4.74	4.32	4.09	3.88	3.76	3.68	3.68	3.71	3.76	3.64	3.04	2.66	2.47	2.61	2.25	4.95	2.87	3.15	3.09	3.73	3.30	6.03	5.81	4.45	3.77	3.08	2.95	3.35	3.55	3.90	3.91	3.35	3.77	4.13	3.61	3.50	3.43	3.29	3.25	3.20	3.48	3.46	3.59	3.64	3.59	3.64	3.86	4.02	3.96	3.75	3.91	3.84	3.54	3.01	3.20	3.27	3.01	3.07	3.30	3.37	3.41	3.34	3.44	3.51	3.53	3.43	3.43	3.85	3.98	4.11	3.99	3.56	3.21	3.03	3.50	3.53	2.73	2.18	3.06	2.74	2.48	2.28	2.14	2.10	1.99	1.82	1.83	1.88	1.88	1.87	1.93	2.01	1.87	1.82	2.00	2.17	2.28	2.36	2.43	2.49	2.55	2.64	2.69	2.71	2.72	2.73	2.81	2.98	3.16	3.22	3.17	3.14	3.14	3.11	3.09	3.11	3.13	3.13	3.15	3.15	3.12	3.11	3.16	3.19	3.15	3.14	3.17	3.17	3.14	3.15	3.14	3.14	3.14	3.09	3.04	3.04	3.03	3.00	2.98	2.99	2.97	2.90	2.83	2.77	2.72	2.71	2.68	2.61	2.50	2.38	2.25	2.10	2.06	2.13	2.20	2.32	2.53	2.72	2.89	3.24	3.60	5.64	5.71	5.72	5.74	5.73	9.38	11.77	11.77	
2.44	2.40	2.25	2.07	1.75	1.19	1.30	4.65	5.41	4.62	4.28	4.09	3.87	3.73	3.66	3.67	3.71	4.28	3.95	3.40	2.82	2.79	1.99	4.10	4.64	2.51	2.97	3.05	3.07	3.49	3.55	5.97	6.04	3.42	3.13	3.62	3.77	4.19	4.48	3.68	3.59	3.45	3.55	3.44	3.37	3.39	3.30	3.11	3.46	2.84	3.44	3.55	3.62	3.59	3.65	3.82	3.81	3.72	3.36	3.43	3.34	2.59	2.47	2.44	2.90	3.04	3.17	3.21	3.24	3.29	3.08	3.08	3.02	2.95	3.02	3.94	3.72	3.75	3.84	3.77	3.49	3.62	3.52	3.36	3.20	3.27	3.24	3.10	3.02	2.88	2.63	2.31	2.19	2.13	1.96	1.92	1.96	1.97	1.95	1.99	2.07	1.89	1.63	1.75	2.03	2.19	2.28	2.36	2.44	2.50	2.58	2.67	2.70	2.71	2.72	2.74	2.82	2.99	3.15	3.23	3.23	3.17	3.14	3.11	3.10	3.12	3.15	3.14	3.13	3.13	3.13	3.15	3.17	3.17	3.16	3.18	3.17	3.15	3.15	3.15	3.14	3.15	3.12	3.07	3.06	3.06	3.04	3.03	3.03	3.04	2.98	2.89	2.82	2.78	2.78	2.77	2.71	2.61	2.52	2.41	2.27	2.15	2.12	2.10	2.20	2.47	2.69	2.83	3.11	3.42	3.71	5.75	5.90	5.97	5.97	7.67	11.63	11.63	
2.50	2.47	2.36	2.23	1.98	1.46	1.66	4.53	5.19	4.53	4.20	4.08	3.91	3.81	3.73	3.63	3.66	4.04	3.92	4.21	3.59	2.68	2.10	3.95	4.45	2.24	2.78	2.97	3.10	3.55	3.44	3.77	4.31	4.35	3.60	3.91	4.34	4.34	3.66	3.69	3.87	3.79	3.73	3.48	3.43	3.61	3.52	3.54	3.58	3.48	3.49	3.60	3.64	3.65	3.74	3.38	3.28	3.05	2.96	3.15	2.26	1.47	1.99	2.06	2.61	2.86	2.90	2.84	2.92	3.49	3.62	3.71	3.79	3.91	2.90	2.84	3.66	3.59	3.69	4.00	3.84	3.51	3.37	1.91	1.47	1.24	1.08	1.87	2.32	1.77	1.41	2.63	2.36	2.24	2.15	2.06	2.04	2.04	2.02	2.06	2.17	2.00	1.56	1.51	1.80	2.05	2.18	2.27	2.36	2.43	2.51	2.61	2.67	2.69	2.72	2.75	2.77	2.83	2.95	3.14	3.29	3.27	3.18	3.13	3.10	3.10	3.14	3.16	3.13	3.12	3.15	3.17	3.15	3.15	3.17	3.18	3.17	3.15	3.15	3.15	3.13	3.14	3.15	3.10	3.08	3.08	3.07	3.05	3.06	3.07	3.04	2.94	2.88	2.85	2.84	2.84	2.80	2.72	2.65	2.56	2.44	2.33	2.23	2.10	2.10	2.36	2.65	2.80	2.98	3.22	3.53	3.84	6.00	6.08	6.20	7.84	11.64	11.64	
2.56	2.54	2.47	2.37	2.21	1.85	2.07	4.03	4.96	4.52	4.15	4.01	3.92	3.88	3.78	3.71	3.91	4.01	4.46	4.27	3.54	2.99	2.43	1.81	4.44	2.01	2.57	2.87	3.12	3.68	3.36	3.68	4.30	4.89	4.27	4.60	3.92	3.84	3.77	3.65	3.78	3.80	3.67	3.52	3.49	3.14	2.64	2.81	3.23	3.47	3.59	3.74	3.78	3.79	2.86	2.75	2.54	2.58	1.97	1.67	1.10	0.61	1.07	2.19	2.47	1.84	1.73	1.90	2.02	2.39	3.44	3.44	3.56	3.73	3.86	3.80	3.58	3.47	3.87	2.37	2.13	1.98	2.05	3.61	3.54	2.14	1.80	1.94	2.05	1.82	1.66	1.39	2.55	2.34	2.27	2.18	2.11	2.12	2.10	2.10	2.20	2.06	1.61	1.40	1.58	1.84	2.05	2.19	2.27	2.35	2.44	2.52	2.59	2.65	2.70	2.74	2.77	2.79	2.81	2.93	3.17	3.31	3.27	3.19	3.14	3.13	3.13	3.15	3.14	3.12	3.13	3.16	3.15	3.13	3.15	3.16	3.17	3.17	3.16	3.16	3.14	3.15	3.17	3.15	3.12	3.12	3.10	3.07	3.08	3.09	3.07	2.99	2.92	2.91	2.91	2.89	2.86	2.81	2.76	2.68	2.58	2.50	2.39	2.20	2.09	2.29	2.62	2.77	2.86	3.01	3.29	3.64	4.02	6.04	6.26	7.86	11.46	11.46	
2.61	2.59	2.55	2.49	2.40	2.19	2.43	3.84	4.73	4.52	4.16	4.00	3.94	3.92	3.88	3.92	3.96	4.90	4.84	4.33	3.53	3.16	2.78	2.29	3.72	1.84	2.33	2.74	3.08	3.29	3.40	3.67	4.32	4.80	4.56	3.78	3.89	4.00	3.85	3.85	3.80	3.76	3.41	3.19	3.01	1.79	2.53	3.09	3.63	3.55	3.61	3.85	4.06	2.73	2.14	2.20	1.86	1.42	3.62	3.49	3.87	1.18	0.54	1.10	3.10	1.61	1.22	1.82	2.01	1.80	1.70	1.77	1.95	2.22	3.73	3.59	3.40	3.45	3.77	2.28	1.73	0.49	3.73	3.85	1.73	2.27	1.87	1.70	1.67	1.86	1.94	1.81	1.60	2.48	2.34	2.25	2.17	2.19	2.23	2.19	2.18	2.05	1.67	1.39	1.44	1.65	1.87	2.07	2.18	2.28	2.40	2.47	2.51	2.58	2.66	2.72	2.76	2.79	2.79	2.82	2.95	3.18	3.31	3.28	3.20	3.15	3.14	3.14	3.12	3.11	3.12	3.13	3.15	3.15	3.14	3.13	3.15	3.18	3.18	3.17	3.16	3.17	3.18	3.17	3.16	3.15	3.12	3.09	3.10	3.11	3.10	3.05	2.97	2.95	2.96	2.93	2.90	2.86	2.82	2.77	2.70	2.63	2.52	2.34	2.17	2.29	2.65	2.82	2.82	2.82	3.02	3.36	3.80	5.90	6.36	7.89	9.07	9.07	
2.63	2.62	2.61	2.58	2.53	2.41	2.60	3.73	4.64	4.49	4.13	4.03	3.97	4.02	4.20	4.11	4.66	4.88	5.32	3.63	3.55	3.11	2.89	2.68	2.22	4.18	2.11	2.59	2.98	3.30	3.49	3.74	4.29	4.59	3.96	3.53	3.56	3.58	3.69	3.74	3.69	3.57	3.24	3.33	3.66	4.07	4.15	3.93	3.73	3.60	3.54	3.78	2.71	1.94	1.42	1.25	3.62	3.68	3.72	3.52	3.66	1.26	0.93	3.74	1.44	1.40	1.41	1.86	2.13	1.63	1.64	1.42	1.32	1.24	1.49	3.70	3.36	3.35	3.66	1.93	0.30	3.86	3.97	4.03	2.01	1.75	1.51	1.76	1.53	1.66	1.99	2.04	1.94	1.60	1.18	2.34	2.29	2.29	2.36	2.37	2.22	2.01	1.72	1.39	1.34	1.49	1.69	1.90	2.05	2.18	2.35	2.45	2.47	2.52	2.60	2.67	2.74	2.78	2.80	2.80	2.83	2.97	3.18	3.33	3.31	3.21	3.16	3.16	3.14	3.11	3.12	3.13	3.14	3.17	3.17	3.13	3.14	3.17	3.18	3.17	3.16	3.17	3.17	3.16	3.16	3.16	3.13	3.12	3.12	3.12	3.12	3.10	3.03	2.99	3.00	2.96	2.93	2.91	2.87	2.84	2.80	2.72	2.63	2.50	2.30	2.32	2.67	2.92	2.86	2.76	2.85	3.10	3.56	5.85	6.60	8.04	9.01	9.01	
2.64	2.63	2.64	2.63	2.62	2.56	2.66	3.44	4.62	4.56	4.13	3.95	3.88	4.22	4.36	5.29	5.06	5.48	5.85	3.44	3.65	3.07	2.90	2.84	2.56	4.38	2.07	2.54	2.97	3.32	3.58	3.83	4.18	4.16	3.88	3.83	3.56	3.46	3.58	3.65	3.57	3.48	3.53	3.39	3.49	3.72	3.81	3.74	3.63	3.52	3.46	2.44	2.26	2.29	1.52	1.01	3.95	3.84	3.91	3.85	3.57	1.19	1.10	1.10	1.18	1.16	1.15	1.22	1.40	1.57	1.33	1.27	1.47	1.48	1.85	2.26	2.22	2.23	1.70	0.72	4.01	3.98	4.12	3.98	3.77	2.02	1.71	1.46	1.83	1.61	1.96	2.18	1.95	1.55	1.15	1.04	1.27	1.42	2.51	2.53	2.34	2.04	1.83	1.52	1.29	1.33	1.54	1.76	1.93	2.06	2.22	2.38	2.44	2.48	2.55	2.62	2.69	2.76	2.80	2.82	2.83	2.86	2.99	3.20	3.34	3.31	3.22	3.20	3.19	3.15	3.14	3.13	3.13	3.17	3.20	3.17	3.13	3.15	3.17	3.18	3.17	3.17	3.17	3.17	3.18	3.17	3.16	3.15	3.14	3.13	3.12	3.13	3.08	3.06	3.07	3.02	2.97	2.96	2.92	2.89	2.87	2.80	2.72	2.63	2.45	2.39	2.67	2.96	2.92	2.81	2.84	2.94	3.35	5.83	6.66	8.16	9.11	9.11	
2.63	2.63	2.66	2.67	2.67	2.66	2.75	3.37	4.70	4.78	4.27	4.33	4.21	4.88	5.53	5.85	5.69	6.24	6.72	3.77	3.85	3.20	3.05	2.96	2.76	3.92	4.82	2.64	3.06	3.41	3.71	3.94	3.78	3.93	3.90	3.83	3.64	3.46	3.47	3.55	3.58	3.60	3.58	3.55	3.61	3.65	3.63	3.64	3.57	3.34	3.30	3.46	3.84	1.93	4.15	4.03	4.01	3.97	4.04	4.16	0.97	1.04	1.31	1.18	1.11	1.06	1.04	1.04	1.10	1.12	0.99	1.32	1.86	2.13	3.91	3.92	3.95	1.79	1.74	3.94	3.97	3.92	3.76	4.09	2.82	2.09	1.75	1.54	1.19	1.10	1.85	2.24	2.18	1.83	1.35	1.13	1.36	1.46	1.64	2.67	2.38	2.06	1.94	1.78	1.44	1.22	1.33	1.61	1.84	2.00	2.12	2.25	2.38	2.46	2.53	2.59	2.64	2.72	2.78	2.82	2.84	2.84	2.88	3.03	3.23	3.34	3.30	3.23	3.21	3.19	3.16	3.14	3.13	3.15	3.21	3.20	3.14	3.14	3.16	3.18	3.18	3.18	3.19	3.19	3.20	3.20	3.19	3.18	3.17	3.14	3.14	3.14	3.11	3.12	3.15	3.11	3.05	3.01	2.96	2.93	2.91	2.86	2.80	2.71	2.56	2.47	2.65	2.92	2.91	2.83	2.89	2.89	3.16	3.84	6.43	8.07	9.18	9.18	
2.60	2.61	2.65	2.67	2.69	2.70	2.80	3.24	4.57	4.76	4.86	4.59	5.05	5.18	5.63	5.55	5.22	5.74	6.36	3.81	3.92	3.31	3.18	3.08	2.87	4.13	4.95	2.74	3.13	3.50	3.80	3.65	3.35	3.78	3.76	3.78	3.70	3.53	3.45	3.43	3.45	3.49	3.52	3.59	3.75	3.81	3.64	3.60	3.69	3.41	3.17	3.34	3.67	3.99	4.01	3.90	3.85	3.83	3.94	4.25	0.82	1.06	1.35	1.12	1.07	1.08	1.22	1.27	1.21	1.15	1.18	1.75	3.39	3.60	3.88	3.93	3.94	0.22	3.91	3.98	4.01	3.75	3.73	4.04	4.26	2.42	1.66	1.15	0.80	0.81	1.47	1.96	1.64	1.19	1.74	1.43	1.55	1.63	1.98	1.89	2.49	2.01	1.84	1.87	1.71	1.28	1.14	1.34	1.65	1.92	2.11	2.18	2.26	2.41	2.51	2.56	2.60	2.68	2.76	2.81	2.84	2.86	2.88	2.94	3.09	3.29	3.38	3.30	3.21	3.20	3.19	3.16	3.14	3.16	3.20	3.22	3.17	3.14	3.16	3.18	3.19	3.19	3.20	3.21	3.21	3.21	3.21	3.21	3.20	3.17	3.15	3.14	3.12	3.12	3.16	3.16	3.11	3.07	3.03	2.99	2.96	2.92	2.88	2.79	2.65	2.54	2.63	2.84	2.89	2.83	2.92	2.94	2.99	3.49	4.36	7.84	9.06	9.06	
2.57	2.58	2.62	2.65	2.69	2.70	2.79	3.12	4.52	5.44	5.03	4.74	5.56	5.69	5.96	6.03	5.71	5.78	6.35	4.39	3.86	3.36	3.24	3.17	2.95	4.52	2.51	2.83	3.18	3.56	3.82	3.87	3.84	3.74	3.68	3.71	3.70	3.60	3.51	3.43	3.37	3.38	3.42	3.51	3.71	3.97	3.88	3.54	2.69	1.82	3.43	3.42	3.59	3.74	3.86	3.91	3.85	3.78	3.82	4.17	1.49	4.09	1.35	1.07	1.06	1.04	1.37	1.62	1.57	1.47	1.43	1.94	3.40	3.47	3.76	3.94	0.94	3.84	3.89	3.93	3.97	3.95	3.89	4.11	3.52	2.56	1.67	0.99	0.89	0.97	1.16	1.46	1.80	1.54	1.11	1.75	1.67	1.69	2.03	2.21	1.91	2.26	1.84	1.81	1.80	1.50	1.15	1.10	1.32	1.66	2.00	2.17	2.18	2.32	2.48	2.54	2.58	2.64	2.73	2.80	2.84	2.86	2.89	2.89	2.95	3.13	3.37	3.41	3.25	3.19	3.21	3.16	3.14	3.17	3.20	3.22	3.21	3.17	3.15	3.17	3.19	3.20	3.21	3.21	3.22	3.23	3.23	3.23	3.22	3.20	3.17	3.16	3.14	3.13	3.17	3.17	3.13	3.11	3.07	3.05	3.03	2.98	2.94	2.88	2.75	2.62	2.61	2.77	2.87	2.85	2.97	3.01	2.91	3.19	4.09	6.01	8.92	8.92	
2.53	2.55	2.59	2.62	2.65	2.68	2.73	3.00	5.07	5.77	5.08	5.52	5.50	5.79	6.19	6.48	6.55	6.48	6.25	4.33	3.70	3.34	3.30	3.23	3.06	4.33	5.31	3.01	3.34	3.64	3.71	3.64	3.66	3.64	3.58	3.60	3.62	3.59	3.49	3.41	3.37	3.39	3.36	3.29	3.47	3.98	2.07	1.91	3.38	3.64	3.72	3.67	3.65	3.65	3.70	3.80	3.81	3.78	3.84	4.11	2.03	1.14	1.19	1.05	1.11	0.83	1.19	1.50	1.57	1.72	1.98	3.61	3.54	3.52	3.64	1.49	3.92	4.05	4.06	3.95	3.88	3.91	3.92	4.04	3.41	2.32	1.36	0.81	0.96	1.09	1.12	1.47	2.09	2.26	1.73	1.19	0.99	1.77	1.96	2.13	2.04	1.73	1.17	2.06	1.90	1.71	1.38	1.11	1.08	1.29	1.68	2.03	2.12	2.23	2.43	2.52	2.55	2.60	2.69	2.78	2.83	2.85	2.88	2.89	2.88	2.97	3.23	3.45	3.38	3.24	3.21	3.16	3.11	3.13	3.17	3.20	3.21	3.20	3.17	3.17	3.19	3.20	3.22	3.22	3.23	3.24	3.24	3.24	3.24	3.23	3.21	3.20	3.17	3.16	3.20	3.20	3.15	3.12	3.09	3.08	3.08	3.05	3.01	2.97	2.87	2.74	2.64	2.71	2.85	2.90	3.02	3.07	2.90	3.01	3.88	5.90	8.74	8.74	
2.48	2.50	2.54	2.58	2.61	2.65	2.69	2.85	4.07	5.73	5.15	5.79	5.78	5.84	6.07	6.29	6.44	6.45	5.21	4.38	3.59	3.28	3.32	3.31	3.20	4.12	2.90	3.13	3.62	3.93	3.57	3.32	3.45	3.49	3.49	3.51	3.51	3.50	3.47	3.37	3.24	3.33	3.44	3.13	3.15	2.32	1.55	3.75	3.43	3.52	3.70	3.79	3.80	3.78	3.75	3.72	3.67	3.66	3.75	2.20	1.26	1.00	1.64	1.13	0.79	0.74	1.17	1.29	1.43	1.97	3.43	3.58	3.65	3.65	1.72	3.68	3.82	4.16	4.33	4.22	4.05	4.01	3.48	3.49	3.30	2.05	1.04	0.71	0.87	1.08	1.18	1.64	2.08	2.39	1.97	1.03	0.35	0.36	0.83	2.08	2.04	1.94	1.67	1.28	2.42	2.10	1.78	1.46	1.19	1.14	1.36	1.74	1.99	2.12	2.34	2.50	2.53	2.56	2.64	2.74	2.81	2.84	2.87	2.89	2.89	2.89	3.05	3.32	3.45	3.36	3.26	3.19	3.13	3.11	3.15	3.19	3.20	3.20	3.19	3.17	3.19	3.20	3.22	3.23	3.24	3.25	3.25	3.25	3.25	3.24	3.24	3.25	3.22	3.18	3.21	3.25	3.22	3.16	3.12	3.11	3.11	3.09	3.07	3.05	2.97	2.87	2.75	2.73	2.82	2.92	3.08	3.14	2.99	2.98	3.67	5.64	6.95	6.95	
2.45	2.47	2.50	2.53	2.56	2.59	2.64	2.88	4.03	5.38	6.09	6.04	6.18	6.10	6.11	6.27	6.38	6.76	3.61	4.39	3.64	3.31	3.29	3.76	3.36	3.15	5.53	3.26	3.91	1.64	3.60	3.02	3.17	3.36	3.47	3.41	3.29	3.36	3.42	3.52	3.36	3.20	2.26	3.25	3.10	3.59	3.80	3.62	3.47	3.52	3.60	3.72	3.83	3.89	3.90	3.77	3.62	3.62	2.70	2.32	2.12	2.15	1.44	0.79	0.93	1.31	1.30	1.37	1.91	2.31	3.38	3.53	3.68	3.77	1.35	3.84	3.78	4.02	4.31	4.35	3.60	3.62	3.53	3.23	2.91	2.04	1.49	1.30	1.08	1.06	1.20	1.62	2.40	2.69	1.74	0.05	1.02	1.47	0.56	0.13	2.17	2.12	2.02	1.71	1.61	2.82	2.40	2.06	1.77	1.49	1.39	1.57	1.82	2.01	2.26	2.48	2.54	2.55	2.60	2.70	2.79	2.83	2.86	2.89	2.89	2.88	2.92	3.12	3.36	3.44	3.37	3.25	3.17	3.11	3.12	3.17	3.18	3.19	3.19	3.18	3.19	3.20	3.22	3.23	3.24	3.26	3.26	3.26	3.26	3.24	3.25	3.27	3.26	3.22	3.20	3.24	3.27	3.22	3.18	3.17	3.14	3.12	3.11	3.10	3.06	2.99	2.91	2.86	2.85	2.91	3.14	3.27	3.21	3.17	3.53	5.24	6.54	6.54	
2.40	2.43	2.47	2.49	2.51	2.54	2.58	2.90	3.73	5.70	6.02	5.95	6.08	6.07	6.27	6.56	6.56	6.62	4.54	4.17	3.68	3.42	3.22	3.30	3.46	3.40	5.09	5.40	4.23	3.38	3.75	2.80	2.83	3.24	3.61	3.49	3.15	3.12	3.20	3.52	2.09	3.29	3.26	3.29	3.25	3.41	3.45	3.42	3.42	3.47	3.52	3.64	3.83	3.94	3.97	3.26	3.01	2.82	2.46	2.39	2.23	2.08	1.08	0.60	1.12	1.70	1.68	1.92	2.71	3.47	3.42	3.51	3.67	0.90	3.95	4.01	3.98	4.05	4.23	3.74	3.70	3.70	3.55	3.11	2.63	2.06	1.79	1.55	1.10	0.93	1.03	1.36	2.07	2.56	1.08	1.40	2.15	2.45	1.87	1.54	1.76	2.25	2.23	1.86	1.79	1.76	3.04	2.63	2.33	2.09	1.88	1.77	1.80	1.93	2.20	2.46	2.54	2.58	2.61	2.67	2.76	2.83	2.85	2.88	2.90	2.90	2.90	2.99	3.19	3.39	3.43	3.33	3.21	3.13	3.12	3.16	3.18	3.18	3.18	3.19	3.19	3.20	3.22	3.24	3.24	3.26	3.27	3.28	3.27	3.25	3.25	3.27	3.28	3.27	3.22	3.21	3.26	3.25	3.22	3.22	3.19	3.15	3.13	3.14	3.12	3.08	3.04	3.02	2.95	2.90	3.10	3.38	3.51	3.54	3.64	4.81	5.95	5.95	
2.37	2.39	2.43	2.45	2.46	2.50	2.58	2.84	3.09	4.62	6.35	6.31	6.43	6.38	6.55	6.61	6.14	5.51	4.44	3.85	3.60	3.49	3.25	3.24	2.87	5.11	3.55	5.77	4.48	1.04	1.42	2.84	2.62	2.96	2.14	1.94	2.01	2.95	2.98	3.31	3.61	3.48	3.24	3.24	3.36	3.42	3.34	3.32	3.37	3.40	3.40	3.54	3.88	4.09	3.80	3.46	3.13	2.82	1.52	1.25	1.05	0.85	0.93	0.74	1.47	1.62	1.75	3.11	3.66	3.55	3.53	3.58	0.80	3.78	3.90	3.99	4.09	4.14	3.85	3.91	3.85	3.66	3.52	3.32	2.93	2.39	1.92	1.40	1.00	0.91	0.96	1.04	1.48	1.69	1.65	2.26	2.56	2.59	2.01	2.03	2.03	2.16	2.08	2.30	2.40	2.24	1.96	2.97	2.63	2.38	2.26	2.14	1.99	1.95	2.17	2.43	2.51	2.58	2.64	2.65	2.72	2.80	2.85	2.87	2.89	2.92	2.92	2.93	3.06	3.28	3.42	3.38	3.27	3.18	3.14	3.16	3.19	3.17	3.17	3.19	3.19	3.20	3.22	3.24	3.25	3.26	3.27	3.30	3.30	3.28	3.28	3.28	3.28	3.30	3.29	3.24	3.24	3.27	3.26	3.26	3.27	3.22	3.18	3.18	3.18	3.15	3.12	3.11	3.07	2.96	2.97	3.25	3.64	3.93	4.01	4.67	5.34	5.34	
2.33	2.35	2.39	2.41	2.42	2.47	2.60	2.91	2.88	4.52	6.64	4.56	6.96	6.88	6.88	6.79	6.84	4.34	4.48	3.64	3.53	3.51	3.38	3.27	3.19	3.21	3.47	3.97	4.77	0.90	3.88	3.28	2.77	2.80	3.42	3.78	3.49	3.00	2.96	3.32	3.57	3.58	3.46	3.42	3.55	3.63	3.51	3.39	3.43	3.14	2.84	3.36	3.84	4.18	4.17	2.97	2.59	1.94	1.44	1.25	1.11	1.31	1.34	1.35	1.93	1.83	3.40	3.22	3.73	3.65	3.69	1.42	3.79	3.95	4.08	4.05	4.09	3.74	3.89	4.08	4.03	3.88	3.67	3.44	2.98	2.32	1.86	1.60	1.34	1.08	0.93	1.00	1.43	1.77	2.35	2.53	2.56	2.59	2.46	2.85	3.08	2.30	2.10	2.38	2.71	2.39	3.10	2.99	2.76	2.40	2.26	2.27	2.18	2.06	2.20	2.43	2.46	2.52	2.63	2.65	2.69	2.77	2.83	2.86	2.88	2.92	2.93	2.92	2.99	3.17	3.38	3.43	3.33	3.22	3.16	3.16	3.19	3.18	3.18	3.20	3.20	3.19	3.21	3.24	3.26	3.27	3.27	3.29	3.30	3.30	3.30	3.29	3.29	3.33	3.36	3.31	3.26	3.28	3.27	3.28	3.32	3.30	3.24	3.23	3.24	3.22	3.18	3.15	3.16	3.09	2.96	3.00	3.39	3.94	4.31	4.72	5.02	5.02	
2.30	2.32	2.35	2.38	2.40	2.45	2.58	2.98	2.98	4.64	6.94	4.65	4.71	6.95	7.11	7.09	7.58	5.05	4.40	3.53	3.50	3.50	3.43	3.32	3.17	3.14	3.37	4.31	0.80	4.48	3.56	2.44	3.10	3.05	3.47	3.73	3.72	3.47	3.28	3.40	3.59	3.60	3.52	3.50	3.56	3.70	3.74	3.67	3.70	3.69	3.29	3.20	3.71	4.17	3.61	3.11	2.39	1.49	0.94	1.11	1.30	1.73	1.93	2.53	2.57	2.54	3.87	3.49	3.94	3.87	3.85	0.38	4.02	4.18	4.37	4.06	3.86	3.85	3.95	4.12	4.05	3.96	3.72	3.37	2.68	2.00	1.69	1.52	1.29	0.98	0.72	1.02	1.43	1.74	2.29	2.67	2.54	2.42	2.70	2.89	2.23	2.16	1.95	1.98	2.43	2.44	2.89	2.88	2.78	2.46	2.20	2.18	2.17	2.11	2.23	2.46	2.48	2.50	2.59	2.64	2.68	2.74	2.80	2.84	2.87	2.91	2.93	2.93	2.94	3.05	3.28	3.45	3.40	3.25	3.17	3.15	3.18	3.20	3.20	3.22	3.22	3.21	3.22	3.23	3.25	3.28	3.28	3.29	3.30	3.29	3.29	3.29	3.29	3.32	3.35	3.34	3.31	3.29	3.26	3.27	3.31	3.32	3.29	3.27	3.27	3.27	3.24	3.22	3.22	3.21	3.11	2.99	3.13	3.60	4.17	4.71	4.99	4.99	
2.27	2.29	2.33	2.36	2.37	2.42	2.52	2.90	2.93	4.99	7.43	4.78	4.78	4.84	7.30	7.27	7.67	4.98	4.18	3.45	3.47	3.46	3.44	3.39	3.21	3.12	3.26	4.50	0.32	4.60	3.41	1.21	3.18	3.26	3.58	3.86	3.99	3.94	3.73	3.58	3.60	3.58	3.50	3.52	3.56	3.57	3.60	3.64	3.74	3.89	3.79	3.57	3.68	3.75	3.65	3.27	2.14	1.13	0.74	1.50	1.55	1.99	2.69	2.98	3.15	4.19	4.10	4.23	4.18	4.06	3.89	3.87	3.88	4.01	4.30	4.24	4.08	4.17	4.26	4.24	4.20	4.01	3.66	3.29	2.76	2.16	1.64	1.23	0.99	0.66	0.46	1.13	1.63	2.02	2.45	2.73	2.66	2.20	2.19	2.38	1.79	1.77	1.58	1.46	1.75	2.12	2.71	2.76	2.72	2.50	2.25	2.09	2.05	2.07	2.21	2.43	2.51	2.51	2.57	2.63	2.68	2.72	2.78	2.83	2.86	2.89	2.92	2.93	2.92	2.95	3.12	3.39	3.48	3.34	3.20	3.15	3.15	3.18	3.21	3.22	3.23	3.24	3.23	3.22	3.23	3.26	3.27	3.30	3.33	3.31	3.28	3.28	3.30	3.32	3.31	3.31	3.34	3.33	3.28	3.27	3.31	3.31	3.32	3.33	3.33	3.31	3.29	3.28	3.28	3.29	3.28	3.20	3.17	3.37	3.80	4.52	4.96	4.96	
2.23	2.27	2.30	2.33	2.35	2.37	2.46	2.59	2.59	4.80	8.23	4.80	4.55	7.81	4.83	4.80	7.71	5.00	4.00	3.40	3.48	3.46	3.07	3.46	3.24	3.10	3.19	4.31	0.63	4.33	1.67	3.25	3.11	3.16	3.33	3.65	3.95	4.07	3.96	3.75	3.66	3.53	3.42	3.57	3.76	2.24	3.54	3.43	3.52	3.81	3.11	3.80	3.36	3.35	3.49	2.50	0.86	1.03	1.48	1.83	2.23	2.79	3.14	3.42	4.29	4.23	4.21	4.26	4.20	4.06	3.86	3.73	3.67	3.74	4.02	4.14	4.12	4.26	4.71	4.74	4.62	4.30	3.82	3.21	2.68	2.28	1.78	1.22	0.69	0.79	1.07	1.22	1.50	1.88	2.32	2.62	2.73	2.25	1.84	1.97	1.61	1.69	1.57	1.40	1.49	1.85	2.52	2.62	2.61	2.44	2.27	2.07	1.96	1.99	2.15	2.36	2.45	2.47	2.53	2.60	2.65	2.70	2.76	2.81	2.85	2.88	2.91	2.92	2.92	2.92	2.99	3.25	3.47	3.41	3.27	3.19	3.14	3.15	3.19	3.21	3.22	3.25	3.26	3.24	3.25	3.28	3.27	3.30	3.35	3.34	3.31	3.30	3.33	3.36	3.34	3.31	3.33	3.37	3.35	3.31	3.33	3.32	3.33	3.38	3.38	3.36	3.34	3.33	3.33	3.34	3.37	3.39	3.35	3.34	3.57	4.32	4.84	4.84	
2.22	2.24	2.27	2.29	2.31	2.33	2.41	2.37	2.25	3.41	7.48	4.75	4.16	7.92	4.66	4.96	8.14	5.08	3.89	3.38	3.54	3.13	3.50	3.41	3.26	3.16	3.29	4.04	5.19	0.45	3.18	3.40	3.10	2.94	2.98	3.24	3.68	4.04	4.03	2.83	2.33	1.67	3.27	3.46	3.80	2.54	2.22	1.89	2.23	3.61	3.70	3.54	3.10	1.68	2.45	6.16	3.88	3.35	3.20	3.12	3.20	3.38	3.57	4.08	4.24	4.23	4.18	4.23	4.18	4.05	3.84	3.68	3.60	3.63	3.83	4.07	4.16	4.20	4.55	4.62	4.54	4.34	3.84	3.10	2.41	2.08	1.76	0.78	0.55	1.27	1.63	1.61	1.53	1.67	2.00	2.40	2.72	2.62	2.11	1.97	1.43	1.50	1.52	1.35	1.39	1.68	2.41	2.50	2.50	2.39	2.25	2.05	1.89	1.89	2.06	2.31	2.42	2.44	2.49	2.57	2.61	2.67	2.74	2.79	2.83	2.88	2.92	2.93	2.92	2.91	2.92	3.10	3.37	3.41	3.29	3.23	3.16	3.13	3.17	3.19	3.20	3.24	3.27	3.25	3.25	3.29	3.28	3.29	3.34	3.33	3.31	3.32	3.35	3.37	3.38	3.36	3.34	3.36	3.38	3.37	3.36	3.35	3.35	3.39	3.40	3.40	3.40	3.39	3.37	3.37	3.40	3.48	3.48	3.39	3.48	4.16	4.70	4.70	
2.20	2.21	2.24	2.25	2.27	2.30	2.38	2.42	2.51	3.13	6.86	4.82	3.90	3.68	4.20	4.80	5.39	5.15	3.85	3.29	3.50	3.69	3.67	3.42	3.20	3.12	3.35	3.93	5.68	5.23	3.85	3.53	3.17	2.79	2.69	2.89	3.39	3.96	3.86	3.17	0.55	2.21	3.20	3.40	3.79	3.21	2.45	1.30	1.98	3.32	3.85	3.53	1.03	2.17	4.27	4.58	4.68	4.73	4.57	4.25	3.89	3.64	3.70	3.95	4.04	3.94	3.93	4.09	4.16	4.07	3.88	3.66	3.53	3.53	3.60	3.83	4.09	4.46	4.57	4.58	4.41	4.09	3.60	3.07	2.41	1.91	1.35	0.27	0.47	0.85	1.32	1.70	1.58	1.40	1.66	2.18	2.53	2.55	2.33	2.01	1.30	1.28	1.14	1.12	1.30	2.35	2.38	2.46	2.42	2.31	2.21	2.06	1.88	1.81	1.95	2.23	2.38	2.41	2.46	2.53	2.59	2.64	2.71	2.77	2.82	2.87	2.91	2.93	2.93	2.91	2.90	3.00	3.26	3.39	3.30	3.24	3.19	3.13	3.15	3.18	3.19	3.22	3.26	3.24	3.23	3.26	3.28	3.29	3.33	3.34	3.32	3.33	3.36	3.35	3.36	3.39	3.38	3.35	3.36	3.38	3.39	3.38	3.37	3.38	3.39	3.40	3.43	3.44	3.42	3.41	3.42	3.49	3.54	3.46	3.47	4.04	4.54	4.54	
2.19	2.20	2.22	2.22	2.25	2.28	2.39	2.42	3.09	2.77	5.04	5.17	3.89	3.46	3.65	4.46	5.43	5.23	3.81	3.14	3.30	3.67	4.01	3.68	3.29	3.10	3.29	3.76	4.69	5.26	4.64	3.68	3.09	2.27	2.60	2.65	3.10	3.78	4.13	1.41	0.65	0.88	3.02	3.27	3.67	3.97	2.06	1.23	2.19	3.07	3.91	2.65	2.04	2.93	3.77	4.29	4.88	5.13	4.96	4.18	4.02	3.95	4.04	4.00	3.97	3.83	3.68	3.82	3.98	3.98	3.93	3.79	3.60	3.43	3.49	3.67	3.96	4.49	4.62	4.79	4.76	4.08	3.32	2.63	2.09	1.70	1.10	0.60	0.38	0.44	0.62	0.94	1.10	1.04	1.13	1.59	1.93	1.96	1.98	1.83	1.18	1.14	1.01	1.12	1.22	2.26	2.32	2.43	2.41	2.29	2.15	2.05	1.90	1.76	1.83	2.10	2.30	2.37	2.42	2.48	2.55	2.62	2.68	2.73	2.80	2.85	2.88	2.92	2.93	2.91	2.91	2.95	3.14	3.35	3.37	3.27	3.20	3.14	3.13	3.14	3.16	3.20	3.25	3.25	3.23	3.25	3.28	3.29	3.33	3.35	3.34	3.35	3.37	3.36	3.35	3.37	3.40	3.38	3.36	3.37	3.39	3.40	3.40	3.39	3.39	3.41	3.43	3.46	3.47	3.46	3.45	3.48	3.54	3.51	3.49	3.96	4.41	4.41	
2.17	2.19	2.21	2.21	2.22	2.26	2.37	2.39	3.30	2.92	5.59	5.70	4.04	3.46	4.16	4.17	5.18	5.17	3.90	3.07	3.10	3.43	3.81	3.86	3.49	4.06	3.33	3.57	4.39	5.94	3.96	2.45	3.50	3.19	2.28	2.71	3.07	3.67	3.41	1.94	1.16	2.55	2.57	3.06	4.04	3.25	1.26	0.89	1.44	3.37	3.64	5.96	4.00	3.84	4.21	4.02	4.44	4.45	3.94	3.92	3.85	3.99	4.01	4.00	3.99	3.87	3.66	3.61	3.69	3.75	3.82	3.83	3.66	3.65	3.71	3.72	4.05	4.36	4.40	4.75	4.72	4.07	2.83	1.84	1.25	0.65	0.41	0.88	0.67	0.30	0.23	0.29	0.54	0.72	0.76	1.09	1.47	1.67	1.71	1.74	1.12	1.06	1.02	1.16	1.13	2.16	2.18	2.31	2.37	2.31	2.17	2.03	1.85	1.66	1.68	1.93	2.20	2.31	2.38	2.46	2.52	2.58	2.65	2.70	2.75	2.80	2.83	2.88	2.91	2.92	2.92	2.94	3.02	3.23	3.40	3.36	3.24	3.17	3.14	3.14	3.15	3.20	3.24	3.26	3.25	3.25	3.28	3.29	3.31	3.33	3.35	3.37	3.38	3.37	3.36	3.36	3.38	3.39	3.38	3.38	3.40	3.43	3.43	3.41	3.42	3.44	3.45	3.46	3.49	3.48	3.48	3.49	3.53	3.53	3.50	3.90	4.31	4.31	
2.16	2.17	2.19	2.19	2.20	2.24	2.33	2.42	3.30	2.89	6.23	6.16	4.18	3.62	6.83	4.17	4.80	4.91	3.95	3.08	3.01	3.28	3.66	3.79	3.54	3.28	3.25	3.37	3.91	5.00	4.98	2.18	1.48	1.05	2.93	2.84	3.13	3.58	3.45	1.46	1.93	2.12	2.49	2.87	3.72	4.77	4.29	4.16	4.98	6.04	3.82	6.01	5.15	4.10	4.36	4.67	4.66	3.83	3.88	3.89	3.98	3.87	3.89	3.82	3.78	3.78	3.72	3.61	3.56	3.62	3.71	3.76	3.80	3.73	3.58	3.80	4.01	4.34	4.48	4.81	4.56	3.96	2.78	1.67	0.70	0.62	1.42	1.42	1.02	0.58	0.22	0.03	0.22	0.34	0.58	1.01	1.30	1.31	1.29	1.33	0.99	0.91	0.89	1.13	1.09	2.18	2.10	2.19	2.27	2.30	2.30	2.20	1.93	1.59	1.50	1.73	2.05	2.23	2.33	2.43	2.50	2.56	2.63	2.68	2.74	2.79	2.81	2.84	2.89	2.91	2.91	2.92	2.94	3.08	3.31	3.38	3.29	3.20	3.17	3.16	3.17	3.22	3.24	3.26	3.26	3.25	3.27	3.30	3.32	3.31	3.33	3.36	3.35	3.35	3.37	3.37	3.37	3.37	3.38	3.39	3.41	3.44	3.46	3.45	3.45	3.47	3.47	3.48	3.50	3.49	3.48	3.50	3.53	3.53	3.48	3.81	4.20	4.20	
2.15	2.16	2.18	2.17	2.18	2.21	2.30	2.42	3.59	3.16	6.80	6.46	5.32	4.12	4.19	5.37	6.80	4.62	3.82	3.11	3.03	3.23	3.60	3.72	3.53	3.25	3.07	3.12	3.54	4.50	6.22	3.04	3.07	2.26	2.87	2.74	2.73	2.82	1.81	4.27	4.37	1.69	2.48	3.66	3.33	5.72	5.59	5.62	3.96	3.81	4.01	4.46	4.52	4.36	4.52	3.86	3.90	3.80	3.88	4.06	3.95	3.83	3.83	3.80	3.66	3.68	3.79	3.76	3.70	3.71	3.73	3.72	3.72	3.32	3.44	3.76	3.95	4.25	4.52	5.20	4.85	4.00	2.20	0.95	0.02	1.25	1.95	1.77	1.13	0.90	0.64	0.26	0.12	0.18	0.46	0.90	1.25	1.33	1.35	1.52	0.98	0.72	0.61	0.81	0.83	0.64	2.15	2.15	2.21	2.26	2.37	2.45	2.30	1.82	1.45	1.57	1.92	2.14	2.24	2.34	2.43	2.52	2.60	2.65	2.72	2.80	2.81	2.82	2.86	2.89	2.90	2.91	2.91	2.99	3.18	3.33	3.31	3.22	3.18	3.17	3.18	3.21	3.22	3.25	3.27	3.26	3.26	3.31	3.34	3.32	3.34	3.37	3.35	3.34	3.37	3.39	3.39	3.38	3.38	3.40	3.42	3.44	3.45	3.45	3.47	3.48	3.49	3.51	3.52	3.51	3.51	3.53	3.52	3.52	3.48	3.73	4.04	4.04	
2.15	2.15	2.17	2.17	2.16	2.17	2.24	2.35	3.60	3.02	7.45	7.05	5.27	4.50	4.46	4.34	4.40	4.27	3.52	3.01	3.02	3.17	3.49	3.70	3.60	3.33	4.03	3.01	3.30	4.01	5.12	4.63	3.85	3.25	2.95	3.48	1.36	3.70	4.94	4.31	4.77	5.05	5.51	3.49	3.31	3.62	3.85	3.94	4.07	4.13	4.30	4.61	4.69	4.59	3.90	3.77	3.78	3.76	3.96	3.98	3.91	3.83	3.96	0.56	3.85	3.77	3.83	3.83	3.77	3.68	3.62	3.58	3.56	3.32	3.42	3.52	3.74	4.02	4.24	4.94	4.47	3.54	0.81	0.61	1.32	1.82	1.97	1.92	1.45	1.11	1.14	0.70	0.43	0.34	0.43	0.68	1.14	1.65	1.94	1.97	0.82	0.48	0.56	0.71	0.78	0.72	2.24	2.16	2.16	2.18	2.29	2.47	2.58	2.24	1.62	1.51	1.80	2.09	2.21	2.28	2.36	2.45	2.54	2.59	2.66	2.75	2.78	2.79	2.82	2.85	2.87	2.89	2.90	2.96	3.10	3.27	3.32	3.24	3.18	3.17	3.18	3.18	3.20	3.24	3.27	3.27	3.26	3.29	3.32	3.34	3.38	3.40	3.38	3.36	3.37	3.39	3.41	3.40	3.39	3.41	3.42	3.43	3.43	3.44	3.47	3.47	3.49	3.53	3.54	3.52	3.54	3.57	3.54	3.53	3.53	3.69	3.87	3.87	
2.14	2.14	2.15	2.15	2.14	2.15	2.18	2.27	2.40	2.41	7.22	7.61	6.02	5.33	5.91	4.60	4.41	3.95	3.21	2.81	2.85	3.04	3.34	3.64	3.65	3.35	3.47	3.11	3.19	3.62	4.51	5.06	4.70	3.09	1.77	2.05	3.59	3.56	3.43	2.84	2.99	4.66	3.35	3.43	3.56	3.75	3.87	3.90	3.93	4.05	3.51	3.68	3.96	3.96	3.72	3.67	3.77	3.89	3.98	4.03	3.93	3.86	1.04	4.13	4.05	4.01	3.95	3.88	3.80	3.67	3.54	3.29	3.12	3.21	3.36	3.36	3.57	3.79	4.74	4.81	4.13	2.27	0.55	1.91	2.66	2.68	2.11	1.75	1.63	1.63	1.69	1.37	1.12	0.97	0.96	1.09	1.52	1.93	1.87	1.26	1.26	0.88	0.58	0.62	0.84	0.86	2.30	2.18	2.13	2.10	2.18	2.36	2.57	2.41	1.78	1.50	1.66	1.98	2.19	2.27	2.32	2.41	2.50	2.55	2.62	2.71	2.77	2.79	2.80	2.82	2.85	2.88	2.89	2.91	3.01	3.18	3.31	3.28	3.18	3.17	3.18	3.17	3.18	3.22	3.26	3.27	3.27	3.28	3.31	3.33	3.38	3.42	3.41	3.39	3.37	3.37	3.41	3.42	3.40	3.41	3.44	3.44	3.44	3.45	3.47	3.47	3.48	3.52	3.53	3.51	3.54	3.59	3.58	3.56	3.59	3.69	3.77	3.77	
2.13	2.13	2.13	2.13	2.12	2.12	2.15	2.21	1.88	1.78	4.99	9.42	6.53	5.16	6.25	4.83	4.28	3.70	3.02	2.72	2.68	2.85	3.13	3.48	3.58	3.33	3.67	3.22	3.20	3.48	4.00	4.56	4.61	5.53	5.25	4.63	3.83	3.38	3.09	4.21	3.01	3.22	3.29	3.11	3.16	3.32	3.50	3.97	3.57	3.58	3.60	3.69	3.82	3.77	3.57	3.62	3.59	3.68	3.79	3.91	3.83	3.69	3.83	3.98	4.01	3.99	3.93	3.89	3.88	3.40	3.16	3.06	2.97	2.97	3.04	3.13	3.34	4.43	4.88	5.06	4.00	1.13	2.16	3.04	3.74	3.76	2.96	2.14	2.07	2.54	2.54	2.26	2.29	2.23	1.96	1.74	1.75	1.92	1.44	1.81	1.27	0.97	0.78	0.49	0.61	0.74	0.62	2.21	2.14	2.09	2.14	2.32	2.53	2.39	1.83	1.48	1.53	1.80	2.08	2.22	2.30	2.38	2.46	2.52	2.58	2.67	2.75	2.79	2.79	2.79	2.82	2.86	2.88	2.87	2.91	3.05	3.22	3.26	3.19	3.17	3.19	3.17	3.18	3.21	3.26	3.29	3.28	3.27	3.28	3.30	3.33	3.39	3.43	3.43	3.38	3.34	3.38	3.43	3.41	3.42	3.46	3.46	3.46	3.48	3.50	3.49	3.49	3.52	3.53	3.52	3.54	3.59	3.60	3.59	3.61	3.67	3.71	3.71	
2.13	2.12	2.10	2.10	2.09	2.09	2.11	2.15	1.89	2.15	3.70	7.40	6.72	5.94	5.88	4.96	4.40	3.50	2.91	2.76	2.70	2.72	2.94	3.29	2.68	3.49	3.22	3.20	3.18	3.33	4.09	4.06	4.58	4.46	4.15	4.78	4.65	3.98	3.33	3.99	3.03	3.12	3.09	3.22	3.05	3.20	3.42	3.55	3.57	3.61	3.65	3.65	3.79	3.95	3.83	3.63	3.53	3.54	3.56	3.63	3.64	3.62	3.71	3.86	3.93	3.96	3.92	3.83	3.70	3.56	3.23	3.06	3.32	3.33	3.46	3.75	4.01	4.57	5.25	6.07	2.86	3.10	3.08	3.48	3.36	4.09	3.39	2.52	2.43	2.78	2.74	2.19	2.18	2.32	1.87	1.18	0.86	0.98	1.49	1.71	1.05	0.70	0.81	0.57	0.48	0.42	0.42	0.41	2.12	2.06	2.09	2.31	2.55	2.42	1.85	1.43	1.44	1.68	1.94	2.12	2.24	2.34	2.41	2.46	2.50	2.57	2.69	2.77	2.76	2.73	2.75	2.80	2.85	2.85	2.87	2.99	3.14	3.23	3.18	3.15	3.19	3.19	3.18	3.20	3.26	3.32	3.31	3.28	3.27	3.26	3.25	3.30	3.41	3.47	3.42	3.34	3.36	3.41	3.40	3.41	3.45	3.46	3.45	3.48	3.52	3.51	3.50	3.51	3.54	3.54	3.54	3.56	3.59	3.61	3.62	3.64	3.66	3.66	
2.12	2.12	2.09	2.08	2.07	2.07	2.07	2.13	2.10	2.57	2.64	6.66	7.23	6.46	5.83	4.16	4.31	3.40	2.91	2.82	2.77	2.66	2.75	3.04	3.84	3.13	3.21	3.21	3.19	3.18	3.28	3.99	4.57	4.00	4.43	3.64	3.97	3.97	3.76	3.26	3.17	3.24	3.12	3.13	3.01	3.07	3.28	3.44	3.50	3.58	3.61	3.63	3.81	3.94	3.85	3.69	3.59	3.49	3.39	3.41	3.49	3.55	3.62	3.72	3.87	4.01	3.83	3.58	3.60	3.55	3.32	3.16	3.05	3.08	3.54	3.06	4.67	5.25	3.94	3.56	4.42	4.50	4.13	3.59	3.25	3.33	3.11	2.36	2.25	2.17	1.96	1.74	1.64	1.51	0.21	0.95	1.03	0.93	1.25	1.27	0.80	0.79	0.77	0.78	0.45	0.39	0.44	0.43	2.15	2.03	2.05	2.24	2.52	2.55	2.02	1.41	1.36	1.59	1.83	2.03	2.19	2.32	2.42	2.47	2.48	2.48	2.56	2.70	2.77	2.72	2.69	2.74	2.80	2.81	2.84	2.95	3.12	3.23	3.19	3.13	3.16	3.19	3.18	3.18	3.24	3.30	3.32	3.34	3.37	3.34	3.27	3.24	3.35	3.48	3.47	3.39	3.38	3.41	3.40	3.41	3.45	3.46	3.45	3.46	3.50	3.52	3.50	3.49	3.52	3.54	3.55	3.55	3.56	3.60	3.62	3.63	3.64	3.64	
2.13	2.12	2.09	2.07	2.05	2.04	2.04	2.11	2.17	2.76	2.35	6.10	8.38	6.61	7.49	4.03	4.56	3.40	3.00	2.90	2.84	2.08	2.72	2.83	3.89	2.94	3.04	3.14	3.12	3.06	3.03	3.60	4.58	4.29	4.60	3.79	4.35	3.94	4.36	3.44	3.35	3.45	3.47	3.31	3.06	2.96	3.15	3.33	3.34	3.39	3.51	3.60	3.74	3.87	3.84	3.65	3.60	3.55	3.30	3.27	3.36	3.36	3.38	3.48	3.67	3.87	3.94	3.85	3.81	3.72	3.30	2.89	2.45	2.40	2.74	4.22	3.41	3.27	3.46	3.80	4.40	4.11	4.70	4.45	4.06	3.38	2.54	1.89	1.77	1.37	1.07	1.11	0.85	0.08	2.54	2.28	1.96	1.72	0.95	0.65	0.56	0.78	0.75	0.75	0.57	0.38	0.41	0.45	0.42	2.09	2.03	2.16	2.40	2.61	2.24	1.51	1.34	1.49	1.73	1.94	2.11	2.27	2.41	2.51	2.54	2.48	2.42	2.52	2.72	2.76	2.68	2.69	2.75	2.76	2.79	2.88	3.06	3.23	3.22	3.14	3.13	3.18	3.19	3.19	3.24	3.31	3.33	3.38	3.46	3.50	3.43	3.30	3.32	3.45	3.48	3.43	3.41	3.41	3.41	3.42	3.44	3.46	3.45	3.45	3.48	3.52	3.52	3.50	3.50	3.54	3.57	3.57	3.57	3.58	3.60	3.62	3.63	3.63	
2.13	2.12	2.09	2.06	2.03	2.01	2.01	2.08	2.15	3.01	2.25	5.13	8.00	6.43	6.83	4.65	5.19	3.55	3.07	2.61	2.52	3.10	2.92	3.46	2.57	2.82	2.84	2.95	3.11	3.09	2.81	3.19	4.16	4.65	3.78	3.39	3.49	3.73	3.74	3.59	3.53	3.59	3.66	3.57	3.25	2.98	3.09	3.23	3.13	3.11	3.30	3.53	3.70	3.78	3.89	3.73	3.53	1.91	3.41	3.12	3.19	3.22	3.19	3.26	3.50	3.75	3.81	3.88	4.13	3.73	3.11	2.37	1.75	1.75	2.03	2.74	3.58	3.26	3.44	3.74	4.26	4.41	4.57	3.45	3.98	1.60	0.63	1.90	2.49	2.05	1.07	0.79	0.78	1.10	3.18	2.41	1.35	0.68	0.12	0.39	0.55	0.84	0.97	0.80	0.82	0.62	0.40	0.54	0.52	0.48	2.03	2.09	2.29	2.55	2.34	1.70	1.40	1.40	1.58	1.80	1.95	2.11	2.26	2.41	2.53	2.55	2.40	2.28	2.48	2.71	2.70	2.67	2.70	2.71	2.73	2.81	2.96	3.15	3.24	3.19	3.13	3.15	3.19	3.19	3.24	3.31	3.32	3.32	3.37	3.47	3.51	3.39	3.33	3.41	3.45	3.43	3.42	3.41	3.41	3.42	3.44	3.46	3.46	3.46	3.47	3.52	3.54	3.52	3.52	3.54	3.57	3.59	3.60	3.59	3.59	3.60	3.60	3.60	
2.13	2.12	2.10	2.06	2.01	1.98	1.99	2.03	2.09	3.23	2.13	4.70	9.33	5.80	6.59	6.63	6.27	4.11	3.19	3.07	2.15	3.01	2.67	3.02	2.96	2.78	2.77	2.99	3.23	3.07	2.55	2.72	3.75	4.11	3.78	3.36	3.31	3.39	3.38	3.34	3.39	3.55	3.74	3.77	3.57	3.24	3.03	2.94	3.12	2.99	3.16	3.44	3.65	3.63	3.84	1.58	3.57	3.51	3.41	3.07	3.00	3.02	2.98	3.05	3.46	3.71	3.85	4.14	3.97	3.45	2.58	1.73	1.52	1.62	3.63	3.43	3.53	3.48	3.24	3.46	4.02	4.28	4.44	2.05	1.40	1.16	2.53	4.68	4.07	3.35	0.66	1.73	1.55	2.23	2.84	1.93	0.70	0.19	0.61	0.84	0.89	1.07	1.33	1.16	1.12	0.98	0.57	0.71	0.68	0.49	2.12	2.11	2.24	2.43	2.29	1.78	1.41	1.31	1.45	1.67	1.83	1.98	2.15	2.30	2.44	2.59	2.49	2.16	2.15	2.45	2.65	2.71	2.70	2.66	2.67	2.74	2.85	2.99	3.13	3.17	3.14	3.14	3.16	3.18	3.21	3.25	3.26	3.26	3.27	3.33	3.44	3.43	3.38	3.43	3.44	3.41	3.40	3.42	3.43	3.44	3.46	3.48	3.49	3.49	3.48	3.51	3.54	3.53	3.52	3.54	3.55	3.57	3.60	3.63	3.61	3.59	3.58	3.58	
2.12	2.12	2.10	2.06	2.01	1.97	1.96	1.98	2.03	2.14	2.11	4.96	9.29	4.95	5.73	11.49	6.36	5.39	2.87	2.03	2.25	2.31	1.69	3.09	3.05	2.88	2.97	2.83	3.34	2.58	2.40	2.41	3.19	3.90	3.96	3.35	2.99	3.22	3.15	3.10	3.17	3.38	3.66	3.75	3.76	1.35	3.52	3.20	3.24	3.09	3.29	3.49	3.65	3.60	3.63	3.84	3.76	3.60	3.52	3.37	3.11	2.93	2.46	2.76	3.25	3.55	4.53	4.36	3.85	2.98	1.53	3.90	3.79	3.85	3.56	3.48	1.75	2.32	3.33	3.35	3.81	2.81	1.83	1.21	1.59	4.14	4.53	4.67	4.78	0.51	2.88	2.96	2.23	2.76	2.52	1.08	0.29	0.55	0.94	1.02	0.99	1.02	1.12	1.28	1.55	1.13	0.70	0.67	0.84	0.73	0.80	0.80	2.35	2.40	2.28	1.87	1.47	1.30	1.37	1.57	1.73	1.88	2.07	2.25	2.39	2.58	2.63	2.27	1.98	2.11	2.41	2.67	2.77	2.70	2.65	2.71	2.82	2.91	2.99	3.08	3.11	3.12	3.12	3.14	3.19	3.23	3.23	3.25	3.28	3.31	3.37	3.40	3.40	3.45	3.45	3.41	3.38	3.40	3.44	3.45	3.45	3.46	3.50	3.52	3.50	3.51	3.53	3.53	3.52	3.54	3.56	3.56	3.57	3.62	3.64	3.60	3.56	3.56	
2.12	2.12	2.09	2.05	2.01	1.96	1.94	1.95	2.02	2.03	2.01	4.35	8.69	4.65	4.54	8.84	10.14	5.62	2.92	1.98	1.78	1.22	3.20	3.20	1.81	3.76	3.35	2.30	2.53	2.04	1.99	2.32	2.67	3.36	3.81	3.71	1.69	2.13	1.82	3.08	3.06	3.19	3.49	3.61	3.72	1.18	0.41	3.48	3.28	3.19	1.92	3.77	3.84	3.82	3.74	3.82	3.93	3.93	3.90	3.61	3.23	2.70	2.26	2.66	3.21	4.03	3.94	3.78	3.80	1.83	2.17	2.96	2.92	2.84	2.93	3.10	2.40	1.63	2.02	2.65	2.40	1.48	1.41	2.49	4.29	4.34	4.63	1.18	0.98	2.57	5.17	3.80	3.11	2.99	1.88	0.60	0.50	1.06	1.28	1.30	1.40	1.27	1.10	1.22	1.44	0.96	0.50	0.61	0.86	0.91	0.79	0.83	0.91	2.48	2.36	2.06	1.70	1.49	1.46	1.59	1.70	1.80	1.99	2.21	2.37	2.53	2.67	2.46	2.05	1.92	2.09	2.44	2.74	2.79	2.71	2.71	2.83	2.92	2.95	3.00	3.06	3.09	3.08	3.09	3.15	3.22	3.23	3.26	3.30	3.33	3.35	3.36	3.41	3.46	3.45	3.42	3.39	3.39	3.43	3.45	3.44	3.44	3.47	3.52	3.51	3.51	3.53	3.54	3.52	3.53	3.58	3.59	3.55	3.56	3.61	3.60	3.56	3.56	
2.12	2.11	2.08	2.04	1.99	1.95	1.92	1.93	2.00	1.86	1.90	2.57	7.15	4.82	3.86	4.22	6.11	8.47	3.93	3.33	3.45	3.13	3.15	3.24	3.17	3.09	2.47	2.48	2.19	1.89	1.64	2.51	2.41	2.80	3.42	3.75	1.18	3.62	3.34	3.29	1.03	3.08	3.31	3.48	3.59	0.76	3.95	3.68	3.26	3.17	3.59	3.97	4.12	4.17	4.17	4.16	4.15	4.11	4.01	3.92	2.74	1.95	2.17	2.76	3.29	3.97	3.64	3.84	3.39	3.19	2.98	3.05	3.38	3.35	3.02	3.02	2.29	1.46	1.25	1.69	2.24	2.40	3.06	4.58	4.48	4.63	1.02	1.06	2.83	5.17	5.10	3.81	5.39	3.33	1.66	0.59	0.60	1.08	1.35	1.50	1.56	1.21	0.90	0.95	1.12	1.29	1.24	0.73	0.81	0.89	0.92	1.20	1.29	1.01	2.42	2.14	1.85	1.70	1.68	1.77	1.82	1.84	1.98	2.22	2.41	2.52	2.62	2.53	2.21	1.92	1.90	2.16	2.51	2.72	2.72	2.71	2.81	2.91	2.95	2.98	3.03	3.07	3.07	3.09	3.14	3.18	3.22	3.25	3.28	3.33	3.37	3.37	3.41	3.47	3.45	3.42	3.39	3.39	3.42	3.44	3.45	3.44	3.46	3.50	3.50	3.50	3.54	3.55	3.52	3.51	3.55	3.59	3.58	3.56	3.58	3.59	3.58	3.58	
2.13	2.11	2.07	2.03	1.98	1.93	1.89	1.91	1.97	1.87	2.16	1.67	6.19	5.15	7.19	3.46	4.65	6.47	7.89	5.58	3.76	3.02	3.01	3.21	1.84	2.20	2.59	3.00	2.34	3.43	3.15	1.72	2.54	2.61	3.02	3.63	1.53	4.08	3.72	0.74	3.28	3.07	3.15	3.36	3.56	3.80	3.92	3.67	3.22	3.07	3.39	3.80	4.06	4.19	4.24	4.31	4.28	4.39	4.34	3.49	2.00	2.17	2.45	2.72	3.91	3.87	4.09	3.14	2.84	3.27	3.61	3.75	4.09	2.68	2.25	2.06	3.48	1.90	2.18	3.47	4.06	4.49	4.79	4.74	4.76	1.73	0.82	4.44	4.74	5.21	3.50	3.89	5.49	3.00	1.20	0.66	0.70	0.96	1.04	0.92	0.73	0.61	0.51	0.50	0.99	1.42	1.43	0.85	0.86	0.78	0.85	1.15	1.37	1.29	0.88	2.17	1.92	1.78	1.78	1.88	1.94	1.96	2.01	2.21	2.45	2.58	2.58	2.52	2.34	2.00	1.88	2.05	2.31	2.54	2.65	2.67	2.75	2.86	2.92	2.96	3.01	3.05	3.08	3.11	3.14	3.16	3.19	3.23	3.25	3.30	3.36	3.36	3.40	3.46	3.46	3.43	3.41	3.41	3.41	3.43	3.46	3.46	3.47	3.50	3.49	3.48	3.52	3.56	3.53	3.49	3.52	3.57	3.60	3.60	3.58	3.57	3.57	3.57	
2.14	2.11	2.07	2.02	1.98	1.93	1.88	1.88	1.97	1.93	2.54	2.34	5.29	5.58	4.04	3.41	3.43	4.53	7.23	5.30	4.50	3.40	3.11	3.14	1.38	2.00	3.10	2.80	3.44	2.35	1.86	3.32	2.99	2.80	1.67	3.19	3.30	0.81	1.10	2.67	3.42	3.13	3.07	3.25	0.33	3.80	3.88	3.61	3.12	2.93	3.14	3.52	3.80	3.94	4.04	4.21	4.46	4.68	4.39	2.95	2.22	1.83	2.39	3.08	3.43	3.22	2.94	2.61	2.99	2.94	3.17	3.47	2.98	2.02	2.13	1.98	2.38	3.60	3.87	3.90	3.90	4.20	4.45	4.60	2.42	0.66	1.83	4.57	4.65	4.91	3.66	5.33	4.54	3.32	1.65	0.89	0.62	0.81	0.59	0.30	0.43	0.54	0.39	0.35	0.72	0.96	1.05	1.12	0.93	0.82	0.66	0.75	1.09	1.31	1.16	2.28	2.04	1.92	1.88	1.96	2.06	2.12	2.08	2.15	2.42	2.61	2.55	2.44	2.31	2.02	1.90	2.04	2.23	2.42	2.56	2.62	2.69	2.82	2.90	2.93	2.99	3.04	3.06	3.10	3.15	3.16	3.19	3.22	3.24	3.27	3.33	3.34	3.39	3.45	3.45	3.44	3.44	3.43	3.42	3.42	3.45	3.47	3.49	3.51	3.49	3.47	3.49	3.54	3.54	3.51	3.51	3.54	3.58	3.59	3.58	3.55	3.55	3.55	
2.16	2.13	2.08	2.03	1.98	1.93	1.88	1.87	1.95	1.93	2.89	1.89	5.63	5.92	4.33	3.46	5.18	3.69	6.18	5.76	3.62	4.55	4.01	3.63	3.29	1.29	3.43	1.76	3.24	3.28	3.51	1.68	1.46	1.69	2.56	2.95	3.39	3.47	3.49	3.05	3.59	3.30	0.66	3.23	3.52	3.79	3.87	3.59	3.09	2.82	2.91	3.25	3.57	3.71	3.78	4.01	4.45	4.91	4.44	2.56	2.17	2.22	2.51	2.82	3.37	2.65	2.00	2.59	3.13	2.98	2.98	3.16	2.67	2.47	3.46	3.63	3.84	3.78	3.70	3.70	3.76	3.90	4.01	4.05	4.49	0.46	4.78	4.56	4.55	4.57	4.71	4.93	4.69	3.44	1.90	1.06	0.53	0.15	0.34	0.58	0.48	0.30	0.35	0.39	0.56	0.82	0.99	1.06	0.89	0.77	1.02	0.93	1.23	1.46	1.32	2.38	2.14	2.05	2.01	2.05	2.18	2.33	2.27	2.19	2.37	2.58	2.53	2.35	2.09	1.84	1.83	1.99	2.18	2.36	2.48	2.56	2.63	2.76	2.86	2.91	2.98	3.03	3.04	3.08	3.14	3.16	3.18	3.22	3.24	3.29	3.35	3.36	3.39	3.43	3.41	3.40	3.43	3.43	3.42	3.43	3.44	3.45	3.48	3.50	3.50	3.49	3.49	3.52	3.54	3.53	3.50	3.51	3.56	3.58	3.56	3.54	3.52	3.52	
2.17	2.15	2.10	2.03	1.97	1.92	1.88	1.85	1.92	1.91	3.00	1.92	6.03	8.19	4.57	3.42	4.79	3.29	5.62	5.15	5.29	4.44	2.27	2.77	4.37	2.94	3.94	1.40	3.27	3.13	3.26	1.57	3.54	3.25	2.89	2.82	3.13	3.65	4.01	4.03	3.76	3.45	0.65	3.27	3.43	3.70	3.83	3.59	3.14	2.81	2.74	2.98	3.36	3.53	3.49	3.60	4.16	5.26	4.72	2.79	2.82	2.72	2.57	2.73	2.73	2.20	2.30	1.88	3.19	3.10	3.05	3.13	3.58	3.82	3.56	3.43	3.64	3.80	3.72	3.59	3.59	3.61	3.75	3.83	3.98	4.45	4.63	4.50	4.47	4.52	4.62	4.75	4.62	2.79	1.74	1.14	0.66	0.64	0.85	0.68	0.44	0.11	0.17	0.35	0.72	1.25	1.54	1.48	1.18	0.86	0.67	1.16	1.16	1.47	1.53	2.49	2.18	2.08	2.04	2.04	2.18	2.42	2.49	2.41	2.46	2.57	2.53	2.32	1.91	1.61	1.65	1.86	2.08	2.27	2.40	2.50	2.59	2.69	2.80	2.88	2.96	3.04	3.05	3.07	3.13	3.14	3.15	3.21	3.24	3.29	3.36	3.37	3.39	3.42	3.40	3.38	3.40	3.42	3.41	3.43	3.45	3.46	3.47	3.49	3.51	3.51	3.52	3.53	3.55	3.55	3.51	3.50	3.54	3.58	3.57	3.54	3.52	3.52	
2.18	2.16	2.11	2.04	1.98	1.92	1.88	1.84	1.88	1.87	3.06	1.70	6.58	6.82	4.90	3.43	4.47	3.38	4.00	4.25	7.33	3.90	7.92	7.20	4.15	4.04	2.86	1.65	3.47	3.21	3.21	3.38	3.56	3.23	2.92	2.74	2.90	3.31	3.71	3.89	3.80	3.50	3.26	3.21	3.30	3.56	3.73	3.55	3.22	2.97	2.82	2.91	3.30	3.48	3.29	3.12	3.46	4.99	5.99	3.82	3.31	2.86	2.41	2.30	2.53	2.26	1.75	3.12	3.15	3.17	3.20	3.31	3.46	3.58	3.58	3.45	3.45	3.63	3.70	3.64	3.72	3.58	3.46	2.60	4.02	4.17	4.46	4.54	4.55	4.62	4.70	4.81	4.68	3.04	1.95	1.45	1.00	0.75	0.69	0.39	0.03	0.38	0.69	1.04	1.28	1.29	1.29	1.27	1.23	1.09	0.89	0.95	1.10	1.30	1.63	2.70	2.33	2.12	2.03	2.03	2.17	2.39	2.53	2.59	2.66	2.66	2.52	2.29	1.93	1.55	1.49	1.70	1.95	2.16	2.32	2.44	2.54	2.65	2.75	2.83	2.91	2.99	3.05	3.10	3.15	3.14	3.12	3.17	3.22	3.27	3.34	3.37	3.41	3.44	3.41	3.39	3.39	3.40	3.41	3.42	3.45	3.48	3.48	3.49	3.51	3.51	3.51	3.53	3.56	3.57	3.54	3.53	3.53	3.55	3.56	3.54	3.53	3.53	
2.19	2.17	2.12	2.06	1.99	1.93	1.87	1.83	1.86	1.83	2.93	1.67	6.08	8.73	5.47	3.63	3.19	4.16	4.26	4.66	6.27	2.63	3.19	6.69	7.56	7.19	4.52	2.15	4.09	2.16	3.47	3.44	3.58	3.60	3.39	2.19	2.90	3.03	3.36	3.68	3.78	3.51	3.19	3.08	3.14	3.35	3.57	3.47	3.19	3.07	3.00	2.99	3.23	3.44	3.29	2.97	3.04	4.30	6.02	4.67	3.29	2.51	1.82	0.59	2.38	2.29	1.75	1.70	3.12	3.18	3.27	3.41	3.49	3.49	3.56	3.48	3.35	3.44	3.62	3.62	3.83	1.63	3.30	3.44	3.89	4.01	4.19	4.36	4.48	4.59	4.76	4.92	4.52	3.08	2.22	1.77	1.26	0.74	0.22	0.47	0.79	1.15	1.38	1.61	1.57	1.25	1.09	1.12	1.14	1.17	1.06	0.88	0.82	1.31	1.45	1.41	1.15	2.27	2.13	2.14	2.31	2.49	2.58	2.73	2.91	2.86	2.55	2.29	2.06	1.68	1.46	1.57	1.82	2.03	2.21	2.36	2.49	2.61	2.73	2.81	2.86	2.92	3.00	3.09	3.15	3.17	3.14	3.15	3.19	3.26	3.33	3.36	3.43	3.48	3.44	3.40	3.40	3.40	3.41	3.43	3.44	3.46	3.47	3.48	3.51	3.53	3.52	3.53	3.55	3.57	3.57	3.58	3.57	3.53	3.50	3.50	3.50	3.50	
2.19	2.17	2.13	2.08	2.00	1.93	1.87	1.84	1.83	1.86	1.94	1.67	3.97	8.12	5.88	3.90	3.99	4.75	4.00	2.18	4.17	6.96	5.40	7.24	5.20	5.62	7.61	3.60	5.30	4.73	4.35	4.01	3.84	3.80	1.60	2.02	0.93	3.16	3.18	3.49	3.86	3.74	3.28	3.10	3.12	3.24	3.41	3.38	3.14	2.97	2.89	2.85	2.98	3.21	3.22	2.97	2.95	3.81	5.50	4.91	1.51	2.28	2.49	1.64	1.46	2.57	2.05	2.02	3.17	3.19	3.29	3.41	3.51	3.53	3.57	3.47	3.28	3.29	3.44	3.50	3.74	1.55	3.53	3.32	3.61	3.86	4.01	4.16	4.33	4.49	4.73	4.73	4.19	2.87	1.88	1.30	0.87	0.56	0.72	0.95	1.04	1.11	1.14	1.18	1.16	1.02	1.00	1.18	1.32	1.41	1.35	1.12	0.87	1.49	2.71	2.68	1.17	0.72	1.13	1.59	2.00	1.88	2.01	2.32	2.30	1.47	2.68	2.36	2.15	1.83	1.52	1.47	1.63	1.83	2.03	2.24	2.41	2.55	2.69	2.78	2.83	2.88	2.94	3.02	3.10	3.16	3.17	3.16	3.17	3.25	3.32	3.34	3.41	3.50	3.49	3.45	3.43	3.42	3.42	3.42	3.44	3.45	3.46	3.48	3.50	3.54	3.54	3.52	3.51	3.52	3.54	3.58	3.64	3.63	3.55	3.47	3.45	3.45	
2.19	2.17	2.13	2.08	2.00	1.92	1.86	1.84	1.82	1.87	2.09	2.01	3.29	5.90	6.55	4.20	4.70	5.11	4.27	2.83	2.53	4.93	6.11	5.90	6.50	6.05	6.51	8.18	5.50	3.54	4.91	5.15	4.89	4.64	4.37	4.06	3.28	0.46	3.30	3.39	3.85	1.74	3.58	3.22	3.23	3.27	3.37	3.40	3.30	3.10	2.90	2.79	2.85	3.02	3.08	2.92	3.02	3.25	5.08	2.25	3.30	3.42	4.16	2.98	2.72	3.08	3.37	3.25	3.20	3.20	3.28	3.37	3.54	3.67	3.65	3.38	3.03	3.13	3.31	3.33	2.01	3.80	3.61	3.45	3.52	3.74	3.90	4.04	4.20	4.43	4.71	4.79	3.92	2.84	1.67	0.95	0.78	0.96	0.95	0.82	0.80	0.77	0.65	0.74	0.85	0.73	0.59	0.72	1.00	1.16	1.24	1.24	1.17	1.24	1.30	1.20	0.79	1.14	1.24	1.52	1.94	2.05	2.28	2.32	2.00	1.48	2.85	2.53	2.27	1.98	1.71	1.54	1.55	1.66	1.83	2.08	2.31	2.48	2.62	2.74	2.79	2.84	2.93	2.99	3.05	3.12	3.17	3.17	3.16	3.23	3.31	3.33	3.35	3.44	3.49	3.48	3.46	3.45	3.45	3.43	3.44	3.46	3.48	3.50	3.51	3.52	3.52	3.49	3.47	3.45	3.44	3.46	3.55	3.68	3.70	3.57	3.46	3.46	
2.21	2.18	2.12	2.07	2.01	1.93	1.86	1.82	1.81	1.86	2.04	2.42	2.36	5.88	5.89	4.22	4.39	8.50	4.41	4.37	2.92	4.95	5.77	6.46	6.38	3.29	3.69	7.10	8.10	7.23	7.41	5.30	5.27	3.16	3.72	3.20	4.86	3.73	3.80	3.51	3.69	3.93	3.68	3.36	3.36	3.41	3.43	3.46	3.47	3.39	3.18	3.04	3.04	3.08	3.13	3.02	2.87	2.83	4.63	1.11	2.79	3.64	3.87	4.17	3.87	3.77	3.46	3.25	3.11	3.06	3.16	3.30	3.46	3.79	3.88	3.45	2.93	2.91	2.40	3.21	3.40	3.66	3.57	3.48	3.50	3.65	3.81	3.88	3.98	4.26	4.61	4.76	3.84	2.39	1.45	0.83	1.04	0.95	0.71	0.65	0.48	0.37	0.59	0.90	0.83	0.65	0.58	0.54	0.57	0.72	0.91	1.04	0.99	0.96	1.15	0.83	0.98	1.36	1.24	1.27	1.62	2.21	2.65	2.25	1.68	1.56	1.21	2.73	2.46	2.19	1.97	1.81	1.73	1.67	1.70	1.92	2.20	2.41	2.58	2.70	2.77	2.82	2.91	2.99	3.04	3.10	3.17	3.20	3.17	3.19	3.30	3.36	3.34	3.37	3.43	3.46	3.46	3.48	3.48	3.46	3.45	3.47	3.48	3.49	3.53	3.58	3.58	3.57	3.55	3.53	3.44	3.34	3.37	3.52	3.67	3.64	3.56	3.56	
2.23	2.20	2.13	2.08	2.02	1.93	1.86	1.82	1.79	1.88	1.97	2.23	2.34	6.07	7.37	4.49	7.87	7.81	7.85	5.12	3.95	2.96	4.52	6.14	5.75	7.27	3.62	4.03	7.87	7.16	7.32	7.10	7.57	6.49	6.95	5.87	6.05	5.86	5.17	4.49	4.20	3.99	3.65	3.49	2.12	3.53	1.64	3.44	3.47	3.46	3.30	3.24	3.28	3.16	3.19	3.10	2.90	3.91	4.40	1.70	3.03	3.65	3.76	4.00	4.07	3.94	3.68	3.52	3.27	2.90	3.03	3.38	3.44	3.72	1.64	3.64	2.07	2.89	2.95	3.03	3.08	3.38	3.56	3.60	3.59	3.66	3.80	3.82	3.83	4.07	4.38	4.59	3.55	1.30	0.82	1.17	1.42	0.96	0.80	0.67	0.32	0.40	0.83	0.85	0.58	0.58	0.72	0.78	0.66	0.56	0.66	0.80	0.78	0.58	0.56	1.40	1.45	1.39	1.28	1.17	1.26	1.80	2.62	1.88	1.62	1.46	1.26	1.18	2.63	2.40	2.18	2.00	1.90	1.76	1.66	1.80	2.08	2.33	2.54	2.70	2.77	2.82	2.89	2.96	3.04	3.10	3.16	3.22	3.20	3.17	3.26	3.39	3.40	3.36	3.38	3.42	3.43	3.47	3.49	3.47	3.46	3.45	3.45	3.48	3.55	3.64	3.69	3.71	3.72	3.74	3.66	3.42	3.31	3.39	3.52	3.60	3.58	3.58	
2.25	2.22	2.16	2.08	2.02	1.94	1.86	1.80	1.79	1.87	1.84	2.38	2.10	6.21	9.40	8.36	7.56	7.17	6.59	6.77	4.52	4.02	3.37	3.19	5.18	5.82	7.13	6.27	7.32	7.19	6.49	5.34	6.40	8.05	8.07	8.87	5.40	8.97	6.13	5.99	5.67	4.98	3.40	3.51	3.59	3.61	3.50	3.45	3.44	3.33	2.16	3.14	3.37	3.19	3.04	3.00	3.89	4.00	6.79	3.54	3.30	3.65	3.63	3.86	4.00	4.04	3.85	3.88	1.92	3.25	3.16	3.68	3.91	3.86	3.82	3.72	3.47	3.18	3.03	2.91	2.75	2.92	3.34	3.60	3.65	3.68	3.81	3.62	3.83	4.02	4.24	4.47	2.55	0.60	0.89	1.49	1.56	0.98	0.92	0.85	0.54	0.80	0.71	0.30	0.15	0.19	0.32	0.47	0.52	0.52	0.62	0.68	0.65	0.47	0.69	1.01	0.92	0.81	1.46	1.57	1.57	1.51	1.84	2.03	1.61	1.32	1.23	1.30	2.80	2.65	2.48	2.24	2.05	1.87	1.71	1.74	1.99	2.26	2.47	2.66	2.77	2.83	2.89	2.95	3.01	3.06	3.12	3.19	3.21	3.17	3.18	3.31	3.43	3.42	3.39	3.40	3.41	3.44	3.46	3.45	3.46	3.47	3.46	3.45	3.49	3.55	3.60	3.63	3.67	3.78	3.82	3.59	3.38	3.39	3.49	3.54	3.54	3.54	
2.26	2.23	2.18	2.10	2.03	1.95	1.87	1.79	1.77	1.83	1.85	2.64	2.26	6.44	9.14	8.45	7.75	7.26	7.68	7.77	7.11	4.37	4.45	3.96	3.43	4.32	4.77	5.92	6.60	6.65	6.81	3.47	3.51	7.37	7.27	7.62	7.99	8.57	5.59	5.98	6.23	3.67	4.68	3.52	3.43	2.03	3.56	3.55	3.47	2.11	1.86	2.94	3.33	3.49	3.21	2.86	3.86	4.03	3.66	4.02	3.81	3.66	3.54	3.72	3.86	3.92	3.78	3.85	1.70	3.82	3.46	3.71	1.53	1.44	3.96	3.85	3.69	3.46	3.41	3.32	2.92	2.78	3.12	3.49	3.64	3.69	3.74	3.81	3.82	3.95	4.22	3.01	1.14	0.38	1.53	2.07	1.83	0.94	1.01	1.15	0.95	0.81	0.51	0.24	0.13	0.05	0.24	0.40	0.44	0.36	0.25	0.36	0.49	0.56	0.84	0.95	0.62	0.56	1.19	1.73	1.75	1.47	1.71	1.85	1.69	1.39	1.20	1.27	1.18	2.87	2.81	2.62	2.33	2.09	1.86	1.72	1.89	2.18	2.39	2.59	2.73	2.81	2.87	2.94	2.99	3.04	3.11	3.17	3.20	3.20	3.18	3.22	3.34	3.42	3.42	3.41	3.43	3.44	3.45	3.45	3.44	3.48	3.47	3.42	3.41	3.44	3.48	3.50	3.53	3.68	3.82	3.68	3.46	3.44	3.51	3.53	3.52	3.52	
2.28	2.25	2.20	2.12	2.04	1.95	1.87	1.78	1.75	1.78	1.84	3.13	2.12	6.70	8.47	8.63	8.35	7.67	7.42	6.65	3.98	4.27	7.12	5.09	3.84	4.47	5.13	5.48	5.94	6.75	6.13	3.75	3.23	7.29	7.01	7.02	5.12	5.12	5.09	5.04	5.78	6.37	5.35	3.71	3.26	3.30	3.57	3.74	3.13	1.31	2.38	3.03	3.36	3.67	3.91	3.63	3.88	3.53	3.92	3.67	3.59	3.49	3.52	3.63	3.64	3.61	3.53	3.52	3.74	3.82	3.62	3.57	3.95	4.22	4.11	3.97	3.76	3.44	3.37	2.42	2.46	2.91	2.92	3.34	3.60	3.68	3.66	3.70	3.78	3.83	4.04	1.93	1.17	1.98	2.57	2.79	2.21	1.21	1.24	1.40	1.35	1.09	0.81	0.57	0.38	0.31	0.53	0.74	0.63	0.35	0.26	0.52	0.47	0.61	0.95	0.94	0.58	0.49	1.19	2.09	2.13	1.41	0.95	1.00	0.67	1.64	1.35	1.26	1.11	1.09	3.03	2.94	2.66	2.40	2.14	1.81	1.80	2.07	2.33	2.54	2.69	2.80	2.86	2.93	3.00	3.05	3.11	3.16	3.20	3.22	3.22	3.23	3.27	3.36	3.40	3.40	3.43	3.44	3.45	3.44	3.40	3.42	3.46	3.45	3.42	3.43	3.48	3.50	3.51	3.65	3.78	3.67	3.50	3.50	3.55	3.54	3.51	3.51	
2.29	2.27	2.21	2.14	2.05	1.95	1.86	1.77	1.72	1.72	1.79	2.00	2.13	5.87	9.67	5.90	8.51	6.87	6.53	5.64	7.27	4.03	4.62	7.17	4.85	4.95	5.22	3.47	5.71	6.05	6.28	3.49	3.38	3.11	7.22	5.23	5.20	5.20	5.09	4.90	5.42	9.61	5.99	4.23	0.98	3.12	3.43	3.78	1.49	3.45	3.28	3.35	3.55	4.14	3.87	3.07	4.99	3.56	3.68	3.45	3.23	3.11	3.48	3.82	3.64	3.35	3.16	3.11	3.26	3.47	3.62	3.65	3.73	3.89	4.01	4.07	3.91	3.57	2.52	3.25	3.11	3.12	2.87	3.17	3.50	3.61	3.69	3.75	3.77	3.78	3.14	1.10	2.00	2.86	3.18	3.08	2.43	1.98	1.68	1.56	1.77	1.58	1.22	0.77	0.69	0.68	0.74	0.80	0.62	0.72	1.01	1.18	0.76	0.74	0.94	0.83	0.55	0.44	1.16	1.97	2.15	1.52	0.79	0.54	0.47	0.36	1.80	1.52	1.22	1.13	1.34	3.08	2.90	2.68	2.49	2.12	1.86	1.98	2.27	2.51	2.67	2.79	2.87	2.93	3.00	3.05	3.10	3.16	3.20	3.22	3.24	3.25	3.27	3.33	3.37	3.37	3.38	3.42	3.45	3.45	3.40	3.39	3.44	3.48	3.47	3.45	3.46	3.46	3.50	3.65	3.76	3.64	3.51	3.52	3.57	3.54	3.51	3.51	
2.30	2.28	2.22	2.16	2.05	1.94	1.84	1.75	1.68	1.66	1.77	1.75	1.68	3.26	8.35	9.96	8.58	7.76	6.11	5.36	6.86	3.07	3.25	6.67	6.22	5.26	3.75	3.58	3.64	5.76	6.55	3.40	3.51	3.35	3.10	5.69	3.13	3.47	3.84	4.32	5.23	6.41	4.27	1.24	3.12	3.22	3.42	3.64	3.63	1.37	3.36	3.53	3.74	4.37	4.22	3.55	3.06	3.50	3.59	3.30	2.96	2.72	3.18	2.04	4.00	3.58	2.91	2.65	2.90	3.20	3.52	3.73	3.78	3.81	3.94	4.14	1.89	1.66	1.96	3.41	2.43	2.47	3.24	3.27	3.49	3.60	3.57	3.55	3.57	3.68	2.36	1.97	2.32	3.55	4.25	3.84	2.75	2.68	2.32	2.35	2.64	2.36	1.86	1.02	0.82	1.26	1.45	1.32	1.10	1.31	1.41	1.09	0.22	0.89	0.92	0.70	0.44	0.61	1.09	1.41	1.95	1.24	0.65	0.68	0.91	1.36	2.46	1.99	1.54	1.40	1.73	3.04	2.98	2.86	2.77	2.50	2.12	2.01	2.22	2.47	2.64	2.77	2.86	2.93	3.00	3.06	3.10	3.16	3.20	3.23	3.24	3.26	3.28	3.33	3.37	3.36	3.36	3.40	3.45	3.48	3.44	3.40	3.42	3.45	3.47	3.47	3.45	3.41	3.44	3.62	3.73	3.62	3.52	3.52	3.55	3.54	3.51	3.51	
2.32	2.29	2.23	2.16	2.07	1.94	1.83	1.73	1.64	1.61	1.68	1.53	1.58	2.11	7.33	6.51	9.03	5.73	5.25	5.28	5.70	6.13	3.15	3.53	7.57	6.11	3.90	3.75	3.36	2.98	6.90	6.38	3.38	3.45	3.24	3.08	3.13	3.37	3.69	4.08	4.95	5.85	6.74	3.76	2.96	3.85	3.70	1.63	3.47	3.22	3.29	3.37	3.58	4.33	4.65	3.87	3.18	3.73	3.89	3.34	1.57	2.61	2.80	3.51	4.07	1.57	3.04	2.32	2.50	2.97	3.40	3.68	3.84	3.96	4.06	1.70	1.79	1.81	1.79	3.75	2.02	3.72	3.50	3.48	3.58	3.68	3.65	3.55	2.42	2.37	4.89	3.98	3.97	4.14	4.55	4.95	4.01	2.72	2.82	3.04	2.95	2.62	1.76	1.31	1.74	2.26	2.27	1.90	1.84	1.66	1.36	0.43	0.56	0.73	0.66	0.67	0.63	0.96	0.62	0.60	0.62	1.54	2.52	2.64	2.93	3.13	2.78	2.60	2.09	1.81	1.95	3.05	3.05	3.01	2.99	2.82	2.43	2.15	2.21	2.44	2.62	2.76	2.85	2.93	3.00	3.06	3.10	3.15	3.20	3.24	3.25	3.27	3.29	3.33	3.38	3.38	3.36	3.38	3.45	3.51	3.47	3.41	3.41	3.43	3.46	3.47	3.45	3.41	3.43	3.55	3.65	3.61	3.56	3.54	3.54	3.54	3.52	3.52	
2.35	2.31	2.25	2.18	2.09	1.96	1.84	1.72	1.61	1.56	1.61	1.54	1.87	1.34	6.56	6.56	7.03	5.61	4.41	4.16	4.72	5.39	2.69	3.20	3.50	4.15	7.57	4.28	3.68	3.39	3.11	3.02	5.57	3.38	3.18	3.02	3.07	3.27	3.54	3.83	4.59	4.94	7.38	5.88	4.49	4.02	2.43	3.90	1.24	3.24	3.26	3.21	3.30	4.13	3.73	3.91	3.47	1.76	1.30	4.03	3.43	3.14	3.06	3.41	3.98	4.25	3.62	2.66	2.44	2.79	3.30	3.63	3.75	3.93	1.57	1.65	2.06	2.24	3.55	3.62	2.57	3.67	3.49	3.50	3.60	3.76	3.93	2.80	1.93	2.91	4.66	3.72	3.85	5.22	4.74	4.85	3.91	2.54	2.41	2.76	2.56	2.11	1.79	2.18	2.45	2.27	2.12	2.11	1.70	1.72	1.38	0.26	0.75	0.32	0.14	0.58	0.82	0.80	0.05	1.07	1.67	3.56	3.93	3.28	3.15	3.50	3.76	3.11	2.76	2.46	2.37	3.19	3.14	3.12	3.10	2.97	2.64	2.32	2.26	2.42	2.61	2.75	2.85	2.93	3.00	3.06	3.11	3.15	3.20	3.24	3.26	3.28	3.29	3.31	3.37	3.40	3.37	3.36	3.42	3.51	3.51	3.44	3.41	3.42	3.45	3.49	3.47	3.45	3.47	3.51	3.56	3.59	3.57	3.54	3.55	3.55	3.54	3.54	
2.37	2.34	2.27	2.19	2.10	1.97	1.84	1.71	1.60	1.52	1.57	1.55	2.50	1.91	5.29	6.59	10.00	7.51	5.07	4.22	4.00	3.79	5.95	2.45	2.96	3.28	3.39	5.21	4.72	3.47	3.18	2.98	7.17	3.32	3.23	2.98	2.96	3.16	3.42	3.63	4.41	4.28	6.90	6.87	6.34	4.42	3.11	3.63	1.79	3.17	3.52	3.65	3.72	8.85	4.47	3.84	3.63	3.89	1.80	1.79	1.26	2.13	3.59	3.66	4.05	3.60	3.12	3.83	3.45	3.21	3.46	3.75	3.72	2.41	1.71	1.59	2.06	3.41	3.47	3.55	3.69	3.74	3.62	3.64	3.86	2.94	1.98	1.49	2.27	2.97	4.15	5.25	3.53	4.83	4.77	4.80	2.91	2.46	2.24	2.32	2.06	1.16	1.14	1.60	1.87	2.10	2.26	2.16	1.60	1.88	1.96	0.83	0.23	0.56	0.63	0.23	0.59	0.28	0.89	1.54	2.13	3.30	4.19	3.37	2.85	3.10	2.89	3.01	3.08	3.06	2.83	3.31	3.18	3.14	3.11	3.00	2.73	2.42	2.28	2.40	2.60	2.74	2.85	2.93	3.01	3.07	3.11	3.16	3.20	3.24	3.27	3.29	3.30	3.30	3.33	3.37	3.37	3.35	3.38	3.48	3.54	3.49	3.43	3.42	3.45	3.49	3.50	3.50	3.49	3.49	3.52	3.55	3.55	3.52	3.53	3.55	3.55	3.55	
2.40	2.37	2.31	2.22	2.12	2.00	1.86	1.71	1.58	1.48	1.49	1.56	3.18	1.70	5.25	6.49	8.63	7.66	5.38	3.59	3.05	2.20	2.37	5.95	2.24	2.66	2.96	3.11	6.22	3.28	3.02	2.96	6.19	3.22	2.96	2.79	2.78	3.01	3.32	3.53	4.37	6.72	6.60	8.56	9.59	10.48	6.08	6.02	2.47	4.30	4.44	4.54	4.58	4.58	4.06	3.61	3.56	3.82	4.22	4.08	3.58	3.38	3.34	3.44	3.72	3.84	3.73	3.89	2.03	3.70	3.66	4.00	3.10	2.04	1.77	1.61	1.90	3.55	3.60	3.77	3.91	4.02	4.08	3.32	3.44	1.76	1.67	2.44	2.89	3.58	3.93	4.27	4.84	4.88	5.36	4.56	3.64	2.38	2.17	2.34	2.14	1.44	1.09	0.94	1.07	1.65	2.13	2.39	2.54	3.00	3.03	1.86	0.58	0.68	0.70	0.87	0.63	1.22	1.93	2.49	2.76	3.25	3.99	3.83	3.19	3.22	2.88	2.82	2.93	3.20	3.11	3.36	3.23	3.24	3.18	3.04	2.82	2.50	2.29	2.35	2.56	2.72	2.84	2.93	3.01	3.07	3.12	3.16	3.20	3.23	3.27	3.31	3.32	3.32	3.33	3.35	3.35	3.36	3.38	3.43	3.50	3.49	3.45	3.43	3.44	3.47	3.52	3.54	3.50	3.49	3.53	3.55	3.52	3.50	3.51	3.53	3.54	3.54	
2.43	2.41	2.34	2.25	2.14	2.03	1.89	1.72	1.58	1.46	1.41	1.53	2.18	2.06	5.10	6.11	10.17	6.89	5.68	5.90	4.31	3.49	2.97	2.47	3.11	5.68	6.00	2.52	5.78	3.02	2.85	2.66	6.46	6.50	6.61	2.49	2.56	2.81	3.13	3.40	4.49	6.64	6.93	8.21	8.72	8.11	8.37	6.31	6.18	8.99	7.67	8.54	5.23	4.89	3.74	3.40	3.36	3.76	2.17	4.03	3.38	3.07	3.05	3.30	3.48	3.27	2.94	3.01	3.31	3.37	3.41	3.85	1.78	1.53	1.70	1.57	2.54	4.20	4.11	2.94	3.97	3.45	3.63	3.59	3.09	4.79	4.11	4.67	4.29	4.76	4.50	4.29	4.84	3.90	5.66	5.31	4.22	3.44	2.50	2.26	2.09	1.93	0.94	0.52	0.87	1.36	1.91	2.63	3.59	4.02	3.83	2.97	2.03	1.02	1.34	2.79	4.24	4.90	4.02	3.59	3.39	3.68	4.25	4.16	3.68	3.63	3.06	2.98	2.92	3.00	3.08	3.29	3.25	3.35	3.34	3.18	2.99	2.69	2.38	2.32	2.49	2.69	2.83	2.93	3.01	3.07	3.12	3.16	3.20	3.23	3.27	3.31	3.34	3.36	3.36	3.35	3.35	3.36	3.38	3.42	3.47	3.48	3.45	3.44	3.44	3.48	3.54	3.54	3.51	3.51	3.55	3.56	3.53	3.51	3.52	3.52	3.52	3.52	
2.45	2.43	2.38	2.28	2.17	2.05	1.92	1.75	1.58	1.43	1.35	1.44	2.16	2.01	4.93	9.19	9.37	6.42	10.53	6.81	5.45	4.12	3.44	3.00	2.72	2.45	2.20	2.38	2.62	5.27	2.77	2.95	6.39	3.65	2.66	2.55	2.49	2.63	2.88	3.16	4.60	6.86	7.54	8.22	6.62	6.47	6.37	6.44	6.33	9.30	8.32	9.59	5.75	4.76	3.46	3.20	3.20	3.55	4.10	3.98	3.42	3.21	3.19	3.46	3.38	3.08	2.46	2.43	2.62	2.83	2.95	3.36	1.85	1.46	1.73	1.53	3.01	1.18	2.68	7.37	3.29	3.35	3.48	4.64	4.54	6.94	3.98	4.38	4.74	4.70	4.86	4.84	4.57	4.78	4.01	3.77	4.74	5.26	4.25	2.86	1.61	0.72	0.57	0.07	1.08	1.66	2.25	2.75	3.53	4.32	4.30	4.01	4.16	5.14	4.85	3.94	4.72	5.91	5.35	4.55	3.81	3.68	4.51	4.75	4.04	3.72	3.13	3.16	2.83	2.64	2.74	3.24	3.23	3.38	3.47	3.39	3.23	2.97	2.66	2.43	2.46	2.67	2.83	2.94	3.02	3.08	3.13	3.17	3.21	3.24	3.27	3.29	3.34	3.38	3.38	3.36	3.36	3.38	3.40	3.46	3.51	3.51	3.47	3.43	3.44	3.50	3.55	3.52	3.50	3.52	3.54	3.55	3.54	3.53	3.54	3.54	3.52	3.52	
2.48	2.46	2.41	2.32	2.20	2.08	1.96	1.78	1.60	1.43	1.30	1.33	1.75	1.62	4.47	8.76	5.26	5.65	6.75	6.94	6.04	5.09	3.97	3.39	3.09	2.89	2.64	2.44	2.41	2.35	2.23	2.30	3.86	2.76	2.83	2.73	2.60	2.62	2.72	2.89	4.89	6.96	7.48	6.99	4.10	4.09	4.16	4.37	6.97	8.21	8.66	9.63	6.27	5.00	3.44	3.09	3.17	3.58	3.93	3.68	3.26	3.24	3.42	3.72	3.89	3.22	2.39	2.18	2.27	2.52	2.68	2.66	2.13	1.68	1.94	3.58	3.36	5.35	5.52	7.46	2.90	2.81	2.79	7.30	6.85	6.76	7.12	7.61	4.16	4.41	4.70	4.96	4.26	3.61	2.81	4.43	4.95	4.53	4.99	2.38	0.17	0.80	1.23	0.01	1.50	2.20	2.81	2.91	3.05	3.76	4.00	3.38	3.80	4.87	5.04	4.49	4.70	5.46	5.38	5.33	4.63	3.85	4.37	4.99	4.38	3.63	2.87	2.96	2.95	2.80	2.81	3.25	3.19	3.29	3.43	3.47	3.39	3.18	2.95	2.70	2.57	2.70	2.86	2.96	3.03	3.09	3.14	3.18	3.22	3.25	3.27	3.28	3.32	3.38	3.38	3.36	3.35	3.38	3.41	3.46	3.51	3.54	3.50	3.42	3.42	3.49	3.52	3.50	3.51	3.53	3.51	3.52	3.54	3.53	3.55	3.55	3.53	3.53	
2.51	2.49	2.43	2.35	2.24	2.12	1.99	1.83	1.64	1.45	1.28	1.23	1.23	0.97	3.02	8.34	9.03	5.14	5.71	6.44	6.73	4.95	3.31	3.76	3.26	2.96	2.81	2.74	2.67	2.54	2.30	2.22	2.37	2.55	2.70	2.75	2.75	2.77	2.72	5.38	5.35	6.88	4.85	4.77	4.68	4.60	4.48	4.53	7.75	8.34	8.27	9.11	6.72	5.86	3.95	3.25	3.25	3.81	4.46	3.88	3.50	3.30	3.57	4.04	4.18	3.58	2.54	2.40	2.28	2.44	2.58	1.23	2.74	2.21	3.44	2.61	5.85	6.23	6.58	3.15	2.90	2.81	2.88	7.01	6.65	6.58	6.85	7.11	6.93	7.36	7.86	4.36	4.78	4.39	4.24	4.51	4.56	4.54	3.68	0.57	0.53	0.90	1.31	0.51	1.71	2.24	2.45	2.55	2.79	3.17	2.87	2.70	3.49	4.29	4.90	4.50	4.53	4.92	4.95	5.34	5.49	4.71	4.39	4.74	4.61	3.41	3.02	2.82	2.95	2.91	3.23	3.20	3.15	3.16	3.24	3.36	3.42	3.25	3.03	2.87	2.74	2.78	2.91	2.99	3.05	3.10	3.15	3.19	3.22	3.25	3.27	3.28	3.31	3.37	3.39	3.37	3.34	3.35	3.39	3.41	3.44	3.49	3.50	3.46	3.46	3.49	3.49	3.51	3.54	3.53	3.50	3.50	3.53	3.54	3.54	3.54	3.53	3.53	
2.55	2.52	2.46	2.38	2.28	2.16	2.03	1.88	1.68	1.49	1.30	1.19	1.08	1.03	2.66	7.61	5.12	4.71	5.15	5.87	6.59	5.49	3.77	4.06	3.48	3.08	2.85	2.78	2.70	2.64	2.46	2.26	4.20	2.41	2.65	2.76	2.80	2.87	2.83	6.22	6.52	5.24	5.14	3.44	3.64	3.67	8.10	5.12	7.73	7.55	7.65	8.39	6.50	6.68	5.38	4.09	3.61	3.90	3.06	5.09	1.38	4.04	4.05	4.52	4.93	4.72	4.30	3.91	3.50	3.17	1.24	2.65	2.57	2.86	3.73	3.86	4.04	6.15	6.76	2.67	2.69	2.90	3.08	3.28	7.09	6.76	6.53	6.52	6.55	7.14	7.65	3.74	4.31	4.84	5.08	5.01	4.99	3.65	2.70	0.54	1.15	2.51	1.86	0.82	1.52	1.89	1.83	2.10	2.79	3.04	2.77	3.58	3.84	3.96	4.46	4.37	4.13	4.31	4.55	5.01	5.29	4.87	4.53	4.65	4.59	3.53	3.52	3.17	2.85	2.62	3.19	3.14	3.14	3.15	3.16	3.25	3.43	3.40	3.08	2.83	2.78	2.86	2.96	3.02	3.07	3.12	3.15	3.19	3.23	3.24	3.26	3.29	3.33	3.37	3.40	3.40	3.38	3.36	3.38	3.39	3.41	3.44	3.47	3.49	3.52	3.50	3.47	3.51	3.56	3.55	3.51	3.49	3.51	3.54	3.54	3.52	3.51	3.51	
2.60	2.57	2.50	2.42	2.33	2.22	2.08	1.94	1.74	1.55	1.35	1.23	1.12	1.36	2.08	4.79	5.21	8.56	4.83	9.45	6.18	5.66	4.12	4.38	3.74	3.30	2.95	2.77	2.61	2.51	2.40	2.26	2.21	2.32	2.56	2.71	2.78	3.26	6.60	3.01	2.87	2.83	2.95	3.18	3.42	3.65	5.82	7.43	4.62	6.73	6.10	7.55	8.34	6.28	6.19	5.13	3.54	3.48	6.95	6.09	4.28	0.57	4.27	4.54	4.96	5.11	4.80	4.65	5.14	0.88	3.54	2.14	2.94	5.13	2.80	2.58	5.81	5.96	6.42	2.29	2.47	2.93	3.01	3.19	7.10	7.27	7.31	6.92	7.12	7.42	7.58	7.55	7.65	4.26	4.77	4.90	4.88	5.17	0.54	4.75	4.72	5.23	3.21	0.84	1.43	1.77	2.08	2.50	2.89	3.11	3.41	3.80	3.91	3.53	3.86	4.12	3.93	3.92	4.23	4.73	4.94	4.66	4.30	4.27	3.14	3.14	3.27	3.28	2.93	2.53	3.25	3.17	3.15	3.16	3.17	3.17	3.38	3.57	3.36	2.94	2.80	2.90	3.01	3.06	3.09	3.13	3.16	3.21	3.24	3.23	3.24	3.28	3.33	3.36	3.38	3.40	3.40	3.38	3.39	3.40	3.41	3.43	3.44	3.47	3.53	3.50	3.45	3.48	3.54	3.54	3.52	3.51	3.51	3.54	3.57	3.54	3.51	3.51	
2.64	2.61	2.54	2.46	2.38	2.28	2.14	2.00	1.82	1.62	1.42	1.27	1.24	1.61	1.59	4.96	5.34	4.38	4.66	4.92	9.96	4.83	4.66	4.92	4.04	3.56	3.07	2.87	2.62	2.44	2.28	2.18	2.14	2.19	2.38	2.57	2.70	3.60	3.42	2.95	2.78	2.77	3.32	3.15	3.34	6.80	6.22	5.24	4.62	6.46	6.05	7.13	7.58	7.94	8.45	5.80	3.70	3.34	5.74	6.33	7.22	8.45	3.62	3.73	4.46	7.91	8.87	8.62	5.64	3.52	2.74	2.56	2.74	3.38	3.98	2.52	2.88	6.08	6.22	2.11	2.26	5.99	2.55	2.93	7.07	3.24	3.21	7.55	7.22	7.25	7.61	3.81	7.80	8.20	8.74	4.45	4.78	0.59	4.95	4.70	4.53	4.92	2.84	1.04	1.76	2.29	3.11	3.46	3.41	3.72	3.84	3.69	3.84	3.57	3.60	3.77	3.77	3.77	3.97	4.35	4.66	4.64	4.18	3.93	2.92	2.72	2.65	2.76	2.93	2.68	3.35	3.19	3.17	3.14	3.10	3.01	3.17	3.53	3.62	3.37	3.05	2.98	3.05	3.09	3.12	3.15	3.18	3.24	3.27	3.24	3.24	3.28	3.31	3.33	3.36	3.38	3.40	3.41	3.41	3.41	3.40	3.41	3.44	3.48	3.49	3.49	3.49	3.48	3.50	3.52	3.52	3.54	3.55	3.54	3.58	3.60	3.57	3.57	
2.66	2.64	2.58	2.50	2.41	2.32	2.19	2.05	1.88	1.69	1.48	1.31	1.35	1.94	1.63	5.26	5.37	7.96	4.20	8.61	5.14	9.57	5.07	3.79	4.51	3.82	3.26	2.62	2.59	2.40	2.19	2.02	1.98	2.05	2.24	2.45	2.64	4.05	3.09	2.91	2.64	2.62	2.86	3.13	6.83	6.41	3.47	3.51	4.36	3.94	5.92	6.82	7.11	7.37	9.00	6.75	3.37	3.15	5.18	6.34	6.23	3.99	4.10	4.26	4.35	4.47	8.41	8.21	7.53	5.53	3.57	2.99	2.84	2.39	3.08	2.78	2.94	3.25	2.93	2.40	5.19	5.03	5.80	2.48	6.85	2.90	3.10	7.39	6.83	7.16	3.33	3.42	8.40	4.84	3.89	5.37	4.68	5.05	5.06	4.92	4.73	4.99	0.63	1.75	2.39	2.95	3.45	3.66	3.59	3.61	3.68	3.60	3.80	3.84	3.86	3.78	3.62	3.75	3.84	3.79	3.99	4.33	4.44	3.36	3.20	2.97	2.79	2.64	2.77	2.81	2.42	3.24	3.18	3.16	3.08	2.86	2.91	3.26	3.48	3.46	3.25	3.09	3.08	3.12	3.15	3.18	3.20	3.25	3.30	3.28	3.26	3.30	3.32	3.33	3.36	3.39	3.39	3.43	3.45	3.44	3.41	3.41	3.46	3.51	3.47	3.47	3.52	3.51	3.50	3.50	3.49	3.52	3.56	3.55	3.57	3.63	3.64	3.64	
2.69	2.67	2.62	2.54	2.45	2.37	2.24	2.10	1.93	1.75	1.52	1.34	1.32	2.04	1.95	5.52	5.58	6.84	3.69	4.20	4.77	9.36	8.35	4.60	3.23	4.08	3.34	2.58	2.53	2.33	2.10	1.88	1.85	1.93	2.10	2.32	2.55	4.37	3.16	3.02	2.71	2.58	4.33	4.19	3.80	3.32	3.44	3.48	4.27	6.17	5.87	6.71	6.98	7.33	9.11	6.39	5.48	4.40	3.97	3.59	3.06	7.18	7.64	4.21	4.72	5.04	5.10	8.49	7.22	5.57	4.07	3.42	3.05	3.66	3.46	3.18	3.10	3.24	3.21	3.07	3.15	2.90	2.37	5.74	6.24	2.29	2.74	6.91	7.15	7.93	3.47	3.77	4.05	5.37	4.17	4.46	4.82	5.10	5.34	5.43	5.27	3.49	1.41	2.37	2.92	3.26	3.19	3.10	3.12	3.12	3.24	3.40	3.55	3.75	4.09	4.00	3.57	3.77	4.01	3.68	3.54	3.91	4.36	3.23	3.34	3.25	3.21	3.02	2.88	2.93	2.69	3.35	3.23	3.18	3.11	2.81	2.72	2.96	3.17	3.24	3.22	3.16	3.12	3.14	3.17	3.18	3.20	3.24	3.29	3.30	3.27	3.30	3.33	3.34	3.36	3.39	3.38	3.40	3.45	3.45	3.42	3.40	3.46	3.53	3.47	3.46	3.52	3.51	3.49	3.47	3.46	3.48	3.51	3.52	3.55	3.61	3.64	3.64	
2.72	2.69	2.64	2.58	2.50	2.41	2.30	2.16	1.99	1.81	1.58	1.35	1.24	1.58	1.56	5.27	5.92	4.40	3.54	3.95	4.54	8.98	9.18	5.52	3.75	2.86	3.49	2.65	2.60	2.32	2.09	1.84	1.68	1.64	1.84	2.14	4.34	4.58	3.08	3.12	2.90	2.78	2.79	2.82	2.97	3.26	3.42	4.52	4.15	6.27	5.90	6.85	7.29	7.94	9.53	5.94	5.73	5.20	4.62	4.18	3.68	3.19	7.01	2.87	3.13	5.47	5.54	8.87	8.29	5.37	3.84	4.00	3.39	3.91	3.75	3.49	3.24	3.20	3.33	3.42	3.46	3.34	3.04	2.78	2.45	5.73	5.84	6.33	3.16	3.27	3.41	3.70	4.04	4.12	4.13	4.43	4.86	5.08	5.29	5.67	3.96	1.01	2.61	2.80	3.04	3.25	3.06	2.86	3.02	3.19	3.11	3.32	3.63	3.73	4.05	4.11	3.48	3.33	3.58	3.61	3.57	3.95	3.09	3.32	3.52	3.44	3.33	3.21	2.97	2.93	3.46	3.36	3.29	3.19	3.05	2.79	2.67	2.83	3.02	3.11	3.16	3.18	3.14	3.14	3.18	3.20	3.20	3.23	3.28	3.31	3.29	3.27	3.30	3.33	3.36	3.40	3.39	3.39	3.43	3.43	3.41	3.39	3.46	3.53	3.46	3.44	3.51	3.51	3.50	3.47	3.45	3.46	3.47	3.47	3.55	3.61	3.60	3.60	
2.76	2.73	2.67	2.62	2.54	2.44	2.35	2.22	2.06	1.88	1.66	1.39	1.18	0.93	0.96	3.38	8.82	5.08	7.30	3.88	4.48	8.79	9.48	5.76	3.79	2.93	3.48	2.69	2.78	2.42	2.15	1.91	1.58	6.13	1.60	2.08	2.40	4.93	2.83	2.98	2.94	2.95	2.95	2.89	2.93	3.17	3.35	4.57	6.30	6.60	6.88	7.30	8.01	8.69	9.80	5.11	5.85	7.70	4.76	4.63	4.51	3.97	3.35	7.25	2.79	3.14	3.45	8.83	8.74	7.58	3.71	5.20	4.81	4.30	3.96	3.70	3.38	3.22	3.31	3.41	3.31	3.50	3.35	3.14	2.95	2.74	2.61	5.94	7.14	2.75	3.04	3.34	3.70	3.96	4.05	4.27	4.67	4.98	5.04	5.43	1.03	3.64	3.55	3.23	3.05	2.90	2.60	2.45	2.78	3.29	3.14	2.88	3.14	3.25	3.50	3.94	3.69	3.43	3.11	3.04	3.17	2.40	2.95	2.66	2.85	3.16	3.66	3.47	3.31	3.26	3.42	3.31	3.27	3.19	2.98	2.79	2.73	2.84	2.99	3.04	3.09	3.15	3.14	3.12	3.17	3.21	3.21	3.22	3.26	3.31	3.33	3.30	3.30	3.33	3.36	3.40	3.41	3.42	3.45	3.46	3.42	3.39	3.46	3.53	3.46	3.43	3.49	3.51	3.52	3.51	3.48	3.47	3.45	3.44	3.56	3.63	3.59	3.59	
2.80	2.76	2.70	2.65	2.59	2.49	2.40	2.27	2.12	1.94	1.73	1.46	1.19	0.95	1.21	1.54	5.45	5.55	7.77	3.95	8.07	4.69	9.30	6.33	3.69	2.74	3.52	2.79	3.06	2.64	2.33	2.12	1.86	1.65	1.70	2.11	2.58	2.72	2.80	2.84	2.85	2.95	3.06	3.09	3.14	3.31	4.95	6.29	6.64	7.01	7.40	7.82	8.45	8.41	9.53	4.79	4.56	4.58	4.79	4.86	6.16	4.39	3.68	6.05	7.96	2.93	3.51	8.71	8.54	8.85	8.70	5.51	6.01	5.39	4.53	4.08	3.70	3.41	3.32	3.34	3.26	3.36	3.49	3.24	3.17	2.97	2.76	2.61	6.57	2.19	2.53	2.98	3.38	3.67	3.88	4.13	4.46	4.80	4.70	4.99	4.51	3.79	3.25	2.81	2.53	2.28	2.12	2.02	2.08	2.42	2.40	2.06	2.08	2.10	2.05	2.39	2.96	3.38	3.40	3.01	3.02	2.25	2.49	2.82	2.57	2.84	3.61	3.57	3.62	3.33	3.35	3.23	3.19	3.16	2.94	2.80	2.77	2.83	2.94	2.98	3.03	3.11	3.14	3.13	3.15	3.19	3.20	3.21	3.24	3.29	3.34	3.35	3.34	3.34	3.36	3.39	3.41	3.43	3.48	3.50	3.45	3.41	3.47	3.53	3.48	3.46	3.48	3.49	3.50	3.51	3.50	3.49	3.46	3.43	3.52	3.62	3.62	3.62	
2.84	2.80	2.73	2.68	2.63	2.55	2.45	2.33	2.19	2.00	1.80	1.54	1.28	1.16	1.46	1.27	5.46	5.76	4.39	4.13	7.99	4.72	9.33	6.11	3.39	2.59	3.55	2.99	2.54	2.87	2.53	2.33	2.10	1.85	2.07	2.08	2.66	2.99	3.10	3.06	3.01	3.08	3.25	3.44	3.57	5.36	5.69	6.94	7.13	7.43	7.72	8.00	8.64	8.03	9.22	4.63	4.15	3.75	3.69	3.81	4.23	7.21	4.07	3.57	6.78	2.85	8.15	8.32	8.75	4.16	4.26	10.34	7.42	6.09	4.96	3.64	2.74	3.77	3.47	3.31	3.12	4.11	3.23	3.40	3.30	3.03	2.72	2.56	2.21	6.39	1.83	2.35	2.91	3.25	3.49	3.76	4.82	4.81	8.02	8.94	8.66	3.95	3.25	2.63	2.35	2.48	2.88	2.78	2.38	2.00	1.70	1.63	1.61	1.47	1.29	1.22	1.81	2.70	3.24	2.76	2.66	2.18	2.39	2.27	2.52	2.81	2.91	3.08	2.96	3.14	3.26	3.12	3.03	3.03	2.87	2.73	2.72	2.81	2.91	2.96	3.01	3.09	3.13	3.14	3.15	3.18	3.21	3.22	3.23	3.26	3.29	3.33	3.34	3.34	3.35	3.38	3.38	3.39	3.45	3.49	3.45	3.42	3.46	3.49	3.46	3.48	3.50	3.47	3.45	3.46	3.48	3.49	3.48	3.46	3.49	3.56	3.59	3.59	
2.86	2.83	2.77	2.71	2.67	2.59	2.49	2.38	2.26	2.08	1.89	1.64	1.40	1.25	1.51	1.24	5.19	5.63	4.64	4.36	7.98	4.72	9.35	6.15	3.48	2.78	3.51	3.05	2.80	2.91	2.58	2.36	2.08	1.78	6.27	2.05	2.62	3.04	3.28	3.37	3.37	3.38	3.80	6.08	6.96	7.34	7.39	7.39	7.39	7.58	7.81	8.15	8.75	9.50	8.68	4.55	3.87	3.60	3.48	3.56	3.94	6.92	4.26	3.93	3.59	7.87	7.48	8.21	3.49	4.31	9.19	9.07	9.54	8.59	5.45	4.07	3.38	2.75	3.73	3.40	3.02	4.22	3.94	2.84	3.46	3.25	2.91	2.63	2.27	1.75	6.50	1.71	2.30	2.73	2.98	3.20	4.61	7.31	7.99	8.44	10.15	7.71	6.16	4.40	4.09	4.00	4.16	4.11	3.43	2.63	1.88	1.65	1.69	1.79	1.83	1.70	1.97	2.50	2.94	2.61	2.30	1.85	2.21	2.40	2.40	2.59	2.69	2.71	2.75	3.02	3.28	3.11	2.87	2.80	2.74	2.67	2.68	2.78	2.89	2.95	2.99	3.06	3.12	3.14	3.16	3.19	3.21	3.23	3.25	3.25	3.27	3.31	3.32	3.32	3.34	3.36	3.36	3.37	3.42	3.46	3.42	3.44	3.49	3.45	3.43	3.46	3.51	3.50	3.47	3.46	3.46	3.47	3.47	3.49	3.52	3.52	3.53	3.53	
2.88	2.86	2.81	2.75	2.70	2.64	2.54	2.43	2.31	2.15	1.97	1.74	1.50	1.30	1.47	1.24	4.89	8.69	4.71	4.57	8.02	8.59	9.13	5.79	4.22	3.16	3.00	2.85	2.66	2.57	2.47	2.28	2.04	1.81	2.60	2.12	2.50	2.85	3.10	3.25	4.84	4.62	6.64	7.28	7.28	7.29	7.26	7.32	7.42	7.62	7.89	8.40	8.96	9.85	5.26	4.52	3.74	3.52	3.34	3.39	3.69	4.01	6.51	3.83	5.92	7.04	7.69	3.18	3.45	3.62	8.82	8.59	8.79	8.86	7.35	5.01	3.75	3.02	2.55	3.71	3.11	2.88	3.88	3.00	2.83	3.38	3.12	2.89	2.52	2.04	1.65	1.57	1.86	2.32	2.62	2.81	4.73	6.74	7.41	8.11	9.47	8.72	9.13	9.36	7.29	5.86	5.15	5.17	4.61	3.43	2.61	2.34	2.17	2.12	2.27	2.33	2.19	2.19	2.50	2.74	2.46	1.89	1.81	1.98	2.04	2.29	2.47	2.70	2.60	2.84	3.23	3.19	2.81	2.61	2.59	2.62	2.67	2.74	2.84	2.92	2.96	3.03	3.10	3.14	3.16	3.19	3.21	3.24	3.26	3.27	3.28	3.32	3.33	3.33	3.35	3.36	3.37	3.40	3.46	3.46	3.41	3.45	3.54	3.49	3.42	3.45	3.50	3.52	3.51	3.50	3.47	3.46	3.45	3.50	3.56	3.54	3.51	3.51	
2.89	2.88	2.85	2.78	2.73	2.67	2.59	2.49	2.37	2.22	2.04	1.83	1.58	1.35	1.33	1.21	5.65	9.10	8.11	8.03	8.33	8.75	8.56	5.58	5.10	3.55	3.10	2.68	2.51	2.47	2.33	2.14	1.91	1.72	1.83	2.01	2.27	2.57	2.78	5.15	5.12	4.87	6.94	7.09	6.98	6.74	6.82	7.17	7.49	7.74	8.05	8.46	8.75	9.95	4.72	3.49	4.01	4.82	3.24	3.16	3.24	3.38	3.42	5.72	6.53	6.98	7.74	2.92	3.15	3.55	8.82	8.68	8.63	8.71	8.14	6.75	4.45	3.31	2.99	3.12	3.39	2.92	3.48	3.53	2.76	3.44	3.17	3.05	2.78	2.25	1.67	5.84	1.38	1.84	2.28	2.59	5.06	5.24	5.28	7.85	8.48	8.17	8.13	8.41	8.60	7.90	6.44	5.56	4.96	4.26	4.09	3.73	3.00	2.71	2.89	2.89	2.57	2.26	2.00	2.03	2.35	2.08	1.73	1.45	1.54	1.71	1.87	2.72	2.56	2.67	3.03	3.12	2.82	2.50	2.38	2.46	2.60	2.71	2.80	2.89	2.95	3.01	3.08	3.12	3.16	3.18	3.21	3.23	3.25	3.28	3.30	3.32	3.33	3.35	3.36	3.36	3.37	3.43	3.50	3.48	3.40	3.42	3.54	3.55	3.45	3.45	3.49	3.49	3.50	3.52	3.51	3.47	3.44	3.48	3.56	3.56	3.53	3.53	
2.91	2.90	2.87	2.82	2.76	2.70	2.63	2.54	2.42	2.29	2.12	1.91	1.66	1.41	1.24	1.19	4.36	8.25	8.21	8.27	8.70	9.07	5.37	5.75	4.36	3.33	2.69	2.30	2.04	2.56	2.29	2.06	1.69	1.47	1.60	1.79	2.03	2.35	2.54	5.37	5.42	6.38	6.51	6.60	6.25	6.35	7.02	7.52	7.56	7.65	7.87	8.11	8.28	9.90	4.99	5.18	3.44	4.04	4.45	3.10	3.01	3.08	3.15	5.69	6.64	6.74	7.11	7.63	2.55	8.13	8.31	8.45	8.51	8.68	8.75	7.90	6.40	4.25	3.37	3.10	3.50	3.84	3.74	2.83	2.84	2.55	3.25	3.11	2.96	2.55	1.98	1.38	6.29	1.44	1.97	2.38	5.19	5.39	5.52	8.35	8.17	8.14	7.91	7.77	8.16	8.37	7.10	5.67	4.76	4.69	5.00	4.81	3.65	3.23	3.30	3.11	2.81	2.54	2.23	2.27	2.51	2.21	1.83	1.61	1.65	1.51	1.31	2.88	2.70	2.74	2.96	3.05	2.85	2.50	2.22	2.24	2.45	2.65	2.78	2.87	2.93	2.99	3.06	3.11	3.15	3.17	3.19	3.21	3.23	3.27	3.31	3.32	3.32	3.34	3.35	3.34	3.33	3.40	3.50	3.49	3.40	3.37	3.49	3.57	3.47	3.45	3.51	3.49	3.48	3.52	3.54	3.50	3.45	3.45	3.51	3.56	3.55	3.55	
2.94	2.92	2.89	2.85	2.79	2.72	2.66	2.60	2.53	2.38	2.18	1.98	1.74	1.47	1.27	1.35	3.62	7.23	8.37	8.57	8.88	8.98	5.92	2.50	1.83	1.60	2.77	2.04	1.54	2.70	2.44	2.19	1.72	1.38	1.45	1.61	1.82	2.10	2.35	5.70	5.78	6.27	5.77	5.18	4.27	5.98	3.48	3.40	7.41	7.37	7.50	7.78	8.20	9.80	6.20	5.94	4.57	3.55	4.12	4.28	2.89	2.96	2.98	5.52	4.13	6.46	6.79	7.52	2.51	8.02	8.11	8.22	8.45	8.73	9.02	8.76	7.41	5.59	3.74	4.43	3.97	3.54	3.28	3.00	2.85	2.60	3.42	3.24	3.02	2.74	2.43	1.97	1.54	1.44	1.74	2.34	2.54	2.80	5.85	7.87	7.83	8.24	8.18	7.94	8.30	8.40	7.11	5.93	5.17	4.99	5.28	5.26	3.74	3.28	3.06	2.63	2.54	2.57	2.63	2.77	2.64	2.22	1.95	1.73	1.51	3.15	3.21	3.11	2.93	2.93	3.13	3.20	3.05	2.70	2.24	2.12	2.32	2.57	2.75	2.86	2.92	2.97	3.04	3.10	3.15	3.19	3.22	3.23	3.23	3.25	3.28	3.30	3.32	3.34	3.36	3.34	3.31	3.37	3.47	3.47	3.41	3.36	3.44	3.56	3.48	3.44	3.51	3.50	3.47	3.50	3.55	3.54	3.50	3.47	3.49	3.54	3.55	3.55	
2.97	2.95	2.92	2.88	2.82	2.75	2.66	2.59	2.54	2.40	2.21	2.04	1.81	1.55	1.29	1.43	2.50	5.25	8.16	8.41	8.97	8.85	6.22	6.45	5.58	4.08	2.95	2.04	1.79	2.90	2.63	2.43	2.06	1.60	1.44	1.47	1.58	1.82	2.47	5.73	6.19	3.01	2.98	2.69	4.51	5.83	6.40	6.80	6.97	6.99	7.12	7.59	8.28	9.55	9.61	4.70	5.63	4.48	3.10	2.77	2.66	5.54	2.79	4.09	6.11	4.25	6.64	7.26	2.54	3.37	3.62	8.74	8.94	6.53	9.12	8.95	8.01	6.61	4.74	3.73	2.58	3.87	3.36	2.93	2.59	2.42	2.28	3.43	3.12	2.69	2.45	2.12	1.53	6.02	1.44	2.03	2.74	2.84	7.62	7.59	7.49	7.94	7.89	8.01	8.63	8.62	7.33	6.65	5.68	5.35	5.45	5.41	4.13	3.56	2.96	2.60	2.93	3.07	2.84	2.49	2.01	1.72	2.06	1.74	3.22	3.26	1.55	1.52	3.18	3.03	3.18	3.37	3.33	3.06	2.53	2.19	2.29	2.54	2.75	2.88	2.95	2.99	3.03	3.08	3.13	3.19	3.25	3.27	3.25	3.25	3.27	3.28	3.30	3.33	3.38	3.37	3.33	3.37	3.45	3.45	3.43	3.38	3.43	3.54	3.49	3.43	3.50	3.53	3.49	3.48	3.54	3.56	3.53	3.52	3.52	3.51	3.51	3.51	
2.99	2.97	2.93	2.91	2.86	2.79	2.67	2.56	5.47	2.41	2.28	2.11	1.87	1.62	1.37	1.38	1.62	4.84	5.99	7.95	8.69	8.90	8.86	6.72	3.50	1.65	1.27	2.38	1.86	1.81	2.78	2.59	2.25	1.82	1.50	1.47	1.50	1.73	3.00	3.22	3.24	3.22	3.27	3.17	2.85	4.40	6.03	6.13	6.33	6.50	6.84	7.58	8.53	9.50	9.85	8.25	6.35	5.78	4.59	3.72	3.38	3.23	2.93	2.90	2.85	2.74	6.08	6.87	7.34	2.90	3.69	9.00	3.73	9.00	8.94	8.75	8.37	6.86	5.24	5.25	3.91	4.42	3.90	3.45	2.99	2.37	3.52	2.08	2.13	2.75	2.40	1.94	1.46	5.57	1.31	1.76	2.77	6.07	7.30	7.45	7.73	7.74	7.64	8.22	8.92	8.69	7.85	7.57	6.99	5.81	5.70	6.95	5.40	4.27	3.92	3.76	3.90	3.93	3.43	2.73	2.16	2.08	2.50	2.13	3.44	1.64	1.63	1.67	1.60	3.19	3.07	3.28	3.46	3.41	2.97	2.42	2.35	2.55	2.76	2.89	2.97	3.03	3.05	3.08	3.11	3.16	3.23	3.26	3.27	3.28	3.28	3.27	3.28	3.30	3.35	3.38	3.36	3.38	3.41	3.41	3.41	3.39	3.41	3.51	3.49	3.42	3.47	3.53	3.52	3.49	3.52	3.54	3.51	3.50	3.55	3.55	3.52	3.52	
3.01	3.00	2.96	2.93	2.89	2.82	2.73	2.67	2.58	2.46	2.30	2.14	1.93	1.70	1.48	1.38	1.46	4.57	6.04	7.59	8.11	8.48	9.11	6.66	2.91	2.36	1.90	1.82	2.20	1.79	3.01	2.76	2.42	2.02	1.64	1.58	1.54	1.76	2.18	2.57	3.13	3.18	3.40	3.58	3.45	3.06	2.73	5.43	5.75	6.30	6.94	8.00	8.92	8.96	9.26	10.13	10.71	6.50	6.22	5.02	4.18	3.75	3.39	3.16	2.99	2.91	2.88	2.52	7.20	7.26	3.02	8.56	8.73	8.80	8.82	8.97	9.06	6.84	4.81	3.49	5.00	2.77	4.70	4.39	3.82	3.06	2.45	2.31	2.56	2.97	2.51	2.02	1.75	1.43	1.40	1.53	2.88	6.87	7.27	7.53	7.59	7.56	7.60	8.17	8.68	8.71	8.40	8.29	7.58	6.59	6.61	7.63	6.75	5.29	5.30	5.37	4.91	4.55	3.98	3.63	3.33	2.89	3.01	2.91	2.39	2.01	1.77	1.73	1.77	1.75	3.11	3.10	3.35	3.55	3.30	2.72	2.48	2.57	2.75	2.88	2.96	3.04	3.08	3.10	3.12	3.15	3.21	3.25	3.27	3.29	3.30	3.28	3.27	3.28	3.33	3.36	3.39	3.42	3.43	3.39	3.38	3.38	3.39	3.45	3.47	3.44	3.44	3.48	3.50	3.49	3.50	3.53	3.53	3.50	3.53	3.59	3.60	3.60	
3.03	3.01	2.98	2.95	2.92	2.86	2.79	2.72	2.60	5.57	2.28	2.16	1.99	1.76	1.53	1.42	1.47	4.45	6.01	7.27	7.57	8.13	8.98	10.48	4.00	3.20	2.80	2.89	2.84	2.48	2.56	2.95	2.62	2.18	1.91	1.66	1.56	1.72	2.10	2.46	2.99	3.11	5.05	5.04	4.58	3.58	3.16	5.25	5.86	6.50	7.51	8.42	8.13	8.29	8.79	9.35	10.23	11.21	6.57	6.64	6.00	5.09	4.31	3.76	3.40	3.22	3.05	2.94	6.90	7.35	2.46	8.37	4.45	4.42	9.23	7.50	9.54	7.77	5.90	4.82	6.49	4.70	4.05	3.50	3.02	3.87	3.23	3.04	2.89	2.89	2.69	2.20	1.96	1.44	5.82	1.34	1.97	3.74	7.42	7.77	7.63	7.30	7.13	7.41	7.73	7.99	8.19	8.54	8.14	7.03	7.05	7.96	7.35	6.06	6.04	5.47	5.33	5.05	4.23	3.81	3.94	3.96	2.78	3.09	2.79	2.42	2.06	1.75	1.87	2.13	3.24	3.02	3.15	3.44	3.44	3.02	2.65	2.65	2.79	2.89	2.97	3.03	3.08	3.11	3.12	3.15	3.20	3.24	3.26	3.30	3.32	3.31	3.29	3.29	3.32	3.35	3.39	3.47	3.50	3.43	3.38	3.40	3.40	3.42	3.45	3.45	3.44	3.45	3.48	3.49	3.51	3.53	3.55	3.53	3.50	3.54	3.60	3.60	
3.05	3.04	3.01	2.97	2.94	2.89	2.83	2.75	2.68	2.58	2.38	2.22	2.04	1.81	1.56	1.40	1.40	4.37	5.95	5.37	7.09	7.78	8.79	9.85	4.83	3.91	3.64	3.67	3.95	4.15	3.46	3.37	2.62	2.37	2.07	1.78	1.73	1.81	2.08	2.40	2.94	3.09	4.95	4.86	4.82	4.51	4.04	5.46	5.93	6.91	8.25	7.48	7.26	7.72	8.21	8.68	9.30	10.16	10.64	10.61	5.98	5.78	4.66	4.70	4.08	3.61	3.13	3.01	2.86	7.39	7.30	7.71	3.37	4.10	4.74	4.37	9.46	8.89	7.94	7.25	8.11	8.01	6.75	6.48	5.24	4.59	4.16	3.68	3.34	3.10	3.19	2.50	2.27	1.60	5.22	1.13	1.49	5.83	6.60	7.37	7.28	7.21	6.77	6.87	7.02	7.33	7.67	8.03	8.08	7.32	7.66	8.28	7.32	6.59	6.51	6.12	5.24	5.15	4.83	4.11	4.08	4.34	3.99	1.32	3.21	2.72	2.17	1.80	2.09	2.42	3.30	3.03	3.03	3.24	3.35	3.15	2.83	2.76	2.85	2.94	3.00	3.03	3.07	3.11	3.13	3.14	3.17	3.20	3.23	3.28	3.32	3.33	3.33	3.33	3.32	3.32	3.35	3.45	3.52	3.47	3.41	3.44	3.45	3.43	3.43	3.45	3.45	3.46	3.48	3.50	3.52	3.53	3.51	3.52	3.50	3.51	3.54	3.54	
3.07	3.06	3.04	3.00	2.96	2.92	2.85	2.80	2.75	2.65	2.48	2.29	2.10	1.88	1.59	1.34	1.33	3.05	5.97	5.41	6.77	7.43	8.55	9.63	4.83	3.67	3.26	3.19	3.31	3.74	3.76	3.85	2.25	2.22	1.87	1.79	1.94	2.07	2.27	2.87	2.95	3.13	4.89	4.94	6.38	6.35	4.27	5.39	6.23	8.06	7.68	6.76	7.29	7.71	7.87	8.12	8.73	9.39	9.49	9.67	9.87	9.18	6.60	4.97	4.62	3.98	3.38	3.06	6.30	7.47	7.45	7.40	7.59	3.22	4.49	9.07	9.02	8.68	8.73	8.19	8.36	8.58	8.25	7.64	7.11	6.94	6.88	5.72	5.35	4.43	3.59	3.18	2.55	2.18	1.54	5.28	4.81	5.11	5.81	6.56	7.26	7.21	6.67	6.53	6.90	7.37	7.65	7.80	7.88	7.52	7.74	8.02	7.01	6.66	6.92	6.47	6.14	6.15	5.77	4.93	4.54	4.20	4.64	5.00	1.64	3.36	2.67	2.23	2.43	2.66	3.34	3.10	3.02	3.07	3.17	3.14	2.94	2.85	2.90	2.97	3.02	3.05	3.08	3.12	3.15	3.16	3.17	3.19	3.21	3.25	3.29	3.32	3.33	3.35	3.35	3.31	3.30	3.38	3.49	3.46	3.40	3.44	3.46	3.44	3.43	3.45	3.45	3.45	3.47	3.47	3.48	3.50	3.49	3.50	3.52	3.52	3.52	3.52	
3.08	3.08	3.06	3.03	2.99	2.95	2.89	2.81	2.73	2.63	2.50	2.35	2.15	1.94	1.65	1.34	1.35	2.90	3.53	5.34	5.11	7.21	8.67	9.56	5.10	3.87	3.28	3.03	2.71	2.36	3.00	3.21	1.81	1.93	1.44	1.51	1.81	2.06	2.27	2.95	2.92	4.97	5.16	6.70	7.37	7.57	7.47	7.52	8.43	8.30	6.84	6.59	7.19	7.51	7.54	7.84	8.48	8.90	8.89	8.91	9.25	9.21	7.53	5.84	5.05	4.15	3.54	3.16	3.04	8.01	8.00	7.89	2.53	7.63	7.84	8.38	8.50	7.99	8.22	8.17	8.35	8.64	8.59	7.95	7.22	7.05	6.92	5.98	5.82	6.25	5.75	5.30	4.68	2.83	2.05	1.44	5.21	5.03	2.07	6.23	6.97	7.01	6.58	6.41	6.72	6.96	7.12	7.30	7.56	8.01	8.06	7.58	6.52	6.34	6.87	6.63	6.43	6.46	6.16	5.03	4.54	4.38	4.51	4.93	2.55	4.03	3.42	2.93	2.76	2.78	3.36	3.19	3.07	2.95	2.94	3.00	2.94	2.88	2.90	2.96	3.02	3.05	3.09	3.12	3.14	3.17	3.18	3.21	3.23	3.23	3.25	3.28	3.30	3.33	3.32	3.31	3.29	3.33	3.44	3.44	3.37	3.38	3.42	3.43	3.43	3.44	3.45	3.44	3.45	3.48	3.46	3.46	3.48	3.51	3.52	3.52	3.51	3.51	
3.10	3.10	3.08	3.05	3.01	2.97	2.91	2.84	2.76	2.66	2.54	2.39	2.22	2.00	1.73	1.43	1.46	2.73	3.39	5.31	5.09	7.30	8.66	10.01	4.18	3.36	3.21	3.15	2.85	2.22	2.50	1.89	1.49	1.49	1.30	1.37	1.63	1.81	1.96	2.84	2.80	5.32	5.34	6.61	7.10	7.35	7.49	8.29	8.36	7.55	6.75	6.34	7.11	7.30	7.10	7.71	7.87	8.06	8.19	8.35	9.15	9.69	8.33	6.21	5.11	4.34	3.79	3.30	3.00	7.72	7.75	7.78	7.81	7.82	3.00	8.32	8.35	7.35	7.36	7.18	7.48	7.93	8.08	7.78	6.98	6.73	6.73	6.03	5.58	5.70	5.19	4.84	4.52	4.46	4.49	1.87	4.79	4.62	1.71	5.78	6.62	6.76	6.41	6.28	6.36	6.39	6.42	6.56	6.87	7.44	7.81	7.53	7.03	6.68	6.77	6.77	6.72	6.73	6.33	5.01	4.67	4.93	5.37	7.77	6.02	5.00	4.36	3.61	3.18	2.89	3.50	3.35	3.17	2.92	2.75	2.77	2.85	2.88	2.90	2.95	3.00	3.04	3.08	3.12	3.15	3.16	3.17	3.20	3.23	3.23	3.25	3.26	3.28	3.32	3.31	3.29	3.29	3.31	3.40	3.46	3.40	3.36	3.37	3.40	3.41	3.42	3.45	3.44	3.45	3.50	3.51	3.47	3.47	3.50	3.51	3.52	3.52	3.52	
3.12	3.11	3.09	3.07	3.04	2.99	2.93	2.86	2.78	2.69	2.57	2.43	2.27	2.07	1.81	1.53	1.56	2.60	3.26	5.23	5.19	7.35	8.39	10.39	3.29	2.59	2.36	2.43	2.04	1.82	1.80	2.14	1.58	1.83	1.60	1.55	1.66	1.71	1.72	1.85	2.80	5.16	5.53	5.99	6.31	6.64	7.26	8.17	7.65	7.34	7.10	6.30	7.42	7.37	7.05	7.60	6.97	7.13	7.38	7.52	8.33	9.79	8.95	6.87	5.92	4.57	4.15	3.56	3.04	7.07	7.21	7.32	7.65	7.76	7.89	8.23	8.02	7.10	6.75	6.75	7.15	7.56	7.96	7.84	6.78	6.16	6.26	6.27	5.77	5.29	4.77	4.49	4.30	4.34	4.58	4.38	4.28	4.77	1.39	2.14	5.98	5.71	6.13	5.99	6.07	6.20	6.24	6.36	6.60	6.79	6.87	6.98	7.19	7.10	6.72	6.88	7.34	7.65	7.58	6.36	5.09	4.27	5.06	5.08	4.99	5.43	5.43	4.50	3.81	3.22	3.80	3.63	3.38	3.02	2.72	2.67	2.78	2.88	2.93	2.97	3.00	3.03	3.08	3.11	3.15	3.18	3.16	3.17	3.21	3.22	3.25	3.28	3.29	3.34	3.36	3.33	3.31	3.32	3.39	3.47	3.46	3.39	3.37	3.39	3.39	3.40	3.44	3.45	3.46	3.50	3.54	3.52	3.49	3.51	3.52	3.51	3.52	3.52	
3.15	3.13	3.10	3.08	3.06	3.02	2.95	2.88	2.81	2.72	2.61	2.47	2.31	2.12	1.88	1.63	1.66	2.39	3.19	5.27	5.31	7.21	7.97	10.06	3.43	2.72	1.86	1.88	1.78	1.61	1.61	2.81	2.25	1.92	1.90	1.68	1.65	1.67	1.60	1.60	2.87	2.88	5.34	5.86	6.07	6.36	7.27	7.85	7.15	7.18	7.31	6.53	7.48	7.17	6.98	7.22	6.70	6.90	7.12	7.56	7.74	9.32	9.10	7.81	6.20	4.79	4.37	3.91	3.50	3.23	7.38	7.43	7.55	7.64	7.64	8.02	7.68	6.94	6.55	6.46	6.80	7.33	8.17	8.20	6.42	5.57	5.47	5.97	5.88	5.00	4.50	4.46	4.32	4.29	4.42	4.32	3.98	4.70	4.73	5.16	5.66	5.70	5.89	5.67	5.79	5.91	6.08	6.19	6.24	6.26	6.28	6.31	6.56	6.44	6.00	6.03	6.65	7.02	7.25	7.15	5.14	4.77	4.85	4.83	4.89	5.35	5.68	5.10	4.33	4.50	4.12	3.93	3.67	3.25	2.83	2.68	2.75	2.85	2.91	2.97	3.00	3.03	3.05	3.07	3.11	3.17	3.17	3.18	3.20	3.21	3.25	3.29	3.29	3.34	3.39	3.37	3.33	3.33	3.39	3.46	3.46	3.41	3.40	3.41	3.40	3.41	3.44	3.44	3.45	3.49	3.54	3.54	3.51	3.51	3.53	3.52	3.51	3.51	
3.18	3.15	3.11	3.09	3.09	3.04	2.97	2.91	2.84	2.75	2.64	2.51	2.35	2.16	1.93	1.66	1.66	2.23	3.15	5.35	5.30	7.08	7.65	9.52	4.10	3.17	2.02	1.66	1.92	2.64	2.87	3.22	2.64	2.21	1.93	1.52	1.36	1.39	1.39	1.38	3.06	3.16	3.07	5.43	5.76	6.52	7.30	7.67	6.99	7.16	7.30	6.41	7.22	6.92	6.78	7.03	6.54	6.66	7.00	7.49	6.70	9.02	9.08	7.62	5.27	4.88	4.47	4.13	3.78	3.67	7.05	7.65	7.65	3.04	7.95	8.23	7.44	6.80	6.07	5.65	6.18	6.75	7.64	8.33	7.16	6.26	5.27	5.38	5.64	5.18	4.59	4.15	4.23	3.99	4.10	4.35	4.21	4.36	4.64	4.71	2.65	5.89	5.79	5.47	5.46	5.62	5.85	5.75	5.63	5.64	5.83	5.88	5.93	5.94	4.40	4.26	4.40	4.59	4.83	5.04	5.03	4.79	4.62	4.58	4.76	5.18	5.44	5.50	4.95	4.79	4.43	4.16	3.89	3.49	2.99	2.77	2.78	2.84	2.89	2.95	2.99	3.03	3.06	3.05	3.07	3.13	3.16	3.19	3.21	3.21	3.24	3.26	3.26	3.30	3.37	3.37	3.34	3.34	3.38	3.44	3.44	3.40	3.41	3.43	3.41	3.43	3.45	3.44	3.43	3.46	3.52	3.54	3.51	3.51	3.53	3.52	3.51	3.51	
3.22	3.18	3.12	3.11	3.11	3.07	3.00	2.94	2.87	2.77	2.67	2.54	2.39	2.20	1.97	1.69	1.57	1.83	3.12	5.36	5.29	7.03	7.53	9.05	7.45	3.89	2.72	2.25	2.81	3.53	3.64	3.64	3.33	2.29	2.03	1.51	1.14	4.68	1.22	1.30	1.53	3.16	3.14	5.01	5.90	6.47	6.87	6.91	6.68	6.81	7.07	6.71	7.24	7.04	6.93	6.88	6.15	6.37	6.60	6.87	5.24	8.81	8.99	8.23	5.63	4.93	4.56	4.14	3.84	6.46	7.51	8.30	3.22	3.33	6.49	8.07	7.35	6.96	5.81	4.96	5.87	6.86	3.20	8.26	7.30	6.96	6.20	5.64	5.42	5.47	5.07	4.65	3.71	4.03	3.99	4.25	4.47	3.96	1.98	2.18	2.19	3.19	5.37	5.38	5.44	5.62	5.73	5.51	3.79	3.86	4.08	4.19	4.23	4.21	4.20	4.16	4.17	4.26	4.42	4.64	4.72	4.63	3.77	3.61	3.58	3.71	3.96	4.28	4.64	4.77	4.62	4.30	3.97	3.59	3.10	2.85	2.84	2.86	2.89	2.94	2.97	3.00	3.07	3.09	3.07	3.10	3.13	3.16	3.19	3.22	3.23	3.23	3.23	3.27	3.34	3.36	3.34	3.35	3.37	3.41	3.43	3.40	3.38	3.40	3.40	3.43	3.47	3.47	3.44	3.44	3.48	3.52	3.52	3.52	3.53	3.52	3.51	3.51	
3.24	3.22	3.15	3.13	3.14	3.10	3.03	2.96	2.89	2.80	2.70	2.58	2.42	2.23	1.99	1.72	1.53	1.69	3.02	5.31	5.27	7.07	7.55	8.76	8.39	4.63	3.60	3.25	3.21	3.35	3.27	3.01	3.10	2.46	2.36	1.84	1.40	1.26	1.28	1.25	1.38	1.67	3.16	5.12	5.93	6.46	6.40	6.25	6.22	6.38	6.64	6.73	6.85	6.64	6.57	6.61	6.16	6.55	6.78	6.42	5.09	8.64	8.50	8.37	8.54	7.31	5.15	3.95	3.79	4.02	8.81	3.86	3.61	3.51	8.33	7.70	6.99	6.73	6.01	5.05	5.72	6.65	6.80	8.28	7.55	7.07	6.47	5.44	5.00	5.06	4.88	4.82	5.02	4.78	4.54	4.39	4.59	3.92	1.82	2.36	2.02	3.22	3.50	3.72	3.80	3.84	3.90	3.93	3.89	3.89	4.06	4.08	3.99	3.85	3.85	3.96	3.99	3.28	3.29	3.50	3.73	3.74	3.63	3.61	3.62	3.69	3.80	3.82	4.03	4.40	4.57	4.41	4.06	3.63	3.17	2.94	2.92	2.92	2.88	2.90	2.94	2.96	3.01	3.09	3.10	3.10	3.11	3.12	3.15	3.20	3.23	3.23	3.22	3.24	3.29	3.33	3.31	3.33	3.36	3.37	3.40	3.40	3.37	3.37	3.37	3.39	3.45	3.47	3.46	3.46	3.47	3.50	3.52	3.52	3.54	3.55	3.54	3.54	
3.25	3.23	3.18	3.14	3.15	3.12	3.05	2.99	2.91	2.82	2.73	2.61	2.45	2.26	2.02	1.71	1.49	1.57	2.89	5.29	5.31	7.26	7.80	8.67	8.45	5.95	4.99	4.66	4.19	3.83	3.38	2.90	2.92	2.64	2.50	2.21	1.79	1.46	1.31	1.20	1.16	1.45	3.36	3.55	5.73	6.15	6.21	6.16	6.15	6.32	6.46	6.46	6.21	6.07	6.07	6.12	5.96	6.41	6.63	2.98	5.31	8.48	8.02	8.05	8.82	7.66	4.71	3.75	3.41	7.28	8.09	8.08	8.11	8.32	8.11	7.13	6.54	6.40	6.10	4.91	5.16	6.22	6.03	7.44	7.95	7.26	6.62	5.58	5.10	4.79	4.31	4.20	4.52	4.49	4.29	4.56	2.97	2.83	2.34	2.20	1.86	2.50	3.56	3.69	3.73	3.86	3.90	3.90	3.92	3.95	4.11	4.10	4.01	3.90	3.51	3.45	3.39	3.25	3.14	3.26	3.49	3.53	3.36	3.38	3.54	3.68	3.79	3.69	3.64	3.92	4.25	4.36	4.23	3.81	3.32	3.05	3.02	3.01	2.91	2.85	2.88	2.92	2.95	3.03	3.10	3.10	3.10	3.13	3.14	3.16	3.21	3.22	3.22	3.22	3.28	3.34	3.32	3.29	3.33	3.35	3.38	3.40	3.39	3.38	3.37	3.37	3.42	3.46	3.47	3.47	3.48	3.51	3.53	3.52	3.52	3.57	3.59	3.59	
3.25	3.25	3.20	3.16	3.16	3.14	3.08	3.01	2.94	2.85	2.76	2.64	2.48	2.28	2.03	1.69	1.34	1.39	2.76	5.48	5.27	7.26	7.72	8.59	8.47	7.13	6.56	6.52	6.07	5.39	5.24	4.55	3.62	2.94	2.75	2.44	1.98	1.55	1.28	1.17	1.08	1.27	3.56	4.01	6.19	5.99	5.89	6.04	5.98	6.14	6.35	6.50	5.89	5.89	5.93	5.74	5.58	6.23	6.01	2.98	6.08	7.47	7.40	7.88	8.96	8.48	5.10	3.88	3.17	7.16	7.54	7.67	7.99	8.13	7.47	6.75	6.38	6.21	6.34	5.29	4.80	6.34	5.92	6.77	7.71	7.27	6.95	6.51	6.30	5.81	4.70	4.04	4.13	4.12	4.04	2.87	3.08	2.96	2.78	1.79	2.45	2.07	3.65	3.81	3.64	3.87	3.84	3.76	3.81	3.89	4.00	3.61	3.70	3.63	3.56	3.57	3.47	3.23	3.06	3.11	3.33	3.40	3.19	3.11	3.29	3.48	3.68	3.66	3.51	3.57	3.74	3.93	4.08	3.94	3.49	3.11	3.02	3.05	2.98	2.85	2.80	2.86	2.90	2.94	3.03	3.07	3.07	3.12	3.15	3.15	3.19	3.23	3.22	3.21	3.28	3.37	3.36	3.30	3.29	3.33	3.38	3.40	3.39	3.38	3.39	3.38	3.39	3.44	3.46	3.45	3.45	3.49	3.52	3.51	3.48	3.54	3.60	3.60	
3.26	3.26	3.22	3.18	3.17	3.16	3.10	3.04	2.98	2.89	2.80	2.69	2.53	2.32	2.05	1.71	1.25	1.20	2.50	3.03	5.27	5.31	7.14	8.04	8.09	7.30	6.74	6.73	6.58	6.38	6.32	6.22	5.07	3.77	3.21	2.79	2.13	1.55	1.12	0.98	0.95	1.14	1.61	4.15	4.91	5.71	5.51	5.67	5.83	6.07	6.31	6.57	5.62	5.30	5.47	5.62	5.64	6.25	2.16	3.30	6.65	6.48	6.60	7.35	8.26	9.01	6.04	4.36	3.56	7.78	3.56	3.79	4.22	7.76	6.61	6.07	5.80	5.55	5.79	5.65	4.78	5.79	5.70	6.50	7.44	7.07	6.84	6.61	6.51	6.11	5.14	4.29	4.15	4.28	2.96	3.03	3.12	3.11	2.69	2.78	1.98	1.70	2.29	4.03	3.30	3.93	3.94	3.46	3.45	3.45	3.45	3.52	3.60	3.58	3.61	3.72	3.57	3.18	2.96	3.05	3.24	3.30	3.16	3.08	3.14	3.23	3.36	3.44	3.42	3.39	3.33	3.33	3.51	3.59	3.39	3.10	2.95	2.97	2.99	2.89	2.79	2.80	2.83	2.88	2.97	3.03	3.03	3.08	3.14	3.15	3.17	3.22	3.21	3.21	3.27	3.36	3.39	3.33	3.28	3.30	3.37	3.40	3.37	3.36	3.38	3.38	3.38	3.41	3.45	3.44	3.44	3.46	3.49	3.51	3.49	3.51	3.55	3.55	
3.29	3.28	3.24	3.20	3.19	3.18	3.13	3.07	3.01	2.94	2.85	2.73	2.59	2.40	2.10	1.71	1.18	1.02	1.95	2.77	5.21	5.43	6.92	7.57	7.44	6.89	6.49	6.45	6.25	6.10	5.89	5.89	6.01	5.84	4.03	3.49	2.60	1.69	0.96	1.43	0.80	0.95	1.30	2.03	5.05	4.95	4.97	5.36	5.82	6.24	6.40	6.59	5.10	2.41	4.85	5.12	5.51	5.65	3.23	6.07	6.09	6.13	6.43	6.81	7.59	8.15	6.68	4.43	3.64	7.65	3.39	4.41	7.95	6.65	6.34	5.67	5.35	5.19	5.32	5.50	4.51	4.74	5.28	5.81	6.83	6.68	6.67	6.55	6.53	6.19	5.27	4.46	4.17	3.23	3.15	3.12	3.20	3.47	3.44	2.72	2.79	1.96	2.01	2.87	3.30	3.22	3.27	3.40	3.47	3.46	3.42	3.42	3.42	3.48	3.66	3.87	3.74	3.25	3.00	3.11	3.21	3.19	3.18	3.24	3.32	3.27	3.12	3.09	3.19	3.23	3.13	3.04	3.07	3.03	2.94	2.90	2.87	2.87	2.91	2.87	2.81	2.80	2.78	2.82	2.90	2.97	3.00	3.04	3.09	3.12	3.15	3.19	3.20	3.21	3.28	3.37	3.42	3.39	3.31	3.28	3.34	3.40	3.37	3.35	3.37	3.39	3.38	3.39	3.42	3.43	3.45	3.46	3.47	3.51	3.54	3.53	3.52	3.52	
3.32	3.30	3.26	3.22	3.22	3.20	3.16	3.10	3.05	2.98	2.90	2.79	2.65	2.49	2.21	1.83	4.53	1.07	1.65	2.63	2.81	5.37	6.08	7.32	7.08	6.71	6.50	6.30	5.83	5.64	5.42	5.18	5.34	5.72	6.04	4.14	3.41	2.37	1.31	0.90	0.76	0.80	1.16	1.81	5.27	4.93	4.11	4.62	4.86	6.02	6.27	6.44	4.96	2.60	4.12	4.43	4.80	4.59	5.10	5.78	5.44	5.65	6.07	6.27	7.10	7.41	6.06	5.52	5.96	6.74	2.85	4.74	6.93	6.05	6.33	5.87	5.45	5.18	5.24	5.53	4.70	4.55	5.22	5.24	6.51	6.41	6.60	6.52	6.35	6.42	5.72	4.72	4.31	3.33	3.22	3.06	3.11	3.46	3.74	3.73	2.95	2.72	2.18	2.67	3.23	3.18	3.16	3.29	3.42	3.48	3.46	3.35	3.22	3.29	3.55	3.86	3.88	3.47	3.25	3.31	3.25	3.11	3.14	3.40	3.63	3.45	3.04	2.86	2.88	2.93	3.02	3.06	2.97	2.73	2.50	2.48	2.61	2.74	2.80	2.78	2.75	2.77	2.77	2.79	2.84	2.90	2.96	3.00	3.03	3.07	3.11	3.15	3.16	3.18	3.24	3.34	3.43	3.43	3.34	3.28	3.31	3.38	3.38	3.36	3.37	3.39	3.39	3.39	3.40	3.42	3.44	3.46	3.46	3.49	3.55	3.57	3.54	3.54	
3.34	3.33	3.28	3.25	3.24	3.22	3.18	3.13	3.08	3.03	2.96	2.86	2.74	2.59	2.39	2.12	1.68	1.32	1.58	2.11	2.76	2.95	6.12	7.21	6.81	6.69	6.57	6.24	5.78	5.60	5.16	4.72	4.72	4.38	5.16	5.55	4.36	3.13	2.02	1.13	0.77	0.77	1.09	1.91	5.32	4.64	4.20	4.86	5.07	5.18	5.14	5.18	5.27	2.91	4.11	4.86	5.00	4.74	5.51	5.65	5.21	5.48	5.79	5.85	6.63	7.13	5.68	4.98	5.38	5.64	2.46	7.50	6.69	5.92	6.06	5.83	5.54	5.14	5.08	5.08	4.88	4.50	5.08	5.31	6.02	6.38	6.74	6.48	6.26	6.11	5.38	4.75	3.68	3.47	3.31	3.10	3.04	2.77	2.98	3.29	3.53	3.32	2.68	2.68	3.13	3.15	3.10	3.19	3.32	3.48	3.51	3.36	3.17	3.19	3.37	3.66	3.79	3.62	3.54	3.54	3.34	3.14	3.16	3.50	3.80	3.59	3.08	2.79	2.66	2.63	2.86	3.12	3.06	2.71	2.34	2.13	2.20	2.44	2.62	2.68	2.67	2.68	2.74	2.82	2.85	2.88	2.93	2.97	2.99	3.04	3.09	3.12	3.13	3.13	3.17	3.26	3.38	3.44	3.39	3.30	3.31	3.37	3.38	3.37	3.39	3.41	3.41	3.40	3.41	3.42	3.43	3.45	3.46	3.45	3.51	3.56	3.57	3.57	
3.36	3.36	3.31	3.27	3.26	3.24	3.20	3.16	3.12	3.07	3.02	2.95	2.85	2.72	2.58	2.38	2.07	4.09	1.65	1.70	1.88	2.99	3.75	7.03	6.40	6.30	6.28	5.90	5.56	5.49	5.22	4.83	3.95	4.19	4.87	5.49	5.20	4.15	2.62	1.59	0.93	0.74	1.16	2.08	4.85	4.91	4.56	4.96	5.24	5.29	5.02	5.03	4.83	4.03	4.12	2.08	4.97	5.01	4.76	4.58	4.73	5.17	5.24	6.05	6.51	7.22	5.53	4.16	4.24	4.28	4.77	6.93	6.73	5.97	5.81	5.62	5.52	4.88	4.87	5.03	4.84	4.16	2.28	4.64	5.37	6.14	6.62	6.75	6.84	5.97	4.76	3.97	3.63	3.50	3.32	3.18	3.01	2.85	2.89	3.09	3.38	3.55	3.21	2.94	3.12	3.17	3.11	3.16	3.28	3.40	3.40	3.34	3.29	3.27	3.27	3.40	3.54	3.55	3.60	3.62	3.48	3.29	3.31	3.59	3.81	3.63	3.21	2.89	2.70	2.58	2.71	3.02	3.16	2.91	2.49	2.09	1.93	2.06	2.30	2.47	2.55	2.55	2.62	2.76	2.84	2.88	2.92	2.95	2.99	3.04	3.10	3.13	3.13	3.12	3.15	3.22	3.32	3.43	3.44	3.34	3.30	3.35	3.37	3.36	3.39	3.43	3.41	3.40	3.43	3.44	3.42	3.43	3.45	3.43	3.45	3.52	3.55	3.55	
3.37	3.37	3.34	3.29	3.28	3.27	3.22	3.19	3.16	3.12	3.08	3.02	2.96	2.87	2.75	2.64	2.53	2.33	2.72	1.27	1.40	2.97	3.72	6.33	6.36	6.44	6.28	5.61	5.29	4.99	4.94	4.36	4.15	4.17	2.56	2.74	3.32	3.43	2.88	2.08	1.27	0.96	1.41	2.32	2.76	3.04	2.90	2.50	2.45	5.23	4.79	4.83	4.92	4.09	2.28	2.34	2.23	5.35	4.55	4.46	4.78	5.09	5.12	5.19	6.27	6.93	5.78	3.55	4.06	4.54	4.19	6.36	6.59	5.92	5.43	5.12	5.30	5.13	5.13	4.96	4.59	2.71	2.34	2.55	2.99	3.57	3.96	4.33	7.01	6.76	4.84	4.28	3.88	3.70	3.63	3.45	3.20	3.03	2.97	2.99	3.19	3.49	3.48	3.27	3.22	3.20	3.19	3.26	3.35	3.29	3.13	3.20	3.40	3.43	3.32	3.31	3.40	3.47	3.51	3.52	3.48	3.38	3.34	3.52	3.72	3.60	3.24	2.99	2.90	2.82	2.75	2.89	3.12	3.05	2.73	2.35	1.97	1.81	1.93	2.16	2.33	2.38	2.45	2.60	2.74	2.81	2.86	2.91	2.96	3.01	3.07	3.13	3.14	3.13	3.15	3.21	3.25	3.36	3.45	3.36	3.29	3.32	3.33	3.33	3.36	3.41	3.40	3.38	3.41	3.43	3.44	3.45	3.46	3.44	3.45	3.50	3.53	3.53	
3.37	3.38	3.37	3.31	3.30	3.29	3.25	3.22	3.20	3.17	3.14	3.10	3.07	3.03	2.93	2.91	2.94	2.87	2.13	2.21	0.99	1.78	3.70	4.41	6.19	6.59	6.37	5.58	5.35	4.62	4.00	4.34	4.20	2.98	2.63	2.77	3.16	3.22	2.90	2.22	1.59	1.43	1.85	2.21	2.41	2.74	2.73	2.48	2.55	3.00	3.06	2.82	2.88	2.73	2.35	2.37	2.54	5.30	2.69	2.25	2.26	2.45	4.94	5.11	5.37	5.80	5.57	4.15	3.86	4.70	4.53	5.75	6.03	5.56	5.00	5.03	5.17	4.92	4.87	3.42	3.48	3.10	2.58	2.65	2.79	3.18	3.61	4.00	4.61	5.08	4.97	4.64	4.33	4.05	3.68	3.53	3.34	3.26	3.20	3.10	3.15	3.37	3.52	3.51	3.37	3.24	3.23	3.35	3.46	3.23	2.89	3.01	3.37	3.52	3.50	3.47	3.48	3.53	3.53	3.49	3.50	3.46	3.34	3.33	3.48	3.45	3.14	2.93	2.97	3.02	2.96	2.95	3.05	3.02	2.86	2.67	2.32	1.88	1.71	1.83	2.07	2.21	2.30	2.46	2.64	2.74	2.81	2.89	2.95	2.98	3.02	3.09	3.12	3.12	3.14	3.19	3.21	3.28	3.43	3.41	3.30	3.30	3.31	3.31	3.34	3.38	3.38	3.38	3.40	3.41	3.43	3.46	3.48	3.46	3.46	3.49	3.51	3.51	
3.38	3.40	3.39	3.34	3.31	3.31	3.27	3.24	3.22	3.22	3.22	3.19	3.17	3.16	3.13	3.15	3.28	3.39	2.56	2.10	0.65	1.50	2.41	4.27	6.08	6.47	6.21	5.58	4.77	4.05	3.91	4.30	3.15	2.99	2.73	2.61	2.95	3.04	2.72	2.26	1.88	1.93	2.28	2.31	2.24	2.33	2.44	2.33	2.28	2.98	3.11	2.74	2.46	2.29	1.89	2.46	2.71	2.99	2.79	2.23	2.17	2.43	2.70	2.88	5.20	5.61	5.75	4.67	3.71	2.14	4.54	5.81	6.01	5.61	5.09	4.79	3.53	3.45	3.24	3.27	3.50	3.50	3.04	2.55	2.32	2.37	3.41	3.84	4.30	4.73	4.72	4.29	4.04	3.73	3.48	3.39	3.33	3.36	3.41	3.29	3.23	3.33	3.47	3.60	3.58	3.36	3.22	3.35	3.55	3.33	2.88	2.90	3.23	3.48	3.59	3.58	3.58	3.61	3.63	3.67	3.70	3.54	3.20	2.87	2.79	2.47	2.99	2.78	2.84	2.96	3.08	3.13	3.08	2.95	2.88	2.86	2.72	2.31	1.83	1.68	1.81	1.99	2.14	2.32	2.52	2.66	2.75	2.87	2.97	2.99	3.00	3.05	3.08	3.09	3.12	3.17	3.18	3.23	3.39	3.46	3.36	3.30	3.31	3.31	3.34	3.38	3.38	3.39	3.41	3.42	3.41	3.43	3.47	3.46	3.46	3.48	3.49	3.49	
3.40	3.41	3.41	3.36	3.33	3.33	3.31	3.27	3.24	3.25	3.29	3.29	3.27	3.27	3.29	3.37	3.57	3.90	3.08	0.56	0.43	1.20	1.97	2.69	4.55	5.17	5.50	5.14	5.06	4.27	3.79	2.87	2.87	2.85	2.61	2.72	3.02	3.06	2.80	2.44	2.22	2.38	2.57	2.44	2.24	2.26	2.47	2.48	2.36	2.56	2.84	2.65	2.29	2.09	1.97	2.18	2.71	2.81	2.79	2.38	2.14	2.33	2.67	2.93	3.21	3.58	3.95	3.92	2.96	2.42	2.62	3.60	5.74	4.26	4.05	3.72	3.49	3.38	3.21	3.21	3.06	3.27	3.26	2.93	2.46	2.20	2.46	3.03	3.55	3.97	4.19	4.18	3.98	3.65	3.39	3.31	3.31	3.38	3.46	3.36	3.29	3.36	3.49	3.66	3.71	3.52	3.27	3.28	3.49	3.41	3.03	2.89	3.07	3.43	3.70	3.60	3.56	3.57	3.68	3.88	3.90	3.50	2.85	2.44	2.49	2.23	1.78	1.69	1.40	2.70	2.97	3.31	3.24	2.99	2.92	2.92	2.86	2.63	2.25	1.88	1.72	1.79	1.97	2.19	2.38	2.53	2.64	2.77	2.90	2.96	3.00	3.05	3.06	3.08	3.12	3.15	3.15	3.18	3.32	3.48	3.47	3.35	3.31	3.32	3.34	3.38	3.39	3.39	3.41	3.43	3.42	3.42	3.45	3.46	3.46	3.47	3.47	3.47	
3.43	3.43	3.43	3.38	3.35	3.35	3.34	3.31	3.27	3.26	3.32	3.40	3.39	3.35	3.42	2.04	2.26	2.69	3.54	0.87	0.54	0.91	1.46	2.19	2.66	3.23	5.45	5.26	5.25	4.64	3.58	2.87	2.71	2.58	2.57	2.85	3.13	3.09	2.92	2.73	2.63	2.73	2.74	2.57	2.38	2.37	2.54	2.57	2.45	2.46	2.62	2.52	2.26	2.14	2.18	2.40	2.52	2.49	2.53	2.37	2.06	2.02	2.30	2.62	3.13	3.30	3.59	3.85	3.35	2.79	2.98	3.63	4.11	4.02	3.94	3.67	3.30	3.04	2.91	2.90	3.00	3.20	3.37	3.25	2.77	2.33	2.41	2.91	3.40	3.60	3.79	3.98	3.86	3.63	3.46	3.35	3.38	3.46	3.45	3.32	3.22	3.28	3.53	3.78	3.78	3.62	3.40	3.31	3.42	3.38	3.07	2.83	2.88	3.48	3.83	3.81	3.69	3.66	3.72	3.90	3.95	3.46	2.60	2.04	2.24	2.03	1.73	1.52	1.04	0.84	2.53	1.67	1.71	3.28	3.17	3.09	2.89	2.66	2.51	2.28	1.94	1.75	1.85	2.10	2.30	2.44	2.57	2.70	2.83	2.90	2.96	3.06	3.08	3.08	3.14	3.16	3.14	3.14	3.22	3.37	3.50	3.45	3.34	3.31	3.34	3.37	3.38	3.40	3.43	3.44	3.43	3.43	3.45	3.48	3.50	3.49	3.47	3.47	
3.46	3.45	3.44	3.40	3.36	3.38	3.37	3.34	3.30	3.27	3.32	3.47	2.00	3.47	1.99	2.13	2.34	2.86	2.63	1.38	0.60	0.73	1.06	1.77	2.30	2.90	5.11	3.94	4.08	4.07	3.56	3.14	2.87	2.68	2.69	3.00	3.26	3.18	3.06	3.01	2.98	2.98	2.84	2.66	2.57	2.55	2.59	2.58	2.53	2.50	2.50	2.41	2.28	2.30	2.36	2.43	2.44	2.40	2.44	2.40	2.24	2.18	2.34	2.57	2.76	2.87	2.95	3.21	3.22	2.83	3.15	3.48	3.84	3.85	3.95	3.82	3.42	2.96	2.74	2.82	3.00	3.12	3.31	3.37	3.13	2.81	2.71	2.87	3.15	3.33	3.49	3.67	3.52	3.42	3.45	3.39	3.48	3.65	3.60	3.34	3.07	3.04	3.43	3.84	3.89	3.44	3.57	3.35	3.46	3.28	2.78	2.51	2.71	3.20	3.79	4.03	3.92	3.86	4.17	4.33	4.03	2.73	1.69	2.03	2.56	2.61	2.23	1.72	1.19	0.84	2.05	2.42	2.37	2.59	2.66	2.15	3.05	2.63	2.52	2.48	2.24	1.87	1.79	2.01	2.24	2.40	2.55	2.69	2.80	2.86	2.92	3.01	3.07	3.08	3.12	3.16	3.15	3.15	3.19	3.25	3.40	3.48	3.39	3.32	3.35	3.37	3.36	3.38	3.43	3.44	3.43	3.44	3.46	3.48	3.50	3.50	3.49	3.49	
3.48	3.48	3.46	3.41	3.38	3.39	3.40	3.37	3.35	3.30	3.32	3.49	2.12	2.04	2.05	2.14	2.39	2.95	2.91	2.20	0.77	0.71	0.84	1.32	1.97	2.70	3.40	3.73	3.76	3.59	3.38	3.15	2.99	2.95	3.00	3.23	3.42	3.30	3.24	3.28	3.22	3.15	2.99	2.81	2.77	2.75	2.69	2.58	2.57	2.58	2.45	2.30	2.27	2.41	2.46	2.37	2.31	2.37	2.48	2.49	2.41	2.39	2.46	2.54	2.67	2.80	2.76	2.87	3.05	2.96	2.98	3.17	3.33	3.40	3.59	3.79	3.56	3.12	2.89	2.95	3.10	3.10	3.15	3.23	3.26	3.32	3.15	2.86	2.91	3.07	3.26	3.42	3.18	3.04	3.26	3.36	3.48	3.77	3.84	3.55	3.08	2.85	3.20	3.82	3.78	3.58	3.37	3.53	3.71	3.47	2.81	2.24	2.51	2.97	3.53	4.38	4.27	4.15	4.43	4.71	3.77	2.03	1.08	2.03	2.84	2.95	2.50	1.82	1.25	2.06	1.03	1.83	2.15	2.77	3.05	2.02	1.63	2.68	2.47	2.49	2.40	2.02	1.76	1.89	2.14	2.33	2.50	2.65	2.75	2.84	2.91	2.97	3.03	3.07	3.10	3.14	3.16	3.16	3.20	3.23	3.32	3.44	3.41	3.33	3.35	3.38	3.36	3.36	3.41	3.43	3.41	3.41	3.43	3.45	3.46	3.47	3.48	3.48	
3.50	3.49	3.47	3.43	3.40	3.42	3.42	3.40	3.39	3.34	3.32	3.48	2.12	2.09	2.09	2.19	2.39	2.96	3.05	1.94	1.30	0.88	0.82	1.01	1.56	2.45	3.20	3.60	3.54	3.42	3.24	3.06	3.03	3.18	3.38	3.68	3.79	3.55	3.47	3.56	3.42	3.27	3.17	3.01	2.94	2.94	2.86	2.63	2.53	2.54	2.40	2.23	2.23	2.43	2.48	2.31	2.22	2.35	2.50	2.47	2.45	2.53	2.58	2.54	2.62	2.78	2.71	2.73	2.90	2.97	3.07	3.12	3.10	3.12	3.27	3.51	3.47	3.23	3.14	3.21	3.30	3.19	3.03	3.00	3.19	3.51	3.43	3.00	2.81	2.86	3.04	3.24	2.99	2.75	3.05	3.27	3.35	3.68	3.98	3.39	2.77	2.75	3.21	3.69	3.87	3.77	3.58	3.68	3.91	3.75	3.09	2.21	2.13	2.68	4.11	4.59	4.66	4.44	4.55	4.66	3.44	1.57	0.64	2.07	3.63	2.72	1.96	1.91	2.27	1.00	1.96	0.69	1.59	1.97	2.78	1.81	1.93	2.99	2.52	2.49	2.48	2.17	1.82	1.82	2.04	2.25	2.44	2.59	2.69	2.79	2.89	2.95	3.00	3.06	3.09	3.12	3.15	3.14	3.18	3.23	3.31	3.41	3.37	3.32	3.33	3.36	3.38	3.38	3.40	3.40	3.39	3.39	3.41	3.44	3.46	3.46	3.46	3.46	
3.53	3.51	3.49	3.45	3.42	3.43	3.44	3.43	3.42	3.39	3.33	3.43	2.06	2.16	2.14	2.22	2.44	2.88	3.13	2.27	1.77	1.33	1.13	1.03	1.28	1.82	2.68	3.38	3.47	3.31	3.22	3.05	3.00	3.17	3.49	3.88	4.05	3.86	3.78	3.77	3.52	3.35	3.32	3.21	3.11	3.15	2.93	2.48	2.38	2.53	2.46	2.32	2.27	2.39	2.42	2.28	2.20	2.28	2.31	2.29	2.46	2.69	2.72	2.59	2.60	2.74	2.76	2.69	2.70	2.85	3.01	3.04	3.00	2.99	3.04	3.19	3.27	3.13	3.10	3.40	3.63	3.42	3.09	2.97	3.16	3.48	3.45	3.10	2.88	2.86	2.90	3.06	2.93	2.66	2.95	3.27	3.28	3.73	3.93	3.41	2.87	2.72	3.00	3.46	3.80	3.91	3.94	4.18	4.34	3.99	3.20	2.26	1.79	2.14	4.07	4.92	5.20	5.03	5.05	4.61	2.30	0.92	0.54	2.64	3.74	2.93	1.97	1.24	1.22	2.07	0.91	1.71	1.40	1.52	2.13	3.07	1.98	1.65	2.71	2.52	2.53	2.32	1.94	1.83	1.99	2.21	2.41	2.57	2.67	2.75	2.86	2.94	2.97	3.03	3.06	3.08	3.12	3.12	3.12	3.16	3.28	3.38	3.36	3.34	3.33	3.34	3.38	3.41	3.39	3.38	3.39	3.40	3.41	3.43	3.46	3.46	3.46	3.46	
3.53	3.52	3.50	3.47	3.43	3.43	3.46	3.46	3.46	3.44	3.37	3.40	2.11	2.17	2.22	2.27	2.46	2.93	3.23	2.64	1.37	1.50	1.37	0.91	1.33	1.59	2.29	3.00	3.17	3.10	3.11	3.06	3.03	3.15	3.47	3.90	4.19	4.16	4.05	3.93	3.65	3.44	3.47	3.52	3.54	3.48	3.02	2.45	2.51	2.64	2.53	2.39	2.37	2.39	2.30	2.13	2.18	2.13	2.08	2.24	2.61	2.88	2.85	2.68	2.61	2.71	2.78	2.67	2.56	2.63	2.80	2.93	2.98	2.94	2.87	2.93	3.09	2.92	2.77	3.30	3.83	3.68	3.25	3.11	3.23	3.42	3.38	3.11	2.97	2.96	2.87	2.85	2.75	2.52	2.80	3.47	3.39	3.65	3.87	3.39	2.93	2.75	2.83	3.10	3.37	4.60	4.65	4.75	4.89	4.46	3.46	2.39	1.84	2.60	3.52	4.34	4.69	4.87	5.11	3.76	1.54	0.52	0.90	3.20	3.92	3.15	2.33	1.62	2.49	1.40	2.07	1.77	1.40	1.30	1.64	2.37	2.78	1.90	2.95	2.53	2.48	2.37	2.07	1.85	1.93	2.15	2.37	2.55	2.67	2.74	2.84	2.93	2.97	3.02	3.06	3.09	3.13	3.15	3.15	3.16	3.25	3.32	3.34	3.37	3.37	3.34	3.37	3.41	3.42	3.40	3.40	3.41	3.41	3.42	3.43	3.44	3.44	3.44	
3.51	3.52	3.51	3.49	3.46	3.45	3.47	3.49	3.49	3.48	3.45	3.40	3.59	2.15	2.28	2.32	2.51	1.31	1.65	2.04	1.48	1.25	1.54	1.74	1.73	1.79	2.20	2.68	2.86	2.92	2.95	2.97	3.07	3.32	3.68	4.06	4.46	4.66	4.41	4.06	3.56	3.49	3.68	3.79	3.92	3.41	2.37	2.53	2.85	2.86	2.56	2.47	2.47	2.51	2.19	1.72	1.19	1.95	2.05	2.45	2.88	3.02	2.92	2.76	2.69	2.74	2.80	2.70	2.51	2.44	2.51	2.71	2.90	2.91	2.77	2.78	3.01	2.76	2.42	3.05	3.90	3.86	3.42	3.12	3.17	3.13	2.89	2.83	2.89	2.85	2.63	2.83	2.61	2.29	2.79	3.41	3.50	3.62	3.76	3.40	3.06	2.92	2.87	2.91	3.89	4.11	4.34	4.62	4.93	4.63	3.60	2.59	1.86	2.21	3.30	4.14	4.78	5.24	4.80	2.39	4.10	0.23	1.62	3.38	4.11	3.36	2.38	1.62	1.31	1.82	2.16	1.91	1.58	1.29	1.35	1.80	2.67	2.05	3.09	2.61	2.45	2.38	2.17	1.94	1.92	2.10	2.31	2.48	2.62	2.71	2.81	2.91	2.99	3.05	3.09	3.13	3.18	3.20	3.23	3.26	3.28	3.27	3.28	3.34	3.38	3.37	3.38	3.40	3.43	3.43	3.41	3.40	3.40	3.42	3.43	3.44	3.44	3.44	
3.51	3.51	3.52	3.51	3.48	3.46	3.49	3.52	3.52	3.51	3.51	3.46	3.52	2.16	2.33	2.40	0.98	1.13	1.57	2.35	1.38	1.04	1.47	1.78	1.97	2.14	2.40	2.63	2.70	2.81	2.88	2.86	2.97	3.37	3.72	4.05	5.19	5.31	4.91	4.21	3.43	3.33	3.41	3.59	3.94	3.44	2.25	2.41	3.06	3.06	2.68	2.39	2.38	2.11	1.13	1.94	1.80	1.93	2.25	2.79	3.11	2.97	2.78	2.83	2.72	2.76	2.83	2.76	2.61	2.43	2.36	2.49	2.73	2.87	2.76	2.75	2.97	2.64	2.14	2.86	4.00	3.90	3.48	3.18	3.07	3.04	2.96	2.92	2.91	2.79	2.66	2.65	2.16	1.77	2.59	3.40	3.66	4.06	3.98	3.46	3.28	3.24	3.07	3.37	3.86	4.07	4.36	4.73	5.14	4.76	3.85	3.04	2.32	1.86	2.67	3.81	5.12	6.01	3.92	1.80	3.78	0.65	2.21	3.31	3.92	3.53	2.37	1.44	2.50	1.98	1.60	2.05	1.80	1.51	1.35	1.50	2.14	2.37	3.05	2.74	2.57	2.49	2.32	2.08	2.02	2.13	2.31	2.47	2.59	2.68	2.78	2.89	2.97	3.02	3.05	3.10	3.14	3.15	3.18	3.27	3.31	3.28	3.25	3.30	3.36	3.40	3.41	3.39	3.39	3.42	3.42	3.41	3.41	3.43	3.44	3.44	3.44	3.44	
3.52	3.52	3.52	3.52	3.50	3.47	3.50	3.54	3.55	3.55	3.56	3.54	3.51	3.71	2.25	0.87	0.96	1.14	1.78	2.53	1.12	1.08	1.47	1.61	1.85	2.16	2.46	2.63	2.60	2.69	2.82	2.84	2.90	3.19	3.48	3.82	5.01	5.36	5.34	4.47	3.48	3.51	3.55	3.67	4.16	3.13	2.09	2.27	2.81	3.01	2.76	2.16	1.45	0.77	2.34	1.87	1.74	2.08	2.66	3.27	3.43	3.18	2.92	2.66	2.52	2.62	2.69	2.64	2.52	2.54	2.41	2.45	2.62	2.79	2.78	2.81	2.82	2.02	1.90	2.81	3.96	4.11	3.77	3.41	3.20	3.09	3.03	2.96	2.90	2.81	2.74	2.72	2.07	1.38	2.32	3.25	4.48	3.93	3.75	3.53	3.47	3.35	2.85	2.76	3.31	4.09	4.63	5.30	5.84	5.54	4.17	3.29	2.84	2.25	2.21	3.13	4.60	6.01	3.08	1.49	0.50	1.04	2.68	3.49	3.90	3.36	2.57	1.80	1.22	2.30	1.79	1.33	1.90	1.68	1.55	0.52	0.58	1.91	2.80	2.75	2.60	2.54	2.41	2.17	2.08	2.19	2.34	2.49	2.60	2.67	2.75	2.86	2.95	2.97	2.97	3.02	3.07	3.08	3.12	3.17	3.26	3.28	3.26	3.27	3.32	3.37	3.40	3.39	3.38	3.38	3.40	3.42	3.43	3.43	3.45	3.45	3.43	3.43	
3.53	3.52	3.52	3.53	3.52	3.49	3.51	3.55	3.57	3.58	3.60	3.61	3.56	3.61	2.20	0.80	0.84	1.17	1.89	2.67	1.74	0.96	1.25	1.39	1.61	1.95	2.28	2.42	2.41	2.51	2.65	2.74	2.87	2.92	3.08	4.33	4.69	5.52	5.80	4.78	3.76	3.85	3.68	3.87	4.51	2.53	2.00	2.75	3.09	2.99	2.15	1.07	0.78	2.45	2.33	1.95	1.81	2.14	2.83	3.72	3.99	3.44	3.01	2.75	2.56	2.61	2.71	2.71	2.54	2.22	2.20	2.40	2.56	2.67	2.73	2.81	2.74	2.03	1.56	2.40	3.62	4.21	4.03	3.72	3.27	3.19	3.09	3.13	3.02	3.06	2.99	2.84	2.19	1.20	1.85	2.82	4.75	4.17	3.85	3.78	3.71	3.52	2.97	2.71	2.91	3.41	4.04	4.87	5.62	5.96	4.71	3.60	3.44	2.81	2.29	3.06	4.48	5.63	3.02	1.85	0.96	1.35	2.89	3.49	3.79	3.02	2.22	1.81	1.08	0.55	2.10	1.57	1.09	1.75	0.56	0.52	0.11	0.69	2.52	2.63	2.54	2.45	2.34	2.14	2.07	2.18	2.33	2.44	2.57	2.65	2.71	2.83	2.95	2.97	2.96	3.00	3.04	3.08	3.12	3.13	3.17	3.23	3.25	3.26	3.28	3.33	3.37	3.40	3.39	3.38	3.36	3.39	3.41	3.39	3.44	3.45	3.43	3.43	
3.53	3.53	3.53	3.53	3.53	3.51	3.52	3.57	3.59	3.60	3.63	3.66	3.63	3.59	3.85	0.60	0.90	1.22	2.12	2.71	1.33	0.90	0.98	1.24	1.49	1.84	2.13	2.25	2.26	2.38	2.51	2.70	2.85	2.85	2.85	3.86	4.41	5.70	6.23	5.36	4.28	4.11	3.76	3.85	4.21	2.66	2.16	3.10	3.52	2.42	0.76	0.81	0.54	2.45	2.30	2.08	1.95	2.17	2.84	3.95	4.15	2.71	2.65	2.96	2.71	2.69	2.82	2.77	2.54	2.27	2.25	2.42	2.54	2.59	2.67	2.75	2.63	2.08	1.54	2.22	3.38	4.92	4.06	3.76	3.30	3.01	3.06	3.13	3.17	3.36	3.44	2.78	1.62	1.30	1.51	3.58	4.81	4.45	3.98	3.84	3.74	3.56	3.15	2.91	3.09	3.16	3.68	4.45	5.35	5.81	5.08	4.19	3.83	3.40	2.67	3.08	4.57	5.33	3.20	1.96	0.91	1.71	3.06	3.70	3.39	2.79	2.07	1.14	0.82	0.26	2.39	0.73	1.30	0.62	0.50	0.53	0.40	0.96	2.25	2.43	2.47	2.41	2.27	2.06	2.00	2.13	2.31	2.42	2.52	2.60	2.67	2.79	2.93	2.97	2.96	2.99	3.04	3.10	3.15	3.16	3.17	3.20	3.23	3.24	3.25	3.29	3.35	3.39	3.38	3.39	3.36	3.35	3.37	3.35	3.39	3.43	3.43	3.43	
3.53	3.53	3.53	3.53	3.54	3.53	3.54	3.58	3.60	3.62	3.65	3.68	3.68	3.64	3.74	2.39	0.85	1.37	2.07	2.64	2.27	0.73	0.74	1.20	1.54	1.93	2.20	2.30	2.32	2.45	2.53	2.75	2.99	3.36	3.37	3.52	4.46	5.45	6.21	5.82	4.84	4.54	4.30	4.29	4.03	2.40	2.04	2.75	3.15	1.60	0.16	1.10	1.01	2.62	2.40	2.29	1.55	2.36	3.02	4.12	4.22	2.71	2.62	2.57	2.50	2.81	2.90	2.54	2.65	2.52	2.48	2.58	2.65	2.61	2.58	2.61	2.26	2.56	1.54	2.03	2.80	5.55	4.85	4.06	3.33	3.03	3.08	3.19	3.15	3.25	3.44	2.75	2.59	1.94	2.30	2.02	3.09	5.03	4.45	4.11	3.59	3.43	3.28	3.02	3.13	3.01	3.15	4.19	4.89	5.62	5.43	4.63	4.07	3.78	3.15	2.96	3.97	4.65	3.10	1.44	0.66	2.23	3.21	3.77	3.20	2.09	1.22	0.55	0.44	0.59	0.50	0.74	1.06	1.23	0.48	0.49	0.52	0.82	2.05	2.23	2.36	2.38	2.25	2.01	1.95	2.09	2.29	2.42	2.51	2.58	2.66	2.77	2.90	2.95	2.96	2.99	3.03	3.09	3.16	3.20	3.20	3.22	3.25	3.24	3.23	3.25	3.31	3.35	3.35	3.39	3.41	3.38	3.36	3.34	3.37	3.41	3.41	3.41	
3.54	3.53	3.53	3.53	3.54	3.54	3.55	3.58	3.61	3.63	3.66	3.70	3.72	3.72	3.72	4.10	0.66	1.35	2.09	2.65	3.33	0.81	0.82	1.31	1.76	2.14	2.42	2.55	2.53	2.63	2.64	2.62	3.67	3.65	3.56	3.94	4.29	5.09	5.92	5.97	5.12	4.49	4.46	4.57	3.66	2.04	2.13	2.91	2.05	0.73	1.45	1.81	1.85	2.84	2.58	2.42	1.96	2.38	2.82	3.92	4.72	3.19	2.77	2.54	2.62	2.78	2.81	2.56	2.46	2.57	2.83	3.00	2.98	2.82	2.51	2.27	2.13	1.77	1.68	1.81	2.47	5.06	5.45	4.40	3.48	3.32	3.36	3.32	3.30	3.42	3.38	2.41	2.62	1.97	2.04	3.19	2.56	5.09	5.03	4.64	3.78	3.58	3.48	3.13	3.15	3.01	2.62	3.27	4.07	5.20	5.89	5.21	4.60	4.28	3.55	3.14	3.68	3.98	2.62	1.14	1.18	2.54	3.18	3.47	2.62	1.00	0.28	0.57	0.85	0.80	0.61	0.57	0.75	0.77	0.66	0.35	0.21	0.40	1.98	2.08	2.23	2.31	2.21	2.00	1.92	2.06	2.26	2.40	2.50	2.57	2.65	2.76	2.90	2.99	3.00	3.01	3.03	3.06	3.10	3.16	3.18	3.23	3.30	3.33	3.30	3.28	3.30	3.32	3.31	3.35	3.41	3.41	3.40	3.38	3.37	3.40	3.41	3.41	
3.54	3.54	3.53	3.53	3.54	3.55	3.56	3.58	3.61	3.64	3.68	3.72	3.75	3.80	3.77	3.96	0.79	1.33	2.12	2.71	4.44	1.23	1.28	1.50	1.94	2.32	2.64	2.92	3.03	3.05	2.93	2.75	3.10	3.42	3.59	4.21	4.47	4.88	5.44	6.05	5.58	4.60	4.43	4.20	3.14	2.16	2.11	1.73	1.58	2.18	2.35	2.35	3.09	2.99	2.76	2.54	2.50	2.62	2.87	3.64	5.00	3.82	3.00	2.69	2.72	2.67	2.55	2.45	2.45	2.51	2.68	2.87	2.83	2.59	2.00	1.83	2.27	2.06	1.37	2.30	2.37	4.47	5.11	4.77	4.01	3.76	3.61	3.35	3.41	3.85	3.44	2.06	2.53	2.05	1.85	2.54	3.19	4.23	4.81	4.80	4.06	3.86	3.81	3.32	3.28	3.27	2.78	2.80	3.67	4.66	5.88	5.59	4.92	4.55	3.76	3.45	3.86	3.62	1.77	0.82	1.70	2.89	3.29	2.85	1.65	0.47	0.48	1.02	1.51	1.57	1.18	0.85	0.70	0.56	0.75	0.84	0.61	0.54	2.04	2.03	2.13	2.25	2.18	1.97	1.89	2.01	2.21	2.36	2.47	2.57	2.64	2.71	2.85	3.00	3.05	3.05	3.06	3.07	3.08	3.12	3.16	3.22	3.31	3.38	3.41	3.40	3.36	3.33	3.30	3.33	3.40	3.40	3.41	3.42	3.40	3.38	3.39	3.39	
3.53	3.53	3.53	3.53	3.54	3.56	3.57	3.59	3.62	3.65	3.70	3.74	3.78	3.84	3.86	3.90	4.40	1.16	2.14	2.91	4.93	1.68	1.82	1.87	1.95	2.27	2.71	3.09	3.44	3.46	3.22	2.79	2.83	3.15	3.70	3.89	4.23	4.40	4.77	5.69	6.16	5.03	4.87	4.01	2.37	1.49	0.74	0.87	1.56	2.28	1.95	2.81	2.95	2.98	2.87	2.46	2.79	3.12	3.45	3.94	4.61	4.41	3.57	3.07	2.74	2.61	2.56	2.51	2.51	2.63	2.77	2.75	2.58	2.12	1.61	1.61	2.07	2.13	2.47	1.84	3.53	4.16	5.40	5.33	4.57	4.18	3.84	3.33	3.31	3.79	3.17	1.99	2.46	2.06	1.93	2.60	3.41	4.13	4.74	4.96	4.36	4.00	3.96	3.56	3.45	3.34	2.98	2.77	3.54	4.20	5.14	5.87	5.22	4.37	3.77	3.74	3.94	3.16	1.26	0.52	2.14	3.29	3.21	2.12	0.88	0.33	0.77	0.99	0.91	0.73	0.74	1.00	1.12	1.01	1.12	1.30	1.04	0.93	0.98	2.12	2.14	2.23	2.17	1.98	1.88	1.98	2.18	2.32	2.43	2.54	2.63	2.65	2.73	2.88	3.01	3.06	3.08	3.11	3.14	3.15	3.16	3.19	3.24	3.29	3.36	3.44	3.45	3.38	3.31	3.32	3.37	3.36	3.36	3.41	3.42	3.38	3.37	3.37	
3.52	3.53	3.53	3.53	3.54	3.56	3.57	3.60	3.63	3.65	3.70	3.75	3.80	3.85	3.92	3.93	4.20	0.90	2.11	3.01	5.08	2.26	2.24	2.32	2.51	2.58	2.78	3.14	3.46	3.68	3.55	3.07	3.26	3.57	3.90	4.02	4.29	4.46	4.47	5.12	6.07	5.21	4.98	3.55	0.61	0.60	1.18	1.54	1.58	2.24	1.76	2.74	2.82	2.96	2.99	2.86	2.90	3.34	3.96	4.04	4.66	4.66	3.99	3.19	2.58	2.52	2.52	2.52	2.66	2.83	2.92	2.56	2.01	1.81	1.58	1.57	1.59	1.71	2.41	1.62	3.02	3.60	4.89	5.72	5.31	4.74	4.19	3.65	3.65	3.60	2.49	2.12	2.54	2.10	1.49	2.53	2.16	2.97	4.70	4.99	4.92	4.49	4.19	3.77	3.78	3.55	2.90	2.52	3.00	3.56	4.36	5.74	5.79	4.33	3.86	3.93	3.98	2.44	0.87	0.88	2.56	3.08	2.55	1.69	0.56	0.33	0.59	0.46	0.28	0.37	0.78	0.92	0.89	1.09	1.46	1.75	1.35	1.28	1.42	2.25	2.24	2.26	2.17	1.96	1.84	1.92	2.12	2.28	2.38	2.50	2.62	2.65	2.68	2.79	2.91	3.01	3.04	3.08	3.12	3.13	3.12	3.15	3.18	3.20	3.24	3.34	3.44	3.43	3.34	3.30	3.33	3.34	3.32	3.37	3.41	3.39	3.36	3.36	
3.52	3.53	3.53	3.53	3.54	3.56	3.58	3.60	3.63	3.65	3.69	3.75	3.80	3.86	3.94	3.99	4.12	4.71	3.73	4.86	4.96	3.07	2.81	2.82	2.95	2.99	2.80	3.09	3.44	3.76	4.02	3.50	3.21	3.52	4.07	4.44	4.59	4.73	4.79	5.26	5.77	4.77	5.11	2.73	0.26	1.29	2.01	2.13	2.00	2.72	2.26	2.97	2.90	3.05	0.20	3.21	3.21	3.46	4.08	4.29	4.77	4.90	4.20	3.08	2.59	2.49	2.36	2.58	2.77	2.76	2.63	2.11	1.66	1.58	1.52	1.43	2.75	1.64	2.53	1.51	2.25	3.77	4.48	5.24	5.43	5.12	4.45	4.03	4.09	3.05	2.04	2.31	1.59	2.23	1.17	1.87	1.89	2.82	4.24	4.19	4.62	4.77	4.58	3.98	4.08	4.09	3.26	2.45	2.60	3.21	3.83	5.13	5.46	4.27	3.77	4.01	3.90	1.77	0.74	1.60	3.04	3.30	1.85	1.12	0.57	0.22	0.35	0.25	0.59	1.21	1.51	1.23	1.09	1.51	1.91	2.13	1.65	1.63	1.62	2.30	2.29	2.32	2.22	1.96	1.75	1.79	1.99	2.18	2.31	2.43	2.57	2.65	2.70	2.77	2.87	2.96	3.00	3.02	3.06	3.09	3.11	3.14	3.17	3.19	3.23	3.27	3.37	3.47	3.42	3.32	3.32	3.33	3.32	3.35	3.39	3.37	3.36	3.36	
3.52	3.52	3.53	3.53	3.54	3.55	3.58	3.60	3.63	3.65	3.69	3.74	3.81	3.86	3.94	4.03	4.13	4.50	1.32	4.75	4.91	3.69	3.33	3.14	2.49	2.75	2.88	3.19	3.50	4.20	4.50	4.18	3.43	3.22	3.54	4.00	4.13	4.15	4.57	5.28	4.39	3.00	4.64	0.97	1.00	1.65	2.18	2.45	3.17	2.96	2.72	3.20	3.04	3.08	3.23	3.38	3.56	3.70	4.11	4.67	4.80	4.87	4.35	3.54	3.04	2.48	2.17	2.74	3.05	2.93	2.25	1.53	1.15	1.05	1.02	2.61	2.62	1.80	1.50	1.80	2.05	2.44	3.30	4.57	6.00	5.82	4.96	4.39	3.99	2.87	2.28	2.61	1.90	2.32	2.04	1.82	1.85	2.69	4.41	4.14	4.15	4.30	4.62	4.18	3.94	4.30	3.75	2.49	2.45	3.33	3.73	4.85	5.23	4.26	3.78	3.91	3.69	2.09	1.29	1.90	3.13	3.15	0.85	0.17	0.32	0.26	0.09	0.62	1.02	1.37	1.75	1.78	1.69	1.78	1.89	2.02	1.70	1.81	1.67	2.42	2.35	2.39	2.34	2.07	1.76	1.70	1.87	2.10	2.26	2.36	2.50	2.61	2.67	2.74	2.84	2.94	3.00	3.02	3.05	3.09	3.13	3.18	3.18	3.18	3.23	3.27	3.31	3.44	3.49	3.37	3.33	3.35	3.34	3.35	3.37	3.37	3.36	3.36	
3.52	3.52	3.52	3.53	3.54	3.55	3.57	3.60	3.62	3.65	3.68	3.73	3.80	3.86	3.93	4.04	4.16	4.37	5.02	4.54	4.88	4.51	1.95	3.72	3.13	3.18	2.86	2.90	3.62	3.95	4.52	4.90	4.08	3.55	3.66	3.87	4.08	4.21	4.57	4.58	3.18	2.58	3.25	1.20	1.00	1.52	1.79	2.07	2.98	2.77	3.34	3.22	3.03	2.98	3.05	3.31	3.68	3.91	4.21	4.95	5.15	5.21	4.65	3.86	3.39	2.69	2.15	2.60	3.05	2.86	1.47	1.53	1.07	0.88	0.77	2.54	2.50	1.93	1.99	1.77	2.33	1.96	2.60	3.53	4.79	7.07	6.26	5.15	3.92	2.93	2.37	1.72	2.37	1.84	2.17	1.34	2.38	2.37	3.39	4.94	4.61	4.10	4.57	4.57	4.11	4.13	3.73	2.83	2.23	2.56	3.54	4.98	5.34	4.56	4.35	4.10	3.35	2.06	1.43	1.67	2.44	2.18	0.44	0.35	0.22	0.11	0.81	1.56	1.81	1.81	1.81	1.77	1.74	1.83	1.92	2.11	1.87	1.90	1.72	1.58	2.47	2.50	2.50	2.30	1.99	1.81	1.85	2.05	2.25	2.34	2.44	2.56	2.63	2.70	2.79	2.89	2.98	3.02	3.04	3.07	3.12	3.19	3.21	3.19	3.22	3.25	3.25	3.35	3.49	3.42	3.32	3.35	3.36	3.34	3.34	3.36	3.37	3.37	
3.51	3.51	3.52	3.52	3.53	3.54	3.57	3.59	3.62	3.65	3.68	3.72	3.78	3.85	3.92	4.02	4.15	4.29	4.74	3.97	6.19	5.11	4.09	4.06	4.29	4.02	3.44	3.16	3.65	3.96	4.22	4.83	4.47	3.81	3.88	4.13	4.40	4.80	5.32	4.21	2.38	1.88	2.08	1.49	0.48	1.31	1.75	2.08	3.08	2.73	3.25	3.15	3.02	3.02	3.16	3.48	3.84	4.12	4.41	5.05	5.28	5.54	5.13	4.16	3.71	2.94	2.20	2.65	3.02	2.23	1.02	1.62	1.18	0.90	2.40	2.40	2.34	2.22	2.48	2.13	1.55	2.82	2.17	2.85	3.98	6.15	7.28	6.44	4.17	3.24	2.34	1.77	1.72	2.46	2.43	2.07	2.12	2.08	2.90	3.73	5.37	4.47	4.53	5.06	4.89	4.54	3.85	3.11	2.46	2.24	2.99	4.30	4.83	4.45	4.46	4.01	2.77	1.26	0.61	0.77	1.12	0.16	0.88	0.75	0.22	0.72	1.66	2.17	2.39	2.26	1.91	1.62	1.80	2.14	2.24	2.25	1.98	1.95	1.75	1.66	2.57	2.58	2.62	2.48	2.22	2.00	1.91	2.00	2.21	2.34	2.42	2.52	2.62	2.69	2.75	2.83	2.93	3.00	3.03	3.05	3.09	3.16	3.19	3.20	3.24	3.28	3.25	3.27	3.42	3.43	3.31	3.32	3.38	3.36	3.33	3.35	3.37	3.37	
3.51	3.51	3.51	3.52	3.52	3.53	3.56	3.59	3.61	3.64	3.67	3.71	3.76	3.82	3.90	3.99	4.12	4.26	4.55	5.26	5.94	5.19	4.01	4.02	4.37	4.56	4.40	3.66	3.73	3.93	4.27	4.84	4.70	4.04	3.82	3.85	4.10	4.72	5.51	3.06	0.84	0.87	0.76	0.18	1.31	2.28	2.40	2.66	3.31	2.93	3.38	3.18	3.00	0.94	2.92	3.16	3.88	4.26	4.61	5.60	5.62	5.61	5.37	4.75	4.12	3.07	2.16	2.84	2.97	1.42	0.78	0.84	1.01	1.17	0.97	0.87	2.06	2.49	2.48	2.30	2.20	2.23	2.02	2.60	3.49	5.58	6.20	6.92	5.37	4.07	2.73	2.09	1.71	2.90	2.57	2.17	2.17	2.95	2.46	3.21	4.68	4.87	4.25	4.39	5.12	5.21	4.27	3.41	2.62	2.41	3.01	3.78	4.19	4.13	3.95	3.25	2.05	0.37	1.01	1.75	2.33	2.67	2.12	1.77	2.16	2.68	2.85	3.02	3.14	3.06	3.05	3.12	3.02	2.99	2.99	2.62	2.05	2.00	1.84	1.76	2.67	2.62	2.67	2.59	2.36	2.13	1.99	1.95	2.11	2.31	2.42	2.51	2.60	2.68	2.74	2.80	2.89	2.98	3.02	3.04	3.07	3.12	3.16	3.18	3.21	3.28	3.30	3.30	3.37	3.41	3.33	3.30	3.35	3.38	3.36	3.35	3.34	3.34	
3.50	3.50	3.50	3.51	3.52	3.52	3.55	3.58	3.60	3.62	3.65	3.69	3.74	3.79	3.86	3.96	4.07	4.20	4.41	4.89	5.67	5.22	3.83	3.75	4.19	4.59	4.82	4.23	3.71	3.72	4.30	4.91	5.02	4.54	4.25	4.20	4.46	4.78	4.62	1.66	0.26	0.91	1.86	2.66	3.00	3.03	3.13	3.81	3.48	3.65	3.51	3.32	3.05	2.67	2.27	2.18	2.63	3.67	4.10	6.19	6.26	6.51	5.99	5.43	4.60	3.46	2.64	2.91	2.56	1.10	0.63	0.96	1.13	1.52	1.21	1.09	1.81	2.07	2.26	1.88	2.23	1.96	2.05	2.45	3.16	5.11	5.63	6.93	6.24	4.54	3.06	2.32	1.70	3.05	2.71	2.37	2.09	2.69	3.60	2.74	4.13	5.06	4.73	4.12	4.52	5.00	4.52	3.55	2.36	2.16	3.22	4.06	4.31	4.16	3.28	1.92	0.84	0.75	1.86	3.13	4.10	4.70	5.18	4.44	3.70	3.19	2.80	2.71	2.73	2.85	3.05	3.30	3.03	2.85	2.88	2.73	1.97	1.92	1.91	2.02	2.70	2.64	2.66	2.66	2.52	2.30	2.15	2.00	2.01	2.19	2.36	2.46	2.54	2.65	2.72	2.77	2.85	2.93	2.99	3.04	3.07	3.10	3.14	3.15	3.17	3.23	3.30	3.36	3.41	3.40	3.36	3.33	3.33	3.35	3.37	3.35	3.32	3.32	
3.50	3.50	3.50	3.51	3.51	3.51	3.54	3.57	3.59	3.61	3.63	3.67	3.71	3.76	3.82	3.90	4.01	4.13	4.30	4.63	4.37	5.40	4.08	3.59	3.85	4.41	4.90	5.21	4.60	3.98	4.14	4.66	5.10	4.88	4.51	4.55	4.86	4.45	2.30	0.23	0.76	1.86	2.54	2.81	3.15	3.39	3.81	3.67	3.72	3.68	3.46	3.31	0.94	2.86	2.30	1.74	1.70	2.29	3.17	3.72	5.88	6.23	7.25	6.73	5.30	3.79	2.97	2.84	2.04	1.18	1.07	1.43	1.37	0.82	1.48	1.59	1.71	1.95	2.51	1.94	2.32	2.00	2.24	2.58	3.05	4.51	5.73	6.02	6.77	5.29	3.49	2.18	1.85	3.09	2.86	1.12	2.05	2.63	2.99	3.52	2.79	4.03	5.56	5.00	4.54	4.80	4.59	2.53	1.08	1.54	2.69	4.06	4.50	3.86	1.79	0.69	1.02	1.42	1.88	2.67	3.81	4.17	3.78	4.40	5.26	3.71	2.76	2.07	1.75	1.86	2.04	2.13	2.04	1.73	1.52	1.76	1.64	1.60	1.84	2.01	2.66	2.64	2.65	2.63	2.57	2.45	2.34	2.19	2.05	2.07	2.23	2.38	2.48	2.59	2.67	2.74	2.83	2.90	2.96	3.02	3.05	3.09	3.13	3.14	3.15	3.19	3.23	3.32	3.39	3.38	3.34	3.35	3.35	3.34	3.35	3.34	3.32	3.32	
3.49	3.49	3.49	3.50	3.50	3.50	3.53	3.56	3.57	3.59	3.61	3.65	3.68	3.72	3.78	3.84	3.94	4.05	4.19	4.38	4.97	5.47	2.25	3.99	3.67	3.98	4.54	5.63	5.54	4.73	4.26	4.55	5.07	5.20	4.90	4.59	4.46	2.81	0.94	0.41	1.23	1.64	2.16	2.30	3.19	3.39	3.59	3.58	3.57	3.60	3.30	3.02	3.04	3.02	2.69	1.94	1.43	1.55	2.37	2.94	3.61	5.69	7.29	7.64	6.56	4.29	3.27	2.60	1.65	1.13	1.30	1.28	0.84	0.70	0.85	1.33	1.47	1.78	2.39	2.43	2.19	2.71	2.53	3.52	4.04	4.33	5.69	6.12	6.50	6.18	4.11	2.36	2.26	3.09	2.77	2.66	2.50	3.07	3.54	3.21	3.61	3.25	5.07	5.65	5.18	4.67	3.93	0.13	0.15	1.37	2.12	3.72	4.49	3.07	1.01	1.16	1.83	2.47	2.25	2.30	2.77	3.57	4.61	3.09	3.82	5.67	3.59	2.53	1.99	1.56	1.09	0.95	1.13	1.24	1.47	1.57	1.59	1.48	1.74	1.84	1.59	2.61	2.67	2.62	2.55	2.52	2.47	2.38	2.21	2.11	2.14	2.24	2.35	2.50	2.61	2.72	2.82	2.88	2.92	2.98	3.03	3.09	3.14	3.13	3.13	3.16	3.19	3.27	3.35	3.33	3.29	3.31	3.36	3.36	3.33	3.32	3.32	3.32	
3.48	3.48	3.48	3.48	3.49	3.49	3.52	3.55	3.55	3.56	3.59	3.62	3.65	3.68	3.73	3.79	3.86	3.96	4.08	4.21	4.56	5.13	5.30	4.70	4.03	3.89	4.15	5.10	5.59	5.32	4.50	4.50	4.86	5.44	5.88	5.38	3.37	1.01	0.12	1.25	1.95	2.11	2.37	2.16	3.01	3.12	3.35	3.42	3.41	3.49	3.27	2.92	2.90	3.08	2.83	2.40	1.59	1.40	1.53	2.17	2.87	3.58	5.27	7.44	7.52	5.62	4.47	3.13	1.85	1.20	1.25	0.77	0.64	0.88	1.33	1.49	1.60	1.62	2.59	2.39	1.90	1.84	2.27	2.83	3.23	4.25	4.71	6.33	6.81	7.13	4.50	2.64	2.79	3.11	2.69	2.41	2.60	2.79	3.36	4.24	3.72	4.11	4.23	4.86	5.61	5.45	2.82	4.42	1.02	1.94	2.22	3.32	4.14	2.08	1.18	1.63	2.42	3.14	3.36	3.21	3.15	3.15	3.58	4.41	2.67	3.71	6.08	4.40	3.01	2.22	1.78	1.81	2.00	2.14	2.35	2.01	1.52	1.65	1.52	1.42	1.37	2.69	2.72	2.70	2.61	2.60	2.61	2.55	2.42	2.31	2.27	2.22	2.22	2.36	2.52	2.65	2.76	2.84	2.89	2.93	2.99	3.07	3.14	3.12	3.11	3.12	3.17	3.27	3.33	3.30	3.26	3.26	3.31	3.34	3.32	3.31	3.30	3.30	
3.48	3.48	3.48	3.47	3.48	3.48	3.51	3.53	3.54	3.54	3.57	3.59	3.61	3.64	3.68	3.72	3.78	3.86	3.95	4.08	4.27	4.67	5.16	5.08	4.47	4.08	4.04	4.77	5.14	5.79	5.13	4.63	4.69	5.40	6.42	5.92	0.79	0.79	1.13	1.64	2.19	2.78	2.43	3.05	2.93	2.96	3.13	3.29	3.34	3.40	1.66	3.11	3.05	3.27	3.35	2.93	2.18	1.54	1.42	1.70	2.27	2.89	3.62	5.01	7.90	7.35	5.16	3.33	1.98	1.25	1.14	0.73	0.81	1.29	1.44	1.67	1.72	0.71	2.86	2.51	2.01	1.70	1.94	2.52	3.08	4.19	4.59	5.86	6.44	7.49	5.06	3.06	3.50	3.20	2.73	2.35	2.40	2.53	3.08	3.55	4.29	3.88	4.04	4.78	5.35	6.38	4.06	3.92	1.25	2.87	2.95	2.94	2.68	1.04	1.31	2.19	2.67	2.91	3.02	3.10	3.30	3.42	3.25	3.45	3.55	2.67	3.46	4.23	6.12	4.73	4.01	3.87	3.48	2.90	2.51	2.13	1.72	2.09	1.67	1.45	1.49	2.76	2.76	2.74	2.67	2.65	2.70	2.72	2.63	2.58	2.59	2.45	2.23	2.26	2.44	2.60	2.71	2.80	2.86	2.89	2.94	3.03	3.11	3.12	3.13	3.12	3.14	3.26	3.35	3.30	3.24	3.24	3.26	3.29	3.32	3.33	3.32	3.32	
3.47	3.47	3.46	3.46	3.47	3.47	3.49	3.51	3.52	3.52	3.54	3.56	3.58	3.60	3.62	3.66	3.71	3.76	3.83	3.92	4.02	4.29	4.86	5.22	4.77	4.20	3.92	4.47	4.72	5.78	5.74	5.49	5.48	5.76	6.36	4.42	0.90	1.37	1.64	1.60	1.58	2.51	2.11	2.97	2.86	2.87	2.96	3.13	3.28	3.38	3.36	3.18	3.14	3.37	3.63	3.02	2.81	2.15	2.51	1.59	1.86	2.33	2.96	4.23	6.96	8.45	7.08	3.40	2.26	1.17	0.92	0.98	1.42	1.63	1.43	1.32	1.07	3.19	3.07	2.90	1.75	2.19	1.81	1.86	2.33	2.97	3.64	4.64	6.68	7.56	6.57	3.74	4.40	3.33	2.78	2.33	2.69	2.33	2.88	3.48	4.33	4.42	4.06	4.10	5.11	4.53	4.06	3.61	2.46	3.61	3.18	2.22	0.86	1.42	1.90	2.31	2.58	2.46	1.97	1.94	2.33	2.49	2.29	2.19	2.63	3.67	2.57	3.05	3.70	4.42	5.01	4.60	4.50	3.67	2.85	2.68	2.58	2.33	1.94	1.72	1.70	1.74	2.69	2.68	2.66	2.64	2.71	2.80	2.76	2.75	2.87	2.79	2.44	2.26	2.38	2.58	2.70	2.79	2.86	2.88	2.91	2.99	3.07	3.09	3.13	3.15	3.13	3.20	3.34	3.37	3.33	3.31	3.28	3.26	3.28	3.31	3.32	3.32	
3.46	3.46	3.46	3.45	3.46	3.46	3.48	3.49	3.50	3.49	3.51	3.53	3.54	3.56	3.57	3.60	3.63	3.67	3.71	3.77	3.82	4.01	4.54	5.22	5.08	4.47	4.40	4.27	4.26	5.39	5.83	6.21	6.56	6.68	6.75	2.88	1.36	1.14	1.38	1.31	1.36	1.57	2.24	3.11	2.92	2.90	3.01	3.18	3.37	3.60	3.65	3.40	3.29	3.42	3.62	3.15	3.08	2.42	1.92	3.11	1.60	1.86	2.38	3.59	4.10	6.77	8.64	4.10	2.85	1.44	0.96	1.27	1.79	1.47	0.67	0.52	3.34	3.26	3.17	1.59	2.14	1.56	2.56	1.58	1.55	2.02	2.75	3.57	4.44	7.16	8.93	4.28	5.32	3.71	2.99	1.50	2.31	2.03	2.35	3.12	4.41	4.80	4.92	4.60	4.57	2.32	4.13	1.33	2.43	2.85	2.69	1.89	2.84	2.98	3.29	3.34	3.13	2.95	2.71	2.43	3.08	4.34	4.20	3.79	3.36	2.97	1.89	2.93	3.05	4.16	3.66	3.43	3.46	3.29	2.89	2.68	2.64	2.51	1.94	1.35	1.25	1.57	2.58	2.57	2.59	2.57	2.62	2.76	2.75	2.73	2.92	2.99	2.71	2.41	2.37	2.53	2.66	2.75	2.84	2.88	2.90	2.96	3.03	3.05	3.09	3.16	3.17	3.17	3.23	3.30	3.36	3.40	3.35	3.27	3.26	3.28	3.29	3.29	
3.45	3.45	3.45	3.45	3.45	3.45	3.46	3.47	3.47	3.47	3.48	3.49	3.50	3.51	3.52	3.53	3.55	3.57	3.60	3.62	3.65	3.79	4.21	5.07	5.11	5.20	4.66	4.28	5.11	5.39	5.72	6.10	6.68	7.14	6.70	2.03	1.69	0.98	0.78	1.28	1.88	2.98	2.58	3.32	3.10	2.99	3.12	0.93	3.58	3.79	3.93	3.82	3.60	3.48	3.73	3.35	3.30	2.61	2.08	2.89	2.83	2.95	1.89	2.53	3.50	6.15	8.06	7.00	2.93	1.99	1.18	1.08	0.68	1.30	3.35	3.73	3.40	3.15	2.95	2.46	3.23	2.33	2.61	2.32	3.56	1.66	2.14	2.97	4.02	4.52	7.61	4.34	5.56	4.12	3.45	1.33	1.80	2.43	2.07	2.50	3.29	4.15	4.96	5.36	3.92	0.67	4.53	0.83	2.10	2.74	3.73	4.18	4.27	4.40	4.44	4.45	4.22	4.21	4.41	4.09	3.50	3.45	2.09	4.61	3.85	3.77	0.60	3.13	0.98	0.68	0.51	0.78	1.16	1.60	1.88	1.76	1.92	2.23	2.27	1.87	1.47	1.30	2.66	2.53	2.51	2.48	2.50	2.67	2.72	2.68	2.83	2.97	2.84	2.60	2.46	2.50	2.60	2.68	2.78	2.86	2.90	2.94	2.99	3.01	3.03	3.11	3.21	3.25	3.24	3.19	3.21	3.32	3.35	3.31	3.30	3.29	3.28	3.28	
3.43	3.44	3.44	3.44	3.44	3.44	3.44	3.45	3.46	3.45	3.45	3.46	3.46	3.47	3.47	3.47	3.48	3.48	3.49	3.50	3.49	3.56	3.92	5.04	5.16	5.47	4.97	4.23	5.07	5.26	5.68	6.23	6.86	7.56	5.99	1.61	2.15	1.64	1.34	2.00	2.18	2.90	2.59	3.45	3.26	3.07	3.05	3.29	3.62	3.89	4.06	4.04	3.55	3.67	3.97	3.80	2.94	2.86	2.36	2.13	2.83	3.23	3.69	2.17	2.99	3.76	5.81	8.63	2.17	2.24	1.30	1.71	4.25	3.74	3.92	3.71	3.45	3.16	2.80	2.66	2.97	3.38	2.33	2.41	1.90	3.86	1.89	2.57	3.68	6.28	7.34	4.28	5.33	4.24	1.72	2.04	2.23	1.76	2.83	2.27	2.82	3.59	4.59	5.49	2.69	1.95	1.89	1.50	3.50	5.87	4.92	4.87	5.01	5.22	5.06	4.99	5.03	5.24	5.58	5.38	5.01	4.31	3.23	2.54	2.39	2.12	1.43	0.85	0.53	0.28	0.42	1.34	1.94	2.24	2.05	2.03	2.50	2.90	2.69	2.58	2.24	1.74	1.36	2.76	2.59	2.51	2.52	2.66	2.79	2.78	2.79	2.88	2.84	2.69	2.58	2.57	2.61	2.64	2.73	2.83	2.91	2.98	3.01	2.98	2.96	3.00	3.13	3.27	3.35	3.30	3.18	3.20	3.26	3.27	3.30	3.29	3.27	3.27	
3.42	3.43	3.43	3.43	3.43	3.42	3.42	3.44	3.44	3.43	3.43	3.43	3.42	3.42	3.41	3.41	3.40	3.40	3.39	3.38	3.36	3.36	3.61	4.99	6.23	5.45	4.93	5.14	4.82	5.08	5.61	6.10	6.48	7.88	1.25	2.86	2.80	2.47	2.24	2.49	2.18	3.02	2.68	3.58	3.45	3.21	2.97	3.03	3.44	3.88	4.19	4.27	3.87	3.83	4.27	4.22	3.50	3.03	2.54	2.44	2.67	2.90	3.37	4.22	2.64	3.48	6.91	8.14	4.03	4.90	4.47	4.37	4.17	3.98	3.87	3.73	1.99	1.82	1.37	2.07	2.90	3.40	3.03	2.81	2.07	1.63	1.69	2.28	3.27	4.17	7.11	3.49	5.16	1.58	2.90	2.75	2.57	2.71	2.32	1.98	2.60	3.20	4.69	3.26	7.04	6.30	5.90	6.23	6.07	5.89	5.87	5.58	5.43	5.45	5.35	5.37	5.33	5.38	5.92	6.10	5.83	5.25	4.85	3.99	3.56	3.25	2.63	1.97	1.70	1.44	2.24	3.04	3.46	3.61	3.61	3.33	3.08	2.97	2.35	2.51	2.43	1.98	3.17	3.05	2.84	2.68	2.64	2.68	2.81	2.88	2.82	2.82	2.77	2.67	2.62	2.66	2.71	2.68	2.72	2.80	2.87	3.00	3.12	3.07	2.93	2.92	3.00	3.12	3.29	3.40	3.32	3.21	3.19	3.21	3.25	3.26	3.26	3.26	
3.40	3.42	3.42	3.42	3.42	3.41	3.41	3.42	3.42	3.41	3.39	3.39	3.38	3.37	3.35	3.34	3.33	3.30	3.29	3.26	3.24	3.23	3.37	4.50	6.13	5.65	5.78	5.24	4.94	4.82	4.93	5.25	5.86	7.87	4.01	3.79	3.42	3.21	2.92	2.88	2.43	3.25	2.95	3.66	3.55	3.41	3.09	2.92	3.15	3.59	4.06	4.37	4.37	4.35	4.49	4.62	2.93	3.24	2.58	2.50	2.99	3.57	3.94	4.11	4.61	5.33	6.59	5.79	3.45	4.42	4.21	4.30	4.08	3.54	3.17	2.77	2.28	2.10	1.85	2.10	3.13	3.45	3.62	3.21	2.40	1.83	1.84	2.25	3.18	4.02	6.54	5.08	3.69	2.63	3.38	3.32	2.40	1.29	1.35	1.92	2.60	2.95	3.01	5.57	5.77	6.30	5.64	5.49	5.65	5.97	6.35	6.38	6.25	6.04	5.56	5.40	5.18	5.32	5.58	5.94	5.80	5.60	5.67	5.25	4.66	4.71	4.87	4.39	4.23	4.12	3.76	3.57	3.78	3.96	4.10	3.74	3.22	2.70	1.87	1.68	1.76	2.10	2.26	2.21	2.98	2.82	2.74	2.68	2.76	2.88	2.83	2.81	2.75	2.63	2.56	2.61	2.70	2.72	2.74	2.76	2.78	2.88	3.12	3.22	3.02	2.93	2.96	2.99	3.12	3.31	3.39	3.28	3.20	3.21	3.22	3.23	3.24	3.24	
3.39	3.41	3.42	3.41	3.41	3.40	3.39	3.40	3.40	3.38	3.36	3.35	3.34	3.32	3.30	3.27	3.25	3.22	3.18	3.15	3.12	3.14	3.37	4.39	5.66	6.46	6.39	5.58	5.08	4.89	4.80	5.12	6.19	8.78	4.27	4.33	4.27	4.51	4.01	3.31	4.21	3.36	3.67	3.60	3.47	3.40	1.30	2.80	2.82	3.19	3.66	4.10	4.56	5.14	5.04	5.15	3.25	3.46	2.65	2.52	3.15	3.71	3.70	3.39	3.82	4.70	6.27	3.19	3.53	2.44	4.09	1.48	0.79	1.01	3.74	3.16	0.85	0.92	2.10	2.53	3.19	3.48	3.71	3.46	2.82	2.25	1.78	2.35	3.20	3.95	6.65	6.09	3.19	3.31	4.00	3.82	2.25	3.26	1.67	2.93	2.91	2.78	5.64	5.72	6.10	6.46	6.19	5.57	5.54	5.76	6.05	6.24	6.42	6.52	6.23	5.90	5.63	5.37	5.38	5.32	5.34	5.13	5.32	5.08	4.53	4.36	4.71	4.60	4.17	4.43	4.03	3.34	3.23	3.33	3.26	3.01	2.18	1.55	1.54	1.43	1.45	1.92	2.10	2.25	2.96	2.90	2.82	2.74	2.80	2.90	2.84	2.84	2.83	2.69	2.60	2.59	2.60	2.63	2.71	2.73	2.71	2.73	2.93	3.16	3.10	3.00	3.00	2.99	3.03	3.15	3.32	3.34	3.24	3.22	3.21	3.21	3.22	3.22	
3.39	3.40	3.41	3.40	3.40	3.39	3.38	3.38	3.38	3.36	3.34	3.32	3.30	3.27	3.25	3.21	3.18	3.13	3.10	3.05	3.02	3.02	3.34	4.19	5.38	6.31	6.41	6.12	5.27	4.87	5.03	5.91	7.85	4.33	4.79	4.83	4.52	4.45	4.37	4.89	4.44	3.63	3.73	3.59	3.38	0.60	3.12	2.77	2.63	2.86	3.26	3.67	4.23	5.45	5.28	5.42	3.73	3.68	2.70	2.05	3.19	3.75	3.58	3.05	3.31	3.95	5.09	2.93	1.95	2.53	1.86	1.27	1.18	4.51	4.21	3.76	1.29	1.37	2.57	2.23	3.20	3.60	4.65	3.63	3.11	2.59	2.58	2.41	3.10	3.78	5.08	6.97	4.58	4.07	3.56	3.72	2.21	4.03	3.51	5.74	3.16	3.19	3.48	3.88	4.21	4.65	6.40	5.95	5.55	5.08	5.57	5.94	6.29	6.37	6.35	6.18	5.94	5.71	5.48	5.14	5.00	4.83	4.82	4.07	2.79	1.91	2.17	2.73	2.77	2.76	2.59	1.96	1.23	0.97	0.75	0.54	0.43	0.47	0.67	1.50	1.38	1.60	1.95	2.37	2.83	2.86	2.90	2.86	2.91	2.98	2.90	2.87	2.93	2.85	2.77	2.73	2.63	2.59	2.67	2.70	2.68	2.69	2.80	2.98	3.03	3.02	3.03	3.04	3.02	3.05	3.19	3.31	3.30	3.24	3.18	3.17	3.19	3.19	
3.39	3.40	3.40	3.39	3.39	3.38	3.37	3.36	3.36	3.34	3.31	3.28	3.26	3.23	3.19	3.15	3.10	3.05	3.01	2.96	2.94	2.95	3.15	3.44	4.58	6.28	6.31	6.83	6.38	5.83	5.76	6.77	3.90	4.24	4.47	4.43	4.54	4.60	4.81	4.82	4.53	4.12	3.83	3.66	1.14	3.27	1.29	1.55	2.59	2.59	2.84	3.16	3.68	5.26	5.33	5.94	4.25	3.92	2.83	1.87	2.81	3.83	3.79	3.18	3.40	4.03	5.23	2.56	2.97	1.96	1.90	3.88	4.11	4.32	4.31	1.59	2.73	1.96	1.16	2.05	3.31	3.80	4.06	3.83	3.39	3.04	2.96	2.68	3.01	3.46	4.46	6.22	6.29	5.20	3.46	4.19	4.99	5.10	5.05	3.06	3.12	3.40	3.78	4.30	4.57	4.90	5.30	5.46	5.26	5.14	5.40	5.74	5.90	5.98	6.24	6.30	5.97	5.98	5.71	5.57	4.92	4.40	3.85	3.14	2.19	1.79	1.66	1.60	1.52	1.18	0.78	0.31	0.43	0.40	0.14	0.62	0.86	0.81	1.11	1.53	1.82	1.99	2.36	2.54	2.70	2.72	2.84	2.91	3.00	3.05	2.92	2.83	2.87	2.86	2.85	2.85	2.75	2.68	2.71	2.73	2.70	2.72	2.80	2.89	2.94	2.97	3.00	3.05	3.04	3.02	3.07	3.20	3.31	3.31	3.20	3.15	3.14	3.14	
3.39	3.39	3.39	3.38	3.38	3.37	3.35	3.34	3.33	3.32	3.28	3.25	3.22	3.19	3.14	3.08	3.03	2.96	2.91	2.86	2.84	2.93	3.21	3.30	4.66	6.33	3.89	4.13	6.99	7.72	5.61	4.33	3.73	3.82	4.12	4.32	4.35	4.40	4.55	4.65	4.49	4.12	3.85	3.69	3.60	3.38	2.94	2.60	2.46	2.52	2.70	2.97	3.10	3.42	4.88	6.63	2.98	4.59	2.24	2.06	2.82	3.58	3.61	3.36	6.17	8.28	8.35	9.72	3.92	3.22	2.13	2.02	1.38	0.91	1.75	4.51	4.50	1.97	3.75	1.61	3.30	3.73	3.51	3.85	3.54	3.39	2.96	3.40	3.15	3.36	4.00	3.94	5.70	6.21	4.35	4.42	4.63	3.38	3.31	3.31	3.37	2.52	2.52	2.70	3.02	3.32	5.49	5.77	5.66	4.97	4.73	3.62	3.88	4.16	4.57	4.97	5.26	5.53	5.67	6.39	6.25	5.83	5.64	5.32	4.73	3.94	3.35	2.91	2.55	1.94	1.35	0.98	1.02	0.98	0.96	1.22	1.08	1.29	1.82	2.21	2.15	2.23	2.37	2.74	2.68	2.66	2.76	2.89	3.04	3.09	2.93	2.76	2.70	2.70	2.75	2.78	2.73	2.69	2.71	2.74	2.72	2.73	2.80	2.85	2.88	2.91	2.96	3.03	3.05	3.02	3.02	3.08	3.22	3.32	3.26	3.15	3.11	3.11	
3.39	3.39	3.38	3.37	3.37	3.36	3.34	3.32	3.31	3.30	3.26	3.22	3.19	3.15	3.10	3.02	2.96	2.88	2.81	2.74	2.73	2.84	3.39	3.53	5.11	4.92	5.58	3.68	6.29	6.69	3.18	4.59	3.49	3.50	3.74	4.01	4.16	4.18	4.28	4.41	4.38	4.10	3.83	3.69	3.61	2.68	3.06	2.63	2.52	2.69	2.93	3.04	3.01	3.74	4.02	6.32	3.06	4.95	3.95	2.31	3.45	4.26	4.08	6.38	7.18	7.13	7.38	8.29	9.97	6.87	3.40	2.84	2.18	1.91	5.61	5.70	4.61	3.23	2.14	2.05	3.60	3.79	2.64	3.65	3.31	3.15	3.17	3.12	3.28	3.50	3.91	5.43	5.64	4.01	3.90	3.57	3.28	3.23	3.01	3.27	3.30	2.52	2.32	2.35	2.75	3.22	3.47	3.77	4.09	4.10	4.66	3.48	3.64	3.89	4.31	4.78	5.23	5.57	5.86	6.10	6.10	6.17	6.39	6.22	5.72	5.19	4.58	4.32	3.70	2.54	2.03	1.87	1.59	1.49	1.24	0.92	1.11	1.80	2.26	2.52	2.22	2.30	2.33	2.73	2.69	2.69	2.72	2.83	3.03	3.14	3.05	2.89	2.71	2.58	2.61	2.67	2.63	2.58	2.62	2.69	2.71	2.72	2.78	2.83	2.85	2.86	2.91	2.99	3.03	3.01	2.99	3.01	3.10	3.23	3.27	3.18	3.11	3.11	
3.38	3.38	3.37	3.37	3.36	3.35	3.33	3.31	3.30	3.28	3.25	3.20	3.16	3.11	3.05	2.97	2.89	2.80	2.72	2.63	2.60	2.69	3.30	3.49	5.88	6.06	5.15	5.21	4.12	8.07	1.74	2.06	2.97	2.57	3.60	3.86	4.06	4.09	4.12	4.18	4.16	4.03	3.91	3.85	3.72	2.97	3.21	1.66	2.84	2.78	2.98	3.21	3.51	3.43	4.46	6.25	6.96	5.02	4.68	4.42	4.40	7.78	6.43	5.60	6.09	6.90	7.05	7.38	8.36	9.80	8.46	6.46	6.32	1.16	6.39	6.58	3.10	5.14	3.26	2.92	4.28	4.25	3.23	3.79	3.25	2.96	3.01	3.18	3.47	3.83	4.04	5.34	7.15	3.78	3.56	3.09	2.77	2.91	2.94	2.87	2.79	2.55	2.15	2.12	2.44	2.84	3.06	3.31	4.09	4.18	4.05	3.77	3.59	3.74	3.13	3.35	3.68	3.88	4.01	5.86	5.73	5.69	6.09	6.58	6.61	6.34	5.93	5.76	4.94	3.99	3.54	3.17	2.83	2.51	1.90	1.65	1.80	1.94	2.03	2.24	2.07	2.58	2.36	2.71	2.67	2.65	2.66	2.74	2.93	3.12	3.20	3.15	2.92	2.67	2.59	2.65	2.63	2.52	2.51	2.59	2.65	2.70	2.77	2.83	2.82	2.81	2.84	2.91	2.97	2.98	2.97	2.99	3.03	3.13	3.24	3.21	3.13	3.13	
3.36	3.37	3.37	3.36	3.35	3.34	3.32	3.30	3.28	3.27	3.22	3.17	3.13	3.07	3.00	2.91	2.82	2.71	2.61	2.50	2.44	2.51	2.80	2.93	6.14	6.36	5.35	5.04	4.60	7.84	2.55	2.54	1.32	2.96	3.73	3.92	4.08	4.13	4.13	4.10	3.99	3.39	4.04	4.13	2.20	3.50	3.14	2.26	2.98	2.89	2.90	3.04	3.60	4.62	5.46	3.63	6.40	6.56	6.98	7.06	6.83	6.80	6.74	5.62	5.92	6.71	6.89	7.09	7.57	8.33	9.08	8.05	6.63	9.80	9.81	9.78	10.53	11.27	3.32	5.91	5.95	4.76	5.12	4.88	4.10	2.33	3.35	3.82	4.11	4.30	4.96	5.97	3.14	3.16	3.40	3.58	2.88	2.52	2.79	2.88	2.52	2.45	2.27	2.12	2.29	2.59	2.78	3.03	3.47	3.79	3.82	3.74	3.59	3.32	3.06	3.08	3.39	3.65	3.84	4.01	4.05	3.90	3.92	4.29	4.69	4.97	5.14	6.32	6.43	6.00	5.46	4.60	4.06	3.52	3.09	2.96	2.56	2.07	1.93	2.02	1.90	2.44	2.57	2.64	2.65	2.64	2.66	2.73	2.82	2.98	3.21	3.28	3.07	2.81	2.66	2.68	2.74	2.68	2.57	2.52	2.55	2.62	2.71	2.79	2.81	2.79	2.80	2.85	2.90	2.95	2.97	2.98	2.99	3.00	3.14	3.20	3.15	3.15	
3.36	3.36	3.37	3.36	3.35	3.33	3.32	3.29	3.27	3.25	3.20	3.15	3.10	3.03	2.95	2.86	2.76	2.64	2.51	2.38	2.28	2.27	2.22	2.16	4.23	7.82	6.50	4.98	8.38	5.83	5.29	3.28	4.37	3.94	3.75	3.92	4.06	4.13	4.16	4.17	1.46	4.01	4.14	4.21	3.97	3.53	3.17	2.68	3.10	3.14	2.98	2.88	3.63	3.10	3.18	6.21	6.09	5.90	6.21	6.32	6.42	6.60	6.76	4.43	5.11	6.33	6.36	6.28	6.45	7.89	8.42	7.29	6.44	8.50	8.49	8.35	8.73	9.44	10.05	7.21	6.72	9.72	6.59	6.27	5.55	2.58	4.91	4.77	4.79	4.83	4.63	5.91	3.59	3.28	3.52	3.77	3.04	2.57	2.45	2.22	2.01	2.22	2.19	2.19	2.33	2.33	2.47	2.78	3.16	3.57	3.75	3.69	3.56	3.40	3.14	2.97	3.02	3.30	3.67	3.80	3.84	3.67	3.56	3.32	4.24	4.52	4.82	5.12	5.48	5.69	5.67	5.51	5.59	4.83	4.04	3.56	3.04	2.67	2.48	2.19	2.03	2.51	2.52	2.56	2.63	2.68	2.73	2.78	2.77	2.85	3.16	3.36	3.15	2.86	2.72	2.68	2.77	2.89	2.83	2.61	2.48	2.50	2.60	2.69	2.76	2.78	2.78	2.80	2.83	2.89	2.95	3.00	2.98	2.91	2.99	3.10	3.12	3.12	
3.36	3.36	3.36	3.36	3.34	3.33	3.31	3.28	3.25	3.23	3.19	3.13	3.07	3.00	2.92	2.82	2.71	2.58	2.43	2.27	2.13	2.04	1.95	2.05	2.85	6.85	5.49	4.88	8.96	9.64	9.12	4.79	2.54	4.24	3.67	3.69	3.88	4.12	4.20	1.43	4.17	4.07	4.21	2.63	4.01	3.60	3.32	3.04	3.20	3.16	2.89	3.11	2.56	2.70	2.99	5.85	5.61	5.75	5.95	5.28	5.56	5.90	6.71	3.80	3.05	5.71	3.33	5.95	6.71	7.05	7.89	6.41	6.67	8.06	8.16	8.26	8.24	8.42	8.50	8.56	8.81	9.57	9.97	6.22	5.54	9.24	7.88	8.19	8.47	4.53	7.06	9.16	4.69	3.20	3.33	4.00	4.10	2.71	3.48	3.00	2.68	2.42	2.31	2.39	2.63	2.19	2.27	2.56	2.81	3.23	3.62	3.64	3.42	3.29	3.23	3.15	2.98	3.04	3.35	3.54	3.59	3.40	3.05	2.96	3.18	3.38	3.50	3.63	3.85	4.20	5.58	5.68	5.80	5.78	5.48	4.64	3.80	3.17	3.57	2.29	2.33	1.95	1.79	2.56	2.59	2.68	2.79	2.84	2.79	2.84	3.18	3.49	3.35	2.93	2.67	2.59	2.62	2.84	2.99	2.86	2.60	2.47	2.50	2.58	2.66	2.73	2.77	2.76	2.75	2.76	2.84	2.94	2.98	2.93	2.94	3.01	3.04	3.04	
3.36	3.36	3.36	3.35	3.33	3.32	3.30	3.27	3.24	3.21	3.18	3.12	3.06	2.98	2.90	2.80	2.67	2.53	2.36	2.18	2.00	1.88	1.79	2.10	1.91	4.40	5.16	8.78	8.71	9.08	10.36	7.70	4.13	2.41	2.64	1.74	3.62	1.54	1.49	4.04	3.98	4.00	4.18	4.33	3.98	3.62	1.48	3.39	3.37	3.35	3.14	2.63	3.38	2.44	2.78	4.32	5.35	5.33	5.37	5.67	5.85	6.32	6.67	4.02	3.25	2.55	3.93	3.63	6.16	6.87	7.45	6.24	6.17	7.41	7.61	7.76	7.92	7.92	8.03	8.09	8.28	8.60	8.94	8.17	8.44	8.76	3.91	5.15	4.73	7.45	7.63	9.02	6.40	3.45	2.86	2.82	3.50	3.46	2.94	3.71	3.25	2.97	2.76	2.75	2.67	2.35	2.56	2.42	2.66	2.93	3.30	3.55	3.29	3.07	3.10	3.31	3.21	2.88	3.04	3.36	3.43	3.25	2.98	2.88	2.88	2.91	2.88	2.93	3.24	3.58	3.84	4.02	4.16	4.52	4.92	5.12	5.07	3.61	3.92	3.50	2.93	3.07	1.83	2.68	2.56	2.57	2.71	2.84	2.80	2.81	3.10	3.46	3.47	3.06	2.65	2.46	2.45	2.67	2.96	3.03	2.89	2.67	2.53	2.53	2.58	2.65	2.72	2.75	2.70	2.65	2.71	2.82	2.92	2.97	2.97	2.97	2.98	2.98	
3.36	3.36	3.35	3.35	3.33	3.31	3.30	3.27	3.23	3.21	3.17	3.11	3.05	2.97	2.88	2.78	2.64	2.49	2.31	2.11	1.90	1.74	1.67	1.94	1.92	4.30	8.57	8.42	8.58	8.86	9.51	10.94	7.34	3.77	2.03	1.07	4.05	3.78	3.78	3.79	3.86	4.01	3.30	4.23	3.77	3.35	3.29	3.46	3.63	3.65	3.29	3.15	2.26	2.35	2.47	4.29	4.66	5.02	5.18	3.08	3.28	3.56	6.59	3.96	3.29	2.52	4.31	4.00	2.75	6.64	7.37	4.23	3.97	7.05	7.10	7.24	7.40	7.32	7.50	7.89	7.98	8.31	8.42	7.33	7.39	7.82	3.35	3.59	5.32	5.15	7.74	8.62	10.28	5.92	3.69	3.68	2.72	2.14	4.13	3.98	3.67	3.45	3.26	3.17	3.01	2.71	2.48	2.49	2.05	2.76	2.97	3.30	3.21	3.06	3.08	2.28	1.98	2.87	2.83	3.16	3.32	3.18	3.03	2.98	2.90	2.83	2.68	2.62	2.83	3.02	3.24	3.45	3.53	3.84	4.20	4.44	4.93	5.17	4.15	3.98	3.48	3.47	2.96	2.78	2.63	2.51	2.59	2.73	2.73	2.69	2.93	3.33	3.47	3.24	2.79	2.46	2.38	2.55	2.84	3.02	3.04	2.94	2.75	2.58	2.56	2.59	2.66	2.74	2.69	2.62	2.64	2.70	2.79	2.90	2.98	2.95	2.92	2.92	
3.37	3.36	3.35	3.35	3.33	3.32	3.30	3.27	3.23	3.20	3.17	3.11	3.03	2.96	2.86	2.76	2.62	2.46	2.27	2.07	1.83	1.62	1.57	1.82	1.49	4.17	8.07	8.14	8.38	8.58	8.87	9.79	10.57	7.02	3.26	6.43	5.86	5.27	4.67	4.38	4.40	4.53	3.10	4.31	3.83	3.36	3.16	3.32	3.62	4.16	3.98	2.56	2.10	4.08	2.34	2.48	2.83	4.70	3.01	3.40	2.59	3.82	4.13	3.85	3.23	2.51	6.08	2.26	4.42	4.66	7.23	4.46	4.05	6.89	7.02	7.15	7.28	7.12	7.21	7.49	7.28	8.15	8.09	6.65	6.87	7.08	2.96	3.25	5.63	5.63	5.57	8.45	9.38	10.31	4.34	5.15	3.25	4.47	4.29	4.16	3.88	3.40	2.91	3.50	3.42	3.13	2.76	2.72	2.90	2.87	2.90	3.09	3.16	3.18	3.23	3.42	3.45	3.11	2.92	3.10	3.26	3.19	3.07	3.10	3.12	3.05	2.86	2.41	2.52	2.60	2.84	3.03	3.03	3.22	3.40	3.47	4.05	4.61	4.35	4.02	3.84	2.93	2.97	0.90	0.92	2.64	2.62	2.66	2.63	2.61	2.80	3.19	3.48	3.46	3.07	2.61	2.40	2.47	2.72	2.90	2.99	3.04	2.92	2.65	2.53	2.56	2.61	2.69	2.67	2.60	2.58	2.59	2.65	2.79	2.94	2.95	2.90	2.90	
3.36	3.36	3.35	3.35	3.34	3.32	3.29	3.27	3.22	3.19	3.16	3.10	3.03	2.95	2.86	2.75	2.61	2.45	2.26	2.04	1.79	1.55	1.43	1.67	1.43	4.09	8.07	8.07	8.18	8.37	8.60	9.11	9.30	9.05	9.19	6.56	6.67	2.02	1.67	5.01	5.59	3.36	4.43	3.56	1.52	2.15	3.67	3.69	3.85	4.02	3.46	2.80	2.37	2.91	3.69	2.17	2.48	2.71	2.91	2.09	2.32	2.80	4.25	3.84	3.17	2.59	2.39	2.38	2.65	3.15	5.44	4.53	3.42	2.86	6.83	6.89	7.03	6.94	6.96	4.51	4.32	7.79	8.12	5.35	5.46	6.68	2.55	3.01	3.21	5.84	5.97	8.26	9.04	10.31	7.43	4.48	4.89	5.14	4.62	4.42	4.30	3.93	3.22	2.74	2.45	1.90	3.16	3.05	3.10	3.13	3.09	3.08	3.20	3.34	3.37	3.39	3.50	3.47	3.31	3.21	3.23	3.19	3.08	3.17	3.34	3.33	3.11	2.68	2.36	2.48	2.68	2.74	2.77	2.87	3.00	2.99	3.43	3.98	3.74	3.50	3.55	3.30	1.14	0.90	2.75	2.70	2.67	2.67	2.61	2.56	2.61	2.88	3.28	3.51	3.36	2.87	2.47	2.43	2.62	2.75	2.82	2.97	2.96	2.69	2.50	2.51	2.56	2.62	2.61	2.54	2.51	2.49	2.49	2.61	2.82	2.91	2.90	2.90	
3.35	3.36	3.36	3.35	3.34	3.32	3.29	3.27	3.23	3.19	3.16	3.10	3.03	2.95	2.86	2.75	2.61	2.46	2.27	2.05	1.79	1.52	1.29	1.38	1.21	3.85	7.98	7.81	7.81	8.14	8.51	8.85	8.27	7.95	8.29	8.65	6.34	6.61	6.69	6.01	10.12	3.46	5.77	1.98	2.91	4.23	4.65	4.41	4.23	4.10	4.15	3.86	3.60	3.28	3.14	3.16	4.38	2.45	2.73	1.72	1.95	2.53	4.37	5.00	3.00	2.41	5.73	2.37	2.64	3.09	5.66	4.51	3.42	2.77	6.56	6.60	6.81	5.53	3.20	4.71	4.55	7.99	7.94	4.05	2.92	6.30	2.33	2.64	3.26	3.32	6.37	6.50	8.49	9.33	11.15	7.58	4.46	5.00	3.40	2.50	1.90	1.70	1.57	1.32	1.28	2.08	3.53	3.44	3.39	3.36	3.25	3.18	3.34	3.49	3.04	3.29	3.48	3.68	3.68	3.51	3.34	3.26	3.19	3.32	3.54	3.55	3.35	2.90	2.50	2.50	2.62	2.65	2.67	2.75	1.71	2.85	3.05	3.48	3.45	3.32	2.43	1.62	0.97	1.30	2.54	2.54	2.64	2.70	2.68	2.59	2.46	2.48	2.84	3.27	3.41	3.10	2.60	2.43	2.54	2.62	2.65	2.83	2.92	2.71	2.52	2.48	2.49	2.53	2.54	2.48	2.41	2.38	2.37	2.43	2.60	2.78	2.84	2.84	
3.36	3.36	3.36	3.35	3.34	3.32	3.30	3.27	3.23	3.19	3.15	3.11	3.03	2.95	2.86	2.75	2.62	2.47	2.29	2.07	1.82	1.52	1.24	1.03	1.03	3.62	7.16	7.60	7.49	7.94	8.29	8.29	7.56	5.80	5.98	6.02	5.98	6.03	6.14	9.40	9.35	9.72	5.77	3.46	5.64	5.25	4.83	8.14	5.55	4.34	4.06	3.96	3.90	3.94	3.45	2.10	1.92	4.10	1.63	1.42	1.65	2.28	3.04	5.41	3.00	2.33	5.47	2.14	2.53	3.01	5.86	4.68	3.45	2.86	6.15	6.37	5.96	3.10	3.24	3.42	4.75	7.84	7.61	3.79	2.75	5.51	2.25	2.50	2.82	3.54	3.58	6.72	7.99	8.55	9.19	10.77	9.46	4.35	4.89	3.45	2.04	1.84	1.52	1.25	2.72	3.85	3.78	3.77	3.74	3.63	3.43	3.34	3.49	3.60	3.25	3.34	3.46	3.68	3.23	2.99	2.65	3.43	3.41	3.55	3.73	3.69	3.52	3.18	2.77	2.66	2.67	2.73	2.77	2.74	2.77	2.76	2.82	3.11	3.31	3.37	1.93	1.59	2.49	1.26	2.34	2.38	2.55	2.70	2.77	2.76	2.51	2.24	2.43	2.88	3.22	3.15	2.72	2.46	2.52	2.58	2.57	2.69	2.80	2.70	2.54	2.48	2.46	2.43	2.43	2.40	2.33	2.28	2.26	2.29	2.39	2.58	2.69	2.69	
3.37	3.36	3.36	3.36	3.34	3.32	3.30	3.27	3.23	3.19	3.15	3.11	3.04	2.96	2.88	2.77	2.64	2.50	2.32	2.11	1.87	1.58	1.26	0.93	1.00	1.62	5.64	7.47	7.62	7.96	8.07	7.42	6.09	5.98	6.07	6.08	6.07	4.32	8.50	8.76	8.75	8.77	8.94	4.71	5.47	5.26	5.00	7.52	7.51	5.78	4.36	3.77	3.49	3.53	3.67	3.32	1.94	2.06	3.14	1.15	1.39	2.02	2.69	3.16	3.02	2.48	5.43	2.04	2.44	2.95	5.99	3.89	3.41	2.91	2.75	6.67	2.99	3.17	3.31	3.53	4.87	5.25	6.93	4.01	2.54	1.92	1.92	2.21	2.61	3.79	3.71	6.88	7.84	8.64	8.49	9.21	11.31	7.41	5.41	3.64	2.53	1.92	1.43	3.56	3.24	2.98	3.94	3.97	3.99	2.22	1.55	3.52	1.11	3.67	3.69	3.62	3.50	3.42	3.29	3.03	2.72	2.52	2.81	3.15	3.10	2.92	2.68	3.40	3.03	2.86	2.85	2.96	3.02	2.92	2.72	2.66	2.76	2.98	3.22	3.44	0.98	1.97	1.17	1.05	2.20	2.30	2.45	2.63	2.80	2.92	2.67	2.18	2.15	2.51	2.92	3.06	2.76	2.47	2.50	2.56	2.54	2.60	2.67	2.62	2.51	2.46	2.43	2.34	2.28	2.24	2.20	2.14	2.10	2.11	2.17	2.38	2.53	2.53	
3.37	3.37	3.36	3.36	3.34	3.33	3.30	3.27	3.24	3.20	3.16	3.12	3.06	2.98	2.89	2.79	2.67	2.53	2.37	2.17	1.94	1.66	1.34	1.09	1.10	1.12	3.98	7.41	7.67	7.89	7.91	6.30	4.05	3.88	3.77	3.69	3.78	7.57	7.94	8.29	8.44	8.42	4.15	4.12	5.12	5.13	5.23	5.46	7.72	7.53	4.95	3.52	2.81	2.57	2.67	2.13	1.89	2.12	1.55	1.09	1.18	1.65	2.19	2.64	2.74	2.34	2.01	2.03	2.37	2.88	6.17	3.87	3.47	2.93	2.68	3.15	2.89	3.15	3.37	3.64	4.90	5.42	5.76	4.20	2.60	1.75	5.64	1.83	2.37	2.74	3.94	6.77	7.70	7.98	7.66	8.41	9.95	10.20	7.63	4.52	3.30	2.30	1.60	4.17	3.89	3.46	3.38	3.32	3.04	2.45	1.64	1.24	1.04	3.68	3.80	3.95	3.95	3.88	3.55	3.16	2.85	2.87	3.23	3.36	3.28	3.19	2.89	2.36	1.89	1.80	3.12	3.23	3.39	3.32	2.93	2.50	2.47	2.61	2.77	1.39	2.81	2.19	1.53	2.25	2.13	2.22	2.35	2.50	2.73	2.97	2.82	2.28	2.07	2.26	2.64	2.91	2.75	2.47	2.45	2.48	2.47	2.54	2.57	2.50	2.42	2.39	2.35	2.25	2.15	2.05	1.97	1.91	1.87	1.88	1.93	2.16	2.34	2.34	
3.38	3.37	3.37	3.36	3.35	3.33	3.31	3.28	3.25	3.21	3.17	3.12	3.07	2.99	2.91	2.81	2.70	2.57	2.42	2.22	2.01	1.74	1.45	1.20	1.17	1.10	3.91	7.35	7.51	7.80	7.57	4.22	3.93	3.91	3.64	3.59	7.25	7.61	7.79	7.97	8.17	8.02	3.98	3.96	3.84	3.73	3.81	5.83	6.33	8.27	6.51	3.99	3.01	3.73	2.66	3.14	2.77	2.37	1.83	1.29	1.15	1.33	1.62	2.00	2.24	2.02	1.79	1.86	2.21	2.74	6.05	3.79	3.55	3.02	2.73	2.71	2.85	3.08	3.33	4.97	5.01	8.14	6.02	3.84	2.83	1.96	4.68	1.64	2.08	2.51	4.19	6.67	6.94	7.38	7.01	7.90	9.19	9.95	11.16	7.95	5.36	3.99	5.40	4.81	4.47	4.04	3.89	3.59	3.19	0.73	0.51	1.49	1.42	3.72	3.80	3.96	2.35	1.71	1.17	0.77	0.99	3.24	3.59	3.67	3.59	2.31	1.90	2.64	2.10	2.01	2.02	2.08	2.21	2.04	1.73	3.19	2.87	2.78	0.59	0.21	0.89	2.58	1.82	2.39	2.17	2.16	2.24	2.38	2.65	2.94	2.85	2.40	2.13	2.18	2.47	2.73	2.68	2.51	2.46	2.36	2.32	2.45	2.50	2.37	2.29	2.30	2.22	2.14	2.08	1.94	1.79	1.70	1.60	1.56	1.64	1.92	2.13	2.13	
3.38	3.38	3.37	3.37	3.35	3.34	3.31	3.28	3.25	3.22	3.18	3.13	3.08	3.01	2.93	2.84	2.73	2.61	2.46	2.28	2.07	1.82	1.53	1.24	1.14	1.04	3.93	5.52	7.42	7.61	4.69	4.11	3.43	3.32	3.46	3.62	7.34	7.48	4.60	4.19	8.07	3.90	3.78	3.67	6.24	3.30	3.38	3.73	4.22	6.97	8.70	6.44	4.04	4.59	3.35	3.60	3.16	2.78	2.28	1.75	1.43	1.35	1.30	1.40	1.62	1.50	1.43	1.59	1.95	2.73	3.28	6.04	3.39	2.90	3.88	2.77	2.89	2.97	3.17	5.10	5.15	8.63	6.16	4.03	3.20	2.32	1.73	1.59	1.79	2.20	4.26	6.54	6.92	5.04	6.51	7.70	8.71	9.40	10.42	11.88	7.96	5.91	4.84	5.71	5.15	4.78	2.04	0.71	0.51	0.64	0.59	1.92	2.12	3.92	3.92	2.52	2.46	1.83	1.15	0.76	1.25	3.43	3.72	2.47	2.45	2.18	1.86	1.59	1.49	2.55	2.53	2.35	2.25	2.09	1.78	0.56	0.35	0.30	0.84	1.52	2.18	1.96	2.32	1.63	2.37	2.19	2.17	2.31	2.62	2.91	2.80	2.40	2.16	2.20	2.43	2.53	2.48	2.48	2.49	2.38	3.57	2.37	2.45	2.31	2.24	2.23	2.12	2.05	2.19	1.82	1.66	1.55	1.31	1.07	1.12	1.65	1.98	1.98	
3.38	3.38	3.38	3.37	3.36	3.34	3.32	3.29	3.26	3.23	3.19	3.14	3.10	3.04	2.96	2.87	2.76	2.65	2.52	2.35	2.15	1.90	1.61	1.27	1.05	0.99	3.94	5.73	7.26	7.23	4.70	3.92	3.37	3.20	3.32	5.68	3.77	3.90	4.24	4.40	8.12	3.97	5.78	5.39	5.51	2.88	2.98	3.39	3.75	4.36	7.69	8.82	5.66	3.57	4.37	3.16	3.63	3.21	2.78	2.28	1.95	1.71	1.40	1.23	1.15	0.94	0.92	1.16	1.57	2.74	3.33	6.25	3.30	2.88	2.69	2.80	2.97	2.99	3.06	5.17	7.17	8.78	7.07	4.44	3.78	2.72	1.85	1.44	1.54	1.95	2.43	6.01	6.51	5.17	6.55	7.48	8.09	8.67	9.62	10.41	11.36	7.71	6.33	5.66	4.94	3.88	2.22	0.89	0.51	0.54	0.52	2.44	2.83	3.30	3.13	2.62	2.33	1.22	1.59	1.56	1.71	2.33	2.52	2.46	2.34	1.97	1.85	1.74	1.63	1.78	2.02	1.98	1.77	0.94	1.26	1.20	1.34	1.50	1.82	2.31	3.20	3.29	2.86	2.20	2.68	2.30	2.13	2.23	2.59	2.90	2.73	2.30	2.14	2.34	2.55	2.41	2.23	2.34	2.52	2.48	2.33	2.36	2.40	2.28	2.20	2.13	2.04	2.04	1.97	1.77	1.61	1.53	1.19	0.60	0.17	1.16	1.83	1.83	
3.40	3.39	3.38	3.38	3.37	3.35	3.33	3.30	3.27	3.24	3.20	3.15	3.11	3.06	2.99	2.90	2.80	2.70	2.57	2.42	2.23	2.00	1.70	1.33	0.93	0.88	3.95	5.81	5.73	5.39	4.20	3.79	3.41	3.31	5.99	3.64	3.85	4.02	4.36	4.63	4.46	4.39	3.74	4.42	4.89	2.35	2.52	2.87	3.30	4.20	4.72	8.40	8.57	4.78	5.63	4.36	3.14	3.71	3.26	2.80	2.44	2.18	1.87	1.51	1.15	0.77	0.57	0.63	0.97	1.65	2.50	3.86	3.24	2.97	2.78	2.80	2.97	3.06	3.11	5.58	7.48	8.14	7.62	5.54	4.39	3.21	2.12	1.35	1.24	1.66	2.35	2.74	2.84	5.30	5.45	7.06	7.50	7.87	8.54	9.25	9.99	10.87	11.33	5.82	5.76	3.70	2.64	1.50	0.90	0.80	1.16	3.17	3.55	3.73	2.33	1.47	1.25	1.15	1.45	1.40	1.86	2.45	2.58	2.38	2.17	1.94	1.97	1.83	1.99	1.97	2.06	2.12	2.36	2.71	2.96	3.13	3.08	2.99	3.91	3.31	3.09	3.53	3.60	3.37	2.93	2.46	2.13	2.16	2.56	2.84	2.66	2.20	2.07	2.48	2.69	2.34	2.02	2.17	2.53	2.62	2.47	2.51	3.12	2.92	2.24	2.08	1.89	1.86	1.91	1.93	3.77	2.08	1.74	1.25	1.11	1.65	2.79	2.79	
3.40	3.40	3.39	3.38	3.37	3.36	3.34	3.31	3.28	3.26	3.22	3.17	3.13	3.09	3.02	2.93	2.84	2.74	2.62	2.48	2.30	2.08	1.81	1.43	0.92	0.86	2.31	5.70	6.10	5.46	4.10	3.55	3.28	3.38	3.55	3.75	3.96	4.19	4.81	4.78	4.93	4.93	4.21	3.17	3.82	4.57	1.89	2.34	2.81	3.34	4.57	5.17	8.64	9.59	4.03	5.53	4.27	3.06	3.83	3.37	2.98	2.68	2.41	2.01	1.58	1.13	0.72	0.50	0.52	0.99	1.85	3.74	2.93	2.76	2.66	2.71	2.83	2.98	5.81	7.13	7.52	7.65	8.03	6.91	4.38	3.90	2.66	1.50	2.01	1.24	1.84	2.50	2.79	5.78	5.85	6.80	7.28	7.33	7.62	8.19	8.98	9.94	10.01	10.37	11.16	3.88	3.71	2.68	1.80	1.75	1.92	3.91	4.25	3.04	1.82	1.33	1.58	1.54	1.60	1.43	1.67	2.55	2.23	2.00	1.58	1.33	2.30	4.41	5.15	5.67	5.17	5.43	5.30	4.52	4.03	4.05	4.51	4.49	4.13	3.84	3.47	3.27	3.32	3.35	3.08	2.61	2.20	2.15	2.51	2.72	2.56	2.24	4.37	2.63	2.79	2.30	4.41	3.22	2.45	2.77	4.65	2.96	2.69	2.81	2.87	2.16	1.63	0.60	1.66	2.34	2.15	2.23	1.94	1.46	1.36	2.04	3.14	3.14	
3.41	3.40	3.40	3.39	3.38	3.37	3.35	3.33	3.30	3.27	3.24	3.19	3.15	3.11	3.05	2.96	2.88	2.79	2.67	2.54	2.38	2.17	1.91	1.55	1.08	0.93	2.03	3.39	6.13	4.32	4.14	3.51	3.19	3.29	3.46	3.68	3.97	4.93	4.84	4.79	5.19	5.39	4.61	3.58	2.84	2.03	3.04	1.74	2.21	2.71	3.29	4.96	5.53	5.95	9.68	4.13	5.48	4.33	3.13	2.28	3.62	3.30	3.04	2.54	2.20	1.77	1.32	0.87	0.55	0.65	1.24	2.14	3.83	2.52	2.51	2.67	3.22	5.91	6.40	6.71	6.66	7.00	7.63	8.06	5.81	4.72	3.57	2.18	1.25	1.08	1.32	1.97	2.82	6.20	6.02	6.10	7.11	5.78	6.80	7.51	8.62	8.85	8.94	9.27	9.86	11.18	4.03	3.70	3.36	3.38	2.93	3.21	3.68	2.69	1.43	1.36	1.83	1.72	1.86	1.76	1.78	1.42	0.53	3.45	4.94	5.42	5.33	5.54	4.68	4.63	4.43	4.77	5.37	5.71	5.39	4.74	4.33	4.30	4.24	3.93	3.54	3.15	3.12	3.33	3.22	2.80	2.40	2.30	2.43	2.38	2.36	2.51	4.48	3.11	2.93	2.47	1.99	0.92	1.97	3.01	3.01	3.15	3.00	2.72	2.55	2.45	2.18	1.58	1.74	2.00	1.58	3.91	4.61	4.38	3.83	3.01	2.63	2.63	
3.42	3.41	3.40	3.40	3.39	3.37	3.36	3.34	3.31	3.28	3.25	3.20	3.16	3.13	3.08	3.00	2.92	2.83	2.72	2.60	2.45	2.27	2.03	1.71	1.28	0.97	1.38	3.14	3.95	4.17	4.08	3.53	3.12	3.12	3.26	3.47	3.79	4.97	4.85	7.64	8.21	5.74	4.89	3.90	3.22	2.49	1.75	3.58	1.73	2.25	2.76	3.34	5.22	5.65	6.09	9.35	5.51	3.44	4.42	3.43	2.71	4.23	3.95	3.62	3.08	2.73	2.29	1.79	1.17	0.78	0.92	1.66	2.26	2.40	2.43	3.38	3.38	6.38	6.50	6.05	6.01	6.26	6.65	7.29	7.27	5.69	4.51	3.28	1.96	1.33	3.01	1.64	3.14	3.39	3.25	6.29	6.01	5.24	4.97	7.64	8.30	8.10	8.44	8.85	9.15	9.86	10.60	6.90	3.11	3.07	3.05	4.12	4.47	2.92	2.34	2.20	2.14	2.05	2.12	1.54	0.78	2.72	3.99	4.97	5.67	4.73	5.18	5.03	4.35	3.90	3.85	4.23	4.93	5.58	5.64	5.02	4.26	4.00	4.03	3.87	3.45	2.95	3.00	3.54	3.79	5.11	4.84	4.52	2.73	2.28	1.42	2.61	2.99	3.17	2.92	2.55	2.16	1.65	2.25	2.66	2.28	5.18	6.21	6.22	6.14	6.00	5.96	5.64	4.85	4.41	4.29	4.49	4.68	4.48	4.05	3.37	2.96	2.96	
3.42	3.42	3.41	3.41	3.40	3.38	3.37	3.35	3.33	3.30	3.27	3.22	3.18	3.15	3.11	3.04	2.96	2.89	2.78	2.67	2.54	2.37	2.16	1.89	1.52	1.09	1.35	3.05	3.77	3.96	3.87	3.38	3.28	3.05	3.20	3.38	3.65	4.84	4.78	8.04	9.31	4.47	5.29	3.77	3.43	2.78	2.09	1.54	1.47	1.82	2.30	2.81	3.36	5.35	5.71	8.73	8.88	7.81	5.34	4.01	3.94	3.27	2.89	2.87	4.09	3.46	2.80	2.79	2.16	1.41	1.10	1.36	1.87	2.14	2.27	3.58	3.60	6.17	6.16	6.05	6.07	6.22	6.54	7.06	7.54	7.30	5.97	3.90	2.82	1.83	1.56	1.66	2.31	2.75	3.45	3.28	5.27	4.97	7.02	7.77	7.36	7.44	7.90	8.27	8.61	9.12	9.50	9.52	9.41	9.11	8.95	10.04	4.56	3.28	2.75	2.87	2.92	2.61	1.75	1.90	3.69	4.36	3.94	4.23	3.61	4.11	4.90	5.21	4.83	3.97	3.48	3.61	4.36	5.21	5.70	5.47	4.66	4.30	4.32	4.03	3.49	2.65	1.85	3.22	4.06	3.87	3.44	2.95	2.79	2.35	1.56	2.61	2.50	5.58	6.79	6.83	6.91	6.51	5.58	5.14	5.14	5.66	6.14	6.20	6.13	6.02	5.91	5.57	5.01	4.68	4.43	4.07	3.83	3.68	3.45	3.13	2.96	2.96	
3.42	3.42	3.42	3.41	3.41	3.39	3.38	3.36	3.34	3.31	3.28	3.24	3.20	3.17	3.13	3.07	3.00	2.93	2.84	2.74	2.62	2.47	2.29	2.06	1.73	1.31	1.46	2.71	3.65	3.74	3.65	3.27	3.05	3.09	3.23	3.39	3.60	4.74	7.54	8.18	9.06	6.10	5.67	4.37	3.91	3.17	2.49	1.82	3.62	1.40	1.80	2.31	2.84	3.37	5.45	7.64	8.29	8.24	7.95	7.19	6.48	5.91	5.49	5.15	5.25	5.03	3.54	3.16	2.94	2.27	1.60	1.47	1.66	1.89	2.12	3.83	3.90	3.92	3.92	3.80	3.70	3.72	3.85	6.63	6.84	6.88	7.01	4.29	3.19	2.20	1.73	1.73	2.16	3.41	3.36	3.13	5.62	6.70	7.14	5.40	6.93	7.28	7.51	7.84	8.22	8.52	8.65	8.52	8.38	8.50	8.79	9.04	9.36	9.33	8.94	7.55	4.21	3.44	4.40	4.49	4.35	4.07	4.00	3.90	3.54	3.59	4.18	5.05	5.20	4.39	3.42	3.09	3.72	4.50	5.18	5.55	5.04	4.64	4.46	3.93	3.34	2.58	1.72	3.27	3.16	4.15	6.31	6.89	7.03	7.13	6.63	5.65	5.45	6.14	6.71	6.81	6.75	6.36	5.72	5.40	5.20	4.90	4.80	4.82	4.78	4.72	4.59	4.42	4.26	4.07	3.91	3.78	3.62	3.47	3.32	3.16	3.08	3.08	
3.43	3.43	3.43	3.42	3.41	3.40	3.39	3.37	3.35	3.33	3.30	3.26	3.22	3.19	3.16	3.11	3.05	2.97	2.89	2.80	2.69	2.57	2.41	2.21	1.92	1.54	1.60	2.49	3.16	3.39	3.35	3.13	3.07	3.15	3.23	3.37	4.91	6.98	7.81	8.47	8.53	8.00	5.41	5.14	3.86	3.78	3.08	2.37	1.66	3.88	1.43	1.91	2.42	2.90	3.44	5.88	7.45	7.50	7.19	7.17	7.07	6.07	5.78	5.33	5.18	5.20	3.71	3.62	3.54	2.71	2.07	1.65	1.60	1.78	2.05	3.97	4.11	4.13	4.03	3.92	3.79	3.80	3.84	4.08	4.19	4.26	4.52	4.52	3.49	2.36	1.76	1.70	1.89	3.31	3.37	5.60	6.07	6.09	5.45	5.53	5.83	5.93	7.43	7.72	8.09	8.09	8.04	7.89	7.73	7.91	8.19	8.35	8.43	8.56	8.61	8.72	8.97	8.54	7.25	6.12	5.01	4.45	4.37	4.95	4.58	4.46	4.38	4.94	5.48	5.20	4.13	3.36	3.66	4.04	4.53	5.18	4.83	4.69	5.89	6.20	6.44	6.76	6.68	6.09	5.79	6.05	6.60	6.97	7.10	7.04	6.57	5.91	5.51	5.23	5.14	5.17	5.07	4.92	4.78	4.61	4.49	4.44	4.36	4.32	4.30	4.23	4.16	4.07	3.96	3.87	3.77	3.66	3.57	3.45	3.34	3.22	3.16	3.16	
3.44	3.43	3.43	3.43	3.42	3.41	3.40	3.38	3.37	3.34	3.32	3.29	3.24	3.21	3.18	3.14	3.09	3.02	2.95	2.87	2.77	2.66	2.52	2.35	2.12	1.80	1.79	2.37	2.90	3.09	3.06	2.95	3.03	3.16	5.01	5.09	5.03	7.26	7.88	8.22	8.35	8.47	8.00	5.59	4.82	3.58	3.70	3.02	2.25	1.58	1.54	1.59	2.18	2.65	3.13	5.93	6.28	6.20	6.17	6.12	6.24	6.31	6.09	5.53	5.08	3.73	3.54	3.52	2.93	2.74	2.24	1.68	1.47	1.66	1.94	2.24	4.11	4.29	4.18	4.05	3.98	3.99	4.05	4.22	4.29	4.18	4.37	4.54	3.67	2.46	1.69	1.57	1.64	2.02	3.35	3.28	6.44	3.38	3.44	3.49	6.19	7.20	7.34	7.44	7.85	7.75	7.74	7.54	7.34	7.44	7.73	7.96	8.05	8.13	8.16	8.21	8.55	8.93	8.65	7.87	6.49	5.97	6.35	5.85	5.83	5.48	5.28	5.22	5.59	5.81	5.70	5.52	5.50	5.49	5.51	5.79	5.92	5.98	6.17	6.37	6.63	6.85	6.71	6.29	5.98	5.70	5.45	5.39	5.39	5.28	5.13	4.96	4.78	4.69	4.62	4.57	4.53	4.47	4.38	4.31	4.25	4.20	4.18	4.14	4.10	4.06	3.99	3.92	3.84	3.76	3.69	3.61	3.52	3.44	3.36	3.28	3.24	3.24	
3.45	3.44	3.44	3.44	3.43	3.42	3.41	3.40	3.38	3.36	3.33	3.30	3.26	3.23	3.20	3.17	3.12	3.06	2.99	2.92	2.84	2.74	2.62	2.48	2.29	2.04	1.98	2.34	2.77	2.99	3.02	2.95	3.03	3.11	5.35	5.42	5.48	7.15	7.37	7.62	7.85	8.11	8.36	7.94	5.56	4.34	4.37	3.56	2.76	1.99	1.40	1.30	1.84	2.45	2.94	3.42	6.33	6.25	6.18	6.02	5.98	5.93	5.68	4.33	4.10	3.75	3.44	2.85	2.69	2.58	2.27	1.73	1.43	1.58	1.81	2.06	2.40	2.81	2.98	2.91	2.75	2.63	2.74	3.04	3.32	3.32	3.27	3.60	3.55	2.52	1.56	1.35	1.44	1.73	3.22	5.67	3.44	3.57	3.55	3.40	6.25	6.77	7.40	7.50	7.68	7.49	7.39	7.31	7.33	7.47	7.78	8.04	8.15	6.89	6.26	6.15	6.11	6.44	6.95	7.40	7.84	7.19	5.97	5.59	5.13	5.17	5.39	5.33	5.41	5.56	5.77	5.93	5.95	5.84	5.67	5.63	5.68	5.57	5.37	5.29	5.34	5.33	5.27	5.19	5.05	4.95	4.87	4.81	4.76	4.71	4.64	4.55	4.48	4.42	4.39	4.36	4.32	4.27	4.21	4.15	4.10	4.06	4.02	3.99	3.95	3.91	3.87	3.82	3.76	3.70	3.65	3.59	3.53	3.46	3.40	3.33	3.30	3.30	
3.45	3.45	3.45	3.44	3.44	3.43	3.42	3.41	3.40	3.37	3.35	3.32	3.29	3.25	3.23	3.20	3.16	3.11	3.05	2.98	2.90	2.81	2.71	2.59	2.42	2.20	2.07	2.26	2.63	2.94	3.02	3.07	2.99	3.01	5.75	5.63	5.61	5.51	6.91	6.99	7.25	7.63	7.99	8.08	7.21	5.73	4.08	4.33	3.37	2.53	1.74	1.71	1.42	2.08	2.66	3.41	3.81	4.13	6.21	4.36	4.30	4.28	4.36	4.36	4.14	3.69	3.17	2.72	2.52	2.45	2.33	1.95	1.61	1.61	1.72	1.92	2.24	2.63	2.83	2.84	2.69	2.51	2.63	2.88	3.17	3.31	3.16	3.22	3.32	2.61	1.53	1.15	1.27	1.54	3.28	3.49	3.05	3.24	3.75	5.87	5.54	6.68	7.61	7.83	8.06	6.02	5.72	5.56	5.44	5.40	4.71	5.41	5.65	5.29	3.49	3.61	3.37	2.77	3.39	4.13	4.84	5.38	5.34	5.14	4.88	4.76	4.92	5.01	5.03	5.03	5.07	5.14	5.14	5.05	4.92	4.85	4.84	4.86	4.86	4.84	4.82	4.82	4.79	4.72	4.67	4.62	4.58	4.55	4.52	4.47	4.42	4.36	4.29	4.25	4.21	4.17	4.14	4.11	4.08	4.04	4.01	3.98	3.95	3.92	3.89	3.85	3.82	3.77	3.72	3.67	3.62	3.58	3.52	3.47	3.43	3.38	3.35	3.35	
3.46	3.46	3.45	3.45	3.45	3.44	3.43	3.42	3.40	3.39	3.36	3.34	3.31	3.28	3.25	3.22	3.19	3.15	3.10	3.04	2.97	2.89	2.80	2.68	2.53	2.31	2.07	2.05	2.32	2.72	2.87	3.07	2.88	2.96	5.76	5.60	5.52	5.49	5.53	5.67	5.91	6.08	6.12	6.22	6.34	6.43	5.69	4.13	4.25	3.33	2.46	1.66	1.37	1.76	2.40	3.50	3.90	4.12	4.21	4.27	4.25	4.23	4.37	4.49	4.13	3.94	3.41	2.88	2.60	2.52	2.52	2.34	1.96	1.73	1.69	1.87	2.16	2.45	2.62	2.75	2.71	2.49	2.53	2.77	3.06	3.26	3.07	2.85	2.94	2.58	1.62	1.06	1.19	1.57	2.11	2.54	2.75	2.88	3.17	2.86	4.74	4.27	4.35	5.12	5.28	5.00	3.41	3.31	2.95	2.35	2.72	3.18	3.64	3.96	3.78	3.61	3.25	2.93	3.33	3.94	4.43	4.79	4.92	4.90	4.81	4.71	4.67	4.68	4.70	4.72	4.75	4.77	4.76	4.72	4.65	4.59	4.57	4.56	4.57	4.57	4.57	4.55	4.53	4.50	4.45	4.41	4.38	4.34	4.30	4.27	4.24	4.21	4.18	4.14	4.12	4.09	4.06	4.03	4.00	3.97	3.94	3.91	3.88	3.86	3.83	3.79	3.76	3.73	3.69	3.65	3.61	3.58	3.54	3.49	3.46	3.42	3.40	3.40	
3.47	3.47	3.46	3.46	3.45	3.45	3.44	3.43	3.42	3.40	3.38	3.35	3.33	3.30	3.27	3.24	3.21	3.17	3.14	3.09	3.02	2.95	2.86	2.77	2.64	2.42	2.06	1.78	1.89	2.34	2.68	3.15	3.05	3.10	3.04	2.99	3.07	3.17	5.56	5.71	5.88	5.99	6.05	6.16	6.45	6.67	6.47	5.57	4.43	4.16	3.36	2.47	1.74	1.66	2.18	2.87	3.92	3.75	4.16	3.85	3.83	3.77	3.73	3.81	3.94	3.96	3.65	3.16	2.88	2.81	2.85	2.76	2.39	1.98	1.83	1.90	2.14	2.34	2.40	2.58	2.76	2.62	2.49	2.65	3.04	3.36	3.17	2.69	2.42	2.20	1.72	1.16	1.15	1.69	2.21	2.39	2.55	2.74	2.66	2.80	2.94	2.36	2.46	2.95	3.41	3.73	3.56	3.30	2.87	2.53	2.78	3.17	3.50	3.76	3.78	3.67	3.55	3.46	3.54	3.81	4.09	4.29	4.44	4.51	4.51	4.51	4.49	4.49	4.51	4.52	4.54	4.54	4.53	4.50	4.46	4.43	4.41	4.40	4.39	4.39	4.38	4.36	4.35	4.33	4.31	4.27	4.25	4.23	4.21	4.18	4.15	4.12	4.09	4.06	4.03	4.01	3.98	3.96	3.94	3.92	3.89	3.87	3.84	3.82	3.80	3.77	3.74	3.71	3.68	3.64	3.61	3.57	3.54	3.51	3.47	3.44	3.44	3.44	
3.49	3.48	3.47	3.47	3.46	3.46	3.45	3.44	3.43	3.42	3.40	3.37	3.35	3.32	3.29	3.26	3.24	3.20	3.18	3.15	3.09	3.01	2.93	2.84	2.74	2.59	2.21	1.67	1.52	1.92	2.38	2.61	3.27	3.25	3.25	3.19	3.17	3.19	3.22	3.27	3.39	5.98	5.98	6.13	6.46	6.72	6.48	6.08	4.92	4.51	3.81	3.31	2.50	1.93	2.05	2.72	3.29	3.65	3.81	3.76	3.72	3.70	3.62	3.60	3.65	3.70	3.57	3.26	3.08	3.11	3.20	3.15	2.83	2.37	2.14	2.16	2.30	2.40	2.27	2.26	2.63	2.74	2.53	2.46	2.74	3.34	3.31	2.72	2.24	2.02	1.94	1.50	1.30	1.81	2.23	2.33	2.54	2.78	2.78	2.86	2.83	2.48	2.52	2.92	3.26	3.50	3.51	3.35	3.16	3.00	2.98	3.13	3.29	3.41	3.49	3.52	3.53	3.58	3.66	3.78	3.94	4.09	4.20	4.27	4.31	4.32	4.34	4.35	4.35	4.36	4.36	4.37	4.36	4.34	4.31	4.29	4.27	4.27	4.26	4.26	4.26	4.25	4.23	4.22	4.20	4.18	4.15	4.13	4.11	4.09	4.06	4.04	4.02	4.00	3.98	3.96	3.94	3.92	3.90	3.88	3.86	3.84	3.81	3.79	3.77	3.75	3.72	3.69	3.67	3.64	3.61	3.58	3.55	3.52	3.49	3.47	3.46	3.46	
3.49	3.49	3.48	3.48	3.47	3.47	3.46	3.45	3.44	3.43	3.41	3.39	3.37	3.34	3.31	3.29	3.26	3.22	3.21	3.21	3.16	3.09	3.00	2.92	2.85	2.77	2.51	1.86	1.43	1.65	2.04	2.38	2.63	2.77	2.86	3.30	3.28	3.32	3.33	3.37	3.47	3.67	3.81	3.88	4.05	4.45	4.75	4.75	4.68	4.44	4.06	3.68	3.18	2.49	2.19	2.63	3.23	3.58	3.69	3.62	3.64	3.61	3.48	3.40	3.43	3.42	3.27	3.04	2.94	3.08	3.24	3.29	3.17	2.71	2.34	2.36	2.40	2.37	2.20	2.09	2.55	2.78	2.71	2.52	2.49	3.12	3.34	3.16	2.97	2.73	2.60	2.29	1.87	1.97	2.28	2.42	2.56	2.73	2.81	2.85	2.86	2.80	2.78	2.92	3.09	3.19	3.23	3.22	3.17	3.14	3.15	3.19	3.27	3.36	3.43	3.48	3.53	3.58	3.66	3.75	3.86	3.96	4.05	4.12	4.16	4.19	4.20	4.21	4.22	4.23	4.23	4.24	4.23	4.23	4.21	4.20	4.18	4.17	4.17	4.16	4.15	4.14	4.14	4.12	4.11	4.10	4.08	4.06	4.05	4.03	4.01	3.99	3.97	3.95	3.93	3.91	3.89	3.88	3.86	3.85	3.83	3.81	3.79	3.77	3.75	3.73	3.71	3.69	3.66	3.64	3.61	3.59	3.57	3.54	3.52	3.49	3.48	3.48	
3.50	3.49	3.49	3.48	3.48	3.47	3.47	3.46	3.45	3.44	3.42	3.41	3.38	3.36	3.34	3.31	3.28	3.24	3.24	3.25	3.23	3.18	3.09	3.01	2.97	2.95	2.85	2.22	1.50	1.53	1.85	2.14	2.49	2.71	2.81	2.82	2.80	2.82	2.88	2.94	3.53	3.67	3.78	3.90	4.06	4.37	4.55	4.54	4.41	4.24	3.86	3.60	3.41	2.99	2.51	2.65	3.22	3.63	3.71	3.64	3.63	3.49	3.25	3.02	3.06	3.17	2.94	2.80	2.96	3.17	3.27	3.37	3.49	3.19	2.72	2.99	3.36	3.40	3.33	3.18	3.06	3.11	3.25	3.17	3.01	3.17	3.37	3.37	3.30	3.13	2.95	2.71	2.42	2.31	2.42	2.54	2.65	2.74	2.79	2.84	2.87	2.90	2.93	2.96	3.04	3.13	3.17	3.19	3.18	3.18	3.20	3.23	3.28	3.34	3.40	3.46	3.51	3.57	3.63	3.71	3.79	3.86	3.92	3.98	4.03	4.06	4.09	4.10	4.12	4.13	4.14	4.14	4.13	4.13	4.12	4.11	4.11	4.10	4.10	4.10	4.08	4.08	4.08	4.06	4.04	4.03	4.02	4.00	3.98	3.98	3.96	3.94	3.93	3.91	3.90	3.88	3.87	3.86	3.84	3.82	3.81	3.79	3.77	3.76	3.74	3.73	3.71	3.69	3.67	3.65	3.63	3.60	3.58	3.56	3.54	3.52	3.50	3.50	
3.50	3.50	3.50	3.49	3.49	3.48	3.47	3.47	3.46	3.45	3.44	3.42	3.40	3.38	3.36	3.33	3.31	3.26	3.25	3.27	3.27	3.26	3.18	3.09	3.07	3.10	3.18	2.65	1.65	1.54	1.82	2.02	2.35	2.64	2.75	2.75	2.73	2.77	2.81	2.85	2.98	3.10	3.20	3.37	3.64	4.00	4.20	4.24	4.29	4.18	3.85	3.58	3.46	3.17	2.68	2.57	3.04	3.60	3.77	3.80	3.80	3.55	3.26	2.98	2.97	3.19	2.85	2.96	3.52	3.78	3.83	3.89	4.00	2.98	2.81	3.42	3.64	3.74	3.72	3.58	3.35	3.29	3.36	3.36	3.26	3.18	3.19	3.20	3.15	3.07	2.95	2.81	2.68	2.60	2.61	2.66	2.72	2.79	2.84	2.86	2.90	2.94	2.99	3.01	3.04	3.10	3.15	3.18	3.19	3.20	3.22	3.25	3.29	3.33	3.38	3.43	3.48	3.54	3.59	3.65	3.72	3.78	3.83	3.88	3.93	3.96	3.99	4.01	4.03	4.04	4.05	4.05	4.05	4.06	4.06	4.05	4.05	4.04	4.04	4.04	4.03	4.02	4.02	4.02	4.00	3.99	3.98	3.97	3.95	3.94	3.93	3.92	3.90	3.89	3.88	3.86	3.85	3.84	3.83	3.82	3.80	3.78	3.77	3.76	3.74	3.72	3.71	3.69	3.67	3.66	3.64	3.62	3.59	3.58	3.56	3.54	3.53	3.53	
3.52	3.51	3.51	3.50	3.50	3.49	3.48	3.48	3.47	3.46	3.45	3.43	3.42	3.40	3.38	3.35	3.32	3.28	3.25	3.27	3.31	3.30	3.24	3.18	3.16	3.20	3.42	3.07	2.01	1.71	1.91	2.05	2.28	2.53	2.68	2.70	2.70	2.75	2.82	2.82	2.89	2.97	3.03	3.18	3.41	3.69	3.89	3.99	4.08	4.07	3.85	3.70	3.68	3.42	2.97	2.72	2.96	3.49	3.74	3.94	4.20	4.23	4.19	4.16	4.13	4.00	3.63	3.42	3.66	3.88	3.92	3.93	3.92	3.86	3.65	3.44	3.43	3.48	3.47	3.40	3.30	3.23	3.21	3.22	3.23	3.21	3.17	3.16	3.13	3.07	3.00	2.92	2.85	2.80	2.78	2.80	2.83	2.85	2.89	2.92	2.94	2.96	3.02	3.05	3.05	3.08	3.13	3.16	3.18	3.20	3.22	3.25	3.28	3.32	3.36	3.41	3.45	3.51	3.55	3.61	3.66	3.71	3.76	3.80	3.84	3.88	3.91	3.93	3.95	3.96	3.98	3.99	3.99	4.00	4.01	4.01	4.00	4.00	4.00	3.99	3.99	3.98	3.97	3.97	3.96	3.95	3.94	3.94	3.93	3.92	3.91	3.90	3.88	3.88	3.87	3.85	3.84	3.83	3.82	3.81	3.80	3.78	3.76	3.75	3.74	3.72	3.71	3.70	3.67	3.66	3.65	3.63	3.61	3.59	3.58	3.56	3.55	3.55	
3.53	3.52	3.52	3.51	3.50	3.50	3.49	3.48	3.48	3.47	3.46	3.45	3.43	3.42	3.39	3.37	3.34	3.31	3.27	3.29	3.34	3.33	3.27	3.24	3.24	3.29	3.54	3.42	2.58	2.07	2.10	2.21	2.33	2.50	2.64	2.67	2.68	2.75	2.84	2.81	2.79	2.88	2.95	3.07	3.26	3.45	3.61	3.72	3.82	3.89	3.80	3.76	3.87	3.87	3.70	3.53	3.53	3.71	3.86	4.02	4.24	4.40	4.48	4.50	4.42	4.22	3.90	3.60	3.54	3.61	3.64	3.64	3.58	3.50	3.44	3.42	3.43	3.42	3.41	3.39	3.34	3.29	3.25	3.24	3.25	3.24	3.20	3.18	3.15	3.11	3.07	3.00	2.95	2.92	2.90	2.91	2.92	2.93	2.94	2.96	2.98	2.98	3.02	3.07	3.07	3.07	3.13	3.16	3.17	3.20	3.22	3.24	3.27	3.31	3.34	3.38	3.42	3.46	3.51	3.55	3.60	3.65	3.69	3.74	3.77	3.81	3.84	3.86	3.88	3.91	3.93	3.94	3.94	3.95	3.96	3.96	3.96	3.96	3.96	3.96	3.96	3.95	3.95	3.95	3.94	3.93	3.93	3.92	3.92	3.90	3.89	3.89	3.87	3.86	3.86	3.85	3.84	3.82	3.81	3.80	3.79	3.78	3.76	3.75	3.74	3.72	3.71	3.70	3.68	3.67	3.66	3.64	3.62	3.61	3.59	3.58	3.57	3.57	
3.53	3.53	3.53	3.52	3.51	3.51	3.50	3.49	3.49	3.48	3.47	3.46	3.44	3.43	3.41	3.39	3.37	3.32	3.28	3.32	3.37	3.34	3.30	3.28	3.28	3.33	3.56	3.65	3.15	2.54	2.40	2.49	2.53	2.61	2.72	2.71	2.74	2.81	2.87	2.82	2.74	2.83	2.91	2.99	3.15	3.28	3.41	3.52	3.61	3.71	3.71	3.69	3.76	3.84	3.85	3.81	3.77	3.78	3.80	3.84	3.91	3.96	4.02	4.05	4.01	3.91	3.76	3.63	3.59	3.59	3.60	3.57	3.53	3.48	3.43	3.42	3.42	3.41	3.39	3.38	3.37	3.35	3.31	3.28	3.28	3.28	3.26	3.22	3.19	3.16	3.13	3.08	3.04	3.00	2.98	2.98	2.99	3.00	3.00	3.00	3.02	3.01	3.02	3.07	3.09	3.07	3.10	3.15	3.16	3.18	3.21	3.22	3.25	3.28	3.31	3.34	3.38	3.42	3.47	3.51	3.55	3.59	3.63	3.68	3.71	3.75	3.78	3.81	3.83	3.85	3.88	3.89	3.90	3.91	3.92	3.93	3.93	3.93	3.94	3.94	3.94	3.95	3.94	3.94	3.94	3.93	3.92	3.92	3.91	3.90	3.89	3.88	3.87	3.85	3.85	3.84	3.83	3.82	3.80	3.80	3.79	3.77	3.76	3.76	3.74	3.73	3.72	3.71	3.69	3.68	3.67	3.66	3.64	3.62	3.61	3.60	3.59	3.59	
3.55	3.54	3.54	3.53	3.52	3.52	3.51	3.50	3.50	3.49	3.48	3.47	3.46	3.45	3.43	3.41	3.39	3.35	3.30	3.31	3.37	3.35	3.32	3.32	3.31	3.34	3.48	3.68	3.58	3.16	2.93	2.91	2.86	2.85	2.89	2.86	2.87	2.91	2.92	2.89	2.82	2.85	2.90	2.95	3.04	3.13	3.23	3.32	3.41	3.50	3.54	3.55	3.57	3.59	3.60	3.60	3.59	3.60	3.62	3.68	3.75	3.80	3.84	3.87	3.87	3.83	3.75	3.69	3.65	3.63	3.61	3.58	3.55	3.51	3.48	3.47	3.45	3.43	3.40	3.38	3.36	3.36	3.33	3.30	3.28	3.28	3.28	3.26	3.23	3.21	3.18	3.15	3.12	3.09	3.06	3.05	3.04	3.05	3.04	3.04	3.05	3.04	3.03	3.05	3.09	3.08	3.08	3.12	3.14	3.15	3.18	3.20	3.22	3.25	3.28	3.30	3.34	3.38	3.41	3.46	3.49	3.53	3.58	3.62	3.66	3.69	3.73	3.76	3.79	3.81	3.83	3.85	3.86	3.88	3.90	3.91	3.92	3.92	3.92	3.92	3.92	3.93	3.93	3.92	3.92	3.92	3.91	3.91	3.91	3.90	3.89	3.88	3.87	3.86	3.85	3.84	3.84	3.82	3.81	3.81	3.80	3.78	3.77	3.76	3.75	3.74	3.73	3.72	3.70	3.69	3.68	3.67	3.65	3.64	3.63	3.61	3.61	3.61	
3.55	3.54	3.54	3.54	3.53	3.52	3.51	3.51	3.50	3.50	3.49	3.48	3.47	3.46	3.44	3.43	3.41	3.37	3.31	3.30	3.35	3.35	3.34	3.34	3.33	3.35	3.42	3.63	3.77	3.57	3.30	3.18	3.07	3.02	3.00	2.96	2.96	2.98	2.98	2.96	2.92	2.90	2.92	2.94	2.99	3.06	3.13	3.22	3.30	3.38	3.44	3.48	3.52	3.55	3.57	3.56	3.55	3.55	3.57	3.62	3.70	3.76	3.81	3.83	3.84	3.82	3.77	3.73	3.68	3.65	3.63	3.61	3.57	3.53	3.50	3.49	3.47	3.44	3.42	3.39	3.36	3.36	3.35	3.33	3.30	3.29	3.29	3.27	3.25	3.24	3.20	3.18	3.15	3.12	3.10	3.08	3.06	3.06	3.05	3.05	3.06	3.05	3.04	3.04	3.08	3.08	3.07	3.10	3.12	3.13	3.16	3.19	3.21	3.23	3.26	3.29	3.32	3.35	3.39	3.43	3.47	3.51	3.55	3.59	3.63	3.66	3.70	3.73	3.76	3.79	3.81	3.83	3.84	3.86	3.88	3.90	3.91	3.92	3.91	3.91	3.91	3.92	3.93	3.92	3.91	3.91	3.90	3.90	3.90	3.90	3.89	3.88	3.88	3.86	3.85	3.85	3.85	3.83	3.82	3.81	3.81	3.80	3.78	3.77	3.75	3.74	3.73	3.72	3.71	3.70	3.68	3.67	3.66	3.65	3.63	3.62	3.62	3.62	
