ncols	178
nrows	225
xllcorner	1669333.329241
yllcorner	496308.452995
cellsize	90.000000
NODATA_value	nan
233	232	231	229	227	224	221	218	215	213	211	209	209	209	211	214	218	222	225	229	182	177	173	174	175	171	178	270	288	291	292	283	280	275	269	262	255	248	242	237	232	229	227	226	225	224	224	224	225	225	227	228	229	231	232	231	231	168	162	147	132	98	62	44	32	23	20	17	13	12	12	10	7	306	301	296	291	285	280	276	272	269	265	260	254	250	246	243	241	240	238	238	237	237	236	236	236	235	235	234	234	234	233	233	233	233	234	234	234	235	234	234	234	234	234	234	234	234	233	233	233	232	232	231	231	230	230	229	229	228	227	227	226	225	223	222	220	218	216	215	214	213	212	211	210	210	209	208	208	208	208	207	207	208	209	210	210	209	209	210	210	211	212	212	212	212	213	216	219	222	224	227	228	231	234	242	233	233	
233	232	231	229	227	224	221	218	215	213	211	209	209	209	211	214	218	222	225	229	182	177	173	174	175	171	178	270	288	291	292	283	280	275	269	262	255	248	242	237	232	229	227	226	225	224	224	224	225	225	227	228	229	231	232	231	231	168	162	147	132	98	62	44	32	23	20	17	13	12	12	10	7	306	301	296	291	285	280	276	272	269	265	260	254	250	246	243	241	240	238	238	237	237	236	236	236	235	235	234	234	234	233	233	233	233	234	234	234	235	234	234	234	234	234	234	234	234	233	233	233	232	232	231	231	230	230	229	229	228	227	227	226	225	223	222	220	218	216	215	214	213	212	211	210	210	209	208	208	208	208	207	207	208	209	210	210	209	209	210	210	211	212	212	212	212	213	216	219	222	224	227	228	231	234	242	233	233	
232	232	230	228	226	224	221	218	215	213	211	210	210	211	226	225	224	226	228	233	184	185	183	186	188	188	195	202	253	245	272	269	264	263	258	253	248	243	239	235	232	229	228	227	226	226	226	226	227	228	229	230	231	233	233	232	235	165	169	161	160	154	136	110	73	41	38	30	13	22	33	14	267	284	277	269	262	274	270	267	264	261	257	253	250	247	244	242	240	239	238	237	237	236	236	236	235	235	235	234	234	234	233	233	233	233	234	234	234	234	234	234	234	234	234	234	234	233	233	233	232	232	231	231	231	230	230	229	229	228	227	226	225	224	223	221	219	217	216	215	214	213	212	212	211	210	209	209	209	217	215	214	212	210	210	211	211	211	211	222	220	218	215	213	213	214	216	219	222	224	227	228	230	231	232	232	232	232	
231	230	229	227	225	222	219	216	214	212	212	214	214	233	231	247	252	254	234	240	195	194	190	191	189	189	191	231	220	210	252	247	240	244	242	240	237	235	233	231	230	229	228	228	228	228	228	229	230	232	233	233	234	235	235	235	242	178	183	177	178	176	169	166	167	164	160	164	167	163	164	170	172	245	240	236	231	258	256	254	252	250	247	244	243	241	240	239	238	238	237	237	236	236	236	235	235	235	234	234	234	234	233	233	233	234	234	234	234	234	234	234	234	234	233	233	233	233	233	232	232	231	231	231	230	230	229	229	228	227	227	226	224	223	221	220	218	217	216	215	214	213	213	212	212	211	225	224	222	220	218	235	236	236	235	234	233	231	229	226	240	240	240	239	238	237	236	236	235	235	230	231	231	231	231	232	233	233	
230	229	227	225	223	220	218	215	213	212	213	215	216	235	247	253	256	260	258	245	201	198	195	194	191	191	192	221	211	201	243	237	239	237	235	233	232	230	229	228	228	228	229	229	229	229	230	231	232	234	239	239	239	239	237	238	224	187	189	186	186	183	177	176	176	172	171	173	172	169	171	173	235	228	225	222	218	250	249	248	246	244	241	240	239	238	237	237	237	237	236	236	236	236	235	235	235	234	234	234	233	233	233	233	233	234	234	234	234	234	234	234	234	234	233	233	233	233	232	232	232	231	231	231	230	229	229	228	227	227	226	225	224	222	221	219	217	216	216	215	214	214	213	213	213	229	227	226	224	238	239	239	240	240	242	243	244	244	244	244	245	245	245	245	246	247	249	252	254	237	236	232	232	231	232	234	235	235	
229	228	226	224	222	219	216	214	213	212	214	216	238	238	251	257	260	263	262	207	205	199	197	195	192	192	193	215	205	240	237	230	234	232	231	229	228	227	227	227	227	228	229	229	229	230	232	233	234	235	240	240	240	240	238	241	180	195	192	191	190	186	181	180	179	175	175	176	173	171	173	174	224	219	217	214	246	245	244	243	242	239	237	236	236	236	236	236	236	236	236	236	235	235	235	235	234	234	234	233	233	233	233	233	234	234	234	234	234	234	233	233	233	233	233	233	233	232	232	232	231	231	230	230	230	229	228	228	227	226	225	224	223	221	220	218	217	216	216	215	215	214	214	214	213	229	228	227	240	241	242	242	243	244	245	246	246	246	247	248	249	249	248	248	249	251	253	256	257	258	236	237	233	235	232	235	236	236	
228	227	225	223	220	218	215	213	212	213	215	218	239	239	255	259	263	267	248	211	205	200	198	195	193	194	193	210	201	236	231	224	230	229	228	227	226	225	225	225	226	228	229	229	230	231	233	234	236	242	241	241	241	241	240	245	192	199	194	194	193	187	183	182	180	177	177	177	174	173	174	174	217	213	212	209	242	241	241	240	238	236	234	234	234	234	234	235	235	235	235	235	235	235	234	234	234	234	233	233	233	233	233	233	234	234	234	234	234	233	233	233	233	233	233	233	232	232	232	231	231	230	230	230	229	229	228	227	227	226	225	223	222	220	219	217	216	216	215	215	215	214	215	214	231	229	229	228	241	243	244	244	245	246	247	248	248	248	249	250	251	251	250	251	251	254	256	258	259	259	258	236	233	258	237	237	237	237	
227	226	224	222	219	216	214	213	212	213	218	220	241	253	258	262	265	270	228	211	204	200	198	194	194	194	216	206	197	233	227	229	227	226	225	225	224	224	224	225	226	228	229	229	231	232	234	236	237	242	242	242	242	240	241	249	198	201	196	196	194	188	185	184	180	178	178	177	174	174	175	217	212	209	208	205	239	239	238	237	235	233	232	232	232	233	233	234	234	234	235	235	235	234	234	234	234	233	233	233	233	233	233	233	234	234	234	234	233	233	233	233	233	233	233	232	232	232	231	231	230	230	230	229	229	228	228	227	226	225	224	223	221	220	218	217	215	215	215	215	215	215	215	214	231	230	229	228	243	244	245	245	246	248	249	249	249	250	251	251	252	252	252	252	253	255	258	260	261	260	259	237	234	234	239	238	238	238	
225	225	223	220	218	215	213	212	212	214	218	222	242	255	260	264	267	276	216	211	202	200	198	194	194	194	212	203	234	230	223	227	225	224	223	223	223	223	223	224	226	228	229	230	231	233	235	236	243	243	242	243	242	240	242	193	203	201	199	198	194	188	186	184	180	179	179	176	174	175	175	213	208	207	205	237	236	237	236	235	233	231	231	231	231	232	232	233	233	234	234	234	234	234	234	234	233	233	233	233	233	233	233	233	234	234	234	233	233	233	233	233	233	233	233	232	232	231	231	231	230	230	230	229	229	228	227	227	226	225	224	222	221	219	218	216	215	215	215	215	215	215	215	214	231	230	230	243	244	245	246	246	248	249	250	250	250	251	251	252	253	252	252	252	254	257	260	261	261	261	261	234	235	234	239	238	239	239	
224	223	221	219	217	214	212	211	212	215	219	242	242	257	262	265	269	251	216	208	202	200	197	195	195	194	209	200	232	227	220	225	224	223	222	222	222	222	223	224	226	228	229	230	232	234	236	237	243	243	243	243	243	241	246	199	206	201	201	199	194	189	187	184	181	180	179	175	174	175	175	210	207	205	203	234	234	234	234	233	231	230	230	230	231	231	232	232	233	233	234	234	234	234	233	233	233	233	233	233	233	233	233	233	234	234	233	233	233	233	233	233	233	233	232	232	231	231	231	230	230	230	229	229	228	228	227	226	225	224	223	222	220	219	217	215	215	215	215	215	215	215	215	233	231	230	229	244	245	246	246	247	249	250	250	250	250	250	251	253	253	252	252	253	255	259	260	261	261	261	261	233	234	233	234	237	238	238	
223	222	220	218	215	213	211	211	212	219	220	242	254	259	264	267	274	222	214	205	202	200	197	195	195	216	206	198	231	224	226	224	223	221	221	221	221	221	222	224	226	228	229	231	233	235	237	238	244	243	243	243	242	242	249	204	208	203	202	199	193	190	188	184	181	181	178	175	175	176	213	208	205	204	201	233	233	233	232	230	228	228	228	229	230	231	232	232	233	233	234	234	234	233	233	233	233	233	232	232	233	233	233	233	234	233	233	233	232	233	233	233	233	232	232	231	231	231	231	230	230	229	229	229	228	227	227	226	225	224	223	222	220	218	216	214	214	214	214	214	215	215	214	232	231	230	229	245	246	246	246	247	249	249	250	250	249	249	251	253	253	252	251	252	256	259	259	258	258	260	259	232	233	232	235	238	239	239	
222	221	219	217	214	212	210	210	213	218	222	242	256	261	265	269	272	218	211	204	202	200	196	196	195	212	203	195	228	221	224	223	221	220	220	220	220	221	222	225	227	228	229	231	234	236	237	244	244	244	244	244	242	243	280	207	208	204	202	198	192	190	188	183	182	181	178	175	176	176	210	205	204	201	233	232	232	232	231	229	227	227	227	228	229	230	231	232	232	233	234	234	233	233	233	233	233	233	232	232	232	233	233	234	234	233	233	232	232	232	233	233	232	232	232	231	231	231	230	230	230	229	229	228	228	227	227	226	225	224	223	221	219	217	215	213	213	214	214	214	215	214	213	231	230	230	244	245	246	245	245	247	248	248	248	248	247	247	250	252	250	249	249	250	254	257	256	256	260	232	251	235	235	233	219	241	241	241	
221	220	218	215	213	211	210	210	213	218	242	243	259	263	267	272	242	217	208	203	201	199	196	196	195	209	201	231	225	218	223	222	220	220	220	220	220	221	223	225	227	229	230	232	235	237	238	244	244	244	244	244	242	245	207	211	207	205	202	197	192	191	188	184	183	181	177	176	176	175	207	204	202	200	231	231	231	231	230	228	226	226	227	227	228	229	230	231	232	233	233	233	233	233	233	233	232	232	232	232	232	232	233	234	233	233	232	232	232	232	232	232	232	231	231	231	231	230	230	230	230	229	229	228	228	227	226	226	225	223	222	220	218	216	214	213	213	214	214	214	214	214	233	230	230	229	244	245	245	244	244	246	246	246	246	246	243	243	247	249	246	246	246	247	250	251	246	242	210	211	213	210	234	223	216	242	241	241	
219	218	216	214	211	209	209	210	214	219	242	255	260	265	268	279	221	214	205	202	201	198	196	196	216	206	198	230	222	224	222	221	220	219	219	219	220	221	223	225	228	229	230	233	235	237	244	244	244	244	244	244	243	248	207	213	207	206	202	196	192	190	187	184	183	180	177	176	177	210	205	203	201	199	231	231	231	230	228	226	225	226	227	228	229	230	230	231	232	232	233	232	232	232	232	232	232	232	232	232	232	233	233	234	233	233	232	232	232	232	232	232	232	231	231	231	231	230	230	230	229	229	228	228	228	227	226	225	224	223	222	220	218	215	213	213	213	214	214	214	213	212	231	229	228	228	244	244	242	240	241	243	242	243	244	240	235	235	235	228	234	236	237	239	236	230	228	223	213	211	212	210	212	222	216	242	241	241	
218	217	215	212	210	208	208	210	217	221	242	257	263	267	271	265	219	210	203	202	200	197	196	196	213	204	195	227	219	223	221	220	219	219	219	219	220	221	223	226	228	229	231	234	236	238	244	244	244	245	244	244	244	250	210	214	208	206	202	195	192	190	186	184	183	179	177	177	177	208	204	202	200	231	230	231	230	229	227	225	224	225	226	227	229	230	230	231	232	233	233	232	232	232	232	232	232	232	232	232	232	233	234	234	233	233	232	232	232	232	232	232	232	231	231	231	231	230	230	230	229	229	228	228	228	227	226	225	224	223	222	220	217	215	213	212	212	213	212	212	211	209	227	226	224	239	241	240	237	234	233	235	233	231	222	214	218	223	218	216	225	228	229	232	231	229	228	223	211	210	212	213	212	220	214	243	243	243	
217	216	213	211	209	207	208	211	216	241	253	259	264	268	276	227	216	206	202	201	200	197	197	196	210	201	230	224	217	222	221	219	219	219	219	219	220	221	224	227	228	230	232	235	237	238	244	245	245	245	245	243	244	285	214	214	209	206	201	195	192	189	186	184	183	179	177	178	177	207	203	201	198	230	230	230	229	228	226	225	225	225	226	227	228	229	230	231	232	232	232	232	232	232	232	232	232	232	232	232	233	233	234	234	233	233	232	232	232	232	233	232	232	232	231	231	231	230	230	230	229	229	228	228	228	227	226	225	224	223	222	220	217	214	211	210	209	210	209	208	207	225	222	221	219	232	232	230	226	222	223	223	220	214	209	209	217	224	224	226	233	236	236	239	240	236	229	223	213	210	213	215	215	215	214	217	222	222	
215	214	212	209	207	206	208	211	217	241	255	261	266	270	273	222	212	203	201	201	199	197	197	195	207	198	229	221	223	221	220	219	218	218	218	219	220	222	225	227	229	230	233	235	237	244	244	245	245	245	245	243	246	228	217	213	210	206	199	195	192	188	185	185	182	178	177	178	210	205	202	200	197	229	230	230	229	227	225	224	224	225	226	228	229	230	230	231	232	232	232	232	232	232	232	232	232	232	232	232	233	234	234	233	233	233	232	232	233	233	233	233	232	232	231	231	231	230	230	230	229	229	228	228	228	227	226	225	224	223	222	220	216	213	210	207	206	207	207	207	207	205	217	218	217	224	220	220	219	219	222	222	216	211	211	217	229	239	243	244	246	246	247	248	246	239	230	224	216	213	215	213	212	214	215	219	219	219	
214	213	210	208	206	206	208	216	219	241	257	264	268	274	240	218	207	202	201	200	198	197	197	214	204	195	226	218	222	221	219	218	218	218	218	219	221	223	225	228	229	231	234	236	238	245	245	245	245	245	245	244	249	218	220	213	210	205	198	194	191	187	185	184	181	178	178	177	208	204	202	199	230	229	230	230	229	226	224	223	224	225	226	228	229	230	230	231	232	232	232	232	232	232	232	232	232	232	232	233	233	234	234	233	233	233	232	233	233	233	233	233	232	232	232	231	231	231	230	230	229	229	228	228	228	227	227	226	225	223	222	220	217	213	211	208	207	209	210	210	210	209	207	221	220	218	220	221	219	219	223	223	218	213	218	233	244	249	248	246	247	250	251	247	239	233	229	223	216	216	216	213	212	213	215	217	221	221	
212	211	208	206	205	205	208	214	240	252	260	266	270	284	224	214	203	201	200	199	197	197	196	210	201	229	223	215	222	220	219	218	218	218	219	220	221	224	226	228	229	232	235	237	245	245	245	245	245	245	245	246	252	220	221	214	210	203	198	194	190	187	185	183	180	178	178	213	207	204	201	198	230	229	230	229	228	225	223	223	224	225	226	228	229	229	230	231	232	232	232	232	232	232	232	232	232	232	232	233	234	234	234	233	233	233	233	233	233	233	233	233	233	232	232	231	231	231	230	230	230	229	229	228	228	227	227	226	225	224	222	220	217	214	213	211	211	213	214	214	214	211	209	225	223	221	220	222	217	217	222	223	220	223	237	244	245	242	236	237	241	244	245	240	232	229	226	221	218	219	217	214	223	211	217	220	222	222	
210	209	207	204	203	204	208	215	240	255	262	268	273	269	221	208	201	200	200	198	197	197	195	207	198	228	220	223	221	219	218	218	218	218	219	220	222	225	227	228	230	233	236	238	245	245	246	246	246	246	245	246	254	224	222	215	210	202	197	194	189	187	185	182	179	178	178	211	206	203	200	197	230	230	230	229	227	224	223	223	224	225	227	228	229	230	231	232	232	232	232	232	232	232	232	232	231	231	232	234	234	234	234	233	233	232	233	233	233	233	233	233	233	232	232	232	231	231	230	230	230	229	229	228	228	228	227	226	225	224	223	221	218	216	215	213	212	213	214	216	215	211	209	223	224	224	224	224	220	221	224	226	231	239	243	242	239	233	230	233	237	238	235	231	227	225	223	222	223	224	218	226	222	212	218	221	219	219	
208	207	205	203	202	204	209	216	239	257	265	270	280	227	216	204	199	199	199	197	197	196	214	204	195	225	217	222	220	219	218	218	218	218	219	221	224	226	227	229	231	234	237	239	245	245	246	246	246	246	245	248	288	226	221	215	208	201	197	194	189	187	185	181	178	178	177	209	205	203	199	231	230	231	231	229	226	223	222	223	224	225	227	228	229	230	231	232	232	232	232	232	232	232	232	232	231	231	233	234	234	234	234	233	233	233	233	233	233	233	233	233	233	232	232	232	231	231	231	230	230	230	229	229	228	228	227	227	226	225	224	222	220	218	218	216	213	212	212	214	214	212	210	213	224	225	226	226	226	228	231	235	238	239	238	236	232	230	232	234	236	234	229	226	224	221	221	225	229	231	222	227	242	213	221	220	221	221	
206	205	203	201	201	204	213	238	251	260	267	272	290	222	210	200	198	199	199	197	196	196	210	201	229	222	215	221	220	219	218	218	218	219	220	222	225	227	228	230	232	235	238	246	246	246	247	247	247	247	246	251	239	228	221	215	207	200	198	193	188	187	184	179	178	178	215	208	205	202	198	231	231	231	231	228	225	222	222	223	224	226	228	229	229	230	231	232	232	231	232	232	232	232	232	232	231	231	233	235	234	234	234	233	232	233	233	233	233	233	233	233	233	232	232	232	231	231	231	230	230	230	229	229	228	228	227	227	226	225	224	223	222	221	220	218	215	212	212	214	215	214	213	215	217	227	226	228	231	232	238	237	236	233	232	233	233	235	236	236	237	234	229	227	225	222	223	231	236	236	223	228	241	216	222	220	220	220	
204	203	201	200	200	205	211	237	254	263	270	278	229	217	204	198	197	198	198	197	196	195	207	198	228	219	222	220	220	218	218	218	218	219	221	223	226	228	229	231	234	237	239	246	246	247	247	247	247	247	249	256	235	231	222	215	206	200	198	193	188	186	183	178	178	178	213	207	204	201	197	231	232	232	231	228	224	222	222	223	225	226	228	229	229	230	232	232	232	231	232	232	232	232	232	231	231	231	233	235	234	233	234	233	232	233	233	233	233	233	233	233	233	232	232	232	232	231	231	231	230	230	230	229	229	228	228	227	227	226	225	224	223	222	221	220	217	214	213	216	219	218	216	216	218	226	226	228	231	230	237	236	233	230	230	234	235	236	237	236	236	234	231	229	226	227	236	240	238	236	224	226	240	214	221	220	225	225	
202	201	199	198	199	205	213	237	257	266	273	256	223	212	200	197	197	198	197	196	196	214	204	196	224	216	221	220	219	218	218	218	219	220	222	225	227	229	230	232	235	238	247	247	247	247	248	248	247	246	249	257	236	232	224	215	205	201	199	192	188	185	181	178	178	176	213	207	204	200	233	232	232	233	231	227	224	222	222	224	225	227	229	229	229	231	232	232	231	231	232	232	232	232	232	231	231	231	233	235	234	234	234	233	232	233	233	233	233	233	233	233	233	232	232	232	232	231	231	231	230	230	230	229	229	228	228	228	227	227	226	225	224	223	223	221	219	217	216	217	221	221	219	218	219	221	228	229	230	226	228	230	229	229	232	237	238	239	239	236	234	234	233	231	232	241	246	241	237	235	223	247	240	214	222	225	223	223	
200	198	196	196	199	205	234	249	261	269	277	231	217	205	197	195	197	197	196	196	195	210	201	228	221	214	221	220	219	218	218	218	220	221	224	226	228	230	232	234	237	240	248	248	248	248	249	249	248	247	250	301	238	233	226	216	206	202	199	192	187	183	179	178	177	221	213	206	204	199	235	233	233	233	230	227	223	221	223	225	226	227	229	230	230	231	232	232	231	231	231	232	232	232	232	232	232	232	233	234	235	234	234	233	233	233	233	233	233	233	233	233	233	233	232	232	232	231	231	231	230	230	230	229	229	229	229	228	228	227	226	226	225	224	224	222	221	219	218	218	221	223	221	218	218	220	221	229	228	225	224	227	226	228	234	239	240	242	240	236	233	234	236	238	244	247	244	238	236	233	223	247	239	216	221	220	229	229	
197	196	194	194	198	208	233	253	265	272	294	221	211	199	195	195	196	197	195	195	195	207	198	227	218	222	220	220	219	218	219	219	221	223	226	228	230	231	233	235	239	249	249	249	249	250	250	250	249	249	256	264	242	235	229	218	208	203	201	192	182	176	176	176	172	225	217	207	204	242	239	237	236	234	230	226	222	221	223	225	226	227	229	230	230	231	232	231	231	231	231	232	232	232	232	232	232	232	232	234	235	234	233	233	232	233	233	233	233	233	233	233	233	233	232	232	232	231	231	231	231	230	230	230	229	229	229	229	228	227	227	226	225	225	224	223	222	221	219	218	220	222	221	218	217	219	222	229	227	226	226	228	229	232	236	239	238	238	236	232	231	236	242	246	248	247	245	240	235	229	224	246	237	217	219	226	228	228	
194	193	191	193	199	208	233	257	268	277	236	218	204	196	194	195	196	196	195	195	195	204	195	223	216	221	221	220	219	219	219	221	223	225	228	231	232	233	235	237	241	251	252	251	251	252	253	252	250	252	259	247	241	237	233	226	221	223	226	210	178	169	187	190	170	232	227	217	209	242	242	241	241	237	232	226	222	221	223	225	226	227	229	231	230	231	231	231	231	231	231	232	232	232	232	232	232	232	232	234	235	234	233	233	233	233	233	233	233	233	233	233	233	233	232	232	232	232	231	231	231	231	230	230	230	230	229	229	228	228	227	227	226	226	225	224	223	222	220	218	220	222	223	220	219	221	224	226	228	227	227	229	231	235	236	238	237	234	230	228	234	243	246	245	244	246	247	240	230	225	222	240	234	217	219	226	234	234	
191	189	188	192	200	210	246	262	272	295	222	211	199	194	194	195	196	195	195	195	210	200	227	220	213	221	221	221	220	220	221	223	225	228	231	234	235	236	237	240	244	252	254	253	254	256	258	257	255	254	256	280	268	267	269	271	278	282	273	262	267	271	241	222	190	234	232	230	231	227	237	238	239	239	234	227	223	222	224	226	227	227	229	231	230	231	231	231	231	232	232	232	232	233	232	232	232	232	232	233	234	234	233	233	233	233	233	233	233	233	233	233	233	233	232	232	232	232	231	231	231	231	230	230	230	230	230	229	229	228	228	227	227	227	226	225	224	223	222	220	221	224	225	224	222	222	226	228	228	228	229	229	230	234	234	237	237	231	230	233	239	244	244	241	242	245	246	231	225	222	241	234	240	228	221	235	235	235	
187	186	186	191	200	227	251	267	278	237	218	203	195	193	194	196	196	194	194	195	207	197	225	217	221	220	221	221	221	221	223	225	228	232	236	238	239	241	242	243	252	255	256	257	257	260	262	261	259	256	276	279	268	263	263	259	266	273	265	258	267	272	254	230	218	240	234	229	226	216	234	231	233	235	232	225	222	223	225	226	227	228	230	231	231	231	231	231	231	232	232	232	232	233	232	232	232	232	232	233	234	234	233	233	233	232	233	233	233	233	233	233	233	232	232	232	232	232	231	231	231	231	231	230	230	230	230	229	229	228	228	228	228	227	226	226	225	224	223	221	221	223	225	224	222	222	224	226	227	226	231	230	232	233	234	233	231	228	232	238	241	242	242	240	242	245	243	225	223	241	235	243	239	223	225	247	237	237	
183	182	184	190	201	226	258	273	298	223	210	197	193	193	194	196	194	193	194	213	203	195	221	215	220	220	222	222	223	224	227	230	233	236	240	242	243	245	245	245	253	252	251	251	274	277	260	259	258	257	264	201	269	258	255	254	257	264	262	253	254	259	262	257	255	260	244	235	224	211	233	230	229	231	228	221	219	222	225	226	227	229	231	231	231	232	232	231	231	232	232	232	233	232	232	232	233	233	233	234	234	234	233	233	233	233	233	233	233	233	233	233	233	232	232	232	232	232	232	231	231	231	231	231	231	230	230	230	229	229	229	228	228	228	227	227	226	225	224	222	220	221	222	222	220	220	222	224	225	225	232	231	234	235	234	232	233	235	239	243	243	243	241	239	243	245	242	225	241	235	245	243	238	212	241	250	236	236	
177	177	181	190	202	242	265	281	232	218	203	194	192	193	194	195	193	193	194	209	200	223	217	220	219	221	222	224	226	229	232	235	237	240	242	243	243	243	248	245	243	245	264	265	269	272	258	257	256	345	256	254	247	252	244	244	249	252	247	240	241	245	250	252	255	264	263	242	231	215	234	232	232	231	228	219	216	221	224	226	227	229	231	230	231	232	232	231	231	232	232	233	233	233	233	233	233	233	233	234	235	235	234	233	233	232	233	233	233	233	233	233	233	232	232	232	232	232	232	232	231	231	231	231	231	231	230	230	230	229	229	229	228	228	228	227	227	226	225	224	222	221	222	222	221	219	221	224	225	226	230	232	233	234	235	238	243	245	246	247	246	245	242	241	244	246	242	225	238	231	242	239	232	216	246	241	237	237	
171	172	179	190	217	252	274	305	223	211	198	193	191	192	193	193	191	192	193	206	197	220	215	219	220	221	224	226	227	230	233	235	237	239	241	241	246	244	241	238	264	261	259	272	265	254	254	253	323	253	349	161	252	251	220	236	243	243	235	224	219	225	240	244	247	260	256	239	229	216	234	235	237	236	231	222	216	220	224	226	227	229	230	229	231	232	231	231	231	232	233	233	233	232	233	233	233	233	233	234	234	234	234	234	233	233	233	233	233	233	233	233	233	232	232	232	232	232	232	232	231	231	231	231	231	231	230	230	230	230	229	229	229	228	228	228	227	227	226	226	225	223	224	226	224	222	223	225	226	227	228	232	234	235	236	238	243	244	247	248	246	246	246	245	246	245	238	225	234	242	239	235	227	217	241	250	252	252	
164	164	171	184	231	263	289	227	216	204	194	188	187	189	191	191	191	191	210	203	222	217	221	222	222	223	225	227	228	230	232	234	235	242	242	241	238	236	264	263	262	259	269	275	259	259	252	299	248	324	252	251	319	199	210	225	235	236	231	220	210	214	228	233	240	250	251	243	234	219	204	236	237	237	234	226	219	220	224	227	228	229	230	229	231	232	231	231	231	232	233	233	232	232	233	233	233	233	233	233	233	233	234	234	234	233	233	233	233	233	233	233	233	232	232	232	232	232	232	232	231	231	231	231	231	231	231	230	230	230	230	229	229	229	228	228	228	228	227	227	227	226	228	228	227	225	225	226	227	228	228	228	233	234	235	238	240	242	245	246	244	245	246	245	246	242	234	224	230	240	237	232	224	223	237	247	251	251	
157	157	157	168	241	268	284	253	224	207	215	236	200	189	190	193	194	214	206	225	220	220	221	223	224	224	225	227	229	231	234	235	241	240	237	268	265	260	257	256	269	270	273	279	254	254	251	248	247	248	248	249	309	292	253	238	233	233	234	234	236	239	231	220	213	218	240	255	248	234	213	235	236	235	233	229	222	220	224	227	228	230	231	230	232	233	232	232	232	232	232	232	232	233	233	233	233	233	234	234	233	232	234	234	234	233	233	233	233	233	233	233	233	232	232	232	232	232	232	232	232	232	231	231	231	231	231	231	230	230	230	230	230	229	229	229	228	228	228	228	228	228	228	228	228	227	226	227	228	229	230	229	229	231	234	238	241	242	243	242	241	244	245	243	241	236	229	224	228	223	236	229	221	225	235	248	253	253	
151	151	146	152	239	262	275	279	273	262	265	240	200	194	194	196	218	208	229	225	221	220	220	222	223	223	224	226	228	236	236	237	236	263	267	267	263	257	266	267	269	271	279	282	250	219	199	244	245	315	243	308	299	286	277	257	244	241	242	246	252	258	257	238	219	211	234	256	247	239	223	234	234	234	233	230	226	222	224	227	228	230	231	231	233	233	232	232	232	232	233	233	233	233	232	232	233	234	234	233	233	233	234	234	234	233	233	233	233	233	233	233	233	232	232	232	232	232	232	232	232	232	232	232	231	231	231	231	231	230	230	230	230	229	229	229	229	229	229	229	229	229	229	228	228	227	226	226	227	228	229	229	230	233	236	238	236	237	241	244	241	243	244	239	235	232	226	223	227	222	236	229	224	229	239	251	251	251	
147	146	148	158	226	253	275	270	238	204	190	192	197	198	195	195	213	203	225	222	220	219	218	220	221	222	223	226	229	234	233	256	256	257	258	259	268	267	266	267	270	275	287	254	231	229	240	239	296	240	294	284	291	280	274	251	243	245	244	247	252	259	254	250	243	244	250	234	219	226	221	222	231	232	232	232	229	225	224	227	228	230	231	232	234	233	232	232	233	233	233	233	233	232	232	232	234	234	233	233	233	233	234	234	234	234	233	233	233	233	233	233	233	232	232	232	232	232	232	232	232	232	232	232	232	231	231	231	231	231	231	230	230	230	230	230	230	230	230	229	229	229	229	229	230	229	228	227	226	226	227	228	228	229	238	239	237	237	243	244	240	241	239	231	230	230	223	225	223	241	236	230	215	236	239	242	243	243	
144	144	157	171	220	257	269	222	203	194	193	196	197	198	195	217	207	224	219	217	216	215	215	216	218	220	222	229	229	250	251	252	253	271	275	272	267	267	265	266	270	279	274	255	253	247	240	274	286	286	269	277	284	278	256	249	245	244	238	237	246	256	251	246	238	239	241	223	205	202	216	217	229	231	231	231	231	228	225	227	229	230	232	232	233	234	232	232	233	233	233	233	233	232	232	233	234	234	233	233	233	233	233	234	234	234	233	233	233	233	233	233	233	232	232	232	232	232	232	232	232	232	232	232	232	231	231	231	231	231	231	230	230	230	230	230	230	230	230	230	230	230	230	230	230	230	229	229	228	227	228	229	228	229	237	239	241	241	245	245	241	240	237	228	228	228	222	223	221	239	235	228	228	238	232	244	245	245	
142	143	160	167	178	252	252	227	206	196	195	197	196	195	193	212	205	221	217	214	212	212	213	215	216	218	221	222	243	244	244	259	265	271	274	271	267	267	266	267	272	282	261	256	245	242	240	252	228	180	230	242	199	189	224	238	236	234	228	232	246	249	243	234	228	227	230	219	202	184	209	213	222	228	229	230	230	229	226	227	229	231	233	232	233	234	233	232	233	233	233	233	233	232	233	234	234	234	233	233	233	233	233	234	234	234	234	233	233	233	233	233	233	232	232	232	232	232	232	232	232	232	232	232	232	232	231	231	231	231	231	230	230	231	231	231	231	230	230	230	230	231	231	231	230	230	230	231	231	230	230	230	228	230	233	239	243	243	244	243	240	240	236	226	227	229	223	222	241	239	235	229	223	230	235	251	254	254	
141	142	155	157	150	248	235	223	209	196	194	199	199	192	215	208	202	215	213	211	209	210	212	214	216	217	218	240	241	241	258	263	269	272	275	270	267	268	268	269	274	277	251	241	238	264	198	196	198	168	150	160	162	166	182	192	198	202	210	224	241	238	231	226	222	224	227	214	199	183	208	206	210	216	229	230	231	230	227	228	230	233	234	233	233	234	233	233	233	233	234	234	233	233	234	234	234	234	233	233	233	233	233	233	234	234	234	233	233	233	233	233	233	233	233	232	232	232	232	232	232	232	232	232	232	232	232	232	231	231	231	231	231	231	231	231	231	231	231	231	231	231	231	231	230	231	231	232	232	231	230	229	227	230	233	241	245	246	247	244	241	239	232	224	222	227	225	222	240	238	235	230	220	233	241	250	255	255	
141	141	146	142	140	247	221	213	209	200	197	202	199	191	210	204	219	213	210	207	206	209	211	213	215	217	218	240	239	255	260	265	271	275	278	269	268	270	269	269	276	269	246	211	190	180	184	184	179	174	174	176	171	192	206	196	193	193	197	204	208	212	213	208	209	218	230	226	206	188	178	207	205	210	222	230	232	231	229	229	231	234	236	235	234	234	234	233	233	234	234	234	233	233	234	234	234	234	233	233	234	234	233	233	233	234	234	234	233	233	233	233	233	233	233	233	232	233	232	232	232	232	232	232	232	232	232	232	231	231	231	231	231	231	231	231	231	231	231	231	231	231	231	231	231	231	232	232	232	232	231	229	228	230	232	235	247	251	251	248	244	238	229	224	218	223	226	222	239	236	234	228	222	240	242	252	256	256	
141	140	139	129	127	248	217	209	207	200	200	203	202	193	207	201	215	211	208	205	205	208	211	213	216	217	240	240	238	255	261	266	270	271	272	269	271	272	271	272	282	268	218	180	156	156	173	187	211	219	187	185	184	191	208	204	197	194	194	197	206	212	210	205	207	219	245	257	244	222	200	218	217	220	225	227	230	231	230	231	232	236	239	238	236	235	235	234	234	234	234	233	233	233	234	234	234	234	234	234	234	234	234	233	233	234	234	234	233	233	233	233	233	233	233	233	233	233	233	232	232	232	232	232	232	232	232	232	232	231	231	231	231	231	231	231	231	231	231	231	231	232	232	232	232	232	233	233	233	233	232	230	229	231	232	234	246	248	247	246	243	235	227	224	218	221	225	224	239	235	234	228	232	236	245	253	256	256	
142	141	136	121	120	249	228	213	206	200	199	199	198	194	205	217	212	209	206	204	203	206	209	212	215	218	240	238	253	257	262	267	269	269	267	268	272	274	274	276	286	235	200	167	151	149	180	192	200	193	178	168	164	163	174	190	193	191	194	201	224	226	222	216	220	237	257	269	255	242	224	209	222	225	228	227	227	229	229	229	230	233	238	240	238	237	236	235	234	234	234	234	234	233	234	235	234	234	234	234	234	234	234	233	233	234	234	235	234	233	233	233	233	233	233	233	233	233	233	232	232	232	232	232	232	232	232	232	232	232	232	232	232	232	232	232	232	231	231	232	232	232	232	232	233	233	233	233	233	233	233	230	229	230	231	233	243	243	242	241	240	228	224	223	219	221	224	225	244	238	234	226	235	241	247	254	255	255	
146	143	137	125	133	241	244	217	207	203	203	204	199	212	204	216	212	208	204	202	202	204	208	211	215	239	239	252	254	259	263	268	268	270	269	269	272	274	274	278	288	236	201	175	158	148	165	172	170	171	170	166	166	162	164	188	195	193	202	223	232	223	223	223	227	238	251	260	250	241	218	204	217	227	229	227	226	228	227	226	227	230	236	240	240	238	237	236	235	235	235	235	234	234	234	235	234	234	234	234	234	234	233	234	233	233	234	234	234	233	233	233	233	233	233	233	233	233	233	233	232	232	232	232	232	232	232	232	232	232	232	232	232	232	232	232	232	232	232	232	232	233	233	233	233	233	233	233	233	233	233	230	228	229	231	233	240	241	240	236	235	234	234	233	232	222	223	221	242	236	228	237	240	244	250	257	254	254	
151	148	141	145	147	154	251	219	210	208	206	203	199	209	221	215	211	206	202	201	202	205	209	212	215	237	235	251	254	258	262	265	266	267	267	267	271	276	275	279	254	225	204	192	175	152	155	165	169	171	172	172	167	152	158	176	188	190	192	208	219	217	220	223	227	235	245	249	245	233	212	214	225	234	230	228	225	221	227	227	229	231	235	240	242	241	238	237	235	235	235	234	234	234	234	235	235	234	234	234	234	234	234	234	234	233	233	234	234	233	233	233	233	233	233	233	233	233	233	233	233	232	232	232	232	232	232	232	232	232	232	232	232	232	232	232	232	232	232	232	233	233	233	233	233	233	233	234	234	233	233	231	229	231	234	236	241	241	239	234	233	231	231	230	229	231	230	243	239	226	233	237	241	246	250	255	255	255	
156	153	147	151	142	140	253	222	214	211	209	203	215	206	219	214	210	204	201	201	203	207	213	215	218	237	250	250	254	257	259	260	262	263	264	267	273	281	285	293	189	200	187	177	171	163	163	166	168	174	175	173	169	172	232	215	193	182	177	184	201	212	217	221	229	237	245	245	242	232	218	207	225	242	231	226	226	227	227	229	231	232	235	239	241	243	242	239	236	234	234	234	234	234	235	235	235	235	234	235	235	234	234	234	234	233	233	234	234	233	233	233	233	233	233	233	233	233	233	233	233	233	233	232	232	232	232	232	232	232	232	232	232	232	232	232	232	232	233	233	233	233	233	233	233	234	234	234	234	234	234	233	233	235	238	239	243	250	241	236	233	229	228	227	227	229	241	239	229	235	235	238	244	246	249	258	256	256	
162	158	153	148	133	131	254	224	215	217	209	221	211	221	217	213	209	205	202	202	204	209	213	217	240	237	253	253	255	259	258	258	261	264	266	270	283	267	139	196	187	191	178	173	169	169	167	163	169	178	175	174	196	217	241	217	196	186	179	180	190	203	211	219	228	232	239	242	242	235	225	221	243	299	265	235	228	227	229	232	230	231	234	237	239	241	242	240	237	235	234	235	235	235	235	235	235	235	235	235	235	235	235	235	234	234	234	234	234	233	233	233	233	233	233	233	233	233	233	233	233	233	233	232	232	232	232	232	232	232	232	232	232	232	232	232	232	232	233	233	233	233	233	233	234	234	234	234	234	234	235	235	236	238	239	240	245	250	251	239	234	230	226	223	227	228	241	227	235	236	250	242	244	246	257	255	253	253	
169	164	158	149	125	123	254	230	222	216	210	217	225	221	217	213	210	206	205	204	207	212	216	220	242	239	256	254	257	258	257	257	261	264	267	278	309	169	188	193	193	184	176	185	174	171	164	158	168	178	181	210	204	193	183	179	182	179	176	177	183	194	207	216	220	224	231	236	235	228	221	221	241	259	257	247	235	231	230	232	240	230	232	233	235	237	238	238	236	235	236	236	236	236	236	236	236	236	235	235	235	235	235	235	234	234	234	234	234	234	234	233	233	233	233	233	233	233	233	233	233	233	233	232	232	232	232	232	232	232	232	232	232	232	232	232	232	233	233	233	233	233	233	233	234	234	234	234	235	235	235	235	236	237	238	239	246	251	251	248	231	232	224	239	228	229	230	242	237	239	238	243	244	253	251	250	248	248	
175	172	164	153	124	120	253	230	222	218	227	215	224	220	217	213	210	208	207	207	210	214	219	243	243	258	258	257	256	257	257	257	259	262	270	282	192	189	192	192	197	196	186	175	179	173	161	154	163	169	168	168	169	171	173	178	180	187	174	175	176	181	188	200	212	218	224	226	225	220	213	212	225	234	240	243	237	230	231	235	243	249	244	232	232	232	232	233	234	235	236	236	236	235	235	235	236	236	236	236	236	235	235	235	235	235	235	234	234	234	233	233	233	233	233	233	233	233	233	233	233	233	233	233	233	233	233	232	232	232	232	232	232	232	232	233	233	233	233	233	233	233	233	234	234	235	235	235	235	235	235	235	236	236	236	238	246	252	251	247	243	244	224	236	236	236	245	237	240	240	251	251	248	244	243	246	244	244	
181	179	172	160	136	138	254	236	224	234	224	230	224	220	217	214	211	210	210	210	212	215	219	239	256	258	257	258	258	259	259	260	261	261	266	198	205	194	197	197	193	197	200	193	178	176	161	155	163	164	175	167	186	173	186	190	179	175	173	173	188	176	179	195	194	205	211	217	221	221	219	220	220	219	224	237	229	222	224	233	241	246	244	239	233	232	232	231	231	233	236	235	235	236	236	236	236	236	237	236	236	236	236	236	235	235	235	234	234	233	233	233	233	233	233	233	234	234	233	233	233	233	233	233	233	233	233	233	232	232	232	232	232	233	233	233	233	233	233	233	233	233	233	234	234	235	235	234	235	235	235	235	236	236	236	237	245	250	249	245	243	243	241	235	233	244	234	237	239	247	248	245	242	241	243	247	245	245	
187	186	180	169	155	164	253	248	243	230	220	227	222	219	216	214	212	212	212	212	213	215	238	237	255	257	258	258	257	259	260	262	264	264	215	215	206	191	191	197	195	193	217	217	187	175	165	172	177	166	170	168	169	172	187	191	181	176	174	173	176	178	180	188	189	200	203	204	212	216	216	215	215	215	216	219	218	208	209	230	238	243	244	238	236	235	234	232	230	231	234	236	238	238	238	238	238	238	238	237	236	236	236	236	235	235	235	234	234	233	233	233	233	233	233	233	233	234	233	233	233	233	233	233	233	233	233	233	233	233	233	233	233	233	233	233	233	233	233	233	233	233	234	234	234	235	235	234	234	235	235	235	236	236	237	240	247	251	248	245	244	243	239	235	233	244	245	246	246	246	243	240	240	244	248	253	254	254	
193	192	187	179	168	165	247	250	242	224	232	226	221	218	215	215	214	213	213	214	213	213	234	253	257	256	258	256	255	255	258	260	263	267	209	210	200	192	188	192	225	193	210	215	214	182	170	174	176	178	177	176	178	172	172	177	182	181	177	173	195	182	185	189	193	194	192	189	189	193	200	203	200	199	207	209	209	200	197	212	232	234	238	240	239	236	234	232	230	230	231	236	240	241	240	240	240	239	238	237	236	236	236	235	235	235	234	234	234	234	233	233	233	233	232	232	232	233	233	233	233	233	233	233	233	233	233	233	233	233	233	233	233	233	233	233	233	233	233	233	233	234	234	234	234	235	235	234	234	235	235	235	236	237	239	243	249	252	250	247	244	241	238	235	234	240	241	241	242	241	239	239	244	248	251	254	253	253	
198	199	195	188	181	159	192	250	236	232	229	226	222	219	216	216	216	217	218	217	214	212	231	250	255	258	256	253	253	253	254	257	259	207	210	201	186	177	159	146	158	181	204	240	215	208	201	185	185	183	182	182	184	186	188	187	183	177	176	181	185	183	180	183	190	196	199	198	198	211	194	188	213	207	207	208	208	203	199	189	206	223	227	229	230	229	232	232	231	230	229	234	239	241	242	241	241	241	240	239	238	237	236	236	235	235	234	234	234	234	234	233	233	233	232	232	232	233	233	233	233	233	232	232	233	233	233	233	233	233	233	233	232	232	232	233	233	233	233	233	233	234	234	234	234	234	234	234	235	235	235	235	236	237	239	243	247	248	248	245	241	238	236	235	235	235	240	239	240	238	236	241	244	245	248	252	250	250	
203	204	201	197	189	154	190	249	232	230	228	224	222	219	217	218	219	221	224	224	220	239	231	246	249	254	252	251	250	250	251	251	246	214	207	197	183	167	176	152	231	158	150	198	239	239	237	235	231	226	222	220	190	191	194	194	194	194	194	195	194	192	188	189	192	194	197	197	213	213	211	207	192	185	183	183	180	185	185	183	183	187	197	220	222	222	230	232	233	232	231	235	238	241	242	242	241	241	241	241	240	238	237	236	236	235	234	234	234	234	233	233	233	233	233	232	233	233	233	233	233	233	232	232	232	232	232	232	232	232	232	232	232	233	233	233	233	233	233	233	233	234	234	234	234	234	234	234	235	235	235	235	236	237	239	242	244	245	244	242	239	238	238	237	236	236	237	237	238	236	234	236	235	237	242	248	249	249	
207	208	206	203	194	158	206	250	242	232	228	224	222	220	219	221	223	227	232	233	230	248	236	244	244	250	253	252	249	247	247	244	242	212	204	197	183	174	165	158	152	154	156	163	190	237	235	233	230	226	224	222	220	235	235	209	196	200	198	198	198	198	222	221	221	219	219	217	213	212	210	207	204	200	197	221	196	189	184	185	182	181	184	215	217	219	219	231	231	232	234	238	241	242	242	243	243	242	242	242	241	239	238	237	236	236	235	235	234	234	233	233	234	233	232	232	232	233	233	233	233	233	233	233	233	233	232	232	232	232	232	233	233	233	233	233	233	233	233	233	233	234	234	234	234	234	234	234	235	235	235	235	236	238	239	241	242	243	242	241	241	241	241	240	239	239	240	235	237	235	233	234	237	241	241	249	249	249	
210	211	211	209	200	165	215	250	243	231	229	225	223	222	221	223	227	233	238	240	240	263	249	246	244	247	252	250	246	244	245	244	238	207	202	185	180	173	173	176	187	207	204	197	192	233	230	230	229	241	241	240	240	238	238	239	207	201	236	199	199	197	224	224	223	220	218	217	214	212	210	207	204	202	197	193	226	226	192	187	184	183	184	213	215	219	221	231	231	232	235	239	242	243	242	244	246	247	246	245	244	242	240	238	237	236	235	235	234	234	234	234	234	233	232	232	232	233	233	232	232	233	233	233	233	233	233	232	232	232	233	233	233	233	233	233	234	233	233	233	234	234	234	233	234	235	235	235	235	235	235	235	236	237	239	240	241	241	241	242	244	245	244	243	242	243	244	244	237	235	234	236	239	243	248	253	253	253	
213	214	214	214	208	177	216	250	242	231	229	226	224	223	222	224	227	233	257	263	268	277	268	248	248	234	235	236	240	240	246	245	246	206	191	184	179	188	190	192	211	203	203	234	231	229	227	227	226	241	241	241	241	240	241	241	241	240	236	240	201	197	225	225	223	220	217	216	214	212	210	207	205	202	199	196	229	230	229	227	224	222	185	230	230	216	217	230	230	233	237	240	241	241	241	243	245	247	247	247	248	247	242	239	237	236	235	234	234	234	234	234	233	233	233	233	233	232	232	232	233	233	233	233	232	232	232	232	233	233	233	233	233	233	233	233	233	233	233	233	233	234	234	234	234	235	235	234	234	234	234	235	236	237	238	239	239	239	240	242	244	246	246	244	244	245	246	246	247	246	238	238	240	242	248	254	253	253	
215	217	217	217	214	193	223	249	241	232	229	227	225	224	224	225	229	251	253	254	255	294	271	272	254	238	239	239	239	242	243	246	243	208	206	199	199	193	195	218	208	202	199	233	229	228	227	227	182	222	240	241	241	240	241	242	203	203	238	237	202	196	188	224	225	223	220	218	216	213	211	208	205	203	200	233	232	232	232	230	228	235	236	237	239	240	236	230	229	232	236	239	240	240	239	241	242	243	243	244	247	247	242	238	236	236	235	234	234	234	234	233	233	233	233	233	233	233	232	232	232	233	233	232	232	232	233	233	233	233	233	233	233	232	233	233	233	233	233	234	234	234	234	234	235	234	234	234	234	234	235	235	236	237	238	239	238	238	240	241	243	245	246	246	245	245	246	247	247	246	245	238	240	243	249	257	253	253	
217	218	218	218	217	206	227	246	241	233	230	228	226	226	227	229	233	250	250	272	281	244	244	291	263	241	241	240	241	244	244	245	248	211	207	205	197	196	219	211	206	203	233	228	227	239	241	242	241	239	239	240	240	240	242	202	202	201	196	194	189	180	169	224	223	224	222	219	217	241	239	237	235	235	185	184	233	232	232	237	239	239	240	230	245	248	244	256	256	251	247	236	237	237	237	239	240	240	241	242	245	246	241	237	237	236	235	235	235	234	233	233	233	233	233	233	233	233	232	232	232	232	232	232	232	233	233	233	233	232	233	233	233	233	233	233	233	233	234	234	234	234	234	234	234	234	234	233	234	234	235	235	236	237	238	238	237	237	239	240	241	243	245	246	245	246	247	247	247	246	245	244	241	245	251	257	255	255	
219	219	219	219	218	213	226	242	240	234	230	228	227	228	229	232	246	244	267	274	283	243	241	240	274	241	241	240	241	246	245	248	250	227	218	205	231	222	216	208	235	234	231	225	226	179	170	171	179	236	236	237	238	241	201	199	197	173	157	238	298	243	201	167	151	155	163	180	215	215	242	240	240	240	239	236	233	231	235	196	202	193	242	239	240	246	246	252	255	253	251	250	237	236	237	238	238	239	241	243	246	246	241	237	237	236	235	235	235	234	234	234	234	233	233	233	233	233	233	232	232	232	232	232	232	233	233	233	232	232	233	233	233	233	233	233	233	234	234	234	234	234	234	234	234	234	234	234	234	235	235	235	236	236	237	237	237	237	238	239	240	242	243	243	243	245	248	249	249	247	245	243	244	247	251	255	255	255	
219	219	219	219	218	213	220	235	238	234	230	228	228	229	231	246	243	262	265	279	243	240	238	238	299	240	239	239	241	244	247	250	252	223	213	232	225	220	236	236	235	235	229	225	150	153	155	224	235	234	234	235	239	195	196	168	162	263	238	238	241	269	245	244	240	310	211	171	166	173	178	174	175	179	240	237	234	233	235	197	204	244	232	237	266	242	244	249	252	252	250	250	250	238	238	238	238	239	242	246	248	246	241	237	236	236	235	235	234	234	234	234	234	233	233	233	233	233	233	233	232	232	232	232	232	233	233	233	233	233	233	233	233	233	233	233	234	234	233	233	233	234	234	233	233	234	234	234	234	235	235	235	236	236	236	237	237	237	238	239	240	241	241	241	240	243	247	249	249	247	244	243	243	250	252	254	254	254	
219	219	218	218	216	211	212	228	235	234	230	229	228	228	240	240	262	261	269	287	245	241	237	237	238	276	238	241	244	247	250	253	254	250	237	226	241	240	239	239	237	234	230	235	237	238	237	235	235	235	234	236	172	181	183	231	238	238	239	241	243	286	242	238	294	244	190	172	162	183	179	181	186	191	192	235	232	233	236	195	230	227	231	236	261	263	268	247	250	253	252	248	248	247	249	236	237	239	242	246	248	246	242	238	236	237	236	235	234	233	234	234	233	233	233	233	233	233	233	233	233	232	232	232	232	233	233	233	233	233	233	233	233	233	233	234	234	234	233	233	233	234	234	234	234	234	234	234	234	234	234	235	235	236	237	237	237	238	238	239	239	239	239	239	239	241	245	247	246	244	244	243	243	249	250	253	252	252	
219	218	218	216	214	208	205	219	232	236	231	229	229	241	237	259	261	262	269	258	244	239	237	237	237	290	236	241	246	250	253	255	251	242	231	241	241	240	240	239	236	233	236	237	241	242	241	239	238	236	237	178	189	177	178	263	234	237	239	242	245	244	279	247	259	252	226	214	175	166	181	185	182	187	188	190	189	178	180	255	228	228	231	237	239	258	262	265	247	249	254	252	249	246	243	250	259	264	242	245	245	242	240	239	238	236	235	235	234	234	234	233	233	232	233	233	232	232	232	232	233	233	232	232	232	232	232	232	233	233	233	233	233	233	233	234	233	233	233	233	234	234	234	234	234	234	234	234	234	234	234	235	235	236	237	237	237	237	238	238	238	238	238	238	239	240	243	244	242	241	242	243	244	246	247	252	250	250	
218	217	216	214	211	205	199	210	229	232	230	248	246	257	258	259	259	261	266	255	242	236	236	236	236	295	275	239	247	251	253	254	242	249	245	242	240	240	239	238	236	236	237	238	241	242	242	240	241	241	241	241	241	169	238	235	235	235	237	240	255	274	259	241	266	237	227	230	216	213	210	186	174	177	233	230	229	184	275	229	230	231	235	237	269	262	261	260	258	267	248	251	248	247	245	249	259	262	268	249	247	239	235	236	238	237	234	233	233	233	234	233	232	232	232	233	232	232	232	232	232	232	233	233	233	232	232	232	233	232	233	233	233	233	234	233	233	233	233	233	234	234	234	234	234	234	234	234	234	234	234	235	235	235	236	236	236	237	237	238	237	237	238	239	239	239	241	242	240	240	242	244	246	247	246	251	250	250	
217	216	215	212	208	202	193	202	226	230	247	245	257	258	261	261	262	268	270	253	241	236	236	236	235	290	276	241	247	251	252	241	236	246	244	242	240	239	238	238	238	238	238	238	239	240	241	241	242	243	242	241	242	240	238	237	237	237	237	239	261	252	256	277	272	240	207	197	198	202	188	180	234	232	231	229	229	228	227	230	232	235	236	238	242	267	265	263	256	257	283	287	278	263	242	246	255	258	264	264	253	247	239	237	238	237	235	234	233	232	232	232	231	231	232	232	232	232	232	232	232	232	233	232	232	231	232	233	233	232	232	232	232	233	233	233	233	233	233	233	233	234	234	234	234	234	234	234	234	234	234	235	235	236	236	236	236	236	236	237	237	238	238	239	239	239	240	242	241	241	244	246	246	247	250	251	251	251	
216	215	213	210	205	198	187	195	224	248	246	244	257	259	261	265	267	270	275	247	242	236	236	236	235	286	236	243	248	251	252	250	246	244	242	241	240	238	238	239	239	239	239	238	238	239	242	243	150	0	237	240	240	238	237	236	237	237	238	240	272	238	253	265	268	248	193	175	171	177	182	178	231	230	230	229	195	228	231	233	234	234	235	237	265	266	262	259	260	264	278	292	287	272	258	241	247	250	256	256	246	246	242	241	241	239	238	237	235	232	232	232	231	231	232	232	232	231	231	232	232	232	232	232	231	231	232	233	232	232	233	232	232	233	233	233	233	233	233	233	233	233	234	234	234	234	234	234	234	234	234	235	235	235	236	236	236	236	236	236	237	238	238	239	239	239	241	242	242	243	246	247	246	247	252	256	251	251	
214	213	211	208	203	195	183	187	232	244	245	258	261	262	262	264	267	269	279	247	242	236	235	235	234	289	278	243	249	253	253	250	247	245	243	241	240	239	240	240	239	240	241	240	239	241	166	131	236	235	236	237	238	237	238	238	237	237	238	240	252	250	251	253	268	251	205	181	172	172	173	230	228	229	230	179	227	228	233	235	236	236	236	238	267	269	258	252	262	272	275	285	284	276	261	253	259	239	244	245	234	228	225	234	240	239	238	238	237	235	233	233	231	230	231	231	231	231	231	231	232	232	232	232	232	232	232	232	232	232	233	233	233	233	233	233	233	233	233	233	233	233	233	233	233	233	234	234	234	234	234	235	235	235	236	236	235	235	236	236	237	237	238	238	239	240	241	242	244	245	247	247	247	248	254	257	249	249	
212	211	209	206	200	192	181	184	216	241	244	258	262	265	266	268	270	271	285	246	241	236	235	233	233	295	238	243	249	255	255	251	248	245	243	242	241	241	241	242	241	241	242	241	241	146	154	237	233	235	236	235	236	237	238	240	239	239	240	257	261	249	249	251	255	227	202	195	186	174	229	227	227	227	178	226	225	228	231	233	234	235	258	263	280	272	259	253	260	273	284	289	281	273	264	247	237	243	258	234	227	215	209	219	229	232	231	231	234	235	235	233	231	229	230	231	231	231	231	231	231	231	232	232	232	231	232	232	232	232	233	233	233	233	233	233	233	233	233	233	233	233	233	233	233	233	234	234	234	234	234	234	235	235	235	235	235	235	236	237	237	237	237	238	239	239	241	243	244	245	246	247	248	251	255	257	257	257	
210	209	207	203	198	190	181	182	212	240	257	259	262	265	266	269	272	273	281	245	239	234	232	293	234	237	278	241	248	51	255	252	248	245	244	244	243	242	240	240	242	242	96	241	243	245	242	236	234	235	235	235	236	237	239	240	239	239	256	255	251	249	274	255	216	202	196	186	178	218	226	226	226	225	268	225	225	228	230	232	250	253	256	269	278	271	261	258	257	264	280	306	295	283	276	233	225	222	224	227	220	211	204	210	222	222	222	222	223	225	229	230	229	227	228	230	230	230	231	231	231	231	231	232	232	232	232	232	232	232	233	233	233	233	233	233	233	233	233	233	233	233	233	233	233	233	234	234	234	233	234	235	235	235	235	235	235	235	236	236	236	237	237	238	238	239	240	242	243	242	243	245	248	252	256	257	257	257	
208	207	205	201	196	188	181	178	202	244	260	261	264	265	266	269	273	277	249	244	237	234	232	233	234	233	277	278	247	257	254	250	247	245	245	245	245	243	240	240	356	243	244	243	243	244	241	237	235	235	235	234	236	238	239	250	251	251	251	250	247	245	252	239	208	190	185	180	220	225	224	224	223	261	222	224	225	227	230	249	251	253	269	278	277	270	265	259	251	253	263	290	300	295	282	190	181	168	164	177	184	209	199	202	213	213	219	219	218	217	219	222	224	223	226	229	229	230	230	230	230	231	232	232	232	232	232	232	232	233	233	233	233	233	233	233	233	233	233	233	233	233	233	233	233	233	233	233	233	234	234	235	235	235	235	235	235	235	236	236	236	237	237	237	238	238	239	240	241	240	241	242	245	249	254	256	256	256	
206	205	203	199	193	185	179	173	185	244	261	260	262	265	265	268	272	284	248	242	236	234	233	234	249	276	231	274	247	282	211	245	244	244	132	243	150	243	241	242	244	243	243	242	241	240	239	237	236	236	234	232	233	236	243	245	247	248	270	268	262	255	246	220	202	203	200	223	226	223	222	221	246	220	222	223	226	227	245	245	247	263	268	275	272	268	266	262	254	250	253	262	303	330	162	180	176	164	161	172	181	212	199	192	198	203	203	221	219	217	217	219	219	219	224	228	229	229	230	230	230	231	232	232	232	232	232	232	232	233	233	233	233	232	232	233	233	233	233	233	233	233	233	233	233	233	233	233	233	234	234	234	234	234	235	235	235	235	235	235	236	236	236	237	237	238	238	239	240	240	241	241	241	244	248	251	252	252	
204	204	201	197	191	183	177	166	176	244	262	259	260	263	265	266	270	287	245	239	235	234	233	233	232	231	233	241	251	227	244	238	238	239	242	244	244	242	240	241	241	239	237	235	235	235	235	235	235	240	239	230	231	235	237	262	263	263	261	261	262	268	197	211	214	204	224	221	223	220	218	171	216	218	222	224	227	242	243	244	245	265	267	268	270	265	262	259	254	250	250	243	160	137	164	175	170	159	163	174	180	210	200	193	198	202	226	225	223	220	219	220	218	217	222	228	229	229	230	230	230	231	231	232	232	232	232	232	232	232	233	233	233	232	232	233	233	233	233	233	233	233	233	233	233	233	233	233	233	234	234	234	233	234	234	235	235	235	235	235	235	235	236	236	237	237	238	239	240	240	241	241	242	242	243	245	246	246	
203	202	199	195	189	181	174	156	160	244	261	258	260	262	264	265	268	248	245	236	234	234	233	233	232	232	233	242	267	250	240	132	232	232	235	237	236	235	235	236	236	236	234	233	232	232	231	230	230	232	232	231	230	232	258	258	259	255	249	248	256	178	201	213	209	202	221	217	220	217	214	216	212	215	220	234	236	238	240	241	262	265	269	276	273	267	263	259	254	251	245	230	181	157	163	168	164	159	168	176	213	209	202	196	197	200	229	228	227	223	221	221	219	217	222	227	228	229	230	230	230	231	231	231	231	231	232	232	232	232	232	233	233	233	232	232	232	232	232	233	233	233	233	233	233	233	233	233	234	234	234	233	233	234	235	234	234	235	235	235	235	235	235	236	237	237	237	238	239	240	241	242	244	244	243	243	244	244	
201	201	198	194	187	180	171	148	151	241	258	256	258	260	262	266	270	249	243	235	235	234	234	233	232	231	233	242	239	246	240	239	230	229	229	229	229	230	231	233	235	234	232	231	232	232	231	229	228	228	228	226	227	253	249	246	249	241	229	185	194	197	214	208	206	223	220	220	218	216	214	213	213	215	220	234	235	235	235	258	262	264	267	272	271	267	264	261	258	249	233	211	179	165	163	161	158	159	167	173	213	209	205	202	199	199	231	230	229	225	223	222	220	218	222	227	228	228	229	230	230	231	231	231	231	232	232	232	232	232	232	233	234	233	232	232	232	232	232	232	232	232	233	233	233	233	233	233	234	234	233	233	234	235	235	234	234	235	235	235	235	235	235	236	236	237	237	237	238	238	239	241	243	243	242	243	244	244	
200	199	196	192	186	178	169	148	148	237	250	257	250	252	258	262	271	248	241	234	234	234	242	234	233	232	235	243	268	242	221	233	230	229	228	227	228	231	233	234	234	233	230	228	229	250	231	229	227	226	250	226	249	246	243	257	234	207	203	200	195	193	210	206	225	223	221	221	219	218	216	215	216	217	222	234	234	233	258	261	265	268	270	273	270	267	263	261	254	220	210	210	194	172	159	152	153	157	169	173	213	207	206	205	204	200	233	233	231	228	226	223	220	219	223	228	229	228	229	230	230	230	231	231	231	231	232	232	232	232	232	233	234	233	232	232	232	232	233	233	232	232	233	232	233	233	233	233	233	233	233	233	234	234	234	234	234	234	234	235	235	235	235	235	236	236	236	237	237	237	238	239	240	240	240	242	244	244	
199	198	195	191	185	177	167	156	160	231	249	254	245	245	250	257	272	247	239	232	233	240	235	235	233	232	236	241	244	252	238	234	233	232	229	228	230	233	235	246	246	243	227	226	230	248	250	251	254	223	243	242	241	275	158	196	190	198	198	197	194	214	207	227	226	223	222	222	221	219	218	218	219	220	223	232	232	232	259	262	267	270	275	279	274	271	267	257	239	207	195	196	196	181	158	146	148	157	167	173	216	208	205	208	207	201	234	235	233	230	228	224	221	221	224	228	229	228	229	230	230	231	231	231	231	231	231	232	232	232	232	233	234	234	232	232	232	232	232	232	232	232	232	232	233	233	233	233	233	233	233	233	234	234	233	234	234	234	234	234	234	234	235	235	236	236	236	236	237	237	237	238	238	237	237	241	244	244	
197	196	194	190	185	177	167	163	169	230	252	255	249	245	245	249	250	249	239	231	232	234	236	236	235	234	235	237	279	243	242	237	237	235	231	229	229	233	241	241	256	50	225	226	231	248	248	273	251	219	234	257	260	176	184	212	213	209	203	198	219	213	207	228	228	226	224	223	222	221	221	222	222	223	232	232	231	258	258	259	265	269	273	277	275	273	270	250	244	234	208	189	193	191	174	148	137	150	163	170	218	210	211	215	210	235	235	235	233	231	228	225	223	222	224	228	229	229	230	230	230	231	231	231	231	231	231	232	232	232	232	233	234	234	233	233	232	232	232	232	232	232	233	233	233	233	233	233	233	233	233	233	234	234	233	233	234	234	234	234	234	234	235	235	235	235	236	236	236	236	236	237	237	236	236	240	243	243	
197	195	194	189	184	176	167	166	167	212	250	265	251	247	247	249	250	248	239	232	232	233	287	236	236	234	233	233	237	240	241	239	239	239	231	228	229	234	238	264	255	268	225	224	236	234	245	243	231	227	222	265	197	190	185	201	207	207	205	226	219	213	228	228	228	227	225	224	223	222	223	224	225	231	231	229	226	257	258	258	266	270	276	275	272	270	260	251	250	250	245	233	221	223	217	184	96	119	149	162	220	212	215	220	214	236	235	234	233	232	229	227	226	223	225	228	229	229	230	230	230	231	231	231	231	231	232	232	232	232	232	232	233	233	233	233	232	232	232	232	232	233	233	233	233	233	233	233	233	233	233	233	233	233	233	233	234	234	234	234	234	235	235	235	235	235	235	235	235	235	236	236	236	236	235	239	241	241	
196	195	193	189	184	176	166	167	161	165	253	281	258	254	257	256	253	248	241	234	232	233	236	237	234	287	230	230	231	269	248	251	236	233	231	225	228	235	263	257	250	232	231	225	218	242	230	221	239	218	222	198	200	195	189	196	197	202	230	225	218	230	229	228	228	227	225	225	225	224	225	226	229	227	225	258	256	254	255	263	266	273	279	275	270	254	248	245	248	251	251	252	255	246	230	226	224	115	132	154	221	213	215	221	217	237	236	235	233	231	230	231	231	227	226	229	230	229	229	230	230	230	231	231	232	232	232	232	232	232	232	232	232	233	233	233	232	232	232	232	232	233	233	233	232	232	232	233	233	233	233	233	233	233	233	234	234	234	234	234	234	234	234	234	234	235	235	235	235	235	235	235	235	235	234	237	240	240	
195	194	192	188	184	175	166	164	150	152	256	256	254	275	273	271	264	251	243	234	232	234	237	236	233	230	230	227	227	233	244	251	249	255	227	223	226	246	242	240	225	228	239	239	243	177	181	175	173	191	223	210	205	212	202	198	199	231	225	222	232	230	230	231	230	227	226	226	226	226	227	227	226	225	258	255	254	252	251	263	267	273	276	272	258	233	222	229	239	244	244	248	254	246	237	222	214	220	282	164	224	217	219	221	220	238	237	235	233	230	230	232	234	232	228	228	229	229	228	229	230	230	231	231	232	232	232	232	232	232	233	233	232	233	234	233	232	232	232	232	232	233	232	232	232	232	232	232	233	233	233	233	233	233	233	234	234	234	233	234	234	234	234	234	234	234	234	235	235	235	235	235	235	234	234	237	240	240	
195	194	191	187	183	175	165	160	141	139	257	258	285	276	277	281	284	253	245	235	232	234	236	236	234	233	230	226	226	230	269	253	245	247	229	224	236	264	122	220	214	147	123	214	223	205	200	195	220	219	219	223	219	210	201	233	231	227	222	235	232	230	231	231	229	226	226	226	226	227	226	226	226	258	257	255	253	250	248	263	268	276	275	259	245	220	209	216	229	235	236	242	251	247	241	227	209	205	178	167	224	222	230	229	226	224	235	233	231	228	228	229	232	232	227	225	227	228	228	230	230	231	231	231	231	232	232	232	233	233	233	233	232	233	234	234	233	232	232	232	232	232	232	232	232	232	232	232	233	233	233	233	233	233	233	233	233	233	233	233	233	234	233	233	234	234	234	234	234	234	234	235	235	234	235	237	239	239	
195	193	191	187	183	175	165	156	135	134	251	250	274	273	277	251	255	254	245	235	232	233	235	236	235	232	289	224	224	227	233	252	244	228	221	243	261	168	188	203	198	199	198	227	230	231	228	221	218	216	216	217	214	207	235	231	228	224	236	234	231	228	228	253	225	225	226	227	228	228	228	228	227	258	256	255	252	249	246	263	269	279	262	231	219	211	204	207	215	224	226	230	235	234	231	230	209	180	167	164	225	235	239	232	228	225	233	231	229	227	227	229	231	231	224	220	224	227	228	230	231	231	232	232	232	232	232	233	233	233	233	233	232	233	233	233	233	232	231	232	232	232	232	232	232	232	232	233	233	232	233	233	233	233	233	233	233	233	233	233	234	234	233	233	234	234	234	234	234	234	234	234	234	234	235	236	237	237	
194	193	191	187	182	175	165	155	137	138	242	263	270	274	278	253	256	254	245	236	234	234	234	235	234	230	290	223	224	227	230	243	233	239	233	133	179	184	199	231	233	201	232	228	225	224	222	217	214	211	241	242	242	239	233	229	239	237	234	232	228	225	234	224	224	225	227	228	229	230	230	259	260	259	256	254	251	245	259	262	271	282	234	208	200	200	201	206	207	210	214	216	215	211	208	210	187	175	166	231	297	249	244	230	220	218	232	230	228	227	227	230	234	234	224	217	221	226	228	230	231	231	232	232	232	232	233	233	233	233	232	232	232	232	232	232	232	232	232	232	232	232	232	232	232	232	232	232	232	232	232	233	233	233	233	233	233	233	233	233	233	233	233	233	234	234	234	234	234	233	234	234	234	234	234	235	235	235	
194	193	191	188	183	175	166	156	152	163	229	254	275	275	279	255	257	252	243	237	235	234	234	234	233	227	286	224	224	225	227	233	229	189	187	190	191	183	187	186	234	231	224	237	237	239	240	215	239	238	239	241	240	236	231	241	240	238	235	232	228	225	225	224	225	227	228	229	229	252	254	256	258	257	254	251	247	262	259	261	284	215	209	211	206	205	193	200	200	198	202	204	198	192	191	191	182	158	337	241	273	270	245	235	223	217	218	230	228	226	227	233	238	238	228	218	220	226	229	230	230	231	232	232	232	232	233	233	233	233	232	233	233	233	232	233	233	233	232	232	232	232	232	232	232	232	232	232	233	233	233	232	232	233	233	232	233	233	233	233	233	233	233	233	233	233	233	234	233	233	233	234	234	233	234	234	234	234	
194	193	191	188	183	176	167	159	171	182	220	251	254	271	277	255	255	249	240	235	234	234	233	234	248	293	225	226	225	225	239	234	196	199	207	201	194	189	191	183	226	225	220	216	239	240	241	240	239	239	240	238	236	241	240	239	238	237	235	232	229	225	224	225	226	228	230	230	251	251	253	254	277	279	276	269	266	263	261	260	207	202	219	227	218	189	216	220	217	217	238	237	235	243	246	251	250	239	233	291	270	254	244	234	225	226	229	223	229	228	229	235	239	239	232	221	221	226	229	230	231	232	232	233	233	233	233	233	234	233	233	233	233	233	232	233	234	233	232	232	232	231	231	231	232	232	232	233	234	234	233	232	232	233	233	232	233	233	233	232	233	233	233	233	233	233	233	233	233	233	233	233	233	233	233	233	233	233	
194	193	191	189	184	177	169	162	173	180	196	242	261	262	247	269	251	245	237	235	235	234	234	234	297	227	227	226	225	228	232	237	202	198	194	224	217	207	194	225	220	221	218	239	240	242	242	241	240	240	241	241	242	242	240	238	237	237	234	231	228	225	224	224	226	227	246	247	248	248	248	275	282	291	283	243	264	263	240	244	250	243	234	225	218	217	193	222	220	240	240	241	244	246	247	247	244	233	232	281	262	242	234	233	224	224	226	228	230	230	232	236	238	238	234	222	221	226	229	230	231	232	232	233	234	234	234	234	234	234	234	233	233	233	232	232	232	233	232	231	231	231	231	231	232	232	232	232	233	233	233	232	232	233	232	232	232	233	232	232	232	233	233	233	233	233	233	233	233	233	233	233	233	233	233	233	233	233	
194	193	192	189	185	177	170	164	168	174	173	240	249	254	266	253	246	240	235	235	235	259	234	233	301	230	228	226	230	236	240	243	226	207	197	216	210	233	196	223	218	217	238	240	243	243	244	244	244	243	242	242	243	242	241	239	238	236	233	229	228	227	226	225	226	228	245	243	242	266	269	275	286	297	297	270	237	234	242	247	248	237	241	240	238	186	193	223	223	229	240	242	243	246	249	237	236	231	232	241	249	241	233	228	228	224	223	231	230	232	234	235	236	238	235	223	221	225	228	229	230	231	231	232	234	235	235	235	235	234	233	233	233	232	231	231	232	232	232	231	231	231	231	231	231	232	231	230	230	231	231	231	231	232	232	232	232	232	232	232	233	233	233	233	233	233	233	233	233	233	233	233	233	233	233	232	232	232	
194	194	192	190	186	178	171	164	164	167	172	243	243	245	255	249	243	239	234	237	238	299	231	301	239	232	230	232	240	246	244	245	244	208	217	236	237	237	236	234	234	236	238	241	241	242	245	247	246	245	243	243	243	241	240	239	236	330	233	230	229	229	227	226	226	242	242	240	265	269	273	279	283	288	316	296	243	243	246	246	246	244	242	193	238	223	226	220	219	237	238	241	239	247	241	233	233	229	227	231	234	229	217	219	217	222	230	239	231	221	234	235	238	240	237	226	222	224	228	231	232	233	234	235	236	237	239	237	236	234	233	233	233	232	231	231	231	232	231	231	230	231	231	231	231	231	230	230	231	231	231	231	231	233	233	232	232	232	232	232	233	233	233	233	233	233	233	233	232	233	233	233	233	233	233	232	232	232	
195	194	193	190	187	179	172	164	161	162	167	248	243	239	244	249	241	238	233	232	276	230	287	233	235	233	232	241	249	249	245	246	247	228	238	237	242	242	241	238	237	238	239	239	238	238	241	243	244	241	241	242	242	240	238	310	236	236	236	234	233	232	229	226	240	237	234	262	265	267	275	286	297	310	226	229	239	247	248	245	244	243	242	192	195	216	186	235	197	198	234	251	242	243	248	232	231	214	207	205	212	211	189	189	197	213	221	237	232	229	233	236	240	242	239	232	227	226	229	232	233	235	236	237	238	240	242	241	238	235	233	232	233	232	231	231	232	232	232	231	231	231	231	230	230	231	232	232	232	232	232	231	231	233	233	232	232	232	232	232	232	232	232	232	232	233	233	232	232	232	233	232	232	232	232	232	232	232	
196	195	194	191	187	180	173	164	160	159	164	251	246	239	236	242	239	236	234	244	275	279	256	234	233	230	236	205	252	238	246	248	248	243	239	234	234	244	242	241	239	239	240	238	235	204	239	240	238	234	236	238	239	238	237	236	235	234	234	235	235	233	247	242	237	235	262	261	258	268	297	229	230	231	232	234	89	145	243	241	241	176	215	224	215	235	237	238	238	228	268	259	245	246	251	239	222	205	199	202	207	210	197	179	178	209	209	229	229	234	245	252	239	241	239	234	229	227	230	234	235	235	235	237	238	240	242	241	238	235	232	231	231	231	231	231	232	233	233	232	231	231	230	230	231	232	233	232	232	232	232	232	232	233	233	232	232	232	232	232	232	232	232	232	232	232	233	232	232	232	232	232	232	232	232	232	231	231	
197	196	195	192	187	181	175	166	159	157	164	251	245	241	234	236	244	236	239	252	264	274	232	231	258	299	240	194	199	226	203	247	247	243	237	236	201	229	224	240	240	240	239	236	234	210	223	237	233	228	225	232	233	233	233	231	230	229	230	239	240	240	237	234	231	263	265	261	267	302	165	176	169	177	142	140	179	137	132	175	194	216	218	179	234	235	236	234	258	267	230	267	256	256	236	237	219	205	196	199	196	196	194	187	183	213	221	232	231	232	236	244	249	238	237	232	225	223	227	232	234	234	235	237	238	240	241	240	237	234	231	230	230	230	230	230	231	232	232	232	231	231	231	231	232	232	232	232	232	232	232	232	232	233	232	232	231	232	232	232	232	232	232	232	232	232	232	232	232	232	232	232	232	232	232	232	231	231	
197	196	195	193	188	182	176	167	158	160	171	237	251	243	236	236	236	257	246	240	235	233	231	230	232	239	186	205	196	190	202	242	242	241	239	235	206	237	237	239	222	239	237	235	234	219	238	236	229	223	224	226	226	226	225	225	226	228	235	236	269	299	232	226	225	260	263	276	290	151	163	149	148	152	149	139	95	20	201	145	186	169	180	233	231	233	224	265	272	230	232	272	233	252	253	241	226	214	201	198	194	194	211	207	200	181	252	233	234	230	235	244	247	245	236	232	224	220	222	227	230	230	232	235	238	240	241	239	236	233	230	230	231	231	230	230	231	232	231	231	231	231	231	232	232	232	232	232	231	231	231	231	232	232	232	231	231	231	232	232	232	232	232	233	232	232	232	232	232	232	232	232	232	232	232	232	231	231	
198	197	196	194	189	183	178	169	159	165	174	234	250	244	239	239	237	238	265	239	238	233	230	232	149	218	206	196	190	237	236	161	236	237	239	237	197	234	235	212	238	236	235	234	236	238	238	234	226	220	221	224	224	224	223	223	228	230	233	266	272	327	228	222	257	261	279	314	243	244	236	231	233	151	179	106	227	64	187	225	231	234	233	229	229	183	250	225	228	230	270	272	235	255	253	243	231	222	216	218	231	256	259	237	214	175	127	233	234	228	233	240	242	240	235	231	224	220	221	225	226	228	230	234	237	240	240	238	236	231	226	228	231	232	232	231	231	231	231	231	231	231	231	231	231	231	231	231	231	231	231	231	232	232	232	231	231	231	231	231	232	232	232	232	232	232	232	232	232	232	232	232	232	232	232	232	231	231	
198	198	197	195	190	184	179	171	161	167	170	172	252	239	235	241	242	242	249	241	235	229	231	235	171	187	240	187	237	187	184	231	232	234	160	234	229	203	204	229	236	234	233	233	223	238	237	233	225	220	221	224	225	224	223	222	223	229	256	262	302	287	271	258	255	282	336	121	243	238	233	231	154	184	124	112	117	234	236	234	234	234	231	229	180	222	277	226	228	229	274	232	275	256	259	251	241	230	232	241	245	254	258	240	228	212	248	296	260	232	234	235	239	238	231	228	221	218	220	222	224	228	231	234	238	241	241	240	237	229	224	227	230	232	232	232	231	231	231	230	230	230	230	230	231	231	231	231	231	231	232	232	232	232	231	231	231	231	231	231	232	232	232	232	232	232	232	232	232	232	232	232	232	232	232	232	231	231	
199	198	198	196	192	186	180	173	163	167	164	164	255	240	235	245	250	251	253	240	228	223	226	231	236	196	235	178	236	233	230	174	159	168	226	232	234	231	232	227	234	231	202	233	236	237	236	232	226	221	221	224	226	225	222	219	221	229	252	286	283	262	262	254	274	334	61	130	236	232	232	234	145	143	229	231	234	235	236	235	234	234	233	233	231	225	228	229	229	231	233	235	254	272	258	253	250	247	251	250	249	251	249	232	219	211	212	260	253	258	237	242	248	244	231	227	221	218	218	219	222	228	232	235	240	243	244	244	240	230	225	227	229	231	232	231	230	230	230	229	230	230	230	230	231	231	231	231	231	231	231	231	232	232	232	231	231	231	231	232	232	232	232	232	232	232	232	232	232	232	231	232	232	232	232	231	231	231	
199	199	199	197	193	187	182	175	165	165	158	156	253	259	265	261	259	256	253	241	199	187	181	218	227	225	232	189	233	231	231	203	235	234	232	233	237	240	239	236	233	231	214	234	236	236	235	232	227	224	223	225	226	226	222	216	217	237	262	261	267	267	269	274	296	45	128	214	232	231	232	236	238	236	234	235	237	237	236	236	236	236	235	233	230	228	229	230	231	233	234	236	255	272	255	251	246	242	240	240	239	237	233	221	212	182	159	141	161	275	254	231	241	242	230	227	221	219	218	218	222	229	233	235	241	245	247	247	241	231	226	227	229	230	231	230	230	230	229	229	229	230	229	230	231	231	230	230	230	230	231	231	232	232	232	231	231	231	231	232	232	232	232	232	232	232	232	232	232	232	231	232	232	232	232	231	231	231	
200	200	200	197	194	189	183	176	166	162	155	155	249	269	251	279	266	262	256	252	198	232	201	195	200	223	224	201	230	230	232	234	236	234	234	238	241	241	239	236	235	234	235	236	236	236	235	232	228	225	223	223	225	226	223	217	215	233	261	259	256	255	263	285	244	133	225	233	231	231	232	235	237	236	236	237	238	238	236	235	235	235	231	315	228	228	229	230	230	232	233	236	253	271	254	247	239	234	235	231	227	222	213	197	190	186	179	178	140	317	210	193	232	234	227	226	221	219	218	219	224	231	234	236	241	246	247	245	239	231	226	227	229	230	230	230	229	229	229	229	229	229	229	230	230	230	230	230	230	231	231	231	231	232	232	231	231	231	231	232	232	232	231	231	232	232	231	231	232	231	231	232	232	232	231	231	231	231	
201	202	201	198	195	191	185	178	168	162	159	167	245	261	253	251	274	276	269	207	192	240	237	207	206	197	222	206	225	223	230	232	234	232	233	233	240	241	239	238	238	239	239	238	237	237	236	233	228	225	222	221	223	225	223	219	217	231	252	258	254	256	274	239	140	234	217	202	231	231	233	235	236	237	238	239	238	237	235	234	233	103	230	229	230	230	231	231	231	231	233	235	266	269	253	244	234	227	220	211	206	200	193	186	183	186	189	197	207	297	194	205	257	232	224	216	209	218	217	218	224	230	233	235	240	244	244	240	236	231	225	226	228	229	229	229	228	228	228	228	229	229	229	230	230	230	229	230	230	231	231	231	231	231	231	231	231	231	231	232	232	232	231	231	231	231	231	232	231	231	231	232	232	232	232	231	231	231	
202	202	201	199	195	192	186	179	171	163	169	183	236	255	253	247	268	258	271	195	180	187	201	191	215	220	200	199	220	220	223	226	228	229	186	61	189	237	237	238	239	240	238	236	236	236	236	233	229	226	225	223	225	226	224	220	217	224	243	265	284	223	152	210	206	226	214	204	231	232	233	235	237	238	239	239	237	235	234	233	233	235	230	230	231	231	231	231	231	231	232	243	267	269	252	240	230	221	213	206	204	206	201	198	194	194	193	186	172	146	143	179	226	229	232	227	208	225	241	249	253	253	254	257	260	249	240	237	235	230	226	227	229	230	228	228	227	227	227	228	228	229	229	230	229	229	230	230	230	230	231	230	231	231	231	230	230	231	231	232	232	231	231	231	231	231	232	232	232	232	231	231	231	231	231	231	230	230	
203	203	202	199	196	194	188	181	173	164	173	189	227	253	274	269	258	242	248	241	233	178	187	190	195	213	217	200	221	189	218	219	219	222	226	228	231	221	235	236	237	325	235	233	233	232	231	229	227	227	227	226	226	226	225	222	232	219	241	308	223	211	237	206	199	223	230	231	232	232	234	235	237	238	240	240	237	235	234	232	347	232	231	230	230	231	231	231	229	230	231	239	270	268	251	238	226	218	216	215	214	217	217	214	206	210	216	221	222	214	231	185	172	176	220	211	216	238	240	249	253	251	250	252	253	239	236	234	233	228	225	225	229	229	226	225	225	226	227	227	228	228	229	229	229	229	230	230	230	230	231	231	231	231	230	230	230	231	231	231	231	231	231	231	231	232	233	233	233	233	232	231	230	230	230	230	229	229	
204	204	203	200	197	194	190	182	175	165	163	177	221	245	268	265	246	216	229	228	226	180	187	189	188	222	227	211	199	199	198	211	217	192	214	217	223	227	231	234	237	238	234	230	229	228	227	226	225	225	224	223	223	224	242	238	231	225	249	228	231	238	237	236	230	232	232	233	235	235	235	236	237	239	241	240	237	235	329	233	233	231	230	230	230	230	231	230	229	229	230	236	270	265	249	234	224	223	224	223	223	224	220	212	204	213	215	218	227	236	244	252	253	205	226	224	238	244	242	248	256	254	252	252	241	232	229	232	229	225	222	222	224	224	222	222	223	224	226	227	227	228	228	229	229	229	229	229	230	230	230	231	231	230	230	230	230	231	231	231	231	230	230	231	231	232	232	232	232	232	233	232	231	231	231	230	230	230	
205	204	204	201	199	195	192	183	177	166	155	174	208	246	247	229	223	218	214	205	226	230	180	186	187	189	220	223	199	200	199	199	199	207	207	220	220	221	223	227	233	236	232	227	234	226	240	225	225	225	222	220	223	225	240	234	226	254	253	221	229	236	236	235	234	232	232	233	235	234	233	235	237	239	258	238	259	236	237	236	234	231	229	228	228	229	230	230	228	229	230	233	275	258	236	224	220	223	227	227	228	225	218	213	212	214	210	208	218	230	227	234	251	243	247	232	234	238	241	244	254	262	257	257	235	230	228	223	227	224	222	222	224	222	218	218	221	223	224	226	226	227	228	228	228	228	228	229	230	229	230	230	230	230	230	230	230	230	231	230	230	231	231	230	230	230	229	229	229	230	232	231	231	231	232	231	231	231	
205	205	204	202	200	196	193	185	178	166	159	181	210	253	227	218	218	213	218	204	222	223	224	226	184	188	190	199	197	199	200	204	199	198	203	203	222	205	219	220	226	231	229	225	226	226	225	225	227	227	246	220	224	241	238	229	260	254	267	238	220	236	234	235	234	233	231	230	132	227	227	231	234	236	236	235	234	235	237	238	234	229	227	227	227	228	229	234	228	228	231	231	285	247	228	220	216	221	227	227	226	223	222	224	225	223	220	218	224	227	219	221	235	238	246	254	257	263	235	240	245	252	261	260	246	235	226	218	224	222	222	223	224	221	216	215	219	221	223	225	226	226	227	228	228	228	229	229	229	229	230	230	230	230	230	230	230	231	231	231	230	231	230	230	230	230	230	230	229	230	232	231	230	230	231	232	231	231	
206	206	205	204	201	198	194	186	179	168	164	177	190	255	228	219	218	215	201	199	196	200	221	223	202	198	197	194	195	200	198	228	223	200	204	207	211	215	219	220	225	230	230	226	227	235	225	227	230	244	246	221	226	234	234	233	257	254	244	246	239	235	234	235	235	234	231	229	189	224	224	229	216	233	233	234	233	232	232	232	229	224	225	227	227	228	228	228	228	228	228	273	273	225	214	209	211	221	226	225	224	225	226	229	227	222	219	216	220	225	223	220	222	240	251	256	248	247	274	272	264	264	245	250	244	236	225	214	209	220	220	222	221	219	216	213	216	220	222	224	225	226	226	227	228	228	229	229	229	229	230	230	230	230	230	230	230	230	231	231	230	230	230	231	231	232	232	231	231	232	233	231	229	230	231	231	231	231	
207	207	206	204	203	199	195	188	180	168	163	167	175	256	228	221	220	220	202	199	233	230	194	191	203	196	193	193	192	194	198	219	230	198	202	206	216	219	221	223	230	235	234	229	227	224	225	228	238	271	237	222	231	233	269	274	260	250	251	244	239	235	235	237	238	236	234	231	227	225	227	231	233	234	234	235	235	233	229	329	333	223	224	226	227	228	231	230	228	226	227	299	197	197	201	204	205	213	219	222	223	224	224	226	225	218	214	209	212	220	219	212	208	243	253	252	241	238	269	271	268	258	257	269	256	232	223	213	209	219	220	221	219	216	216	212	213	217	220	223	224	225	226	227	227	228	228	229	229	229	230	230	230	230	230	230	230	230	231	231	231	231	231	231	232	231	231	230	230	232	233	231	229	229	231	231	230	230	
209	208	207	205	204	201	195	189	180	169	161	156	162	256	235	227	225	227	206	197	193	223	218	196	204	196	193	221	191	194	197	229	228	225	196	209	215	220	224	228	233	221	237	232	276	224	226	230	268	224	220	223	225	252	269	289	288	251	247	243	240	237	236	239	241	241	238	233	229	228	230	233	235	235	235	236	235	232	334	228	231	225	222	225	228	228	228	227	226	224	261	212	191	193	197	192	195	200	209	213	213	213	214	219	221	217	215	214	210	206	198	196	195	250	252	248	238	231	254	261	260	248	234	236	237	222	217	208	207	213	207	221	218	216	216	214	211	214	218	221	223	224	225	226	227	228	228	228	229	229	229	229	229	230	230	230	230	231	231	231	231	231	231	231	231	231	231	230	230	232	233	231	229	230	231	231	230	230	
210	209	208	206	205	202	196	190	182	170	159	152	160	248	247	236	228	211	207	199	189	236	235	200	197	196	222	215	210	193	198	229	226	222	218	206	219	222	224	227	230	233	241	246	231	225	228	232	230	274	221	219	220	235	269	245	247	247	245	244	241	238	238	303	242	244	242	235	231	230	232	234	234	234	233	234	313	256	342	224	315	318	221	225	228	229	229	228	224	223	321	183	190	177	182	185	197	191	200	201	201	200	203	208	212	204	195	194	198	194	187	192	212	248	249	242	235	236	247	257	261	245	218	208	201	197	212	206	204	206	201	222	219	216	216	215	210	210	215	219	222	224	225	226	227	227	228	228	229	229	229	229	229	230	230	230	231	231	231	231	231	231	231	231	231	231	231	231	231	233	233	231	230	230	231	230	230	230	
210	210	209	207	206	203	198	191	183	172	159	161	173	242	251	242	225	214	206	197	191	194	234	235	196	195	218	229	228	228	194	194	225	222	217	214	216	220	224	226	228	228	231	241	238	226	230	281	228	221	219	218	219	232	242	242	237	240	242	242	236	238	238	240	241	275	242	236	231	230	231	231	231	230	232	356	95	65	349	220	323	223	222	224	226	228	229	225	259	0	174	172	171	177	182	184	184	198	189	190	199	192	200	200	193	191	183	184	181	195	188	203	228	233	236	237	233	240	236	187	226	167	179	181	178	178	181	204	204	207	203	220	217	215	216	217	212	208	212	218	221	223	225	225	226	227	227	228	228	229	229	229	229	229	230	230	230	230	230	231	231	231	231	231	231	231	231	231	232	233	232	231	230	231	231	230	230	230	
211	211	210	208	207	205	200	193	185	173	160	166	171	229	249	239	240	215	209	205	191	187	236	237	236	221	194	212	227	226	224	223	198	223	218	213	214	219	223	225	227	225	235	233	232	235	255	230	279	220	221	221	224	240	236	235	228	207	219	234	232	230	229	232	236	237	234	230	227	226	228	229	229	230	334	43	25	343	221	222	308	226	224	224	226	226	222	302	29	150	177	239	234	181	182	182	182	198	190	191	199	189	195	189	186	189	187	177	187	187	187	203	231	218	216	232	233	233	215	179	148	163	176	181	181	176	176	199	200	205	203	217	216	215	218	219	215	210	211	217	221	223	224	225	226	227	227	228	228	228	229	229	229	229	230	230	230	230	230	231	231	231	230	230	231	231	231	231	232	233	232	231	231	231	230	230	230	230	
212	211	210	210	208	206	202	195	187	175	162	165	160	159	252	237	225	212	212	205	196	189	184	244	240	236	234	210	204	228	224	222	195	222	217	212	214	219	224	225	229	225	233	229	221	240	237	225	240	239	234	235	233	242	243	230	226	229	213	148	200	47	224	227	231	232	226	219	218	218	223	228	230	243	328	349	283	223	222	223	225	225	222	221	220	237	292	108	162	164	171	169	234	177	178	174	181	189	192	193	192	200	209	198	190	187	185	178	186	188	178	181	219	195	194	219	229	213	194	182	168	164	173	179	184	177	202	198	199	202	202	217	216	218	220	221	217	213	211	216	220	222	223	224	225	226	227	227	228	228	228	229	229	229	230	230	230	230	230	231	231	231	230	230	231	231	231	232	232	232	231	232	231	230	230	231	231	231	
212	212	212	211	210	207	204	197	190	177	163	161	147	145	255	237	228	229	220	214	229	220	245	186	248	243	240	237	197	232	227	218	198	219	220	215	215	219	223	225	230	237	233	229	222	219	222	218	231	220	221	223	238	245	238	230	229	232	237	237	233	230	230	233	236	233	225	219	92	216	220	225	237	333	336	323	340	219	219	220	220	218	215	226	224	282	138	153	165	167	168	166	167	171	172	228	176	192	194	192	190	196	206	215	209	192	184	173	165	169	165	159	184	192	196	184	188	183	183	182	177	168	170	177	184	180	201	200	201	201	200	218	217	219	222	221	219	215	212	215	219	221	222	224	225	226	227	227	227	228	228	229	229	229	230	230	230	230	230	231	231	231	230	230	230	231	231	232	232	231	231	232	231	230	231	231	231	231	
213	213	213	213	212	209	206	200	192	180	165	155	134	130	255	236	230	241	219	238	238	238	239	242	188	187	195	243	201	232	228	225	194	195	195	217	216	219	223	225	231	236	233	227	218	215	212	217	215	227	237	241	243	244	236	233	233	235	349	240	238	237	238	240	243	239	230	225	224	222	222	226	329	340	262	315	224	214	215	234	216	230	226	222	224	156	229	170	172	168	167	173	172	231	169	171	175	182	190	195	192	187	211	219	212	199	187	171	161	162	158	147	146	169	174	163	159	170	177	183	181	172	170	177	184	181	201	201	203	200	198	219	218	220	221	220	219	217	213	214	217	220	222	223	225	226	226	227	227	228	228	228	228	229	230	230	230	230	230	231	231	231	230	230	230	231	232	232	231	231	231	231	231	230	231	230	230	230	
214	214	214	214	213	210	207	202	195	183	168	151	124	121	254	233	231	230	221	237	235	235	236	238	241	242	234	231	233	193	219	213	194	213	219	216	217	221	224	226	231	231	226	220	217	217	218	218	219	218	226	233	248	245	238	236	236	241	245	244	239	236	237	240	245	242	235	231	229	229	228	229	297	342	331	301	215	321	133	176	219	215	214	207	212	186	233	232	230	225	226	176	175	165	227	164	178	181	184	191	197	215	251	230	210	197	184	176	163	159	155	147	148	163	168	170	169	181	183	184	184	176	172	180	186	183	201	202	204	201	197	219	218	220	220	219	219	216	214	213	215	218	221	223	225	225	226	226	227	228	228	228	228	229	230	230	230	230	230	230	230	230	230	230	230	231	232	231	231	231	231	231	230	230	230	230	230	230	
215	215	215	215	214	212	209	205	198	187	172	153	121	118	252	236	233	234	230	238	235	234	234	236	235	233	232	235	238	236	230	224	207	216	216	216	219	223	226	226	229	224	221	217	229	227	228	228	221	226	233	241	246	245	240	237	237	241	246	245	238	233	233	238	244	244	238	234	232	231	231	236	313	272	31	220	203	183	189	186	220	219	225	190	192	191	191	192	230	227	230	230	174	166	153	173	178	234	183	189	235	253	262	232	206	194	183	176	165	153	148	140	148	165	179	176	174	180	184	186	184	181	176	183	186	183	204	202	203	201	196	219	219	220	220	220	219	217	215	213	212	217	220	223	224	225	226	226	227	228	228	228	228	229	230	230	230	230	230	230	230	230	230	230	231	232	232	231	231	232	231	230	230	230	230	230	230	230	
216	216	216	215	215	213	211	207	201	191	177	156	131	133	250	246	235	236	234	241	210	232	225	235	234	232	231	232	232	230	224	218	214	214	217	218	220	224	227	230	224	220	224	223	223	223	226	228	226	232	237	245	241	242	240	236	233	231	232	233	229	227	228	234	240	240	235	232	232	231	232	290	231	102	233	213	170	184	186	229	220	224	233	190	186	186	190	193	191	195	197	231	228	170	169	172	172	174	176	213	247	252	261	225	208	198	188	176	168	152	135	136	153	163	174	176	175	178	182	187	188	185	182	183	184	207	206	205	203	200	221	220	220	221	221	220	220	219	216	214	212	216	220	222	224	225	226	226	227	228	228	228	229	229	230	230	230	229	230	230	230	231	230	230	231	232	231	231	231	231	231	230	230	230	230	231	230	230	
216	217	217	217	216	215	212	209	204	196	182	162	147	156	251	252	237	239	236	243	242	233	228	236	234	232	232	232	230	227	221	214	190	212	215	217	220	224	229	218	213	218	219	231	230	231	218	229	235	239	241	244	234	234	234	232	225	220	235	226	207	218	219	223	224	220	216	219	224	227	273	232	233	187	181	179	183	180	184	227	223	229	234	236	190	188	184	184	187	194	196	230	230	230	230	229	228	174	173	250	267	274	269	229	215	202	196	187	173	153	139	152	164	167	171	172	172	175	179	183	187	188	186	184	184	206	205	206	205	201	222	221	221	221	221	219	220	220	218	214	213	216	220	222	224	225	226	227	227	228	228	228	229	229	229	229	229	230	230	231	231	231	230	230	231	231	230	231	231	231	231	230	230	230	231	231	230	230	
217	217	218	218	217	216	214	211	206	199	187	168	159	161	239	251	238	240	237	237	232	234	232	236	234	232	232	233	230	226	220	213	208	208	214	217	221	228	217	230	226	227	231	233	232	232	228	234	234	242	242	243	243	229	227	230	227	222	178	176	222	208	214	216	217	212	210	216	220	235	230	185	181	172	242	238	174	179	180	226	227	236	238	240	197	198	192	185	188	193	196	195	194	231	230	229	229	230	218	228	230	234	279	236	217	200	190	189	177	153	152	163	167	169	168	169	172	175	176	178	183	185	184	182	208	205	205	204	205	202	222	221	221	221	220	218	218	220	218	214	212	216	220	222	224	225	226	227	227	227	228	228	229	229	229	229	230	230	231	231	231	230	230	231	231	231	231	231	231	231	230	230	230	230	230	230	230	230	
218	218	219	219	218	217	215	213	209	202	191	173	168	156	174	255	238	238	239	242	240	215	233	236	234	233	231	231	229	225	220	213	207	207	213	218	223	228	227	229	225	226	227	232	232	231	236	237	238	246	245	246	244	243	244	233	194	235	179	182	181	188	216	218	216	196	185	183	184	198	206	191	188	184	177	240	242	182	174	228	239	185	246	243	195	236	230	190	189	191	198	221	200	206	208	230	229	238	232	233	234	238	280	230	210	192	183	183	175	160	162	165	166	170	168	169	175	176	174	175	180	182	180	178	208	207	206	203	202	202	222	221	221	221	221	217	217	219	218	214	213	217	221	223	224	225	226	226	227	227	227	228	229	229	229	230	230	230	231	231	230	230	230	231	231	231	231	231	231	230	230	230	230	230	230	230	230	230	
219	219	220	220	219	218	217	215	210	205	194	178	166	141	149	257	253	234	242	238	240	220	231	231	235	234	232	226	229	225	220	213	207	206	213	220	225	225	233	229	226	226	230	231	230	239	234	234	241	236	248	250	248	246	243	206	206	184	170	175	186	209	213	215	216	216	198	193	192	186	194	191	227	222	236	236	238	237	231	233	169	172	179	246	192	231	230	194	189	188	225	226	203	219	227	224	229	231	232	233	234	238	255	218	201	191	187	183	173	163	163	163	166	170	170	173	178	176	173	172	172	176	179	205	205	206	205	205	201	201	201	221	221	221	221	217	216	219	219	217	217	219	221	223	224	225	226	226	227	227	227	228	229	229	229	229	230	230	230	230	230	230	230	231	231	230	231	231	230	230	230	230	230	229	229	230	231	231	
220	220	220	221	220	219	218	216	212	208	198	183	162	126	126	253	249	216	243	233	244	228	207	226	222	235	233	226	229	226	221	212	205	203	212	221	226	220	232	229	226	229	229	232	235	232	234	235	243	251	248	251	251	248	243	207	239	233	231	225	220	171	189	212	211	213	213	195	190	186	193	189	224	232	232	232	231	230	230	234	239	239	239	175	183	235	239	195	192	193	220	221	223	215	220	223	226	227	228	229	230	285	220	212	200	193	192	183	169	163	161	162	166	169	172	178	181	175	172	170	168	170	175	202	204	204	203	204	200	199	200	222	222	223	222	217	217	221	222	221	220	221	222	223	224	225	226	226	227	227	228	229	229	229	229	229	230	230	230	230	230	230	230	231	230	230	231	231	231	230	230	230	230	229	230	231	232	232	
220	221	221	221	221	220	219	217	214	210	202	187	163	118	114	248	246	241	224	236	238	235	223	211	221	210	233	226	229	225	220	213	204	203	213	223	216	216	232	229	226	229	232	232	232	233	233	246	240	250	247	250	250	247	239	230	235	228	223	220	222	226	170	223	225	210	212	201	193	194	198	226	226	231	231	230	228	228	231	232	232	232	233	234	235	171	180	186	229	220	217	218	220	219	218	220	223	225	225	225	272	224	212	210	201	194	190	181	169	166	166	166	170	173	176	180	180	172	168	169	170	170	200	201	202	203	203	203	201	200	225	223	224	225	223	218	217	221	222	222	221	222	223	223	225	226	226	226	227	228	228	229	229	229	229	229	229	230	231	231	230	230	230	231	230	230	231	231	231	230	230	230	230	229	231	232	232	232	
221	221	222	222	221	221	220	218	216	212	206	193	170	128	126	245	240	242	220	243	245	244	233	212	223	211	232	224	228	224	219	214	209	178	210	224	231	214	234	230	227	228	230	231	232	233	232	243	249	248	248	248	246	241	227	243	218	186	223	220	223	223	222	174	225	226	228	204	200	188	199	225	228	230	231	230	229	229	231	231	228	231	231	230	233	236	237	169	185	217	216	218	220	219	217	218	222	224	222	223	219	209	209	206	201	194	192	188	175	168	170	171	171	173	172	175	174	167	164	167	168	200	198	226	226	227	204	203	201	200	226	226	227	227	223	218	216	219	221	221	222	223	223	224	225	226	226	226	227	228	228	229	229	229	229	229	229	230	230	230	230	230	230	231	230	230	231	230	230	230	230	230	230	230	231	231	231	231	
221	222	223	222	222	222	221	219	217	214	209	199	181	171	158	217	250	244	225	239	248	245	236	212	226	212	231	225	228	223	218	215	210	198	202	220	228	231	232	230	227	227	228	229	229	229	245	247	245	245	244	243	240	235	219	247	239	226	220	219	192	227	227	162	190	222	229	206	204	202	188	220	224	227	228	229	228	229	231	230	226	227	232	232	234	234	232	230	173	215	215	217	219	217	215	217	220	222	221	226	195	214	212	209	204	198	201	203	196	179	175	182	181	181	175	161	161	161	164	169	168	199	196	195	228	231	206	205	203	229	229	229	229	227	222	217	216	219	221	222	223	224	224	225	225	226	226	227	227	228	228	228	229	229	229	229	229	229	230	230	230	229	230	231	230	230	231	230	230	230	230	230	230	230	231	231	231	231	
222	222	223	223	223	223	222	221	219	216	212	204	192	181	152	168	253	245	237	238	250	244	242	212	229	213	230	224	217	222	217	215	209	199	197	215	222	224	225	225	224	223	222	222	223	245	240	241	241	240	240	240	236	233	217	243	227	233	232	232	233	185	230	223	187	224	204	207	207	224	219	209	181	227	225	221	212	229	229	229	226	181	226	232	233	234	233	230	224	169	214	216	218	216	214	216	224	225	226	218	201	208	215	216	212	202	195	198	201	197	192	196	196	197	202	200	178	158	160	168	169	198	195	195	195	201	204	203	231	231	233	233	231	227	221	217	217	219	221	222	223	224	225	225	225	226	227	227	227	228	228	229	229	229	229	229	229	229	230	231	230	230	231	231	230	230	231	231	231	231	230	230	230	230	231	231	231	231	
223	223	224	224	224	223	223	221	220	218	214	208	198	181	142	148	252	246	243	239	251	251	247	211	227	213	231	223	214	225	220	217	211	203	175	206	214	217	218	217	216	215	225	239	232	230	232	236	237	238	240	241	237	232	213	245	237	234	234	235	237	199	227	220	210	197	199	205	224	220	209	206	206	193	196	198	208	204	229	229	226	180	183	222	233	233	231	229	226	220	176	211	215	216	216	218	224	222	220	222	215	197	195	200	203	198	191	189	193	195	196	200	199	191	190	193	190	168	156	165	174	201	194	196	197	200	202	201	231	232	235	234	231	227	221	218	217	219	221	222	223	224	225	225	226	226	227	227	228	228	228	229	229	229	229	229	229	230	231	231	230	230	231	231	230	230	231	231	231	231	231	230	230	230	231	231	231	231	
224	224	224	225	224	224	223	222	221	219	216	211	201	184	140	145	251	229	250	254	253	248	237	248	215	213	199	222	212	199	224	220	213	202	188	197	208	213	214	214	226	224	226	217	218	225	232	236	238	240	241	241	240	236	248	244	238	237	237	237	236	233	193	220	169	184	188	219	218	224	206	206	207	201	192	197	196	204	199	229	226	223	180	218	222	232	229	227	225	219	207	203	209	214	218	222	223	220	222	224	215	206	203	200	199	197	194	188	187	190	191	194	197	192	186	188	194	180	157	163	174	205	197	196	199	200	202	233	231	233	235	234	230	225	220	217	217	219	221	222	223	224	225	225	226	226	227	227	228	228	228	229	229	229	229	229	229	229	231	231	230	230	231	230	230	230	231	230	230	230	230	230	230	230	231	231	230	230	
225	225	225	225	225	224	224	223	222	220	217	213	204	188	146	151	248	241	251	254	253	247	232	252	214	212	201	221	209	198	227	223	214	196	185	192	204	211	214	222	220	219	214	213	224	235	240	239	238	238	239	241	242	241	211	217	195	190	239	238	237	235	233	195	182	181	183	215	220	227	205	207	207	204	195	188	195	206	199	187	225	226	230	231	222	232	229	228	226	221	213	146	203	212	219	225	220	223	229	224	215	209	207	207	205	200	197	191	186	185	184	186	192	192	185	186	189	185	171	168	174	206	202	205	206	205	203	233	232	236	238	235	230	225	219	217	218	220	221	223	223	224	225	225	226	226	227	227	228	228	228	229	229	229	229	229	228	229	230	231	230	230	230	230	230	230	231	230	230	230	231	230	230	230	230	230	230	230	
225	225	225	225	225	225	224	223	222	221	219	214	207	193	164	171	243	245	250	252	251	247	251	213	215	210	202	221	209	233	228	224	213	191	179	187	200	210	216	217	214	212	210	217	229	237	237	235	235	237	240	244	244	241	211	240	198	190	188	238	237	237	238	199	187	182	180	199	229	212	207	206	207	207	200	192	185	194	199	189	224	227	228	225	222	219	229	228	226	223	219	209	174	202	220	228	219	223	228	220	214	208	205	203	204	203	199	192	187	186	184	184	191	193	186	185	186	182	176	174	175	206	205	207	207	210	215	231	231	233	235	234	230	225	219	216	218	220	221	222	223	224	225	226	226	227	227	227	228	228	229	229	229	229	229	229	229	230	231	231	230	229	230	231	230	230	230	230	230	230	231	230	230	230	230	230	230	230	
226	225	225	225	226	225	224	224	223	222	220	216	210	198	177	182	242	247	245	248	250	254	249	253	239	225	236	226	218	230	226	222	211	188	172	179	195	208	218	211	211	213	219	229	235	235	234	234	235	239	243	244	243	238	239	238	236	232	190	187	239	242	244	199	209	182	178	194	229	214	209	206	209	211	206	198	191	191	199	225	225	225	223	220	217	216	228	228	227	224	218	207	188	192	218	227	231	236	226	218	215	210	206	202	201	201	197	192	189	189	185	184	193	198	190	188	189	183	180	178	176	206	206	208	212	226	228	228	228	228	229	229	227	225	219	215	216	219	221	222	223	224	225	226	226	227	227	227	228	228	229	229	229	229	229	229	229	230	231	231	230	229	230	231	230	229	230	230	230	230	230	230	230	230	230	230	230	230	
226	226	226	226	226	226	225	224	224	223	220	217	212	202	185	180	229	243	241	243	246	254	244	246	247	245	238	226	214	227	223	220	210	190	171	172	189	208	218	211	217	231	234	239	246	241	238	239	241	242	244	243	240	234	207	218	233	235	229	219	212	178	249	205	185	197	179	187	217	225	229	207	213	219	211	202	195	188	189	186	191	226	225	224	223	217	212	229	229	225	219	210	197	178	213	222	229	237	218	215	215	211	207	204	204	202	196	193	197	191	184	183	193	199	193	191	191	185	185	185	182	183	209	211	223	223	221	223	226	224	224	225	224	223	218	212	213	217	220	222	223	224	225	226	226	226	227	227	228	228	229	229	229	229	229	229	229	230	231	230	230	229	230	231	230	229	230	231	230	230	230	230	229	230	230	230	230	230	
226	226	226	226	227	226	226	226	225	223	221	219	214	205	193	177	204	246	242	241	242	247	258	242	249	238	222	226	214	200	223	219	210	196	176	168	182	206	214	224	227	227	231	238	245	255	251	248	248	248	246	243	236	226	215	208	230	231	234	238	241	243	243	244	240	234	170	176	199	222	227	209	226	216	213	204	197	189	187	180	183	224	224	226	227	222	228	215	208	225	220	211	210	153	195	216	230	221	213	212	213	210	205	205	208	204	199	196	194	196	190	186	191	196	189	187	190	185	184	186	186	186	210	217	222	217	216	219	220	224	223	224	223	222	219	210	210	215	219	221	223	224	225	225	226	226	227	228	228	228	229	229	229	229	229	230	230	231	231	230	230	229	230	231	230	230	230	230	230	230	230	230	230	230	230	230	230	230	
226	226	227	227	227	227	226	226	225	224	222	220	215	208	196	174	200	247	241	240	241	245	250	241	235	225	210	204	213	202	221	218	210	200	182	168	176	200	213	218	224	223	228	233	237	241	242	258	253	250	245	238	225	217	216	216	209	227	227	229	233	235	236	235	231	227	221	213	184	207	227	210	215	218	216	213	203	185	189	188	220	198	220	223	224	222	222	215	205	224	220	211	212	192	186	212	228	215	213	212	212	210	206	207	210	207	203	200	196	192	187	192	192	195	188	186	190	186	183	181	180	182	210	217	219	216	212	214	216	212	223	222	222	222	220	211	208	213	219	221	223	224	225	225	226	227	228	228	228	228	229	229	229	229	229	230	230	230	231	230	230	230	230	231	230	230	230	231	230	230	230	230	230	230	229	230	230	230	
227	227	227	227	227	227	227	226	226	225	223	221	217	210	198	175	196	245	238	238	241	244	246	237	222	217	201	192	185	197	189	217	210	196	187	173	176	194	208	214	222	222	245	246	246	234	235	261	253	248	239	223	214	214	216	219	220	213	224	223	223	225	226	225	223	220	214	213	168	197	222	210	223	227	219	222	213	189	178	178	172	181	185	190	196	217	216	213	204	191	219	210	212	198	170	207	228	225	216	213	209	206	204	207	211	211	208	206	201	196	192	196	197	196	192	221	219	186	185	183	179	177	179	214	215	213	209	211	213	208	223	220	221	223	221	214	208	213	218	221	223	224	225	225	226	227	228	228	228	228	229	229	229	229	229	229	229	230	230	230	230	230	230	230	230	230	230	231	230	230	230	230	230	229	230	231	231	231	
227	227	228	228	228	227	227	227	226	225	223	222	218	212	201	177	195	244	235	237	241	244	246	234	219	213	199	191	183	180	188	181	212	197	194	180	177	190	205	212	222	221	245	244	243	242	241	258	254	247	226	210	209	213	216	220	222	218	211	202	196	221	218	221	219	217	214	214	215	190	204	208	222	223	223	224	215	203	192	185	191	189	180	180	183	184	186	194	203	192	215	210	213	207	144	198	223	214	218	216	212	204	200	203	209	211	211	210	206	201	198	202	200	198	194	191	219	217	186	186	181	177	176	203	219	217	213	214	210	206	223	220	222	224	222	216	210	213	218	221	223	224	225	226	227	227	228	228	228	228	228	228	228	229	229	229	229	230	230	229	229	229	230	230	230	231	230	230	230	230	230	230	230	230	231	231	231	231	
228	228	228	228	228	228	227	227	227	226	224	222	219	214	204	181	196	240	237	240	244	246	248	233	219	215	203	194	185	181	184	179	211	195	198	183	177	185	199	219	218	217	240	239	248	251	234	256	254	238	207	199	201	210	217	223	223	219	213	210	205	198	201	208	221	219	215	216	168	190	202	208	216	226	226	220	212	207	205	196	195	198	195	191	187	186	188	187	183	186	184	211	204	209	203	172	200	214	220	220	216	209	202	200	206	212	211	210	208	202	201	204	202	200	197	194	189	189	190	221	216	175	214	218	216	217	213	212	209	204	223	221	223	224	222	217	213	214	218	221	223	224	225	226	227	227	228	228	229	228	228	228	228	229	229	229	230	230	230	230	229	229	230	230	230	230	230	230	230	230	231	231	230	231	231	230	230	230	
228	228	228	228	228	228	228	227	227	226	225	223	220	216	207	188	200	239	241	244	246	250	249	234	219	214	204	196	189	191	178	175	206	188	198	178	171	180	192	213	212	233	233	235	234	236	241	244	233	211	199	193	196	206	218	224	223	217	212	211	210	205	205	208	200	219	219	219	218	195	207	207	222	220	223	222	211	206	207	203	201	203	202	198	195	195	196	194	189	185	181	179	175	192	213	211	191	211	241	223	221	212	205	199	204	211	212	212	211	208	205	204	202	198	197	195	192	191	191	222	217	212	212	217	198	214	212	211	210	204	223	223	224	224	221	218	215	216	220	222	224	225	226	227	227	227	228	228	229	228	229	229	229	230	230	230	230	230	231	230	230	230	231	230	230	230	230	230	230	231	231	231	230	230	230	230	230	230	
228	228	228	228	228	228	228	228	227	227	225	224	222	218	210	195	202	235	239	247	248	251	250	239	224	218	203	195	188	196	180	221	201	210	194	169	162	172	186	211	211	224	224	223	224	229	233	228	211	203	195	188	191	209	221	221	215	215	210	211	215	210	201	206	227	219	222	219	216	194	205	204	209	220	232	227	212	202	203	202	204	207	207	204	201	200	200	196	190	188	187	186	182	174	164	218	171	201	238	224	224	214	206	201	203	209	212	214	214	215	213	209	204	199	196	194	193	192	191	189	218	175	212	206	194	210	211	212	211	206	223	224	226	224	221	218	217	218	221	223	224	225	226	227	227	227	228	228	229	229	229	229	229	230	230	231	231	230	230	230	230	231	230	230	230	230	230	230	231	231	231	231	230	230	230	230	230	230	
229	229	229	229	229	229	228	228	228	227	226	225	223	219	213	201	204	232	239	249	249	251	251	249	233	229	208	196	208	202	191	219	207	205	191	169	157	165	180	195	214	221	224	224	227	232	232	223	209	204	197	186	187	213	224	214	208	214	210	210	221	219	206	206	202	218	223	220	219	184	201	207	212	221	226	222	211	202	198	196	200	208	209	206	201	198	199	197	192	188	186	182	177	173	171	166	158	191	237	248	225	223	210	206	206	209	211	213	214	216	217	215	211	206	202	200	201	201	200	194	188	201	208	215	214	213	213	214	213	207	223	225	226	224	219	216	217	219	221	223	225	226	226	227	227	228	228	229	229	229	229	229	229	230	230	230	230	229	229	230	230	230	230	230	230	230	231	230	230	230	230	230	230	230	230	230	230	230	
229	229	229	229	229	229	229	229	229	228	227	226	224	220	214	203	202	226	237	250	249	252	251	249	232	232	217	202	213	209	199	215	207	192	193	176	159	161	174	192	213	218	225	231	236	238	232	220	208	205	201	190	189	210	218	208	201	210	208	211	227	225	211	203	205	216	225	221	217	217	190	210	218	223	225	220	210	203	197	192	195	207	214	206	198	194	190	192	191	189	186	181	178	173	171	169	156	172	218	222	224	224	212	207	207	210	213	214	215	215	215	215	214	211	206	203	207	209	209	205	215	208	209	215	216	217	218	216	214	225	224	226	226	223	218	215	217	220	222	224	225	226	227	227	227	228	228	229	229	229	229	229	229	229	230	230	229	229	229	231	230	230	230	230	230	230	231	230	230	230	230	230	229	229	230	230	230	230	
229	229	229	230	230	229	229	229	229	228	228	226	225	221	216	205	198	220	237	251	250	252	250	247	220	229	220	209	195	185	187	176	208	195	199	181	160	158	168	188	215	222	228	234	237	237	230	218	205	203	202	191	192	210	217	210	199	205	207	213	230	231	213	203	219	212	226	222	217	219	183	209	219	230	229	219	205	200	193	187	188	206	219	211	202	197	189	185	188	190	189	186	176	170	166	166	165	166	201	217	247	222	213	206	205	210	214	215	215	216	217	216	216	214	227	221	222	225	226	225	221	216	215	217	218	221	222	219	214	227	227	227	227	224	218	215	218	222	223	225	226	226	227	227	228	228	228	229	229	229	229	229	229	229	230	229	229	229	230	231	230	230	230	230	230	230	230	230	230	230	230	230	230	230	230	230	230	230	
229	229	230	230	230	230	230	230	230	229	228	227	226	223	217	208	196	211	237	252	251	252	249	244	209	219	215	205	190	183	183	177	175	197	202	186	164	160	159	183	209	229	234	239	236	230	224	217	208	206	206	196	194	211	215	208	197	200	207	217	235	236	214	204	216	212	226	222	219	178	185	214	220	227	226	213	206	201	191	183	176	202	231	215	206	201	196	193	194	194	191	184	188	172	171	171	175	171	207	226	251	244	216	212	209	211	214	213	235	234	235	235	234	232	227	224	224	226	227	226	224	220	236	237	238	240	240	238	234	231	230	230	229	226	220	217	220	223	224	226	226	226	227	228	228	228	228	228	229	229	230	229	229	229	230	229	230	230	231	230	230	230	230	230	230	230	230	230	230	230	230	230	230	230	230	230	230	230	
229	229	230	231	231	230	230	230	230	230	229	228	227	224	219	209	194	207	235	251	249	252	249	243	211	209	207	200	194	188	183	180	177	194	204	193	176	158	156	176	204	220	233	237	232	226	221	216	211	208	209	203	199	207	212	207	196	197	208	224	240	237	214	207	204	196	207	224	221	220	200	214	220	230	221	212	205	201	194	188	175	199	223	219	206	202	200	198	194	190	190	188	187	189	186	182	184	178	210	213	250	237	237	236	234	233	234	234	232	231	232	233	231	228	226	225	225	247	247	246	244	241	239	238	239	242	243	242	239	236	234	233	231	227	221	219	222	224	226	227	227	227	227	228	228	228	228	229	229	229	230	229	229	229	230	231	231	231	230	230	230	230	230	230	230	230	230	230	230	230	230	230	230	230	229	230	230	230	
230	230	231	231	231	230	230	231	231	230	230	229	228	226	221	211	192	201	235	247	244	248	247	238	212	202	199	194	193	191	187	188	186	193	183	198	187	172	160	170	196	217	231	236	230	225	219	213	209	208	209	206	201	207	213	207	199	198	211	228	245	234	213	208	212	203	233	226	222	193	210	221	228	227	218	207	201	198	194	189	174	196	219	221	213	206	202	198	192	188	188	188	189	192	191	187	219	221	238	206	248	251	233	233	232	233	234	234	232	231	231	231	229	225	245	247	248	248	248	248	248	246	244	243	243	243	244	243	242	240	237	234	231	227	222	220	223	226	227	228	228	228	228	228	228	228	228	229	229	229	230	230	229	229	230	231	231	231	230	230	230	230	230	230	230	230	230	230	230	230	229	229	230	230	229	229	230	230	
231	231	231	231	231	230	231	231	231	231	231	230	229	227	224	216	193	198	236	242	238	234	232	228	214	205	200	195	190	188	184	185	192	196	186	204	197	185	167	166	187	214	232	240	234	223	219	215	209	208	210	210	200	202	210	203	196	200	223	237	241	226	215	212	220	207	233	224	219	194	222	232	231	225	212	206	203	200	199	191	175	190	217	223	220	211	207	203	198	196	196	191	185	184	183	217	218	220	239	211	218	251	233	232	230	231	233	232	230	230	230	250	248	246	247	249	250	249	249	250	251	250	249	250	251	249	248	246	246	245	242	238	234	229	225	223	225	228	229	229	229	229	229	229	229	229	229	229	229	229	229	229	229	229	230	231	231	230	230	230	230	230	230	230	230	230	230	230	230	230	230	230	230	230	229	230	231	231	
231	231	231	231	231	231	231	232	232	232	232	232	231	230	227	221	204	205	239	242	232	232	229	225	216	210	205	201	198	193	190	189	188	200	193	210	207	195	174	166	182	213	234	242	245	212	213	215	211	210	214	215	201	197	206	203	192	207	226	244	230	222	216	218	226	217	209	220	215	195	221	231	238	215	207	205	203	201	202	198	185	186	214	225	223	214	210	207	205	203	201	196	187	184	216	215	217	218	219	239	245	251	252	235	251	231	231	251	251	251	251	250	249	247	249	251	253	252	251	254	255	254	254	257	260	261	258	253	251	250	249	246	242	237	231	229	229	231	231	230	229	230	229	229	229	229	229	229	229	229	229	229	229	229	230	231	231	230	230	229	230	230	230	230	230	230	230	230	230	230	230	230	230	230	230	231	231	231	
231	231	231	231	232	231	232	233	233	233	233	233	233	232	231	229	222	224	247	248	227	231	232	225	218	213	207	203	201	198	196	195	192	187	196	215	212	204	184	164	177	212	234	249	244	205	202	212	215	216	218	218	201	240	200	206	198	215	238	235	223	218	214	224	231	221	208	219	216	201	219	237	215	207	205	201	198	197	198	199	190	186	212	226	224	216	213	210	208	205	203	198	190	218	216	216	216	218	218	218	239	245	252	254	253	252	252	251	251	252	252	252	251	249	249	251	251	250	253	257	260	258	257	259	265	270	270	265	259	255	253	253	252	247	240	235	233	233	232	231	230	230	230	230	230	229	229	229	229	229	229	230	229	229	229	230	230	230	230	229	230	230	230	230	230	230	230	230	230	230	230	230	230	229	230	230	230	230	
231	231	231	232	232	232	232	233	234	234	234	234	234	235	235	236	236	241	256	250	244	231	236	226	217	211	206	202	200	198	197	195	194	193	190	192	216	211	196	175	175	210	237	256	243	209	202	210	222	222	222	220	200	238	190	205	209	227	239	229	219	217	216	227	235	222	210	196	183	207	225	240	212	207	208	204	200	197	196	199	191	180	207	230	224	217	215	212	212	210	206	202	193	217	217	217	215	218	221	219	219	241	248	255	255	253	253	254	253	253	254	255	254	253	253	252	250	249	253	258	261	260	257	258	263	268	272	271	266	258	253	254	256	254	248	241	236	234	233	232	231	230	229	229	230	229	229	229	229	230	230	230	229	228	229	229	230	230	230	229	230	230	230	230	230	230	230	230	230	230	230	230	229	229	230	230	230	230	
231	231	231	232	233	233	233	234	234	234	235	235	236	237	238	241	245	254	261	257	239	245	254	228	217	212	209	206	203	198	195	191	188	196	200	199	189	218	208	193	186	215	248	264	241	218	199	206	224	228	226	225	208	239	185	201	222	237	238	225	214	216	222	231	237	224	210	197	185	209	238	234	216	208	208	208	204	200	198	204	201	185	200	227	225	219	216	212	210	211	209	203	223	219	219	218	215	238	240	241	241	242	246	253	256	255	256	256	256	256	256	256	256	257	258	256	252	250	253	256	257	256	255	256	259	262	263	264	262	257	251	251	252	253	251	246	241	237	235	233	232	230	229	229	229	229	229	229	229	230	230	229	229	229	229	230	231	230	230	229	229	230	229	229	230	230	230	230	230	230	230	230	230	229	230	230	230	230	
231	231	232	233	233	233	233	234	235	235	235	236	238	239	241	244	250	261	269	261	251	245	254	229	215	212	212	209	204	201	199	194	196	189	195	204	199	188	218	210	204	226	263	271	238	222	205	206	227	228	224	224	217	202	189	225	231	236	231	227	218	220	229	234	238	227	211	197	184	212	238	237	220	211	208	209	206	206	200	201	202	193	223	221	226	223	219	216	214	210	207	227	222	220	219	217	236	238	242	244	246	246	247	251	256	256	258	260	261	261	259	256	256	258	259	257	254	252	253	253	253	252	252	254	256	257	255	254	253	251	249	248	247	247	247	247	245	241	238	235	233	230	229	229	229	229	229	229	229	229	229	229	229	229	229	230	230	230	230	229	229	229	229	229	230	230	230	229	229	230	230	230	230	230	230	230	230	230	
232	232	233	233	233	233	233	234	235	235	236	237	239	241	243	247	254	264	149	270	256	259	253	231	218	213	210	207	203	201	199	204	198	190	225	230	235	230	222	223	220	242	271	265	264	256	248	241	250	229	221	220	216	203	225	226	248	233	221	221	221	223	228	235	236	230	215	240	174	216	243	239	226	217	212	215	213	206	203	202	201	231	222	235	245	246	242	240	224	217	232	226	223	220	218	236	237	240	245	249	251	251	251	253	257	257	258	261	264	264	260	255	254	255	256	255	254	254	254	253	253	253	254	254	254	253	250	246	244	244	245	245	245	244	243	243	246	245	242	238	235	231	230	229	230	230	229	229	228	228	228	229	229	228	229	230	230	230	230	229	229	230	230	230	230	230	230	229	230	230	229	230	230	230	230	230	230	230	
232	232	233	233	233	233	234	235	236	236	237	238	240	242	245	249	256	265	275	159	260	265	250	245	221	217	213	208	205	201	204	200	197	228	223	227	235	234	229	235	237	256	275	279	275	257	250	247	254	259	255	251	249	241	223	237	255	228	257	251	252	255	230	235	238	235	224	209	182	212	241	242	232	223	215	212	213	210	208	236	233	231	226	232	241	243	242	242	245	241	235	229	227	224	238	238	240	243	247	250	253	254	254	255	257	258	257	258	260	260	257	252	250	249	250	251	252	253	253	253	255	257	259	258	256	253	248	243	241	240	241	243	244	243	240	240	243	245	244	240	236	232	230	230	230	229	228	228	228	228	229	229	229	228	229	230	230	230	230	230	229	230	230	230	230	230	230	230	230	230	229	230	230	230	229	230	230	230	
232	232	232	233	233	234	234	235	236	236	237	239	241	243	246	251	257	266	278	316	278	271	267	240	233	221	216	210	216	212	204	200	232	228	224	237	245	247	246	246	252	268	278	281	282	279	274	272	274	260	256	251	261	255	252	251	259	258	252	244	245	254	258	263	237	234	226	213	194	229	238	241	232	222	215	211	241	238	235	234	234	232	230	253	259	261	243	245	247	244	239	247	246	245	243	244	245	247	249	251	252	252	252	252	253	254	254	253	253	254	251	248	247	247	248	249	250	250	249	262	264	268	273	276	276	273	249	244	241	239	239	242	244	242	239	238	239	240	240	239	236	232	230	230	229	228	227	227	228	229	229	229	229	229	230	230	230	229	230	230	230	230	230	230	230	230	230	229	229	229	230	230	230	230	229	230	230	230	
233	232	233	233	234	235	235	236	236	237	238	240	242	244	247	251	256	264	274	345	335	278	268	261	233	232	226	220	216	214	206	231	230	228	236	242	248	249	249	253	263	274	279	281	284	286	286	283	282	280	273	268	266	265	268	274	260	258	253	247	245	252	258	259	261	259	254	248	238	230	252	263	233	251	247	243	240	237	235	232	249	251	252	254	258	264	267	266	264	261	255	252	249	247	245	246	248	249	251	250	249	248	248	249	252	252	252	251	251	251	249	247	244	243	245	260	262	262	262	263	266	270	272	272	271	268	267	271	269	240	237	239	240	239	238	238	238	236	234	234	234	231	229	229	229	228	227	228	229	229	229	229	229	229	230	230	230	229	229	229	230	230	230	229	229	230	229	229	229	230	230	230	230	230	229	229	229	229	
232	232	233	233	234	235	235	236	237	237	239	240	241	243	247	249	253	259	264	328	360	293	272	264	259	256	229	223	220	215	234	227	236	237	240	247	251	252	253	257	266	275	279	281	283	287	291	292	291	289	282	277	275	277	280	280	278	275	271	269	271	277	278	276	260	258	255	250	242	237	251	259	256	249	245	243	240	253	252	252	253	255	256	256	259	266	274	275	270	265	261	257	252	247	246	246	247	249	251	250	247	245	244	248	251	251	250	250	251	251	250	247	242	257	254	255	256	257	258	261	265	269	271	272	273	268	268	271	266	265	237	255	244	233	235	238	239	235	231	230	230	228	226	226	227	226	227	228	229	229	228	228	228	229	230	230	229	229	229	229	230	230	229	229	229	229	229	229	229	230	229	229	229	229	229	229	229	229	
233	233	233	234	235	235	235	236	237	238	239	240	241	243	239	247	251	253	258	284	348	313	282	269	261	259	228	253	249	243	232	233	232	235	241	248	252	253	255	259	265	271	275	278	281	286	289	292	294	294	290	285	284	285	285	283	279	277	276	276	278	284	286	284	280	276	273	268	262	260	251	257	254	248	244	254	253	252	254	257	260	261	260	259	258	264	276	280	275	269	265	262	256	249	246	245	244	246	248	250	248	244	243	245	247	261	246	258	258	260	263	265	260	255	252	252	253	253	271	274	279	280	284	267	269	268	268	269	268	272	242	237	260	250	249	247	237	233	230	229	228	224	222	223	225	225	227	228	228	228	228	228	228	229	230	230	229	229	229	230	230	230	229	229	229	229	229	229	230	230	229	229	229	229	229	229	229	229	
233	233	233	234	235	235	236	236	237	238	239	240	241	243	245	246	249	252	254	252	284	304	290	274	264	259	256	250	245	239	238	233	230	232	238	245	250	253	255	259	263	266	268	271	274	279	285	288	291	295	295	290	286	287	287	284	280	279	279	281	283	286	289	289	286	282	279	277	273	270	271	272	269	264	259	256	252	251	254	259	263	265	264	260	258	261	269	275	274	269	264	262	257	250	245	243	241	243	246	248	247	244	242	256	254	255	256	256	257	259	259	261	258	251	247	266	267	270	273	279	283	275	274	261	261	262	264	264	263	247	281	241	233	228	254	239	232	232	230	230	229	224	219	220	223	224	226	227	227	227	228	228	228	229	229	229	229	229	229	229	230	231	230	228	228	229	229	229	230	229	229	229	229	230	230	229	229	229	
233	233	233	234	235	236	236	236	237	238	239	240	241	242	244	246	249	251	251	246	223	254	277	274	267	255	252	247	241	240	236	232	228	229	233	240	246	250	252	257	261	263	264	266	268	271	277	283	285	289	293	291	286	285	287	285	281	280	281	281	281	283	288	291	290	286	284	282	279	276	275	273	271	268	264	259	255	253	254	257	260	264	264	261	258	260	263	265	265	263	259	256	253	246	243	242	242	243	259	259	259	260	256	253	250	250	250	251	254	257	258	257	259	248	264	265	267	269	271	277	279	269	264	257	287	286	285	262	248	261	244	275	236	234	235	229	232	233	230	230	229	225	217	216	220	223	225	226	226	227	228	228	228	228	229	229	229	229	229	229	230	231	230	229	229	229	229	229	230	229	229	229	229	230	229	229	229	229	
233	233	234	234	235	236	236	236	237	238	238	239	240	241	243	240	248	250	248	247	220	226	250	263	264	260	257	252	245	238	234	229	227	228	232	238	244	252	254	257	260	261	262	265	267	271	276	281	285	278	280	285	284	282	283	284	283	281	279	275	273	276	282	287	288	287	286	286	283	278	275	273	271	269	267	262	258	255	251	250	254	258	259	259	258	260	260	259	257	256	254	252	248	242	240	241	242	256	257	258	257	257	256	253	250	247	244	265	267	268	264	256	255	249	265	265	269	271	273	281	276	258	253	293	285	288	287	291	260	246	266	246	242	241	241	239	225	226	230	229	229	225	217	214	218	221	224	225	226	227	227	228	228	229	229	229	230	229	229	229	230	231	229	229	229	229	229	229	229	229	229	229	229	229	229	229	229	229	
233	233	234	235	235	236	236	236	237	237	238	239	240	241	243	241	247	250	250	250	223	225	232	236	251	254	255	251	244	238	233	229	228	230	234	239	247	250	253	255	256	257	256	257	260	266	270	271	270	269	273	280	281	280	282	288	279	275	269	265	267	272	276	279	280	281	282	285	284	280	275	271	269	268	266	262	260	257	250	247	251	254	256	256	257	258	257	255	253	253	253	251	247	240	237	254	254	254	255	255	255	255	255	253	249	269	266	265	267	270	268	248	273	294	269	265	267	269	278	288	264	248	276	285	282	284	278	264	257	266	252	250	248	247	244	241	210	222	232	230	229	225	219	214	216	220	222	224	225	226	227	228	228	228	229	229	229	229	228	229	230	230	229	229	229	228	229	229	229	229	229	229	229	229	229	229	229	229	
233	234	234	235	235	235	236	236	236	237	238	239	240	241	244	243	248	250	242	254	232	216	224	233	236	242	247	247	241	235	231	229	228	230	237	238	239	244	267	273	277	282	282	281	282	284	279	260	278	260	265	269	271	269	273	279	273	259	253	256	263	268	270	271	272	273	274	277	279	278	273	267	263	262	261	259	258	256	247	244	249	253	253	265	268	269	267	265	264	264	264	249	247	239	252	250	252	254	255	254	253	253	252	250	276	268	264	262	264	269	271	268	268	308	276	264	265	272	283	283	256	244	288	279	281	282	274	256	249	250	252	250	248	248	246	242	240	216	235	230	228	225	220	214	214	218	222	224	225	226	226	227	227	228	228	228	228	227	227	228	230	230	229	229	228	229	229	229	228	229	229	229	229	229	229	229	229	229	
234	234	234	234	235	236	236	236	236	237	238	239	240	241	244	243	248	251	254	255	225	213	216	229	229	233	238	240	235	232	230	228	228	235	234	233	256	259	263	266	269	273	273	273	275	265	264	284	279	278	271	259	286	297	293	262	251	241	243	252	268	272	275	266	266	266	267	267	269	270	269	264	260	258	257	256	256	254	242	238	252	255	257	260	262	263	263	262	262	262	261	260	257	256	245	244	248	276	279	280	279	280	285	287	277	268	263	259	262	265	264	262	244	239	294	269	265	276	285	268	251	250	278	272	277	279	257	255	240	243	248	245	243	242	241	241	242	208	236	229	225	223	219	213	212	216	220	223	224	225	226	226	227	228	227	227	227	227	228	229	229	229	229	229	228	228	228	229	229	229	229	229	229	229	229	229	229	229	
234	234	234	234	235	236	236	236	236	237	238	239	239	240	242	233	246	250	254	255	230	183	203	225	228	232	236	236	232	231	230	228	229	235	232	230	254	256	260	268	264	267	273	275	277	256	251	267	265	251	249	253	287	301	252	244	230	227	235	253	261	266	269	270	271	271	270	270	270	262	261	258	257	255	254	253	265	262	238	248	249	252	253	255	256	257	257	257	258	259	259	259	254	252	242	239	268	273	275	274	273	274	277	284	284	275	263	260	262	267	266	263	259	235	299	280	269	281	283	264	253	262	277	237	277	277	262	248	239	240	245	245	241	237	235	190	193	200	235	230	225	223	220	213	211	214	219	222	223	224	224	226	228	228	228	228	228	229	229	230	229	229	228	228	229	229	229	229	230	229	229	228	228	228	229	229	229	229	
234	234	234	234	235	235	236	236	236	237	238	238	239	241	243	244	245	248	253	254	232	223	257	219	230	237	240	238	233	231	231	232	240	238	233	255	252	259	264	266	265	271	275	278	280	269	265	273	269	253	265	254	229	246	241	228	215	219	230	246	255	261	262	262	263	264	264	264	263	264	266	264	263	262	260	259	259	254	255	246	245	249	250	252	280	253	253	284	252	280	252	254	252	247	242	234	266	272	273	273	273	274	275	278	284	285	271	262	261	267	270	268	269	267	283	285	274	285	280	266	255	271	230	239	281	277	265	244	233	235	241	243	229	237	208	194	240	206	235	231	228	225	221	214	210	214	218	221	223	223	224	226	228	228	228	228	229	229	230	230	230	229	229	229	229	229	229	230	229	229	228	228	229	229	229	229	229	229	
234	234	234	234	235	235	236	236	236	237	238	238	239	240	242	243	244	246	250	252	242	284	309	268	234	241	242	238	234	233	234	240	239	237	234	258	251	258	263	268	266	269	269	270	274	250	235	235	279	278	240	228	228	235	229	218	208	215	227	241	274	277	289	257	257	258	258	259	259	259	258	258	259	259	258	257	255	248	246	239	238	269	269	271	274	278	282	283	283	282	281	281	269	292	239	260	263	268	268	269	274	278	279	282	283	287	284	265	260	265	267	263	265	238	271	289	245	288	281	266	251	278	230	274	275	270	259	235	220	217	235	234	237	229	211	195	202	193	235	233	229	226	222	214	210	214	218	221	223	224	225	227	228	228	228	228	228	229	229	229	229	229	229	229	229	229	229	229	229	229	229	229	229	229	229	229	229	229	
234	234	234	234	235	236	236	236	235	236	237	237	238	239	240	241	242	244	247	249	244	280	345	201	231	237	237	235	233	234	239	234	233	264	263	260	262	259	262	267	269	271	269	267	267	244	232	234	277	260	233	223	216	226	220	210	203	211	223	238	272	269	281	288	292	293	293	294	254	253	252	252	253	254	255	254	298	241	240	237	229	262	268	268	272	274	276	277	276	275	278	279	246	232	302	221	229	266	267	268	272	275	276	276	279	285	296	273	260	262	264	263	263	239	262	279	283	287	283	262	250	285	229	276	276	266	246	223	209	217	225	228	220	200	217	204	198	193	234	231	228	226	222	214	210	213	218	220	222	223	225	227	228	228	228	228	228	228	228	228	228	228	229	230	230	229	230	229	228	228	229	229	229	229	229	229	228	228	
234	234	234	235	235	235	235	235	235	236	236	236	237	238	239	240	240	242	245	246	244	105	99	165	216	227	230	230	236	237	236	233	263	262	258	266	266	263	261	264	265	267	267	268	267	247	258	279	288	219	206	212	208	223	215	206	211	212	224	238	271	267	271	276	280	284	287	288	288	288	288	286	286	288	293	299	297	289	300	235	227	260	264	269	271	273	273	273	274	272	274	271	243	230	316	272	226	263	267	270	272	272	271	272	277	279	286	289	267	259	263	267	266	266	265	270	278	282	276	259	259	274	271	280	284	255	232	213	206	208	219	227	229	225	226	221	222	211	231	229	227	226	222	214	209	213	218	220	222	223	225	226	226	227	227	227	227	228	228	228	228	228	229	229	229	229	229	229	228	228	229	229	228	228	228	228	228	228	
234	234	234	235	235	235	235	235	235	235	236	236	237	238	238	238	239	241	244	244	243	124	116	157	203	218	226	227	228	231	235	270	266	261	258	267	269	268	261	261	266	265	265	266	251	233	265	299	199	203	218	209	227	222	213	205	207	218	231	240	266	275	274	272	275	278	280	280	279	278	279	280	283	286	290	300	296	286	284	294	222	257	259	267	266	268	270	274	277	277	280	260	239	226	310	275	262	265	267	270	272	272	272	273	275	277	278	290	278	260	260	265	265	270	273	276	280	284	268	247	271	272	274	281	271	246	221	208	195	190	200	212	220	223	218	213	209	210	227	226	226	226	222	214	209	213	218	220	221	223	224	225	225	226	226	226	227	228	228	228	227	227	228	228	228	228	229	228	228	228	229	228	228	228	228	228	228	228	
234	234	234	234	234	234	234	235	235	235	235	236	236	237	237	237	239	240	242	243	243	138	131	166	199	212	219	220	256	256	259	263	263	258	268	269	269	271	267	262	268	272	271	273	236	256	248	214	211	230	217	231	226	220	212	205	208	220	232	260	262	273	267	268	277	283	285	285	277	273	277	280	287	284	281	283	288	290	229	306	261	252	258	263	261	261	264	265	270	277	282	258	237	223	325	268	261	265	268	269	271	269	271	272	271	273	280	294	289	268	259	263	269	260	276	277	280	282	258	243	281	277	285	286	259	236	216	212	213	215	211	205	199	198	200	208	200	202	200	223	224	225	222	215	209	212	217	219	220	222	225	225	226	226	226	226	227	227	227	227	227	227	228	228	228	228	228	228	228	228	229	228	228	228	229	228	228	228	
234	234	234	234	234	234	234	234	235	235	235	235	235	236	236	236	238	239	241	244	242	151	144	177	201	211	215	220	254	253	256	259	272	268	268	268	268	269	269	267	272	280	280	284	248	216	210	215	211	226	220	227	222	215	209	206	210	220	247	252	265	269	266	260	262	272	276	277	277	279	284	289	293	295	287	283	277	287	227	304	261	252	256	259	263	264	265	265	268	277	280	257	234	219	307	286	212	225	270	270	271	270	270	272	272	272	273	283	296	277	262	262	273	278	279	279	281	275	250	245	275	274	281	275	253	232	224	229	230	222	211	206	204	196	192	184	198	198	195	221	222	224	222	215	208	211	216	219	220	222	225	226	226	227	227	227	227	227	227	227	227	228	229	229	229	229	228	228	228	228	229	229	228	229	229	228	228	228	
234	234	234	234	234	234	234	234	234	234	234	234	234	235	235	235	236	237	239	242	238	180	157	183	204	210	215	218	250	248	261	264	271	273	270	268	269	269	269	273	283	293	289	285	238	214	215	208	203	222	217	220	215	209	199	206	212	220	243	246	264	270	272	269	267	268	272	276	273	272	279	283	285	292	296	302	229	307	224	296	205	253	253	254	257	259	262	267	275	281	273	253	229	214	259	316	210	222	268	272	272	272	272	273	274	275	270	266	293	281	265	265	275	258	279	281	284	268	246	268	273	275	264	259	249	238	237	232	218	201	193	195	199	193	186	176	196	196	195	222	222	223	222	216	209	210	215	219	221	222	224	225	226	226	226	227	227	228	228	228	228	229	229	229	229	228	228	228	228	228	228	228	228	228	229	228	228	228	
234	234	234	234	234	234	234	234	234	234	234	234	234	234	234	234	235	235	237	240	236	194	169	187	206	214	218	248	247	257	258	261	265	273	272	268	268	268	271	280	297	315	305	277	227	214	211	202	226	219	212	217	209	203	201	205	213	236	238	257	261	266	268	265	262	262	272	279	276	277	277	276	272	253	257	233	229	307	303	310	202	205	212	231	253	257	258	262	271	272	267	248	235	217	213	349	205	214	263	266	269	272	270	270	272	275	278	272	294	284	267	267	276	269	276	276	278	262	247	266	274	280	249	235	232	235	229	217	209	202	188	181	189	195	191	180	198	196	196	221	221	221	221	216	210	210	214	218	221	222	224	225	225	225	226	226	227	227	228	228	228	228	228	228	228	228	228	228	229	228	228	228	228	228	228	228	227	227	
233	233	233	234	234	234	234	233	233	233	233	233	233	233	233	233	233	233	234	237	231	208	179	190	208	236	244	246	244	258	254	260	267	272	269	267	266	266	270	282	291	262	268	290	226	214	211	201	226	218	223	217	208	201	199	205	213	231	233	256	259	264	265	263	261	245	239	276	280	288	280	246	244	242	243	231	227	309	294	290	295	202	208	215	228	253	260	263	265	265	260	251	238	224	211	13	291	207	228	263	266	270	269	268	265	268	272	262	265	292	274	269	278	280	276	275	271	252	241	253	269	272	236	226	231	229	212	201	196	198	191	183	190	198	194	184	200	194	195	196	219	219	219	215	210	209	212	217	220	222	223	224	225	225	226	226	227	227	227	227	227	228	228	228	228	228	228	228	229	228	227	228	228	228	228	228	227	227	
233	233	233	233	233	233	233	233	233	233	233	232	232	232	232	232	232	232	232	234	232	216	185	192	208	232	251	260	239	257	254	259	266	270	269	268	267	268	275	286	250	286	299	291	233	216	212	200	223	217	222	216	206	198	196	202	222	224	226	252	257	262	267	265	263	240	246	277	283	286	270	249	249	244	234	230	226	312	289	282	302	283	205	215	228	247	257	267	267	263	258	251	256	221	203	197	314	203	222	223	263	270	272	268	266	266	264	255	236	281	284	275	279	278	275	276	272	242	232	244	264	231	218	222	224	213	202	196	190	190	192	190	193	195	192	189	201	192	194	198	217	217	218	216	212	210	212	215	219	221	223	224	224	225	226	226	227	227	227	227	227	228	228	227	228	228	228	228	229	229	227	228	228	228	227	227	227	227	
233	233	233	233	233	233	233	233	232	232	232	232	232	231	231	231	230	230	230	231	230	219	191	193	208	215	235	261	260	258	255	258	264	265	266	266	268	273	283	285	267	259	253	232	215	219	207	197	220	215	219	213	204	279	193	197	215	217	218	246	252	256	261	261	260	257	256	280	287	268	260	263	271	245	245	245	328	297	281	284	217	315	203	215	228	248	251	265	266	260	251	249	242	219	205	198	318	276	211	217	249	265	267	270	267	269	268	263	262	284	288	279	278	275	275	278	272	233	194	164	156	170	186	198	195	193	194	190	184	182	180	179	186	189	184	185	203	191	192	197	217	216	217	217	214	213	214	215	218	221	222	223	224	225	225	226	226	227	227	227	227	227	227	228	228	228	228	228	229	229	228	228	228	227	227	227	227	227	
233	233	233	233	233	233	233	232	232	232	232	231	231	230	230	229	229	228	227	227	228	221	196	195	207	214	230	250	256	258	255	257	262	264	265	266	270	280	295	294	244	207	196	197	221	213	204	224	219	221	218	212	206	202	199	197	202	215	215	238	241	251	256	258	257	240	250	272	281	259	254	263	267	239	238	240	305	285	275	284	217	327	203	215	228	250	250	261	265	260	249	242	233	219	209	200	301	279	273	216	242	254	262	265	267	267	264	257	246	261	297	279	274	276	283	284	259	209	180	164	170	179	182	184	192	199	200	194	187	184	183	183	191	190	183	180	203	190	189	193	217	216	218	217	216	214	215	216	218	220	222	223	224	225	225	225	226	227	227	227	227	227	227	228	228	228	227	227	228	228	227	227	227	227	228	227	227	227	
233	233	233	233	233	233	232	232	232	231	231	231	230	229	229	228	227	226	225	224	224	220	205	199	206	212	222	245	251	259	260	256	257	260	262	268	278	295	310	252	224	204	233	224	217	210	229	224	224	222	218	212	267	210	213	207	205	211	216	216	237	237	250	257	260	254	255	267	266	249	249	258	259	247	232	299	291	279	281	228	212	302	223	226	224	250	259	257	264	267	253	244	230	220	208	131	279	266	271	276	220	236	254	263	263	263	267	253	246	274	307	277	270	285	297	240	201	196	192	178	174	188	211	207	188	197	206	206	205	200	192	190	195	198	198	190	206	192	187	191	218	217	219	218	217	215	216	217	217	219	222	223	224	224	224	225	226	226	226	227	226	227	227	228	227	227	227	228	229	228	227	227	227	228	228	227	227	227	
233	233	233	233	232	232	232	232	231	231	230	230	229	229	228	227	226	225	223	221	220	218	229	207	208	212	220	220	247	259	262	257	254	256	261	269	285	294	279	236	218	210	231	221	238	234	230	227	225	225	220	212	211	217	222	220	213	213	219	216	218	234	244	251	262	259	261	268	256	244	246	246	241	241	244	263	268	277	295	225	205	282	205	260	256	244	258	260	262	266	262	247	232	221	208	198	274	201	263	270	277	241	250	254	263	266	279	228	214	274	304	276	273	302	275	209	180	186	193	190	176	169	179	239	236	190	197	205	210	215	218	219	215	209	206	202	190	197	186	188	191	218	219	219	217	216	217	218	218	220	223	225	224	224	224	224	225	226	226	226	226	227	227	227	227	228	228	228	229	228	227	227	227	228	227	227	226	226	
233	233	232	232	232	232	232	231	231	230	230	229	229	228	227	226	225	223	221	219	217	214	214	213	212	214	218	219	240	255	261	259	254	257	265	278	293	273	248	217	211	206	229	220	235	232	230	228	227	226	220	214	214	221	235	228	222	241	217	219	219	219	231	245	257	260	257	255	246	243	249	241	232	241	250	249	251	269	225	222	206	198	203	208	212	238	237	257	258	264	264	246	233	221	209	198	283	199	212	267	273	277	260	251	258	278	242	234	255	288	285	275	284	318	216	181	183	187	187	185	178	175	172	177	242	238	191	189	198	206	210	209	206	198	194	193	195	204	190	189	194	217	219	218	216	215	217	218	218	219	223	225	224	223	223	224	225	226	226	226	226	226	227	227	228	228	228	228	229	228	227	228	228	228	227	227	226	226	
233	232	232	232	232	232	231	231	230	230	230	229	228	227	226	225	223	222	219	217	213	210	213	216	217	220	217	239	235	249	255	255	256	262	269	289	266	239	226	223	208	235	227	237	232	230	229	228	226	224	274	215	216	222	231	231	226	220	228	219	219	219	220	229	248	259	259	248	238	238	244	235	235	248	250	258	268	232	223	219	211	199	197	202	206	231	230	247	251	258	268	244	233	221	210	199	294	198	210	228	267	270	273	268	261	285	240	235	266	293	273	274	296	279	193	182	186	189	187	182	179	180	178	167	185	247	242	234	193	188	191	192	193	195	195	188	192	208	193	188	192	218	218	217	215	214	216	217	216	216	221	224	222	221	222	224	225	225	226	226	226	227	227	227	228	228	227	228	228	228	228	228	228	227	227	226	226	226	
232	232	232	232	232	232	231	230	230	230	229	228	227	226	225	224	222	220	218	214	209	206	210	218	221	221	219	240	234	246	249	251	257	265	276	296	253	230	218	223	212	235	228	234	230	228	227	226	223	221	220	218	218	224	227	279	228	223	295	218	218	219	220	228	243	250	266	246	235	231	235	233	234	221	226	251	229	223	220	215	298	307	197	200	204	208	213	225	245	252	271	242	234	223	214	204	292	197	206	217	248	262	263	267	275	297	239	231	320	273	266	263	257	184	187	185	186	192	199	199	190	184	185	183	154	159	251	249	244	222	201	198	192	192	192	182	181	188	195	185	187	190	219	217	215	214	215	216	215	215	219	222	220	219	220	223	224	225	226	226	226	227	227	227	227	227	227	227	228	227	227	228	227	227	226	226	226	226	
232	232	232	232	232	231	231	230	230	229	229	228	227	226	225	223	221	219	216	212	206	201	206	218	223	222	245	241	234	246	246	249	255	264	279	288	251	232	219	218	214	209	224	229	226	223	221	219	216	217	220	221	221	223	255	271	233	229	225	281	221	222	220	229	229	244	256	258	234	225	225	233	233	229	227	207	221	222	216	288	271	275	307	208	206	208	213	219	226	244	263	244	235	224	217	297	295	199	202	209	238	249	260	263	274	283	232	250	272	260	277	151	164	175	178	179	183	187	193	201	222	229	232	234	236	240	157	158	254	199	199	191	186	185	187	184	182	208	201	198	195	192	220	218	216	215	215	216	215	215	220	223	221	218	219	222	223	224	225	226	226	226	227	227	227	227	227	227	228	227	226	227	227	226	226	226	226	226	
232	232	232	232	231	231	230	230	229	229	228	227	226	225	224	222	220	218	214	210	204	196	201	219	224	243	244	244	250	247	248	250	254	262	283	272	244	234	227	218	209	227	220	226	222	218	213	262	211	215	218	220	220	247	250	270	236	233	228	310	279	257	225	227	231	243	250	269	236	223	219	232	222	192	213	224	225	222	213	285	211	273	217	311	302	205	211	219	228	230	250	245	238	225	218	260	281	301	200	202	211	232	249	261	270	236	220	235	259	283	148	173	176	178	179	177	178	181	184	188	190	213	199	227	228	231	228	237	249	245	237	218	203	196	196	191	187	183	202	203	205	205	219	218	217	215	214	216	217	218	222	224	222	218	218	221	223	224	225	226	226	226	227	227	227	226	226	227	228	228	228	228	227	226	226	226	226	226	
232	232	232	232	231	231	230	230	229	229	228	227	226	225	223	221	219	216	213	208	201	192	195	218	225	244	245	246	259	252	251	250	252	260	288	248	232	224	220	222	207	223	218	224	220	214	208	206	209	212	217	220	243	245	246	268	245	232	225	223	301	286	273	234	235	235	245	257	228	215	203	200	222	222	228	228	226	222	213	295	211	220	282	217	209	299	209	219	230	247	252	247	240	226	274	270	274	298	310	200	210	224	245	251	288	191	176	154	130	169	178	179	182	179	179	179	182	183	182	184	184	184	189	193	194	200	205	211	220	231	223	205	193	190	194	192	186	179	197	195	201	203	206	217	215	213	212	214	216	219	223	225	223	220	219	221	224	224	225	225	225	226	227	228	227	226	226	226	227	228	228	228	227	226	226	226	226	226	
232	232	232	231	231	230	230	230	229	229	228	227	226	224	222	221	218	215	211	206	199	188	190	216	240	243	246	265	268	264	258	255	255	259	273	228	219	215	213	220	207	222	217	222	218	213	206	203	205	209	214	218	239	239	258	265	241	231	223	220	292	275	280	280	236	236	259	265	236	234	228	228	229	230	229	226	224	226	218	296	211	219	283	223	217	209	210	218	227	233	253	266	239	267	265	260	273	220	324	203	229	216	239	224	205	193	181	183	192	196	194	187	183	180	180	184	187	189	189	189	185	185	182	184	187	188	187	192	195	197	193	188	182	182	183	187	188	180	200	193	194	198	217	216	214	211	210	212	217	222	224	225	223	221	220	221	223	223	224	224	224	224	226	227	227	226	226	226	227	227	227	227	227	226	226	226	225	225	
232	232	231	231	231	230	230	230	229	228	227	226	225	224	222	220	217	214	210	205	197	186	188	214	236	239	257	264	268	271	269	267	266	266	234	226	213	210	210	218	206	220	215	221	217	213	206	200	201	206	212	231	231	251	256	263	256	232	221	216	276	265	278	290	270	261	264	280	240	237	232	230	229	227	225	222	223	224	216	291	209	217	282	227	220	211	243	215	226	231	250	280	240	266	263	262	259	240	263	233	217	214	225	208	211	204	196	193	197	200	202	199	195	191	187	185	185	182	186	191	192	188	187	187	190	186	183	182	181	186	192	192	189	189	191	193	188	178	204	196	194	194	193	193	214	211	211	214	220	224	224	224	224	222	221	222	223	223	224	224	224	223	225	227	226	225	226	227	227	228	228	227	226	226	226	226	225	225	
232	231	231	231	231	230	230	230	229	228	227	226	225	223	221	219	216	213	209	203	195	185	186	210	234	247	254	261	268	271	271	271	273	259	229	221	210	229	223	217	226	219	224	222	218	214	321	201	199	204	210	214	226	251	255	263	254	233	220	213	263	260	274	287	275	266	267	294	239	224	229	211	233	225	223	223	239	244	217	295	209	219	267	228	221	212	233	211	221	226	253	272	259	265	219	266	253	216	254	277	210	224	203	207	209	208	201	193	192	197	203	204	203	201	197	193	186	182	179	185	190	191	193	196	194	189	190	192	196	197	198	198	192	189	189	184	183	181	212	207	197	193	192	192	215	212	214	217	222	225	224	224	224	222	222	224	225	224	224	225	224	224	226	228	226	225	227	227	227	228	228	227	226	226	226	225	225	225	
231	231	231	231	231	230	230	229	228	228	227	226	224	223	221	219	216	212	208	201	193	184	181	205	232	248	249	257	262	268	272	273	267	252	250	244	234	226	222	232	227	221	224	223	219	217	213	205	199	204	210	214	223	247	249	261	250	235	219	218	255	256	267	270	265	261	267	271	234	225	213	212	221	224	222	221	249	249	219	294	211	219	283	227	221	214	278	207	217	222	236	264	261	253	257	269	233	215	211	180	213	220	220	221	223	223	209	202	196	201	203	206	205	204	202	200	194	188	182	179	180	182	184	190	195	197	186	183	187	190	193	197	205	210	216	218	214	209	201	211	203	195	192	192	215	214	216	218	222	225	223	222	223	221	222	224	224	223	225	225	225	225	228	229	227	226	227	227	228	227	227	227	226	226	226	225	225	225	
231	231	231	231	231	230	230	229	228	227	227	226	224	223	221	218	215	211	206	200	191	183	177	188	235	254	250	252	257	263	275	284	252	251	246	239	240	238	236	233	229	226	224	222	224	218	283	354	201	206	213	215	220	242	241	260	244	235	217	275	255	255	261	259	258	260	262	259	229	222	218	224	226	225	221	277	272	253	236	292	212	219	285	226	220	214	295	206	216	223	234	250	267	225	280	224	182	185	185	215	212	212	211	214	217	217	218	213	205	198	200	207	208	208	207	204	198	193	189	182	182	180	182	188	200	210	210	207	207	212	218	228	229	227	226	210	198	197	192	183	201	193	191	191	216	216	217	219	222	224	223	222	223	222	223	224	223	222	224	225	225	226	227	228	227	227	227	228	228	227	226	226	226	226	226	225	225	225	
231	231	231	231	231	230	230	229	228	227	227	225	224	223	221	218	215	211	205	198	189	181	171	183	247	264	258	252	251	259	297	253	254	251	247	244	241	240	238	235	231	228	224	221	220	221	219	211	205	208	216	231	224	220	238	255	246	227	213	230	245	249	257	276	180	200	212	213	213	218	216	217	222	233	260	218	223	246	220	270	213	220	292	226	218	211	289	252	218	225	236	230	250	242	210	203	199	225	218	211	205	239	239	239	241	242	214	212	206	199	197	225	227	225	224	221	216	211	208	198	193	188	182	182	186	190	195	195	197	203	210	213	213	212	207	197	193	185	182	179	201	194	191	219	216	216	218	219	223	226	225	225	226	225	226	226	224	223	224	225	225	226	227	227	228	227	227	228	227	226	226	226	226	226	226	224	224	224	
231	231	231	231	230	230	229	229	228	227	226	226	224	223	221	218	215	210	205	197	187	177	160	167	250	272	270	264	258	261	245	254	250	249	248	245	243	241	238	235	232	228	223	221	223	232	220	210	205	208	224	224	223	252	239	252	248	219	208	236	244	207	214	184	188	197	206	214	211	222	211	209	208	228	209	212	223	222	224	269	215	224	247	227	218	212	259	214	220	225	233	255	253	218	212	239	229	220	240	207	200	241	239	243	244	242	241	240	238	233	200	219	219	219	219	219	216	214	211	209	206	202	199	195	192	188	190	187	189	195	201	201	204	207	210	210	199	183	180	180	201	194	191	218	217	217	218	220	224	226	226	227	228	228	228	227	226	225	225	226	226	226	226	228	228	227	227	227	227	226	226	226	226	226	226	224	223	223	
231	231	231	231	230	230	229	229	228	228	227	226	225	223	220	218	215	210	204	195	185	173	148	150	244	265	271	271	262	267	251	236	240	238	243	242	241	239	237	235	232	226	222	223	227	226	216	315	205	209	220	219	249	242	254	250	192	217	205	203	206	203	194	191	189	193	203	212	216	211	198	214	207	216	204	206	240	213	218	236	226	235	233	224	218	214	255	215	221	232	228	251	283	204	202	231	222	214	244	244	243	241	232	246	249	250	248	248	234	230	225	220	215	213	246	245	245	244	243	211	209	206	207	208	204	199	194	187	185	184	188	191	192	196	201	204	200	191	186	186	201	220	190	219	218	219	220	223	225	225	225	227	227	227	226	227	227	226	226	227	226	226	226	228	228	227	227	227	227	226	226	226	226	225	225	224	223	223	
231	231	231	230	230	230	229	229	229	228	227	226	225	223	220	218	215	210	204	195	184	169	143	141	234	256	262	263	258	265	238	231	216	234	237	238	237	236	235	233	229	226	221	226	256	223	214	218	209	212	218	218	239	254	251	228	195	192	193	196	201	204	196	193	187	191	204	214	217	215	208	198	200	194	202	207	207	201	244	216	217	240	220	217	212	224	261	228	224	222	247	262	230	201	180	166	181	205	202	248	246	247	247	250	254	254	253	251	250	249	247	246	246	246	247	248	248	245	244	243	240	235	231	231	229	225	219	199	196	192	187	189	190	190	192	195	199	197	194	195	204	219	220	219	219	220	221	223	224	223	226	229	229	226	225	225	225	225	226	226	226	226	227	228	228	228	227	227	227	226	225	225	226	225	225	225	224	224	
231	231	231	230	230	230	230	229	229	228	227	226	225	223	221	218	215	210	204	196	184	167	148	149	223	242	258	254	245	238	233	230	236	237	235	235	235	234	232	229	285	220	222	228	229	221	213	216	211	216	219	217	234	221	228	204	188	188	191	196	203	206	197	204	186	188	204	213	218	217	211	201	201	197	200	206	209	208	210	214	215	222	219	215	206	247	202	207	211	216	220	243	197	199	180	170	184	200	200	195	242	252	253	256	260	261	259	257	254	251	250	249	248	246	246	250	252	252	245	244	241	236	232	248	231	227	221	216	214	212	208	204	190	189	195	200	199	197	194	198	207	217	219	219	219	219	221	223	223	223	227	231	230	227	225	224	222	223	225	227	227	228	228	228	228	228	227	227	226	225	225	225	226	225	225	225	224	224	
231	231	230	230	230	230	230	229	229	228	227	226	225	223	221	219	216	211	205	197	185	168	158	161	225	238	221	220	222	224	215	229	227	236	236	235	233	231	228	284	221	220	224	265	228	220	214	213	214	221	225	253	225	231	236	205	194	189	191	200	206	212	199	230	222	178	206	213	218	220	211	205	200	199	201	205	209	210	213	216	217	216	205	211	209	213	222	222	222	218	226	221	210	203	179	172	170	200	171	159	242	245	250	256	137	265	265	263	260	257	254	252	251	250	249	252	256	259	259	258	256	255	255	256	255	251	245	240	238	237	214	210	208	206	195	195	201	202	219	200	211	198	192	218	218	219	221	223	221	221	225	229	230	228	226	223	221	223	226	227	228	228	229	229	228	228	227	227	226	225	225	226	225	225	225	224	224	224	
231	231	231	230	230	230	230	229	229	228	227	226	225	224	222	220	217	213	207	199	187	171	165	162	210	240	221	221	221	225	226	218	227	225	229	228	232	223	294	224	222	222	227	232	227	218	258	212	218	225	254	232	200	238	240	216	194	188	190	197	205	213	208	231	222	209	200	216	220	221	212	203	199	201	203	204	208	212	216	219	220	221	210	197	195	201	211	213	216	221	225	222	237	206	216	189	169	161	161	236	234	238	243	249	255	260	152	265	265	264	260	256	255	255	256	258	263	267	266	263	261	260	261	264	265	264	260	255	251	247	244	241	239	237	234	231	197	204	220	218	214	217	196	218	219	220	222	222	220	220	225	231	232	230	227	224	222	224	226	226	227	227	228	228	228	227	227	227	227	226	226	226	225	224	224	223	222	222	
231	231	231	231	230	230	230	229	229	228	228	227	226	225	223	221	218	215	209	202	190	175	169	154	156	244	221	220	221	226	230	227	231	222	223	244	228	229	228	225	222	225	249	234	228	220	213	214	219	240	304	235	196	240	242	211	201	187	184	212	219	228	213	228	224	211	195	213	228	224	215	225	213	199	204	205	208	213	218	220	222	224	211	198	195	199	214	217	218	223	225	223	216	214	220	228	223	217	233	232	233	235	238	242	246	252	257	260	141	265	263	260	257	257	260	255	181	268	270	268	266	265	266	268	271	274	276	275	267	260	256	253	249	246	241	236	233	203	199	194	215	221	220	221	222	222	222	223	221	222	229	233	233	231	228	224	222	223	226	226	226	226	227	227	227	227	227	228	227	226	226	225	224	223	224	222	221	221	
231	231	231	231	230	230	230	229	229	229	228	227	227	225	224	222	219	216	211	205	194	180	168	142	138	248	223	223	226	230	232	229	217	226	215	218	218	219	219	217	218	225	235	232	227	219	215	216	220	267	234	224	204	168	241	241	235	192	208	205	223	227	229	224	226	214	182	216	224	230	219	222	210	195	203	204	209	215	219	224	229	228	213	199	192	195	214	218	219	223	228	225	223	214	208	228	225	230	231	231	233	234	234	238	241	244	248	252	255	257	259	258	256	255	257	259	259	260	264	266	266	266	266	266	269	275	282	288	283	274	270	265	261	258	254	251	248	243	237	233	218	210	224	222	220	221	222	224	225	227	230	232	231	230	227	223	221	222	225	226	226	227	228	227	226	227	228	229	227	226	225	224	222	223	223	222	220	220	
231	231	231	231	230	230	230	230	230	229	229	228	227	226	224	223	221	218	214	208	199	186	166	133	129	249	226	229	233	235	234	228	218	212	207	217	215	213	225	213	213	242	226	226	262	247	214	216	222	232	189	218	206	235	172	227	223	215	200	219	224	233	226	219	227	215	209	214	226	235	229	218	229	219	201	203	208	215	222	230	234	235	213	200	187	190	214	219	223	223	226	225	225	224	230	216	224	228	229	230	232	233	232	233	235	234	240	243	247	249	251	250	250	251	252	252	250	251	254	257	259	260	259	261	265	272	281	288	287	282	279	275	270	266	263	262	260	254	248	245	243	237	223	225	224	222	223	227	229	231	232	231	230	229	228	224	221	222	226	227	227	230	231	229	227	228	229	229	228	227	225	223	222	222	222	221	220	220	
231	231	231	231	230	230	230	230	230	230	229	228	227	226	225	224	222	220	216	212	204	192	170	128	126	248	230	234	238	238	235	227	216	212	210	209	215	214	214	214	222	242	220	241	235	219	211	217	226	188	189	186	184	185	179	173	171	206	192	219	226	236	223	196	228	216	182	214	225	233	229	216	228	218	198	203	211	221	227	233	237	237	213	236	224	181	211	217	222	226	226	227	224	222	217	227	217	224	224	225	220	206	199	205	204	231	236	238	241	244	244	243	244	247	249	246	245	246	247	249	251	251	252	255	262	269	275	278	279	279	278	276	273	269	270	265	262	257	252	249	262	253	232	208	228	226	227	230	232	234	235	232	231	231	230	227	223	224	228	230	231	233	234	231	229	230	231	230	229	227	225	223	222	222	222	221	220	220	
231	231	231	231	231	230	231	230	230	230	229	228	228	227	226	225	223	221	219	215	209	200	181	137	140	244	238	243	243	239	232	223	215	218	216	216	216	217	218	208	210	213	222	248	215	213	213	208	185	195	192	187	185	181	180	219	204	167	230	222	230	239	242	193	228	217	178	214	226	234	228	213	228	219	193	204	218	224	229	234	241	242	214	235	225	175	205	214	221	225	229	228	223	218	219	221	203	210	221	221	207	203	202	209	232	234	233	235	237	239	238	238	241	243	243	242	243	244	248	248	249	244	246	250	257	263	266	269	272	273	273	272	271	268	264	260	255	251	247	245	271	248	238	209	230	228	230	232	234	237	237	234	233	234	233	231	227	227	231	233	234	236	236	233	232	233	233	232	231	229	226	224	222	222	221	220	219	219	
231	231	231	231	231	231	231	231	230	230	229	229	228	228	227	226	224	223	221	218	214	207	193	174	169	219	247	248	246	239	230	220	218	213	212	213	215	227	214	216	216	218	216	226	217	216	219	209	200	194	197	193	189	183	179	178	206	185	163	230	238	244	244	238	229	219	175	213	226	235	227	238	228	218	212	206	217	224	230	236	244	245	210	242	226	206	201	213	221	224	227	227	220	213	220	226	220	227	194	207	207	206	214	232	234	236	232	233	235	241	239	236	245	238	237	238	242	245	246	245	243	245	250	254	257	260	255	257	262	265	264	264	266	265	258	251	246	243	241	242	266	244	233	213	231	230	232	233	235	239	240	236	236	237	237	236	233	232	234	236	237	238	238	237	237	239	239	238	237	234	231	228	225	224	221	218	216	216	
231	231	231	231	231	231	231	231	230	230	230	229	229	228	228	227	226	224	223	220	217	212	203	192	172	196	250	247	242	236	227	218	236	231	229	228	231	216	221	222	221	220	233	232	219	218	220	222	210	201	199	203	200	194	186	215	206	240	239	240	248	252	249	243	233	223	209	212	225	234	222	235	226	215	208	210	218	225	230	235	244	245	207	240	224	207	187	211	220	223	228	224	212	211	221	227	222	213	230	201	219	221	226	231	233	235	238	240	240	238	235	237	235	234	233	235	237	240	241	242	240	240	244	248	250	251	249	244	239	241	245	248	249	249	246	244	244	243	242	280	243	239	230	233	232	233	235	236	238	241	242	238	238	240	241	241	240	240	242	243	242	243	245	246	247	249	250	249	248	247	245	242	236	231	223	215	211	211	
231	231	231	231	231	231	231	231	231	231	230	230	229	229	228	227	227	226	224	223	220	216	209	195	168	188	252	247	239	233	222	240	230	225	229	230	215	222	230	232	228	221	237	235	234	232	231	219	221	212	196	206	211	230	227	236	238	240	242	247	258	261	256	248	239	226	211	214	226	234	216	233	225	215	207	210	219	225	230	243	242	246	207	232	224	212	169	202	215	222	227	217	206	212	224	227	221	220	220	230	226	230	230	231	232	234	235	235	235	232	229	234	239	231	232	234	256	252	251	247	249	234	237	240	242	242	248	232	225	227	236	245	247	238	226	229	236	237	274	261	228	235	229	233	234	236	238	239	243	246	246	244	243	244	248	249	248	249	252	254	254	256	259	261	260	260	260	259	260	262	261	258	253	239	221	204	198	198	
231	231	231	231	231	231	231	231	231	231	230	230	229	229	229	228	228	227	226	224	223	219	213	200	169	181	253	247	239	231	240	232	233	230	230	232	220	231	241	244	233	244	244	243	206	237	234	233	233	221	208	197	209	228	228	233	234	236	239	243	254	263	263	257	246	229	213	216	227	232	234	200	227	215	199	213	221	226	231	241	240	242	206	228	224	215	199	194	210	222	221	210	206	219	228	225	221	225	226	224	227	231	232	228	230	231	249	234	222	218	220	231	239	230	233	252	254	249	245	243	250	230	232	257	252	246	238	228	218	216	221	226	228	221	211	209	229	240	226	201	200	213	227	224	236	240	241	243	248	252	253	252	251	255	262	264	260	257	258	262	257	269	269	270	271	270	268	269	249	274	274	275	275	260	204	179	177	177	
231	231	231	231	231	231	231	231	231	231	231	230	230	230	229	229	229	228	227	226	224	221	216	205	173	181	251	243	234	227	234	237	229	228	231	225	236	238	243	246	236	251	211	207	203	237	234	232	234	235	218	208	199	211	227	228	232	233	234	236	241	248	255	261	259	240	220	221	227	228	230	204	227	213	206	214	222	228	232	240	239	232	209	223	225	217	204	194	206	222	231	212	213	223	226	223	223	226	226	227	230	225	229	228	231	235	236	230	228	220	222	230	237	242	242	243	246	250	241	241	243	250	252	252	250	239	232	219	211	207	211	212	212	203	192	190	204	210	204	198	233	230	226	224	240	246	250	252	256	260	261	259	257	263	270	273	271	265	265	269	273	275	276	277	279	279	277	277	278	282	289	295	306	329	36	113	126	126	
231	231	231	231	231	231	232	232	231	231	231	231	231	230	230	230	229	229	228	227	226	224	220	211	182	188	248	239	237	233	244	235	227	226	223	232	235	238	242	245	248	253	200	195	197	239	235	233	234	231	233	217	204	200	226	227	227	230	230	230	233	237	242	246	248	247	242	232	226	230	233	222	225	212	208	216	222	227	231	240	233	223	212	203	227	221	213	199	201	217	225	226	226	225	225	223	224	225	227	229	230	230	231	228	226	228	227	226	227	230	237	230	233	236	253	249	249	245	245	241	236	241	241	240	237	230	217	210	197	191	192	188	192	190	183	180	197	202	236	238	244	244	243	244	248	255	261	266	268	268	267	265	265	270	275	278	276	272	271	274	278	283	276	274	295	297	295	285	276	276	250	306	326	352	14	89	111	111	
231	231	231	231	231	232	232	231	231	231	231	231	231	231	230	230	230	230	229	228	227	226	224	217	200	203	242	243	236	229	242	233	225	223	225	229	233	237	243	242	245	249	249	247	170	187	237	234	233	233	229	230	217	209	205	225	225	224	226	226	227	229	232	234	233	232	237	238	220	220	229	219	224	213	211	219	224	227	239	233	224	219	213	203	208	224	219	209	182	206	215	221	225	221	225	227	225	228	233	235	233	228	219	216	216	204	221	221	224	232	236	224	226	249	243	241	245	242	243	240	241	232	237	230	222	212	184	179	181	181	203	204	206	195	206	205	233	237	240	245	251	255	256	257	261	267	274	279	278	274	270	268	261	281	283	286	272	260	270	269	270	246	252	257	263	257	252	217	224	237	252	303	325	352	12	48	79	79	
231	231	231	231	232	232	232	232	232	232	232	232	231	231	231	231	231	230	230	229	229	228	226	223	215	211	244	251	233	245	239	229	221	221	224	229	233	241	241	240	243	245	245	242	241	239	191	237	235	234	233	227	227	227	211	203	223	222	219	218	222	222	223	224	223	222	222	220	205	199	219	228	203	215	216	222	230	237	230	220	217	217	216	211	204	226	222	216	201	188	198	219	226	217	225	228	228	237	243	243	236	225	218	219	222	221	197	217	220	221	221	230	239	241	230	233	240	236	237	233	232	231	207	163	179	185	194	194	213	209	220	224	228	229	230	235	241	245	249	253	260	265	265	266	271	277	285	292	291	282	268	266	262	284	287	290	286	202	233	240	248	283	290	293	298	302	313	321	272	255	238	208	199	192	186	172	158	158	
231	231	232	232	232	232	232	232	232	232	232	232	232	231	231	231	231	231	230	230	230	230	229	227	223	216	239	253	250	245	238	227	219	222	228	232	235	241	241	249	250	244	243	240	238	236	236	188	233	234	233	232	227	227	227	208	194	207	217	215	212	216	216	216	214	212	212	210	203	186	197	219	219	215	219	232	231	230	222	216	215	217	219	219	212	199	225	219	205	185	185	213	224	227	233	235	240	244	243	242	228	219	219	223	226	225	214	194	203	211	212	220	228	226	219	223	230	231	231	223	212	163	194	196	201	224	225	222	216	224	227	231	235	236	237	240	247	257	264	270	275	275	268	266	270	277	285	291	304	305	220	226	245	279	282	282	294	300	262	252	237	213	204	201	200	199	198	194	196	201	200	201	199	195	192	186	183	183	
231	232	232	232	232	232	232	232	232	232	232	232	232	232	231	231	232	232	231	231	231	231	231	230	228	222	239	252	250	245	238	227	223	227	233	236	238	243	241	248	240	217	241	236	238	237	235	231	230	232	232	231	232	228	228	216	208	196	190	192	203	200	197	190	212	208	204	209	206	195	188	204	213	216	222	229	230	222	217	214	212	216	220	221	216	208	196	220	212	194	184	203	223	228	234	233	247	245	244	231	219	217	222	227	229	226	218	209	202	196	191	198	171	189	202	214	220	223	218	184	178	186	199	196	226	226	226	224	228	229	234	240	243	244	244	247	256	269	284	298	307	314	264	252	256	260	291	298	299	308	308	246	237	211	202	199	197	193	197	203	203	205	203	201	200	200	198	196	196	199	200	202	204	204	202	202	203	203	
232	232	232	232	232	232	232	232	232	232	232	232	232	232	232	232	232	232	232	232	232	232	232	232	231	228	239	251	246	243	235	227	226	231	234	235	236	243	249	243	229	207	239	234	235	234	233	232	154	230	230	231	233	235	227	219	214	209	201	194	189	186	184	183	180	179	205	200	211	204	194	196	209	221	230	229	231	232	231	231	228	228	232	223	218	213	228	222	211	202	187	197	217	230	232	230	243	240	231	230	217	220	230	233	231	225	218	211	207	204	203	206	206	201	195	187	176	179	185	192	194	206	198	219	218	226	231	232	232	235	246	260	262	259	255	255	257	260	279	298	310	324	317	244	241	215	205	201	198	195	192	196	201	203	202	199	198	195	196	200	201	204	208	208	207	206	205	205	205	205	207	208	209	209	209	211	211	211	
232	232	232	232	232	232	232	232	232	232	232	232	232	232	232	232	232	232	232	233	233	233	233	233	233	233	242	251	249	243	236	230	230	233	234	233	244	247	241	233	224	214	202	232	228	230	230	230	229	158	226	232	236	239	239	225	218	213	209	204	201	198	198	192	189	189	208	202	195	212	203	198	210	227	235	230	232	231	230	229	227	227	231	234	233	230	229	226	216	208	191	196	214	229	233	239	240	235	228	225	225	230	238	239	233	224	219	212	207	205	206	209	209	207	204	203	203	199	196	196	198	204	195	211	210	218	225	232	233	235	241	253	259	258	252	244	237	222	209	210	207	202	198	200	202	201	202	200	199	196	194	195	199	203	206	206	205	205	205	206	208	210	211	211	211	211	210	210	210	210	211	212	212	213	214	216	216	216	
232	232	232	232	232	232	232	232	232	232	232	233	233	233	233	233	233	233	233	233	234	234	234	234	235	235	241	248	247	242	237	233	232	233	249	245	241	237	231	226	222	217	209	199	227	220	228	227	225	222	211	229	236	240	241	225	223	220	216	212	209	207	202	198	194	213	209	203	222	220	213	207	218	233	241	243	230	230	226	224	224	226	230	232	231	228	229	228	217	214	195	199	216	230	238	243	241	249	245	242	234	241	245	241	230	222	218	211	205	203	206	210	210	209	206	204	204	204	200	197	196	204	198	215	215	221	225	229	230	227	223	219	217	216	214	214	210	204	204	206	205	202	199	199	200	202	204	206	205	204	204	204	206	208	209	210	210	210	210	211	212	212	213	213	214	213	213	213	214	214	214	215	216	217	217	219	219	219	
232	232	232	232	232	232	232	232	232	233	233	233	233	233	233	233	233	233	233	234	234	234	235	235	236	236	238	241	240	237	235	232	231	232	243	238	234	228	225	222	219	218	216	209	200	218	228	227	226	224	202	226	235	239	242	244	224	219	215	210	207	207	205	224	219	214	209	227	226	226	224	224	234	245	249	251	251	251	248	246	245	244	246	249	249	247	246	244	236	221	203	205	224	236	245	247	248	246	241	240	249	252	250	242	230	221	215	207	201	199	204	210	211	203	206	211	213	215	217	217	216	216	228	232	236	235	231	228	226	222	219	215	212	211	210	209	208	208	208	210	209	208	208	207	207	208	209	209	210	209	209	209	210	211	212	212	213	213	213	214	214	215	215	216	216	216	216	216	216	217	217	217	218	219	220	221	222	222	
232	232	232	232	232	232	232	233	233	233	233	233	233	233	233	233	233	233	234	234	234	235	235	235	236	235	234	234	232	232	232	232	231	234	231	230	229	228	222	219	219	220	219	216	207	198	215	227	226	225	225	197	234	242	244	243	247	245	216	238	233	229	226	223	220	216	231	230	230	231	235	240	251	260	262	261	261	258	254	251	251	251	252	253	252	251	250	246	240	229	213	214	233	246	250	249	254	248	243	255	254	254	251	245	232	203	206	211	211	211	218	217	221	219	244	252	260	279	285	283	277	264	252	245	240	237	233	229	225	223	221	219	217	216	215	214	214	214	213	213	213	212	211	211	211	212	212	212	212	212	212	213	213	214	214	215	215	215	216	216	216	217	217	217	218	218	218	218	218	219	219	220	220	221	222	223	223	223	
232	232	232	232	232	232	233	233	233	233	233	233	233	234	234	234	234	234	234	234	235	235	235	236	236	236	234	230	229	231	233	233	236	239	223	225	224	224	224	223	225	227	227	225	222	217	211	211	225	223	223	223	229	239	244	240	242	242	240	236	232	227	224	223	220	234	231	229	231	235	242	251	261	271	276	276	272	266	261	259	259	260	261	261	260	259	258	256	249	240	230	233	251	264	268	264	258	253	246	249	227	226	230	226	227	222	242	250	261	280	286	286	283	273	263	260	262	272	280	280	274	264	253	244	237	233	231	229	227	225	222	221	219	218	217	217	217	216	216	215	215	215	214	214	214	214	214	215	215	215	215	215	215	216	216	216	217	217	217	218	218	218	219	219	219	219	220	220	220	220	221	221	222	223	223	224	225	225	
232	232	232	232	233	233	233	233	233	233	233	233	234	234	234	234	234	234	234	234	235	235	236	236	237	238	238	234	234	237	239	234	238	241	242	244	245	245	222	223	224	226	226	224	222	220	215	208	200	224	222	222	193	234	243	248	238	250	237	247	245	243	242	241	240	237	233	230	230	236	245	253	262	271	280	286	287	282	275	268	266	269	273	272	269	269	274	280	279	270	263	265	273	277	279	275	268	262	263	265	264	270	282	286	284	274	264	259	263	276	283	284	281	273	264	258	256	257	260	260	256	252	246	241	237	234	231	229	227	225	224	222	221	220	219	219	218	218	218	217	217	217	217	216	216	216	216	216	217	217	217	217	217	218	218	218	218	219	219	219	220	220	220	220	221	221	221	221	222	222	222	223	223	224	225	225	226	226	
232	232	232	233	233	233	233	233	233	233	233	234	234	234	234	234	234	234	234	235	235	236	236	237	238	240	242	241	242	245	245	244	238	240	241	242	243	244	245	245	247	226	225	224	224	224	219	212	231	227	220	224	226	231	243	250	251	252	250	248	247	246	244	244	243	241	237	233	231	237	244	251	258	266	276	286	295	300	300	289	278	274	277	276	273	269	274	281	284	279	270	272	275	272	273	274	271	267	266	266	265	269	279	284	283	276	266	259	257	260	264	266	264	262	259	256	254	253	252	251	249	246	242	239	236	233	231	229	227	226	225	223	222	222	221	220	220	220	219	219	219	218	218	218	218	218	218	218	218	218	218	219	219	219	219	219	220	220	220	221	221	221	221	222	222	222	222	222	223	223	223	224	224	225	225	226	226	226	
232	232	233	233	233	233	233	233	233	233	234	234	234	234	234	234	234	234	234	235	236	236	237	238	239	242	245	247	249	251	250	249	249	250	250	240	240	241	242	243	246	247	247	245	246	246	243	239	234	229	223	217	229	232	241	250	253	253	252	252	252	251	249	247	246	245	244	241	241	246	250	253	257	261	263	270	279	288	294	287	270	266	267	262	258	247	244	238	234	233	238	245	254	260	262	263	265	264	263	263	262	263	266	267	267	264	261	259	257	257	257	257	257	255	254	252	250	249	248	246	244	242	240	237	235	233	231	229	228	226	225	224	223	223	222	221	221	221	220	220	220	220	220	220	220	220	220	220	219	219	220	220	220	220	221	221	221	221	221	222	222	222	222	222	223	223	223	223	223	224	224	225	225	225	226	227	227	227	
232	232	233	233	233	233	233	233	233	233	234	234	234	234	234	234	234	234	234	235	236	237	238	238	240	242	246	250	252	255	256	255	254	254	254	253	252	252	253	252	244	244	243	243	245	245	242	238	240	238	236	235	235	236	240	247	251	253	253	256	260	264	264	260	253	251	249	246	246	248	248	247	246	241	233	227	229	229	227	226	231	236	236	234	233	236	235	232	230	229	233	239	246	252	256	257	258	259	259	259	259	260	260	260	259	258	257	255	254	253	253	252	252	251	250	248	247	246	245	243	241	240	238	236	234	232	231	229	228	227	226	225	224	223	223	222	222	222	222	221	221	221	221	221	221	221	221	220	220	221	221	221	221	221	221	222	222	222	222	222	222	223	223	223	224	224	224	224	224	225	225	226	226	226	227	227	228	228	
233	233	233	233	233	233	233	233	233	234	234	234	234	234	234	234	235	234	235	235	236	237	238	238	240	242	246	250	250	255	260	261	260	258	257	256	256	256	257	257	257	255	254	253	252	250	247	245	243	241	238	238	241	244	247	252	254	254	253	253	257	261	261	257	250	243	238	230	228	227	228	229	227	235	235	218	223	224	223	223	225	229	231	231	232	235	236	236	235	236	239	242	245	249	251	253	254	254	255	255	255	255	256	255	255	254	253	252	251	250	250	249	248	248	247	246	245	243	242	241	239	238	236	235	233	232	230	229	228	227	226	225	225	224	224	223	223	222	222	222	222	222	222	222	221	221	221	221	221	221	221	222	222	222	222	222	223	223	223	223	223	224	224	224	224	224	225	225	225	226	226	226	227	227	227	228	228	228	
233	233	233	233	233	233	233	233	234	234	234	234	234	234	234	235	235	235	235	235	237	237	238	238	239	241	245	247	246	251	258	262	264	262	260	259	259	260	261	261	260	259	259	259	258	255	252	248	246	243	240	239	241	244	246	249	250	248	244	239	236	231	224	221	223	225	223	221	222	223	224	225	223	220	218	222	227	228	229	229	230	232	233	235	235	235	236	236	237	238	240	242	245	247	249	250	251	251	251	251	252	252	252	252	252	251	250	250	249	248	248	247	246	245	244	243	242	241	240	239	238	236	235	234	232	231	230	229	228	227	226	226	225	224	224	224	223	223	223	223	222	222	222	222	222	222	222	222	222	222	222	222	223	223	223	223	223	223	224	224	224	224	224	225	225	225	225	226	226	226	226	227	227	227	228	228	229	229	
233	233	233	233	233	233	233	234	234	234	234	234	234	235	235	235	235	235	235	236	237	238	238	238	239	240	243	243	242	245	252	256	260	262	262	262	263	264	265	265	264	263	262	262	260	258	255	251	247	243	240	237	235	233	231	231	232	233	231	229	228	224	219	218	220	222	222	223	226	228	228	228	227	226	226	227	229	230	231	231	232	234	235	236	236	236	237	237	238	239	241	242	244	245	247	248	248	249	249	250	250	250	250	250	250	250	249	248	247	247	246	245	244	244	243	242	241	240	239	238	236	235	234	233	232	230	229	229	228	227	226	226	225	225	224	224	224	223	223	223	223	223	223	222	222	223	223	223	223	223	223	223	223	224	224	224	224	224	224	224	225	225	225	225	225	226	226	226	226	227	227	227	228	228	228	229	229	229	
233	233	233	233	233	233	234	234	234	234	234	234	235	235	235	235	235	235	236	237	238	238	238	238	239	240	240	240	239	239	243	249	253	257	260	261	262	263	265	265	265	264	262	261	259	256	253	249	245	241	238	234	232	230	229	228	228	228	229	229	228	226	224	224	224	226	226	228	229	229	229	229	228	228	229	229	230	231	232	233	234	235	236	236	237	238	238	239	239	240	241	242	243	245	246	247	247	248	248	249	249	249	249	249	249	248	247	247	246	245	245	244	243	242	241	241	240	238	238	237	235	234	233	232	231	230	229	228	227	227	226	226	225	225	224	224	224	223	223	223	223	223	223	223	223	223	223	223	223	223	223	223	224	224	224	224	224	224	224	225	225	225	225	226	226	226	226	227	227	227	227	228	228	228	229	229	229	229	
233	233	233	233	233	234	234	234	234	234	234	234	235	235	235	235	236	236	237	238	238	238	238	238	239	239	239	237	235	232	235	242	246	250	253	254	255	256	256	257	258	258	258	258	256	253	250	246	243	240	237	235	234	233	232	231	231	231	230	230	228	227	226	225	226	227	228	229	229	229	229	229	229	229	229	230	230	232	232	233	234	234	235	236	237	238	238	239	240	241	242	243	244	245	246	247	247	248	248	249	249	249	248	248	248	247	246	246	245	244	244	243	242	242	241	240	239	238	237	236	235	234	232	231	230	230	229	228	227	226	226	225	225	225	224	224	224	224	223	223	223	223	223	223	223	223	223	223	223	224	224	224	224	224	224	224	225	225	225	225	225	226	226	226	226	226	227	227	227	228	228	228	228	229	229	229	230	230	
233	233	233	233	234	234	234	234	234	234	234	235	235	235	235	235	236	236	237	238	238	238	238	238	238	238	238	236	232	228	231	238	243	246	249	250	252	253	252	252	254	255	256	256	255	252	249	245	242	239	237	235	234	233	232	232	231	231	231	230	228	227	226	226	226	227	228	228	229	229	229	229	229	229	229	230	231	232	232	233	233	234	235	236	237	237	238	239	240	241	242	243	244	245	246	247	247	248	248	249	249	249	248	248	247	247	246	245	245	244	243	243	242	241	240	239	238	237	236	235	234	233	232	231	230	229	228	227	227	226	226	225	225	225	224	224	224	224	224	223	223	223	223	223	223	223	223	223	223	224	224	224	224	224	224	225	225	225	225	225	226	226	226	226	226	226	227	227	227	228	228	228	229	229	229	230	230	230	
