ncols	178
nrows	225
xllcorner	1669333.329241
yllcorner	496308.452995
cellsize	90.000000
NODATA_value	nan
4.40	4.44	4.52	4.63	4.76	4.92	5.14	5.43	5.76	6.13	6.56	6.91	7.14	7.15	6.96	6.63	6.23	5.82	5.36	5.11	4.49	2.69	1.91	1.35	0.87	0.51	0.23	0.09	1.53	1.16	0.85	3.43	3.01	3.27	3.25	3.29	3.37	3.57	3.81	4.04	4.25	4.45	4.65	4.83	4.93	5.00	5.06	5.10	5.07	5.02	4.96	4.89	4.80	4.72	4.65	4.52	4.65	3.99	2.63	1.81	1.22	1.01	1.20	1.42	1.60	1.83	1.95	1.90	1.86	1.83	1.68	1.50	1.37	2.40	2.09	1.90	1.74	1.58	3.42	3.42	3.42	3.42	3.41	3.42	3.51	3.63	3.74	3.86	3.97	4.05	4.12	4.17	4.20	4.23	4.25	4.26	4.28	4.29	4.30	4.32	4.34	4.36	4.37	4.38	4.39	4.40	4.41	4.38	4.35	4.34	4.34	4.34	4.35	4.36	4.38	4.40	4.42	4.44	4.45	4.47	4.48	4.50	4.52	4.56	4.59	4.62	4.65	4.69	4.72	4.77	4.82	4.88	4.94	5.02	5.13	5.27	5.44	5.64	5.87	6.09	6.28	6.45	6.59	6.70	6.81	6.97	7.12	7.24	7.32	7.41	7.49	7.52	7.52	7.50	7.45	7.39	7.33	7.24	7.12	7.01	6.94	6.89	6.88	6.90	6.83	6.68	6.47	6.20	5.87	5.57	5.30	5.07	4.88	4.81	4.61	10.09	4.46	4.46	
4.40	4.44	4.52	4.63	4.76	4.92	5.14	5.43	5.76	6.13	6.56	6.91	7.14	7.15	6.96	6.63	6.23	5.82	5.36	5.11	4.49	2.69	1.91	1.35	0.87	0.51	0.23	0.09	1.53	1.16	0.85	3.43	3.01	3.27	3.25	3.29	3.37	3.57	3.81	4.04	4.25	4.45	4.65	4.83	4.93	5.00	5.06	5.10	5.07	5.02	4.96	4.89	4.80	4.72	4.65	4.52	4.65	3.99	2.63	1.81	1.22	1.01	1.20	1.42	1.60	1.83	1.95	1.90	1.86	1.83	1.68	1.50	1.37	2.40	2.09	1.90	1.74	1.58	3.42	3.42	3.42	3.42	3.41	3.42	3.51	3.63	3.74	3.86	3.97	4.05	4.12	4.17	4.20	4.23	4.25	4.26	4.28	4.29	4.30	4.32	4.34	4.36	4.37	4.38	4.39	4.40	4.41	4.38	4.35	4.34	4.34	4.34	4.35	4.36	4.38	4.40	4.42	4.44	4.45	4.47	4.48	4.50	4.52	4.56	4.59	4.62	4.65	4.69	4.72	4.77	4.82	4.88	4.94	5.02	5.13	5.27	5.44	5.64	5.87	6.09	6.28	6.45	6.59	6.70	6.81	6.97	7.12	7.24	7.32	7.41	7.49	7.52	7.52	7.50	7.45	7.39	7.33	7.24	7.12	7.01	6.94	6.89	6.88	6.90	6.83	6.68	6.47	6.20	5.87	5.57	5.30	5.07	4.88	4.81	4.61	10.09	4.46	4.46	
4.35	4.38	4.46	4.55	4.66	4.80	4.97	5.20	5.47	5.76	6.08	6.38	6.57	6.54	6.87	6.42	5.96	5.60	5.24	5.09	2.09	2.67	2.28	1.91	1.57	1.28	1.03	0.85	1.39	1.08	3.18	3.04	2.67	3.03	3.07	3.16	3.28	3.49	3.73	3.96	4.16	4.33	4.49	4.65	4.75	4.81	4.86	4.92	4.92	4.89	4.86	4.82	4.76	4.69	4.65	4.45	4.55	2.47	2.34	1.88	1.36	0.93	0.74	0.68	0.62	0.67	0.75	0.69	0.61	0.61	0.52	0.36	0.24	1.76	1.58	1.53	1.46	3.20	3.19	3.24	3.27	3.30	3.31	3.34	3.45	3.58	3.70	3.82	3.93	4.02	4.09	4.15	4.19	4.21	4.24	4.25	4.27	4.28	4.30	4.31	4.32	4.34	4.36	4.37	4.37	4.39	4.41	4.39	4.36	4.35	4.34	4.34	4.34	4.35	4.36	4.38	4.40	4.42	4.44	4.46	4.48	4.49	4.50	4.53	4.57	4.60	4.63	4.66	4.70	4.74	4.79	4.84	4.90	4.96	5.05	5.16	5.30	5.47	5.65	5.84	6.00	6.14	6.29	6.39	6.48	6.59	6.72	6.85	6.94	7.25	7.23	7.19	7.17	7.13	7.06	6.97	6.89	6.82	6.74	7.06	6.90	6.76	6.61	6.50	6.43	6.33	6.17	5.98	5.75	5.52	5.32	5.12	4.94	4.88	4.78	4.59	4.53	4.53	
4.23	4.27	4.33	4.40	4.47	4.56	4.67	4.82	5.00	5.18	5.39	5.67	5.72	6.49	6.22	7.34	7.68	7.37	5.20	5.24	2.74	2.93	2.70	2.47	2.26	2.07	1.90	2.12	1.85	1.76	3.14	2.90	2.62	2.99	3.05	3.14	3.25	3.43	3.63	3.82	4.00	4.14	4.28	4.41	4.50	4.55	4.62	4.69	4.72	4.73	4.72	4.72	4.70	4.66	4.61	4.45	4.69	2.30	2.37	2.14	1.82	1.55	1.40	1.26	1.10	1.07	1.09	1.03	0.99	1.04	1.02	0.95	1.00	1.44	1.43	1.49	1.52	2.99	3.04	3.13	3.18	3.23	3.23	3.29	3.40	3.52	3.65	3.76	3.87	3.97	4.05	4.11	4.15	4.19	4.21	4.23	4.25	4.26	4.27	4.29	4.30	4.31	4.33	4.34	4.35	4.37	4.40	4.39	4.36	4.36	4.35	4.34	4.34	4.34	4.34	4.35	4.37	4.39	4.41	4.44	4.46	4.48	4.49	4.50	4.53	4.55	4.58	4.62	4.65	4.69	4.73	4.77	4.81	4.86	4.91	4.99	5.08	5.19	5.32	5.46	5.58	5.69	5.81	5.91	5.97	6.03	6.72	6.76	6.73	6.67	6.63	7.73	7.82	7.86	7.66	7.46	7.26	7.08	6.89	6.68	7.71	7.71	7.69	7.49	7.23	6.96	6.69	6.37	6.08	5.81	5.34	5.18	5.03	4.94	4.91	4.81	4.72	4.72	
4.12	4.15	4.21	4.26	4.31	4.38	4.45	4.56	4.68	4.82	5.00	5.21	5.27	6.12	7.05	7.56	7.79	8.02	6.91	5.59	2.95	3.00	2.90	2.77	2.58	2.44	2.33	2.38	2.21	2.20	3.29	2.97	3.11	3.10	3.13	3.17	3.27	3.42	3.58	3.74	3.88	4.01	4.16	4.30	4.38	4.44	4.53	4.60	4.65	4.68	5.00	4.93	4.88	4.78	4.61	4.59	1.39	2.35	2.39	2.27	2.08	1.92	1.82	1.71	1.61	1.60	1.59	1.54	1.54	1.57	1.53	1.50	1.66	1.61	1.65	1.70	1.74	2.98	3.05	3.13	3.18	3.21	3.21	3.28	3.39	3.50	3.62	3.73	3.84	3.93	4.01	4.07	4.12	4.16	4.19	4.21	4.23	4.24	4.25	4.27	4.28	4.30	4.32	4.32	4.33	4.37	4.39	4.37	4.36	4.35	4.35	4.33	4.33	4.34	4.33	4.34	4.35	4.36	4.39	4.41	4.43	4.45	4.46	4.48	4.50	4.52	4.54	4.56	4.59	4.63	4.67	4.71	4.74	4.77	4.81	4.86	4.93	5.03	5.14	5.25	5.34	5.44	5.53	5.60	5.65	6.42	6.43	6.43	6.38	7.43	7.56	7.66	7.74	7.72	7.84	7.88	7.92	7.91	7.91	7.89	7.87	7.90	7.90	7.82	7.79	7.83	7.80	7.93	7.94	5.82	5.61	5.25	5.08	4.90	4.91	4.93	4.89	4.89	
4.02	4.04	4.10	4.14	4.17	4.22	4.27	4.35	4.44	4.57	4.74	4.91	5.98	5.89	7.16	7.81	8.20	8.18	6.83	2.50	3.12	3.10	3.05	2.94	2.80	2.68	2.59	2.59	2.48	3.46	3.31	3.02	3.20	3.19	3.21	3.22	3.30	3.42	3.56	3.70	3.81	3.93	4.07	4.20	4.28	4.36	4.47	4.56	4.63	4.67	4.99	4.94	4.89	4.79	4.53	4.72	1.79	2.50	2.48	2.39	2.26	2.18	2.11	2.03	1.98	1.99	1.97	1.93	1.93	1.94	1.90	1.89	1.82	1.81	1.86	1.90	2.98	3.01	3.09	3.14	3.17	3.18	3.20	3.27	3.38	3.49	3.60	3.71	3.82	3.91	3.99	4.05	4.10	4.13	4.16	4.19	4.21	4.22	4.24	4.25	4.27	4.29	4.30	4.31	4.33	4.37	4.38	4.36	4.35	4.34	4.33	4.32	4.32	4.33	4.32	4.33	4.34	4.35	4.36	4.38	4.40	4.41	4.43	4.44	4.46	4.49	4.51	4.52	4.54	4.56	4.59	4.62	4.65	4.67	4.71	4.75	4.81	4.89	4.99	5.08	5.17	5.25	5.32	5.39	5.45	6.18	6.18	6.18	7.20	7.33	7.48	7.58	7.70	7.83	7.89	7.92	7.97	7.98	8.01	8.06	8.09	8.12	8.10	8.03	8.04	8.16	8.23	8.40	8.28	8.14	5.64	5.58	5.19	5.08	4.99	5.09	5.01	5.01	
3.91	3.94	3.99	4.02	4.05	4.07	4.12	4.18	4.26	4.38	4.56	4.73	5.78	5.71	7.37	7.96	8.33	8.33	5.76	2.96	3.20	3.20	3.16	3.06	2.95	2.85	2.78	2.76	2.70	3.53	3.29	3.05	3.27	3.26	3.27	3.28	3.35	3.44	3.56	3.67	3.77	3.89	4.03	4.14	4.22	4.32	4.43	4.54	4.61	5.01	4.97	4.94	4.89	4.80	4.57	4.92	2.17	2.61	2.55	2.50	2.41	2.36	2.32	2.26	2.26	2.28	2.25	2.22	2.21	2.18	2.13	2.15	1.98	1.99	2.05	2.08	3.00	3.05	3.13	3.16	3.18	3.17	3.20	3.28	3.38	3.48	3.59	3.70	3.80	3.89	3.97	4.03	4.07	4.11	4.14	4.16	4.18	4.20	4.22	4.23	4.25	4.27	4.29	4.30	4.33	4.37	4.37	4.35	4.33	4.33	4.32	4.31	4.31	4.31	4.31	4.31	4.32	4.33	4.34	4.36	4.37	4.38	4.39	4.41	4.42	4.44	4.47	4.48	4.50	4.52	4.53	4.55	4.55	4.56	4.59	4.62	4.68	4.76	4.86	4.94	5.01	5.10	5.17	5.22	6.03	6.00	6.01	6.00	7.07	7.23	7.41	7.52	7.67	7.83	7.91	7.94	8.02	8.09	8.12	8.18	8.24	8.28	8.25	8.28	8.31	8.53	8.67	8.65	8.47	8.25	7.74	5.70	5.40	9.21	5.17	5.20	5.13	5.13	
3.82	3.84	3.89	3.91	3.93	3.96	4.00	4.06	4.12	4.25	4.50	4.60	5.65	6.85	7.63	8.29	8.41	8.39	1.90	3.17	3.21	3.24	3.21	3.10	3.02	2.96	3.04	2.89	2.87	3.60	3.28	3.36	3.31	3.30	3.30	3.34	3.40	3.48	3.58	3.67	3.75	3.87	4.01	4.11	4.19	4.31	4.43	4.54	4.60	4.99	4.97	4.94	4.89	4.76	4.74	5.36	2.36	2.65	2.64	2.59	2.52	2.48	2.46	2.43	2.46	2.48	2.46	2.44	2.44	2.39	2.34	2.14	2.11	2.14	2.18	2.22	3.04	3.10	3.16	3.19	3.19	3.17	3.21	3.29	3.38	3.48	3.59	3.69	3.78	3.88	3.95	4.01	4.05	4.09	4.12	4.14	4.16	4.18	4.20	4.21	4.24	4.26	4.27	4.29	4.34	4.36	4.35	4.33	4.32	4.31	4.31	4.30	4.29	4.29	4.29	4.29	4.29	4.30	4.32	4.34	4.35	4.35	4.37	4.38	4.39	4.40	4.42	4.43	4.44	4.46	4.47	4.48	4.49	4.48	4.50	4.52	4.57	4.65	4.74	4.81	4.88	4.95	5.03	5.07	5.86	5.85	5.87	5.83	6.99	7.19	7.37	7.46	7.62	7.81	7.91	7.96	8.06	8.17	8.20	8.23	8.35	8.42	8.42	8.39	8.52	8.75	8.92	8.96	8.81	8.28	7.81	5.73	5.55	5.13	5.22	5.22	5.24	5.24	
3.73	3.75	3.79	3.82	3.83	3.85	3.89	3.94	4.02	4.16	4.36	4.51	5.56	7.07	7.93	8.44	8.51	7.84	2.80	3.27	3.24	3.27	3.23	3.13	3.07	3.05	3.09	3.00	3.77	3.59	3.29	3.39	3.34	3.33	3.32	3.36	3.42	3.51	3.61	3.69	3.77	3.88	4.01	4.09	4.18	4.31	4.45	4.55	5.00	4.98	4.97	4.95	4.91	4.68	4.87	1.11	2.59	2.70	2.71	2.66	2.62	2.61	2.58	2.57	2.60	2.63	2.62	2.62	2.63	2.57	2.53	2.24	2.21	2.24	2.27	3.07	3.08	3.15	3.19	3.21	3.19	3.19	3.24	3.31	3.39	3.49	3.59	3.68	3.77	3.86	3.94	3.99	4.03	4.07	4.10	4.13	4.15	4.16	4.18	4.20	4.22	4.25	4.25	4.28	4.34	4.35	4.33	4.32	4.31	4.30	4.29	4.28	4.27	4.27	4.27	4.27	4.28	4.29	4.30	4.32	4.34	4.34	4.34	4.35	4.36	4.37	4.38	4.39	4.39	4.40	4.41	4.42	4.42	4.42	4.43	4.45	4.49	4.57	4.64	4.69	4.76	4.83	4.87	4.91	5.71	5.72	5.73	6.81	6.96	7.16	7.31	7.44	7.64	7.83	7.90	7.98	8.12	8.21	8.24	8.36	8.50	8.58	8.50	8.47	8.70	9.11	9.20	9.11	8.89	8.30	7.83	5.67	5.63	5.37	5.39	5.27	5.27	5.27	
3.64	3.66	3.71	3.73	3.74	3.75	3.79	3.85	3.94	4.10	4.29	5.47	5.49	7.35	8.19	8.55	8.61	5.96	3.06	3.27	3.29	3.30	3.26	3.20	3.15	3.14	3.16	3.11	3.80	3.53	3.29	3.44	3.39	3.36	3.35	3.38	3.43	3.52	3.60	3.68	3.77	3.89	4.00	4.09	4.19	4.32	4.46	4.56	4.98	4.98	4.98	4.95	4.92	4.66	5.00	1.99	2.81	2.79	2.78	2.74	2.72	2.71	2.68	2.70	2.73	2.74	2.73	2.73	2.71	2.67	2.68	2.38	2.35	2.36	2.37	3.07	3.10	3.16	3.20	3.21	3.19	3.21	3.27	3.34	3.42	3.51	3.60	3.68	3.76	3.85	3.93	3.98	4.01	4.05	4.08	4.10	4.12	4.15	4.16	4.19	4.21	4.24	4.25	4.29	4.33	4.33	4.31	4.30	4.29	4.28	4.28	4.27	4.26	4.25	4.25	4.26	4.26	4.27	4.28	4.30	4.32	4.32	4.31	4.32	4.32	4.33	4.34	4.35	4.35	4.35	4.36	4.36	4.35	4.34	4.34	4.36	4.41	4.48	4.55	4.60	4.65	4.71	4.75	5.59	5.57	5.60	5.60	6.75	6.94	7.15	7.27	7.46	7.67	7.81	7.88	8.01	8.17	8.25	8.30	8.47	8.67	8.70	8.54	8.56	8.96	9.35	9.37	9.33	9.01	8.22	7.69	5.84	5.77	5.55	5.56	5.51	5.38	5.38	
3.56	3.58	3.62	3.65	3.65	3.68	3.72	3.79	3.89	4.14	4.27	5.40	6.75	7.68	8.42	8.64	8.61	2.34	3.19	3.26	3.32	3.33	3.28	3.25	3.22	3.33	3.21	3.20	3.82	3.50	3.55	3.47	3.43	3.39	3.40	3.43	3.48	3.56	3.62	3.68	3.78	3.89	3.98	4.08	4.20	4.34	4.47	4.56	4.97	4.98	4.98	4.95	4.90	4.78	5.30	2.33	2.87	2.86	2.85	2.80	2.78	2.78	2.77	2.80	2.83	2.82	2.82	2.83	2.78	2.75	2.50	2.48	2.49	2.49	2.49	3.11	3.13	3.16	3.19	3.19	3.16	3.19	3.27	3.35	3.44	3.54	3.63	3.70	3.78	3.86	3.93	3.97	4.00	4.03	4.06	4.09	4.11	4.13	4.15	4.17	4.20	4.22	4.24	4.29	4.32	4.30	4.28	4.27	4.27	4.26	4.25	4.24	4.23	4.23	4.23	4.25	4.25	4.26	4.26	4.28	4.30	4.30	4.29	4.28	4.29	4.30	4.30	4.30	4.30	4.29	4.29	4.27	4.25	4.24	4.24	4.26	4.32	4.40	4.46	4.52	4.57	4.63	4.66	5.47	5.48	5.51	5.48	6.71	6.94	7.14	7.24	7.46	7.68	7.78	7.90	8.06	8.20	8.27	8.39	8.59	8.78	8.74	8.54	8.63	9.15	9.51	9.39	9.34	9.13	8.07	8.29	6.13	5.98	5.63	5.85	5.84	5.58	5.58	
3.49	3.51	3.54	3.57	3.58	3.61	3.66	3.73	3.85	4.07	4.25	5.36	7.01	7.91	8.56	8.71	6.21	2.94	3.26	3.30	3.35	3.35	3.28	3.25	3.24	3.30	3.22	3.25	3.75	3.46	3.56	3.49	3.45	3.41	3.42	3.45	3.50	3.59	3.65	3.71	3.80	3.91	4.00	4.10	4.22	4.38	4.50	4.97	4.97	4.99	4.98	4.96	4.83	4.93	2.53	2.58	2.87	2.89	2.86	2.84	2.83	2.83	2.84	2.86	2.89	2.89	2.89	2.89	2.85	2.83	2.53	2.52	2.55	2.56	3.18	3.18	3.20	3.19	3.19	3.16	3.13	3.17	3.25	3.34	3.44	3.53	3.62	3.69	3.77	3.86	3.93	3.96	3.99	4.03	4.05	4.08	4.10	4.12	4.13	4.16	4.19	4.21	4.24	4.29	4.30	4.27	4.26	4.25	4.24	4.24	4.23	4.22	4.21	4.22	4.22	4.23	4.25	4.25	4.25	4.26	4.28	4.29	4.27	4.26	4.26	4.26	4.26	4.25	4.24	4.22	4.21	4.19	4.17	4.15	4.16	4.19	4.26	4.35	4.40	4.46	4.51	4.56	4.59	5.39	5.41	5.44	6.54	6.71	6.95	7.10	7.24	7.48	7.70	7.78	7.91	8.10	8.22	8.32	8.56	8.76	8.94	8.82	8.57	8.73	9.33	9.53	9.34	9.39	8.77	6.28	10.82	6.11	5.98	5.55	11.04	6.02	5.68	5.68	
3.42	3.44	3.47	3.50	3.52	3.55	3.60	3.68	3.83	4.05	5.24	5.32	7.34	8.30	8.67	8.76	1.88	3.18	3.28	3.34	3.36	3.35	3.30	3.27	3.28	3.32	3.28	3.96	3.69	3.45	3.57	3.52	3.46	3.44	3.45	3.47	3.51	3.59	3.66	3.74	3.83	3.92	4.03	4.14	4.27	4.41	4.52	4.96	4.98	5.00	4.98	4.97	4.74	5.02	1.35	2.80	2.90	2.94	2.89	2.87	2.88	2.87	2.90	2.94	2.96	2.95	2.94	2.91	2.87	2.89	2.58	2.57	2.58	2.59	3.16	3.19	3.22	3.22	3.21	3.18	3.17	3.20	3.26	3.34	3.43	3.51	3.60	3.67	3.74	3.84	3.90	3.93	3.97	4.01	4.03	4.06	4.08	4.10	4.12	4.15	4.17	4.20	4.24	4.28	4.27	4.24	4.23	4.22	4.22	4.21	4.19	4.17	4.19	4.21	4.22	4.23	4.24	4.24	4.24	4.25	4.26	4.27	4.26	4.24	4.23	4.22	4.22	4.21	4.19	4.17	4.15	4.13	4.10	4.08	4.09	4.13	4.21	4.30	4.37	4.42	4.48	4.52	5.34	5.33	5.36	5.38	6.53	6.75	6.98	7.10	7.33	7.58	7.76	7.88	8.00	8.17	8.26	8.37	8.67	8.89	9.16	8.85	8.72	9.17	10.04	10.69	11.00	11.67	8.98	9.09	10.15	7.58	5.89	10.94	9.99	6.15	5.77	5.77	
3.35	3.37	3.41	3.43	3.45	3.49	3.55	3.65	3.83	4.05	5.19	6.62	7.71	8.51	8.77	8.42	2.75	3.27	3.31	3.37	3.39	3.35	3.33	3.31	3.45	3.33	3.32	3.95	3.62	3.66	3.58	3.53	3.47	3.46	3.48	3.52	3.57	3.62	3.68	3.76	3.85	3.93	4.04	4.16	4.31	4.44	4.94	4.96	4.99	4.99	4.98	4.98	4.75	5.16	2.06	2.94	2.93	2.96	2.92	2.89	2.90	2.92	2.96	3.00	3.00	2.99	2.99	2.94	2.91	2.64	2.61	2.61	2.63	2.65	3.19	3.20	3.22	3.20	3.18	3.17	3.19	3.24	3.30	3.38	3.46	3.54	3.61	3.67	3.74	3.83	3.87	3.90	3.94	3.97	4.00	4.03	4.05	4.07	4.10	4.13	4.15	4.19	4.24	4.26	4.23	4.21	4.20	4.19	4.19	4.18	4.15	4.11	4.18	4.21	4.23	4.23	4.24	4.23	4.23	4.23	4.25	4.26	4.24	4.22	4.20	4.19	4.18	4.17	4.15	4.12	4.09	4.06	4.02	4.00	4.01	4.06	4.15	4.24	4.32	4.38	4.46	4.51	5.29	5.30	5.36	5.38	6.58	6.81	7.02	7.15	7.44	7.71	7.84	7.91	8.08	8.73	9.10	9.23	10.40	11.04	10.35	10.05	9.81	10.20	11.32	11.69	11.46	11.42	8.37	8.83	9.67	8.68	8.36	10.70	10.61	6.29	6.11	6.11	
3.28	3.30	3.34	3.37	3.40	3.44	3.52	3.64	3.89	4.06	5.16	6.93	8.05	8.65	8.85	4.33	3.07	3.26	3.35	3.40	3.42	3.34	3.33	3.32	3.39	3.31	3.35	3.84	3.55	3.64	3.58	3.53	3.48	3.47	3.49	3.53	3.60	3.65	3.70	3.79	3.87	3.96	4.07	4.20	4.36	4.48	4.93	4.96	5.00	4.99	4.98	4.97	4.88	5.49	2.40	2.99	2.96	2.95	2.90	2.88	2.91	2.94	2.98	3.02	3.03	3.02	3.00	2.95	2.94	2.63	2.62	2.64	2.66	3.23	3.23	3.25	3.25	3.22	3.16	3.14	3.18	3.23	3.30	3.39	3.48	3.56	3.63	3.69	3.76	3.84	3.87	3.90	3.93	3.96	3.99	4.01	4.03	4.05	4.08	4.12	4.15	4.19	4.24	4.24	4.21	4.19	4.18	4.17	4.17	4.16	4.16	4.17	4.21	4.23	4.24	4.24	4.23	4.23	4.22	4.22	4.23	4.24	4.23	4.20	4.17	4.15	4.14	4.13	4.10	4.06	4.02	3.98	3.93	3.91	3.93	4.00	4.12	4.22	4.30	4.39	4.50	4.57	5.30	5.34	5.42	6.45	6.59	6.94	7.32	7.69	8.23	8.70	8.92	9.39	10.23	10.23	9.57	9.31	9.99	10.03	9.80	9.77	9.57	9.72	10.67	11.19	11.26	11.49	9.19	8.58	9.83	9.46	10.14	10.62	10.27	6.25	6.50	6.50	
3.22	3.24	3.28	3.31	3.36	3.40	3.48	3.63	3.88	5.01	6.16	7.28	8.34	8.76	8.82	2.47	3.20	3.27	3.36	3.41	3.40	3.34	3.33	3.34	3.38	3.34	4.03	3.75	3.51	3.64	3.58	3.52	3.49	3.49	3.50	3.54	3.60	3.67	3.72	3.80	3.89	3.98	4.10	4.24	4.39	4.50	4.94	4.97	5.00	4.99	4.98	4.89	5.04	3.29	2.64	2.96	2.96	2.93	2.90	2.90	2.92	2.96	3.00	3.05	3.05	3.03	2.99	2.94	2.95	2.63	2.63	2.65	2.66	3.20	3.21	3.24	3.24	3.21	3.15	3.16	3.20	3.25	3.31	3.38	3.47	3.56	3.61	3.68	3.77	3.83	3.86	3.89	3.92	3.96	3.98	4.01	4.03	4.05	4.07	4.11	4.15	4.20	4.23	4.21	4.18	4.16	4.16	4.15	4.15	4.16	4.17	4.19	4.22	4.23	4.24	4.24	4.23	4.23	4.22	4.21	4.22	4.23	4.21	4.18	4.15	4.13	4.11	4.08	4.05	4.01	3.95	3.89	3.82	3.79	3.83	3.93	4.11	4.29	4.39	4.46	4.54	5.66	5.59	5.53	5.56	7.17	7.77	8.18	8.44	8.49	8.48	9.05	9.41	9.25	8.89	8.66	8.40	8.45	9.09	9.40	9.30	9.65	9.67	9.64	10.49	11.31	11.36	11.46	10.19	9.21	10.04	10.07	10.04	10.46	9.36	9.36	11.22	11.22	
3.17	3.19	3.22	3.26	3.31	3.37	3.46	3.64	3.88	4.96	6.43	7.67	8.55	8.87	5.97	3.00	3.25	3.32	3.38	3.41	3.39	3.35	3.34	3.34	3.38	3.37	3.99	3.65	3.70	3.63	3.58	3.51	3.49	3.50	3.52	3.56	3.62	3.68	3.75	3.82	3.90	4.00	4.13	4.28	4.43	4.94	4.95	4.99	5.00	4.99	4.99	4.79	5.13	1.27	2.86	2.94	2.96	2.92	2.90	2.92	2.93	2.97	3.03	3.05	3.04	3.03	2.98	2.94	2.68	2.65	2.64	2.64	2.66	3.19	3.21	3.22	3.20	3.15	3.11	3.14	3.20	3.27	3.35	3.42	3.49	3.56	3.61	3.67	3.75	3.80	3.83	3.86	3.90	3.93	3.96	3.98	4.01	4.02	4.06	4.10	4.14	4.20	4.21	4.18	4.16	4.15	4.14	4.15	4.15	4.16	4.18	4.20	4.22	4.24	4.24	4.24	4.23	4.22	4.21	4.20	4.20	4.21	4.20	4.16	4.13	4.10	4.08	4.05	4.01	3.96	3.89	3.81	3.71	3.64	3.64	3.70	3.86	4.06	4.19	4.26	4.29	4.26	5.82	5.54	5.42	7.39	7.96	8.30	8.44	8.25	7.96	8.33	8.76	8.55	8.43	8.70	8.75	9.01	9.53	9.39	9.35	9.82	9.78	9.53	10.36	11.44	11.54	11.34	10.37	9.99	10.32	9.68	10.14	9.78	9.49	9.77	10.84	10.84	
3.11	3.14	3.17	3.21	3.27	3.35	3.45	3.72	3.90	4.93	6.77	8.04	8.71	8.93	2.09	3.18	3.27	3.37	3.40	3.42	3.38	3.37	3.36	3.47	3.37	3.40	3.88	3.58	3.67	3.61	3.56	3.50	3.49	3.50	3.53	3.57	3.63	3.70	3.77	3.84	3.92	4.03	4.17	4.33	4.46	4.93	4.96	5.01	5.01	5.00	5.01	4.79	5.29	2.01	3.04	2.96	2.95	2.90	2.87	2.91	2.92	2.95	3.00	3.02	3.02	2.99	2.93	2.94	2.64	2.63	2.63	2.64	3.19	3.19	3.22	3.22	3.18	3.11	3.09	3.12	3.18	3.26	3.34	3.42	3.49	3.56	3.63	3.70	3.77	3.80	3.82	3.85	3.88	3.91	3.94	3.96	3.98	4.00	4.04	4.10	4.15	4.19	4.18	4.16	4.14	4.13	4.13	4.14	4.15	4.16	4.18	4.20	4.22	4.23	4.24	4.24	4.23	4.22	4.21	4.19	4.19	4.19	4.18	4.15	4.11	4.08	4.05	4.01	3.97	3.91	3.84	3.74	3.61	3.50	3.43	3.34	3.33	3.45	3.57	3.71	3.81	3.81	3.75	5.22	5.17	5.15	7.37	7.66	8.05	8.04	7.80	8.05	8.39	8.42	8.90	8.93	8.22	8.37	8.90	9.04	9.27	9.49	9.45	9.81	10.71	11.38	11.62	11.38	10.78	10.95	10.37	8.87	8.84	9.81	10.24	10.62	9.92	9.92	
3.04	3.07	3.13	3.17	3.22	3.32	3.46	3.71	4.76	5.92	7.21	8.32	8.84	8.27	2.88	3.23	3.29	3.38	3.42	3.43	3.37	3.37	3.37	3.44	3.39	4.06	3.78	3.53	3.65	3.60	3.55	3.51	3.49	3.49	3.53	3.58	3.64	3.72	3.79	3.85	3.95	4.06	4.21	4.38	4.93	4.93	4.98	5.02	5.02	4.99	5.02	4.93	5.58	2.37	3.08	2.97	2.93	2.88	2.86	2.87	2.89	2.93	2.98	2.99	2.98	2.94	2.90	2.67	2.61	2.60	2.60	2.62	3.15	3.16	3.20	3.18	3.13	3.07	3.06	3.11	3.18	3.26	3.34	3.41	3.47	3.53	3.61	3.71	3.76	3.78	3.81	3.84	3.88	3.91	3.93	3.95	3.97	3.99	4.04	4.10	4.16	4.17	4.16	4.14	4.12	4.12	4.13	4.14	4.15	4.17	4.18	4.20	4.22	4.23	4.23	4.23	4.23	4.21	4.20	4.19	4.17	4.17	4.16	4.14	4.10	4.06	4.02	3.98	3.93	3.87	3.79	3.68	3.52	3.40	3.31	3.15	3.07	3.14	3.20	3.29	3.41	3.48	3.50	5.08	5.18	5.18	5.02	7.20	7.45	7.49	7.52	7.91	8.42	8.92	8.60	7.72	7.72	8.71	9.46	9.36	9.38	9.81	10.21	10.64	10.78	10.81	11.04	11.13	11.12	11.31	10.54	8.37	6.66	9.74	10.34	9.89	9.55	9.55	
2.99	3.01	3.07	3.14	3.20	3.29	3.46	3.71	4.71	6.21	7.64	8.54	8.91	2.05	3.17	3.24	3.34	3.39	3.42	3.41	3.38	3.37	3.37	3.41	3.41	4.02	3.68	3.72	3.64	3.59	3.52	3.49	3.48	3.49	3.54	3.59	3.66	3.74	3.81	3.87	3.98	4.10	4.26	4.42	4.92	4.94	4.99	5.02	5.02	4.99	4.98	5.15	6.07	2.61	3.05	2.98	2.90	2.85	2.85	2.83	2.84	2.89	2.94	2.94	2.92	2.87	2.87	2.61	2.57	2.57	2.57	2.59	3.13	3.15	3.17	3.14	3.06	3.00	3.01	3.07	3.16	3.26	3.35	3.43	3.48	3.52	3.60	3.70	3.74	3.75	3.78	3.81	3.85	3.88	3.91	3.93	3.94	3.98	4.05	4.12	4.15	4.15	4.14	4.11	4.09	4.10	4.12	4.14	4.15	4.16	4.18	4.20	4.21	4.22	4.23	4.23	4.22	4.21	4.19	4.18	4.16	4.15	4.14	4.13	4.09	4.04	4.00	3.96	3.90	3.83	3.74	3.63	3.45	3.29	3.23	3.10	3.03	3.12	3.21	3.22	3.20	3.19	3.25	5.13	5.27	5.26	5.10	4.89	7.09	7.08	7.26	7.91	8.62	8.42	7.67	7.59	8.31	9.12	9.23	8.94	9.00	9.87	10.60	10.83	10.68	10.41	10.30	10.61	11.17	11.56	11.28	7.39	6.64	9.04	10.47	9.97	10.90	10.90	
2.94	2.96	3.01	3.09	3.18	3.28	3.46	3.72	4.68	6.62	8.02	8.76	8.71	2.66	3.24	3.28	3.37	3.42	3.44	3.41	3.40	3.39	3.52	3.42	3.45	3.90	3.62	3.69	3.63	3.58	3.52	3.49	3.48	3.50	3.56	3.61	3.68	3.77	3.82	3.89	4.00	4.14	4.31	4.45	4.93	4.95	5.00	5.02	5.01	5.00	4.88	5.34	1.73	2.91	3.01	2.96	2.86	2.79	2.78	2.77	2.78	2.84	2.89	2.88	2.85	2.79	2.81	2.55	2.52	2.52	2.54	3.11	3.11	3.14	3.14	3.09	3.00	2.96	2.99	3.05	3.14	3.23	3.33	3.42	3.47	3.52	3.61	3.69	3.73	3.74	3.77	3.81	3.83	3.86	3.89	3.89	3.90	3.96	4.07	4.14	4.11	4.12	4.13	4.08	4.06	4.09	4.11	4.13	4.14	4.16	4.18	4.19	4.20	4.21	4.22	4.22	4.21	4.20	4.18	4.17	4.15	4.13	4.12	4.11	4.08	4.02	3.97	3.93	3.87	3.80	3.71	3.60	3.41	3.21	3.08	2.96	2.86	2.93	3.15	3.29	3.23	3.03	2.95	3.10	5.24	5.35	5.30	5.19	5.08	7.09	7.17	7.56	7.88	7.85	7.93	8.16	8.59	8.94	8.98	8.62	8.56	9.54	10.21	10.39	10.45	10.21	10.08	10.49	11.05	11.66	11.50	7.19	6.10	9.94	10.50	10.68	11.00	11.00	
2.89	2.92	2.98	3.05	3.16	3.28	3.54	4.50	5.62	7.12	8.33	8.91	3.53	3.08	3.24	3.33	3.39	3.44	3.45	3.40	3.40	3.41	3.48	3.43	4.08	3.80	3.57	3.68	3.63	3.57	3.52	3.50	3.50	3.53	3.57	3.63	3.71	3.78	3.83	3.92	4.04	4.20	4.35	4.92	4.93	4.97	5.01	5.02	4.98	5.00	4.84	5.47	1.94	3.16	3.01	2.91	2.81	2.75	2.70	2.68	2.72	2.79	2.81	2.78	2.72	2.69	2.53	2.47	2.45	2.45	2.47	3.04	3.07	3.12	3.10	3.02	2.92	2.90	2.95	3.03	3.13	3.22	3.32	3.40	3.43	3.50	3.61	3.67	3.69	3.72	3.76	3.80	3.81	3.86	3.89	3.87	3.87	3.93	4.12	4.21	4.09	4.09	4.15	4.07	4.04	4.08	4.11	4.13	4.14	4.16	4.17	4.18	4.20	4.21	4.21	4.21	4.21	4.20	4.18	4.16	4.14	4.12	4.10	4.09	4.06	4.02	3.96	3.91	3.85	3.79	3.70	3.59	3.42	3.22	3.04	2.86	2.67	2.61	2.79	3.07	3.20	3.03	2.83	2.89	3.13	5.31	5.49	5.42	5.28	5.01	6.90	7.01	7.46	7.88	8.16	8.40	8.68	8.76	8.84	8.68	8.58	9.31	9.81	9.95	10.03	10.01	10.42	10.78	10.96	11.65	11.49	7.00	6.10	9.66	10.65	10.67	10.73	10.73	
2.84	2.88	2.95	3.03	3.15	3.29	3.54	4.43	5.99	7.58	8.60	8.84	2.45	3.23	3.25	3.36	3.41	3.45	3.44	3.39	3.39	3.41	3.46	3.46	4.05	3.72	3.77	3.68	3.62	3.55	3.51	3.49	3.50	3.54	3.59	3.65	3.72	3.79	3.85	3.94	4.08	4.26	4.39	4.91	4.93	4.98	5.03	5.02	4.96	5.01	4.99	5.76	2.38	3.23	3.01	2.86	2.74	2.70	2.62	2.58	2.63	2.69	2.68	2.63	2.56	2.56	2.37	2.33	2.33	2.33	2.37	2.96	3.02	3.07	3.03	2.94	2.85	2.82	2.89	2.99	3.09	3.20	3.30	3.36	3.39	3.50	3.62	3.65	3.67	3.69	3.73	3.78	3.78	3.82	3.88	3.86	3.83	3.89	4.13	4.27	4.09	4.05	4.14	4.08	4.03	4.07	4.10	4.12	4.13	4.15	4.16	4.18	4.19	4.20	4.20	4.21	4.20	4.19	4.17	4.15	4.13	4.11	4.09	4.07	4.04	4.01	3.96	3.90	3.84	3.78	3.70	3.59	3.46	3.30	3.12	2.90	2.66	2.45	2.42	2.65	2.95	2.96	2.78	2.73	2.89	5.13	5.44	5.45	5.29	5.09	6.88	6.94	7.38	7.83	8.01	8.31	8.69	8.67	8.72	8.79	8.86	9.36	9.81	9.91	9.92	10.28	10.78	10.86	10.96	11.59	10.69	7.05	5.99	9.21	10.59	10.79	10.12	10.12	
2.79	2.83	2.93	3.02	3.12	3.29	3.57	4.43	6.51	8.02	8.84	6.06	2.91	3.22	3.29	3.37	3.42	3.44	3.43	3.42	3.42	3.57	3.46	3.51	3.93	3.66	3.74	3.67	3.61	3.54	3.49	3.47	3.50	3.55	3.61	3.68	3.75	3.79	3.86	3.97	4.14	4.31	4.90	4.89	4.92	4.99	5.04	4.99	4.90	4.97	5.28	6.29	2.73	3.21	2.97	2.78	2.65	2.59	2.49	2.42	2.49	2.56	2.52	2.43	2.36	2.40	2.19	2.17	2.17	2.17	2.84	2.87	2.97	3.02	2.94	2.83	2.76	2.75	2.84	2.95	3.04	3.17	3.30	3.32	3.32	3.45	3.58	3.63	3.65	3.67	3.72	3.77	3.79	3.80	3.84	3.84	3.82	3.85	4.08	4.28	4.15	4.01	4.06	4.06	4.02	4.05	4.09	4.11	4.12	4.14	4.16	4.17	4.18	4.19	4.20	4.20	4.19	4.18	4.17	4.15	4.12	4.10	4.08	4.06	4.03	4.00	3.95	3.89	3.83	3.77	3.70	3.60	3.48	3.35	3.20	3.00	2.75	2.49	2.33	2.43	2.72	2.83	2.70	2.60	2.70	2.97	5.20	5.25	5.21	5.17	7.09	7.08	7.40	7.74	7.90	8.13	8.56	8.70	8.77	8.89	9.05	9.46	10.00	10.26	10.50	10.49	10.42	10.92	10.98	11.47	9.93	6.84	5.74	8.77	10.32	9.67	10.83	10.83	
2.74	2.79	2.89	3.00	3.10	3.32	4.22	5.36	7.06	8.43	8.89	2.12	3.10	3.22	3.35	3.40	3.43	3.45	3.44	3.45	3.46	3.53	3.49	4.11	3.84	3.61	3.73	3.67	3.59	3.53	3.49	3.48	3.53	3.56	3.61	3.69	3.76	3.78	3.85	3.99	4.19	4.37	4.91	4.88	4.91	4.99	5.05	4.96	4.85	4.83	5.48	3.84	3.11	3.15	2.88	2.65	2.52	2.40	2.24	2.17	2.29	2.36	2.27	2.16	2.15	2.10	1.97	1.99	1.99	1.98	2.63	2.70	2.86	2.97	2.90	2.74	2.64	2.66	2.78	2.91	3.00	3.13	3.31	3.33	3.29	3.39	3.52	3.57	3.62	3.66	3.69	3.75	3.80	3.81	3.81	3.81	3.80	3.83	4.03	4.28	4.24	4.05	4.01	4.03	4.01	4.04	4.08	4.10	4.12	4.13	4.15	4.16	4.18	4.18	4.19	4.19	4.19	4.18	4.16	4.14	4.12	4.10	4.07	4.05	4.02	3.99	3.94	3.89	3.83	3.77	3.70	3.61	3.50	3.38	3.25	3.08	2.86	2.60	2.36	2.32	2.55	2.74	2.67	2.56	2.61	2.83	3.07	5.06	5.17	5.18	4.94	6.94	7.19	7.44	7.58	7.89	8.42	8.73	9.06	9.17	9.17	9.50	10.19	10.74	10.54	10.14	10.52	10.82	10.90	11.17	9.37	6.72	5.64	8.90	10.20	10.13	9.34	9.34	
2.69	2.74	2.86	2.98	3.11	3.39	4.18	5.82	7.59	8.72	6.59	2.86	3.18	3.29	3.39	3.42	3.45	3.47	3.45	3.47	3.48	3.52	3.53	4.10	3.77	3.81	3.73	3.67	3.58	3.52	3.49	3.49	3.54	3.58	3.62	3.69	3.74	3.77	3.85	4.01	4.24	4.95	4.93	4.87	4.89	4.97	5.01	4.90	4.82	4.73	5.66	2.15	3.31	3.05	2.71	2.43	2.31	2.17	1.98	2.00	2.24	2.08	1.71	1.60	1.62	1.73	1.55	1.63	1.72	2.59	2.42	2.42	2.59	2.75	2.82	2.72	2.59	2.61	2.73	2.88	2.97	3.07	3.27	3.36	3.30	3.36	3.47	3.52	3.58	3.64	3.68	3.72	3.77	3.80	3.79	3.78	3.78	3.80	3.96	4.23	4.31	4.10	3.99	4.00	3.99	4.02	4.06	4.09	4.11	4.12	4.14	4.15	4.17	4.18	4.18	4.18	4.18	4.17	4.16	4.14	4.12	4.09	4.07	4.04	4.01	3.98	3.93	3.89	3.84	3.77	3.71	3.63	3.53	3.41	3.29	3.14	2.95	2.72	2.46	2.30	2.40	2.61	2.63	2.52	2.51	2.68	2.87	4.94	5.09	5.20	5.08	4.87	7.04	7.09	7.16	7.61	8.26	8.74	9.26	9.43	9.34	9.53	9.99	10.35	10.29	10.39	10.73	10.94	10.83	10.36	8.57	6.44	5.63	8.72	9.90	9.27	11.77	11.77	
2.66	2.71	2.84	2.99	3.14	3.43	4.19	6.41	8.09	8.86	1.93	3.05	3.21	3.36	3.42	3.43	3.46	3.47	3.47	3.47	3.51	3.55	3.61	4.00	3.74	3.81	3.74	3.67	3.58	3.53	3.49	3.50	3.55	3.59	3.64	3.69	3.71	3.75	3.83	4.01	4.28	4.98	4.93	4.85	4.88	4.96	4.94	4.72	4.60	4.82	6.03	2.70	3.43	2.94	2.42	1.94	1.62	1.33	1.13	0.88	0.73	0.59	0.53	0.62	0.78	1.58	1.32	1.16	1.15	2.62	2.37	2.23	2.30	2.36	2.47	2.55	2.52	2.55	2.67	2.81	2.94	3.02	3.21	3.37	3.33	3.36	3.45	3.46	3.52	3.59	3.65	3.70	3.75	3.79	3.79	3.78	3.78	3.78	3.89	4.17	4.35	4.19	4.01	3.98	3.97	3.99	4.04	4.07	4.09	4.11	4.13	4.14	4.16	4.17	4.17	4.17	4.17	4.17	4.15	4.14	4.12	4.09	4.07	4.04	4.01	3.97	3.93	3.89	3.84	3.78	3.71	3.64	3.56	3.45	3.33	3.20	3.03	2.84	2.60	2.39	2.37	2.48	2.50	2.40	2.33	2.48	2.71	2.87	4.98	5.09	5.12	5.03	4.86	6.90	6.93	7.37	8.01	8.62	9.05	9.39	9.50	9.31	9.56	10.05	10.38	10.63	11.04	11.27	10.48	8.59	7.28	5.99	5.60	8.13	9.55	10.80	12.28	12.28	
2.64	2.71	2.85	2.99	3.15	3.44	5.08	7.00	8.55	7.03	2.75	3.11	3.27	3.40	3.41	3.43	3.47	3.49	3.51	3.52	3.64	3.62	4.21	3.95	3.73	3.85	3.78	3.70	3.61	3.54	3.51	3.52	3.54	3.58	3.64	3.66	3.65	3.68	3.77	3.99	4.35	5.06	4.96	4.84	4.91	5.00	4.87	4.51	4.30	4.77	6.20	3.42	3.43	2.81	2.37	1.98	1.76	1.68	1.50	1.06	0.66	0.42	0.22	0.30	0.42	1.55	1.37	1.15	0.99	1.03	2.54	2.30	2.23	2.16	2.09	2.15	2.31	2.45	2.58	2.72	2.85	2.94	3.13	3.33	3.32	3.36	3.44	3.43	3.47	3.54	3.59	3.65	3.72	3.77	3.77	3.77	3.77	3.75	3.82	4.08	4.34	4.31	4.10	4.01	3.97	3.97	4.02	4.06	4.08	4.10	4.12	4.14	4.15	4.15	4.16	4.17	4.17	4.16	4.15	4.13	4.11	4.09	4.06	4.03	4.00	3.97	3.93	3.89	3.85	3.79	3.72	3.65	3.58	3.48	3.38	3.25	3.10	2.93	2.70	2.49	2.42	2.46	2.44	2.31	2.21	2.30	2.58	2.82	2.92	4.99	5.02	5.01	4.89	6.88	6.83	7.04	7.86	8.48	8.84	9.25	9.16	9.12	9.62	9.97	10.18	10.53	11.35	11.03	8.82	7.46	5.89	5.67	5.40	6.17	9.91	11.44	12.15	12.15	
2.61	2.69	2.86	3.00	3.21	3.92	5.69	7.65	8.82	1.86	3.00	3.15	3.33	3.39	3.39	3.41	3.47	3.51	3.54	3.57	3.66	3.71	4.22	3.93	3.99	3.91	3.85	3.74	3.63	3.54	3.50	3.53	3.54	3.57	3.65	3.63	3.59	3.62	3.64	3.87	4.82	4.96	4.75	4.61	4.88	5.15	4.88	4.37	4.14	4.41	7.01	4.59	4.67	4.16	3.66	3.03	2.37	2.11	2.03	1.59	1.13	0.79	0.41	0.32	0.19	1.54	1.34	1.19	1.05	1.07	2.62	2.52	2.44	2.29	2.00	1.85	2.04	2.32	2.51	2.66	2.77	2.85	3.03	3.23	3.27	3.33	3.41	3.40	3.45	3.51	3.56	3.61	3.68	3.74	3.76	3.76	3.78	3.74	3.75	3.94	4.23	4.34	4.19	4.06	3.98	3.95	4.00	4.04	4.07	4.09	4.11	4.13	4.14	4.14	4.15	4.16	4.16	4.15	4.14	4.13	4.11	4.09	4.06	4.03	4.00	3.97	3.93	3.89	3.85	3.80	3.73	3.66	3.59	3.51	3.41	3.30	3.17	3.00	2.79	2.57	2.49	2.57	2.56	2.39	2.23	2.24	2.45	2.76	2.93	2.96	4.94	4.95	4.90	4.73	6.78	6.77	7.45	8.14	8.55	8.79	8.83	9.03	9.65	9.91	9.85	10.33	11.56	10.52	7.54	6.12	5.75	5.29	5.03	6.33	10.51	7.04	12.67	12.67	
2.61	2.70	2.88	3.02	3.29	3.97	6.33	8.36	6.45	2.74	3.02	3.18	3.33	3.36	3.37	3.42	3.48	3.56	3.60	3.77	3.73	3.85	4.20	3.97	4.06	4.02	3.96	3.85	3.70	3.54	3.45	3.47	3.52	3.58	3.66	3.64	3.61	3.64	3.59	3.77	4.50	4.81	4.81	4.82	5.46	5.36	4.89	4.31	4.15	4.15	7.75	2.48	3.27	4.17	3.82	2.92	2.18	1.87	2.03	1.97	1.62	1.33	1.00	0.65	0.42	0.31	1.44	1.17	1.05	1.02	2.48	2.50	2.59	2.54	2.17	1.79	1.85	2.16	2.42	2.60	2.74	2.83	2.96	3.11	3.22	3.31	3.34	3.36	3.42	3.48	3.54	3.59	3.63	3.69	3.73	3.76	3.79	3.75	3.72	3.82	4.07	4.27	4.23	4.12	4.01	3.94	3.97	4.02	4.05	4.08	4.10	4.12	4.13	4.13	4.14	4.14	4.15	4.14	4.14	4.13	4.11	4.09	4.06	4.03	4.00	3.97	3.93	3.90	3.86	3.81	3.75	3.68	3.61	3.53	3.44	3.34	3.22	3.07	2.89	2.67	2.53	2.61	2.72	2.60	2.37	2.29	2.41	2.65	2.88	2.98	4.98	4.94	4.87	4.88	6.92	6.84	7.04	7.84	8.22	8.42	8.73	8.95	9.42	9.77	9.72	10.16	11.65	10.18	6.86	5.93	5.68	5.12	4.32	8.47	5.41	7.23	12.68	12.68	
2.64	2.76	2.94	3.04	3.32	4.90	7.15	8.76	1.98	2.94	3.01	3.18	3.27	3.27	3.31	3.40	3.48	3.59	3.67	3.81	3.88	4.47	4.33	4.36	4.24	4.17	4.10	3.98	3.82	3.64	3.48	3.44	3.51	3.63	3.72	3.71	3.75	3.79	3.77	4.04	4.61	4.89	5.19	5.33	5.36	5.11	4.93	4.32	4.12	2.32	4.48	5.26	6.28	2.61	3.81	3.28	2.51	2.12	1.98	1.90	1.66	1.42	1.30	1.01	0.70	0.68	0.63	1.41	1.10	0.93	2.30	2.31	2.42	2.55	2.34	1.87	1.77	2.01	2.28	2.49	2.66	2.82	2.94	3.01	3.15	3.29	3.29	3.31	3.38	3.44	3.52	3.57	3.59	3.63	3.68	3.73	3.77	3.75	3.73	3.76	3.92	4.13	4.20	4.15	4.05	3.94	3.95	4.01	4.04	4.06	4.09	4.11	4.12	4.12	4.13	4.13	4.14	4.13	4.13	4.12	4.11	4.09	4.06	4.03	4.00	3.97	3.94	3.90	3.87	3.82	3.76	3.70	3.63	3.56	3.47	3.38	3.28	3.14	2.98	2.77	2.54	2.48	2.64	2.69	2.50	2.35	2.40	2.53	2.72	2.91	5.03	4.98	4.90	4.98	5.06	7.17	7.06	7.41	7.99	8.34	8.76	9.12	9.31	9.50	9.68	10.14	11.61	10.18	7.08	6.13	5.90	5.33	4.20	8.55	5.13	11.71	12.54	12.54	
2.71	2.89	3.11	3.18	3.63	5.61	8.19	3.59	2.79	2.84	2.92	3.06	3.15	3.21	3.26	3.27	3.40	3.68	3.90	4.00	4.19	4.50	4.50	4.57	4.48	4.35	4.24	4.12	3.99	3.88	3.76	3.68	3.71	3.83	3.92	3.88	3.89	3.92	3.95	4.21	5.23	5.22	5.45	5.93	5.33	5.30	4.93	4.41	1.84	4.14	1.39	1.61	5.20	6.58	3.87	3.20	2.68	2.30	1.86	1.70	1.60	1.35	1.31	1.28	1.12	1.03	0.82	1.64	1.18	0.94	2.19	2.20	2.23	2.30	2.27	1.91	1.71	1.88	2.15	2.36	2.54	2.76	2.93	2.96	3.11	3.28	3.25	3.28	3.35	3.40	3.47	3.52	3.56	3.60	3.64	3.70	3.75	3.76	3.77	3.78	3.86	4.04	4.15	4.14	4.06	3.95	3.93	3.99	4.02	4.04	4.07	4.09	4.10	4.11	4.12	4.12	4.12	4.12	4.12	4.11	4.10	4.08	4.06	4.04	4.00	3.97	3.94	3.91	3.88	3.83	3.78	3.72	3.66	3.59	3.51	3.42	3.32	3.20	3.05	2.87	2.62	2.39	2.40	2.53	2.48	2.33	2.32	2.42	2.54	2.75	2.95	5.02	4.99	5.05	5.15	5.02	7.02	7.12	7.79	8.39	8.83	9.27	9.42	9.35	9.59	10.28	11.38	9.98	7.40	6.61	6.10	5.64	4.65	8.95	5.22	7.45	8.80	8.80	
2.78	2.99	3.50	3.56	4.10	6.87	8.15	2.49	2.85	2.66	2.67	2.48	2.35	2.47	2.66	2.98	3.38	3.88	4.17	4.27	4.48	4.34	4.41	4.48	4.52	4.47	4.39	4.29	4.17	4.10	4.03	3.97	3.97	4.09	4.22	4.13	4.04	4.11	4.35	4.68	5.00	5.14	6.17	6.31	5.46	4.66	4.82	0.95	4.27	1.70	4.34	4.64	0.55	4.01	3.28	2.65	2.46	2.39	1.98	1.67	1.51	1.25	1.22	1.28	1.24	1.15	0.96	0.60	1.31	0.96	0.79	2.14	2.21	2.15	2.09	1.87	1.63	1.71	1.99	2.22	2.40	2.62	2.83	2.90	3.07	3.22	3.20	3.24	3.32	3.39	3.46	3.49	3.51	3.57	3.63	3.69	3.73	3.76	3.79	3.81	3.82	3.99	4.16	4.16	4.06	3.95	3.92	3.97	4.00	4.03	4.06	4.07	4.09	4.10	4.11	4.11	4.11	4.11	4.11	4.11	4.10	4.08	4.06	4.03	4.01	3.98	3.95	3.92	3.89	3.84	3.79	3.74	3.68	3.61	3.54	3.45	3.35	3.24	3.12	2.96	2.75	2.49	2.32	2.33	2.37	2.31	2.26	2.32	2.42	2.57	2.79	2.95	5.02	5.06	5.10	5.03	7.08	6.86	7.55	8.51	8.89	9.16	9.49	9.40	9.55	10.39	11.03	9.76	7.60	6.81	6.30	5.77	5.02	9.51	5.33	7.41	8.94	8.94	
2.90	3.06	3.78	3.99	6.25	8.14	3.02	1.88	1.50	1.39	0.95	0.77	1.13	2.24	3.33	3.83	4.15	4.19	4.44	4.62	4.51	4.36	4.34	4.37	4.44	4.49	4.53	4.51	4.42	4.34	4.24	4.12	4.04	4.13	4.30	4.39	4.28	4.47	4.54	4.66	5.06	5.36	6.01	6.15	5.70	4.77	4.65	4.34	4.36	4.49	4.35	4.54	2.05	1.53	1.30	1.89	2.28	2.45	2.22	1.77	1.50	1.33	1.13	1.00	0.89	0.89	0.95	0.91	1.71	1.12	0.76	2.07	2.21	2.20	2.05	1.82	1.58	1.56	1.80	2.08	2.25	2.46	2.66	2.78	3.00	3.13	3.13	3.18	3.26	3.35	3.45	3.49	3.50	3.53	3.57	3.64	3.70	3.73	3.77	3.79	3.76	3.87	4.12	4.20	4.08	3.94	3.90	3.94	3.98	4.01	4.04	4.06	4.08	4.09	4.10	4.10	4.09	4.09	4.10	4.10	4.09	4.08	4.06	4.03	4.01	3.98	3.96	3.93	3.90	3.85	3.81	3.76	3.71	3.64	3.57	3.50	3.40	3.29	3.18	3.05	2.89	2.68	2.47	2.31	2.29	2.31	2.28	2.29	2.35	2.44	2.61	2.75	2.92	5.00	5.02	5.00	7.09	6.83	7.28	8.43	8.83	8.91	9.44	9.59	9.59	10.03	10.30	9.27	7.73	7.16	6.44	5.87	5.32	5.19	5.56	7.49	9.11	9.11	
3.00	3.17	3.54	3.67	7.63	11.27	4.38	3.51	2.18	1.43	1.42	1.10	1.84	2.90	3.85	4.08	3.87	3.96	4.19	4.36	4.42	4.44	4.47	4.52	4.49	4.49	4.61	4.72	4.73	4.68	4.60	4.47	4.37	4.28	4.19	4.04	4.15	4.45	5.27	5.48	5.45	5.65	5.76	4.42	0.97	1.22	0.34	4.31	4.45	1.15	4.54	1.26	1.77	2.32	2.40	2.09	2.27	2.50	2.58	2.42	2.30	2.02	1.52	1.08	0.91	0.95	0.79	0.91	1.00	1.50	0.92	2.08	2.18	2.24	2.12	1.85	1.56	1.44	1.62	1.92	2.15	2.36	2.51	2.65	2.89	3.03	3.05	3.12	3.20	3.27	3.37	3.43	3.48	3.53	3.54	3.60	3.68	3.72	3.75	3.77	3.75	3.78	3.99	4.18	4.14	3.99	3.89	3.91	3.96	4.00	4.02	4.04	4.06	4.08	4.09	4.09	4.08	4.08	4.09	4.09	4.08	4.07	4.05	4.03	4.01	3.99	3.97	3.94	3.91	3.87	3.83	3.78	3.73	3.66	3.60	3.54	3.45	3.35	3.24	3.12	3.00	2.85	2.67	2.46	2.31	2.27	2.26	2.29	2.33	2.39	2.50	2.61	2.77	4.91	4.89	4.94	4.98	6.97	6.98	8.09	8.70	8.69	9.34	9.75	9.60	9.73	9.69	8.69	7.64	7.21	6.25	5.65	5.14	5.24	5.67	7.76	11.35	11.35	
3.09	3.25	3.01	2.80	5.77	11.52	4.85	2.86	1.59	1.24	2.13	3.14	3.40	3.42	3.61	3.79	3.63	3.58	3.95	4.03	4.19	4.38	4.57	4.77	4.76	4.66	4.72	4.82	4.88	4.88	4.85	4.80	4.66	4.44	3.83	3.73	4.33	4.54	5.09	5.59	5.86	6.21	5.17	5.32	0.71	0.70	4.86	4.63	1.22	4.59	0.73	0.52	1.56	2.41	2.11	1.85	2.15	2.51	2.82	2.77	2.53	2.32	2.08	1.62	1.20	0.90	0.68	0.82	1.10	1.89	1.25	0.80	2.23	2.31	2.23	1.99	1.63	1.34	1.41	1.71	2.02	2.28	2.43	2.56	2.79	2.92	2.96	3.06	3.15	3.21	3.30	3.36	3.43	3.50	3.53	3.58	3.66	3.70	3.74	3.77	3.77	3.76	3.88	4.06	4.14	4.06	3.91	3.88	3.94	3.98	4.00	4.02	4.04	4.06	4.07	4.08	4.07	4.06	4.07	4.08	4.08	4.06	4.04	4.03	4.01	3.99	3.97	3.95	3.92	3.88	3.84	3.80	3.75	3.69	3.62	3.57	3.50	3.41	3.30	3.19	3.08	2.97	2.82	2.62	2.41	2.23	2.15	2.20	2.30	2.37	2.46	2.55	2.70	2.88	4.84	4.97	5.11	4.79	6.75	7.76	8.51	8.48	9.06	9.39	9.44	9.86	9.73	8.08	7.58	6.40	5.97	5.20	9.18	5.23	10.28	11.88	13.48	13.48	
3.21	3.22	2.79	2.96	4.52	9.77	3.74	2.30	2.56	2.55	3.16	3.66	3.87	3.88	3.81	3.83	3.73	4.05	4.01	4.04	4.18	4.40	4.63	4.92	5.08	5.06	5.07	5.12	5.26	5.06	4.91	4.87	4.81	4.64	3.66	4.10	4.72	4.89	5.26	5.69	5.93	6.03	4.27	5.27	4.85	4.51	4.16	0.60	0.64	0.54	0.50	0.73	1.51	1.42	1.45	1.78	2.04	2.33	2.56	2.56	2.39	2.31	2.30	2.09	1.55	1.12	0.93	0.95	1.10	1.07	1.67	1.11	2.27	2.37	2.37	2.21	1.87	1.42	1.25	1.46	1.79	2.13	2.35	2.48	2.70	2.84	2.87	2.99	3.11	3.18	3.25	3.32	3.37	3.42	3.48	3.55	3.61	3.64	3.69	3.75	3.78	3.77	3.82	3.95	4.08	4.09	3.96	3.87	3.90	3.95	3.98	4.00	4.02	4.04	4.05	4.06	4.06	4.05	4.05	4.07	4.07	4.06	4.04	4.03	4.01	3.99	3.97	3.95	3.93	3.90	3.86	3.82	3.77	3.72	3.65	3.60	3.55	3.47	3.37	3.26	3.16	3.05	2.92	2.76	2.56	2.31	2.10	2.03	2.12	2.25	2.37	2.46	2.55	2.76	4.86	5.07	5.19	4.96	6.72	7.51	8.35	8.41	8.82	8.82	8.97	9.66	9.75	8.36	7.79	6.46	5.94	5.04	4.70	5.50	10.37	12.29	14.15	14.15	
3.22	3.19	2.82	3.29	3.38	9.36	3.97	2.10	2.19	2.51	2.87	3.14	3.54	3.84	3.93	3.83	3.73	3.98	3.95	4.09	4.24	4.47	4.65	4.83	5.07	5.27	5.47	5.66	5.70	5.49	5.32	5.30	5.02	4.24	3.56	4.24	4.91	5.29	5.77	6.18	6.46	5.55	4.18	3.05	4.94	4.54	4.24	0.27	0.02	0.29	0.03	0.11	0.22	0.86	0.95	1.41	1.74	2.03	2.51	2.68	2.79	2.94	2.70	2.36	1.77	1.21	1.07	1.13	1.15	1.06	1.97	1.52	1.13	2.43	2.45	2.36	2.15	1.70	1.27	1.26	1.52	1.89	2.20	2.35	2.58	2.77	2.79	2.88	3.04	3.13	3.20	3.28	3.31	3.36	3.44	3.51	3.56	3.59	3.64	3.72	3.78	3.79	3.80	3.88	4.01	4.10	4.04	3.89	3.86	3.93	3.96	3.98	4.00	4.02	4.04	4.05	4.05	4.04	4.04	4.05	4.06	4.05	4.03	4.02	4.01	3.99	3.97	3.96	3.94	3.91	3.88	3.84	3.79	3.74	3.68	3.63	3.58	3.53	3.44	3.33	3.22	3.12	3.00	2.86	2.69	2.48	2.22	2.01	1.94	2.02	2.20	2.34	2.40	2.60	2.90	5.06	5.30	5.13	6.78	7.25	8.11	8.51	8.87	8.53	8.51	9.14	9.56	8.55	6.76	6.59	6.01	4.87	8.86	9.82	10.82	8.37	10.11	10.11	
3.23	3.19	3.01	3.56	3.63	9.68	5.09	2.99	2.55	3.02	3.35	3.18	3.25	3.50	3.73	3.81	3.81	4.00	3.97	4.07	4.22	4.46	4.69	4.82	4.96	5.13	5.36	6.01	6.08	5.95	6.21	6.04	5.43	4.13	3.59	4.52	5.12	5.38	5.69	6.15	6.64	4.76	4.28	0.77	0.18	0.20	0.33	0.39	0.21	0.31	0.42	1.17	1.67	1.46	1.37	1.93	2.20	2.49	2.65	2.41	2.57	2.93	3.04	2.70	2.15	1.54	1.22	1.26	1.21	1.02	1.97	1.66	1.39	1.17	2.55	2.45	2.31	2.00	1.53	1.26	1.31	1.63	1.98	2.18	2.40	2.66	2.72	2.76	2.91	3.04	3.14	3.23	3.25	3.30	3.39	3.47	3.51	3.55	3.60	3.67	3.75	3.79	3.79	3.83	3.93	4.07	4.10	3.96	3.84	3.89	3.94	3.96	3.98	4.00	4.02	4.03	4.04	4.03	4.02	4.03	4.05	4.04	4.02	4.02	4.01	3.99	3.97	3.97	3.95	3.92	3.90	3.86	3.81	3.76	3.71	3.66	3.61	3.57	3.49	3.39	3.29	3.18	3.08	2.96	2.81	2.64	2.42	2.17	1.95	1.87	1.99	2.17	2.30	2.53	2.82	5.01	5.39	5.45	5.02	7.03	7.67	8.39	8.74	8.38	8.12	8.46	9.23	8.68	6.69	6.66	6.14	5.02	8.70	9.54	6.27	8.39	10.15	10.15	
3.18	3.14	3.21	3.97	3.75	9.89	6.65	4.66	3.71	3.25	3.26	3.27	3.23	3.35	3.66	3.86	4.23	4.20	4.16	4.15	4.24	4.43	4.65	4.87	5.04	5.11	5.10	5.83	6.02	6.70	6.50	6.27	5.74	4.07	3.93	5.17	5.44	5.50	5.81	6.26	6.50	3.95	1.36	0.81	0.37	0.35	0.79	0.62	0.41	0.28	0.31	0.82	0.87	0.31	0.55	1.49	2.30	2.71	2.67	2.46	2.74	3.19	3.19	2.85	2.42	1.87	1.43	1.41	1.20	0.89	0.71	1.60	1.39	1.22	1.16	2.60	2.44	2.20	1.83	1.48	1.29	1.41	1.73	1.97	2.18	2.49	2.65	2.67	2.77	2.93	3.07	3.18	3.22	3.27	3.35	3.42	3.48	3.51	3.55	3.60	3.69	3.75	3.76	3.78	3.86	3.98	4.11	4.05	3.87	3.85	3.92	3.95	3.97	3.99	4.00	4.02	4.03	4.02	4.01	4.02	4.04	4.04	4.02	4.01	4.00	3.98	3.97	3.97	3.96	3.93	3.91	3.88	3.83	3.79	3.74	3.69	3.64	3.60	3.54	3.45	3.36	3.26	3.16	3.05	2.93	2.77	2.60	2.38	2.12	1.89	1.83	1.94	2.13	2.42	2.71	3.10	5.40	5.66	5.35	7.27	7.52	8.16	8.28	8.23	7.78	7.93	8.51	8.99	6.48	6.58	6.32	5.54	9.13	9.19	6.07	8.44	14.90	14.90	
3.07	3.06	3.19	3.95	3.91	9.65	8.87	6.81	5.19	3.98	3.54	3.57	3.47	3.45	3.79	3.91	4.21	4.19	4.23	4.26	4.32	4.47	4.62	4.78	5.02	5.11	5.55	5.62	5.75	6.86	6.75	6.20	5.68	4.45	4.23	4.94	5.42	5.74	6.13	6.67	6.44	1.57	1.41	1.27	1.08	0.98	0.89	0.56	0.22	0.09	0.41	0.72	0.70	0.48	0.63	1.29	1.86	2.06	2.34	2.69	2.62	2.84	3.06	2.94	2.66	2.09	1.59	1.54	1.38	1.03	0.71	1.74	1.35	1.16	1.18	1.25	2.63	2.39	2.07	1.74	1.46	1.38	1.53	1.74	1.94	2.25	2.53	2.61	2.68	2.81	2.96	3.12	3.20	3.25	3.32	3.38	3.43	3.47	3.52	3.57	3.63	3.69	3.72	3.73	3.80	3.90	4.04	4.09	3.92	3.83	3.89	3.93	3.95	3.97	3.98	4.00	4.01	4.01	4.00	4.01	4.02	4.03	4.01	4.00	4.00	3.99	3.97	3.97	3.96	3.94	3.92	3.89	3.85	3.81	3.76	3.72	3.67	3.63	3.57	3.51	3.43	3.34	3.24	3.13	3.02	2.89	2.74	2.55	2.32	2.06	1.83	1.77	1.92	2.24	2.53	2.94	5.27	5.75	5.70	5.37	7.66	7.94	7.86	7.95	7.61	7.85	8.24	8.67	6.18	6.09	6.01	5.75	9.32	5.23	6.10	8.53	13.19	13.19	
2.96	2.93	2.94	3.19	3.04	8.45	12.18	7.91	6.12	5.26	4.83	4.76	4.58	4.33	4.31	4.51	4.32	4.20	4.19	4.27	4.38	4.58	4.79	4.90	5.02	5.06	5.65	5.54	6.58	7.07	7.15	6.61	6.24	5.16	4.72	4.96	5.10	5.29	5.54	6.23	4.91	1.40	1.62	1.58	1.38	0.87	0.48	0.54	0.47	0.60	0.88	1.15	1.64	1.94	1.82	1.83	1.96	2.07	2.27	2.01	1.74	2.45	2.82	2.81	2.59	2.22	1.95	1.87	1.84	1.52	1.03	0.71	1.64	1.29	1.24	1.26	1.28	2.64	2.37	2.02	1.75	1.58	1.55	1.60	1.71	1.97	2.31	2.51	2.58	2.70	2.84	3.00	3.13	3.20	3.27	3.33	3.37	3.42	3.50	3.56	3.60	3.64	3.68	3.69	3.74	3.85	3.98	4.08	3.97	3.82	3.84	3.90	3.93	3.95	3.96	3.98	3.99	4.00	3.99	3.99	4.01	4.01	4.01	4.00	3.99	3.98	3.97	3.97	3.97	3.95	3.93	3.91	3.87	3.83	3.79	3.74	3.70	3.66	3.61	3.55	3.49	3.41	3.31	3.21	3.10	2.99	2.85	2.68	2.49	2.25	1.96	1.73	1.77	2.06	2.34	2.72	5.12	5.82	5.96	5.70	5.52	7.52	7.42	7.55	7.59	7.93	8.27	8.66	5.60	5.26	5.19	9.41	5.35	5.48	6.22	8.54	14.95	14.95	
2.82	2.74	2.65	2.13	2.00	3.49	11.27	7.99	6.35	5.81	5.42	5.20	5.06	4.83	4.75	4.67	4.38	4.19	4.14	4.21	4.31	4.48	4.72	4.93	5.06	5.69	5.47	6.21	6.67	7.05	7.03	6.72	6.65	6.11	5.61	5.52	5.33	5.18	5.19	5.74	2.98	1.70	1.26	0.98	0.90	0.66	0.62	1.12	1.47	1.67	1.58	1.87	2.35	2.45	1.67	1.32	1.62	1.83	1.64	1.40	1.76	2.61	3.08	2.88	2.53	2.38	2.28	2.14	2.08	1.87	1.36	0.91	0.61	1.56	1.36	1.27	1.24	2.74	2.61	2.38	2.11	1.90	1.76	1.63	1.57	1.71	2.04	2.33	2.47	2.58	2.72	2.87	3.02	3.14	3.22	3.29	3.32	3.36	3.46	3.54	3.58	3.60	3.64	3.68	3.69	3.77	3.95	4.08	4.03	3.89	3.82	3.86	3.90	3.93	3.95	3.96	3.97	3.99	3.99	3.98	3.99	4.00	4.00	3.99	3.99	3.98	3.97	3.96	3.96	3.95	3.93	3.92	3.89	3.85	3.82	3.77	3.73	3.68	3.64	3.59	3.53	3.47	3.38	3.27	3.17	3.07	2.94	2.79	2.62	2.40	2.12	1.79	1.66	1.88	2.20	2.56	4.96	5.65	6.10	5.93	5.73	5.60	5.56	5.63	5.72	7.87	8.00	8.10	5.40	5.07	8.69	5.11	5.45	5.69	6.49	12.70	14.76	14.76	
2.63	2.57	2.38	1.84	2.08	2.26	9.87	8.81	7.15	6.24	5.66	5.19	4.93	4.74	4.83	4.62	4.38	4.19	4.12	4.16	4.20	4.28	4.45	4.60	4.80	5.76	5.46	6.47	6.95	7.12	6.99	6.53	6.13	5.78	5.54	5.46	5.16	4.89	5.28	5.48	1.76	2.22	1.35	0.91	0.95	1.15	1.97	2.36	2.17	1.90	1.80	1.95	1.82	1.19	0.92	1.60	1.74	1.77	1.71	1.55	1.92	2.78	3.18	2.98	2.57	2.35	2.28	2.20	2.13	2.07	1.74	1.24	0.97	0.82	1.70	1.41	1.25	1.16	2.65	2.56	2.39	2.19	2.04	1.82	1.58	1.52	1.74	2.09	2.34	2.49	2.63	2.76	2.90	3.07	3.19	3.25	3.28	3.31	3.41	3.51	3.56	3.56	3.59	3.65	3.65	3.68	3.86	4.05	4.07	3.98	3.86	3.82	3.87	3.90	3.93	3.94	3.96	3.97	3.98	3.97	3.97	3.99	3.99	3.99	3.98	3.98	3.97	3.96	3.96	3.96	3.94	3.93	3.90	3.87	3.84	3.80	3.75	3.71	3.67	3.62	3.57	3.52	3.44	3.34	3.24	3.14	3.03	2.89	2.73	2.54	2.29	1.93	1.64	1.67	1.99	2.39	2.89	5.34	5.96	6.10	6.02	5.77	5.72	5.75	5.87	6.01	6.00	4.99	5.15	6.57	4.87	5.17	5.58	6.25	6.84	8.67	14.56	14.56	
2.53	2.44	2.24	2.10	2.46	1.91	9.41	9.25	7.54	6.35	5.76	5.34	5.05	4.82	4.87	4.70	4.53	4.32	4.19	4.16	4.18	4.27	4.42	4.43	4.51	5.42	6.63	7.04	7.42	7.48	7.41	7.07	6.57	6.02	5.65	5.51	4.70	3.74	4.85	3.97	2.64	2.90	2.17	1.79	1.70	1.86	2.57	2.70	1.95	1.64	1.95	1.84	1.27	0.52	0.10	0.58	1.42	2.20	2.60	2.47	2.44	2.86	3.13	3.04	2.74	2.56	2.51	2.49	2.27	2.10	1.95	1.51	1.12	0.98	0.79	1.67	1.40	1.26	1.13	2.59	2.54	2.42	2.30	2.08	1.78	1.51	1.49	1.74	2.08	2.36	2.56	2.70	2.79	2.95	3.12	3.21	3.24	3.27	3.34	3.45	3.51	3.52	3.54	3.59	3.61	3.61	3.72	3.95	4.05	4.04	3.96	3.84	3.82	3.87	3.90	3.93	3.94	3.96	3.97	3.97	3.96	3.97	3.98	3.98	3.98	3.97	3.97	3.96	3.96	3.96	3.95	3.94	3.92	3.89	3.86	3.82	3.78	3.74	3.70	3.65	3.61	3.56	3.49	3.40	3.30	3.21	3.11	2.99	2.84	2.67	2.45	2.13	1.76	1.59	1.78	2.16	2.61	3.37	5.86	6.15	6.21	5.86	5.68	5.60	5.82	6.07	4.91	4.92	6.69	4.92	4.89	5.24	6.20	6.39	7.07	11.90	14.46	14.46	
2.46	2.36	2.18	2.16	2.69	2.34	9.09	9.42	7.81	6.36	5.62	5.25	4.98	5.01	4.91	4.71	4.59	4.41	4.21	4.08	4.07	4.18	4.34	4.38	5.21	5.14	6.53	6.89	7.22	7.20	7.18	7.21	7.20	6.74	6.24	5.91	4.03	1.26	3.17	5.36	4.86	4.12	3.45	3.00	2.75	2.71	2.88	2.53	1.65	2.04	2.30	1.42	0.69	0.47	0.49	0.75	1.55	2.05	2.11	2.42	2.99	3.06	3.19	3.01	2.89	2.84	2.76	2.92	2.85	2.62	2.41	2.00	1.42	1.05	0.97	2.00	1.60	1.39	1.25	1.14	2.65	2.64	2.58	2.39	2.10	1.76	1.46	1.44	1.73	2.11	2.43	2.62	2.72	2.83	2.99	3.12	3.20	3.24	3.29	3.39	3.46	3.49	3.51	3.55	3.57	3.57	3.62	3.79	3.96	4.03	4.02	3.93	3.82	3.83	3.87	3.90	3.93	3.94	3.96	3.96	3.96	3.96	3.97	3.97	3.97	3.97	3.97	3.96	3.96	3.96	3.95	3.94	3.93	3.91	3.88	3.85	3.81	3.76	3.73	3.69	3.64	3.60	3.54	3.45	3.36	3.29	3.19	3.07	2.94	2.79	2.60	2.34	2.02	1.73	1.70	1.95	2.39	3.17	3.97	6.14	6.14	6.07	5.60	5.38	5.66	5.92	4.75	6.47	4.77	4.80	8.22	5.94	6.21	6.47	10.95	12.54	14.59	14.59	
2.40	2.29	2.10	2.05	2.64	2.35	8.87	9.11	8.31	6.99	5.77	5.12	5.11	4.95	4.81	4.57	4.46	4.35	4.18	4.02	3.97	4.05	4.17	4.24	5.07	4.95	6.42	6.48	6.98	7.07	7.11	7.37	7.37	6.93	6.34	5.55	0.39	3.07	4.22	4.95	5.26	5.28	4.45	3.58	3.39	3.45	3.22	2.30	1.95	2.37	1.86	0.79	0.91	1.03	1.11	2.00	2.55	2.57	2.51	2.67	3.13	3.10	3.03	3.00	3.04	3.02	2.92	3.08	3.18	3.03	2.70	2.44	2.19	1.79	1.53	1.38	2.11	1.70	1.38	1.19	1.24	2.79	2.82	2.73	2.52	2.20	1.77	1.43	1.43	1.79	2.21	2.49	2.64	2.76	2.88	3.01	3.13	3.20	3.24	3.33	3.41	3.44	3.48	3.52	3.53	3.55	3.57	3.66	3.83	3.97	4.02	3.99	3.90	3.82	3.83	3.87	3.90	3.93	3.94	3.95	3.95	3.95	3.95	3.96	3.97	3.97	3.97	3.96	3.96	3.96	3.96	3.95	3.94	3.92	3.90	3.87	3.84	3.79	3.76	3.72	3.67	3.63	3.58	3.50	3.42	3.35	3.27	3.16	3.03	2.90	2.75	2.55	2.30	2.01	1.76	1.81	2.25	2.97	3.78	4.16	5.95	6.26	5.68	4.23	5.86	6.05	6.34	6.37	4.58	4.70	4.74	5.77	6.10	10.01	11.30	13.30	14.49	14.49	
2.38	2.25	2.02	1.91	2.22	1.88	8.63	9.80	8.11	7.06	6.03	5.13	5.00	4.89	4.76	4.54	4.37	4.25	4.12	3.99	4.00	4.13	4.21	4.90	4.76	5.84	6.28	6.68	7.16	7.31	7.44	7.80	7.98	7.54	7.08	2.65	2.94	3.95	5.06	5.34	5.28	5.89	5.78	4.33	3.79	3.67	3.36	2.65	2.80	2.76	2.13	1.87	2.76	2.72	2.31	2.45	2.78	2.87	2.87	2.96	3.38	4.01	3.71	3.23	3.31	3.31	3.19	3.18	3.18	3.14	2.77	2.37	2.23	2.16	1.87	1.59	1.53	1.26	1.79	1.45	1.35	1.47	1.44	2.91	2.84	2.66	2.33	1.83	1.41	1.54	1.97	2.32	2.55	2.71	2.82	2.94	3.07	3.16	3.20	3.27	3.34	3.37	3.42	3.48	3.50	3.52	3.54	3.57	3.68	3.87	4.00	4.01	3.97	3.88	3.80	3.82	3.87	3.90	3.93	3.94	3.94	3.93	3.93	3.95	3.96	3.97	3.96	3.96	3.96	3.96	3.96	3.95	3.95	3.93	3.92	3.89	3.86	3.82	3.79	3.75	3.71	3.66	3.61	3.54	3.47	3.41	3.34	3.24	3.12	3.01	2.88	2.72	2.53	2.28	1.94	1.78	2.13	2.85	3.56	3.94	4.01	4.37	5.92	4.41	4.26	6.49	6.28	4.43	4.57	4.60	8.04	8.44	9.37	10.19	11.08	12.99	14.04	14.04	
2.38	2.24	1.96	1.78	1.72	1.35	7.12	11.23	7.02	6.28	5.60	5.28	4.81	4.68	4.63	4.52	4.34	4.17	4.02	3.90	3.93	4.14	4.31	4.90	5.71	5.95	6.13	6.65	6.97	7.12	7.37	7.78	8.11	8.18	9.05	3.72	3.79	4.12	4.87	5.31	5.13	5.57	6.34	5.79	4.60	3.64	3.13	3.06	3.48	3.71	3.85	4.08	3.93	3.43	2.95	2.75	2.81	2.94	2.99	2.94	2.81	3.40	4.63	4.68	3.95	3.64	3.52	3.53	3.64	3.78	3.49	2.95	2.49	2.21	1.98	1.65	1.55	1.46	1.23	1.92	1.58	1.49	1.44	1.30	2.86	2.81	2.66	2.30	1.79	1.54	1.74	2.10	2.40	2.62	2.76	2.87	2.99	3.10	3.17	3.21	3.28	3.32	3.35	3.41	3.46	3.49	3.51	3.52	3.57	3.71	3.92	4.02	4.02	3.98	3.86	3.80	3.82	3.85	3.89	3.92	3.94	3.93	3.92	3.93	3.95	3.96	3.96	3.96	3.96	3.96	3.96	3.96	3.95	3.94	3.93	3.91	3.88	3.85	3.82	3.79	3.74	3.70	3.65	3.59	3.52	3.46	3.41	3.31	3.21	3.11	3.00	2.86	2.70	2.48	2.15	1.90	2.13	2.76	3.35	3.67	3.80	4.14	4.52	4.43	4.35	6.25	4.48	4.56	4.69	6.05	8.09	8.70	9.47	10.07	10.84	12.83	14.12	14.12	
2.41	2.26	1.97	1.69	1.52	1.44	5.50	11.74	7.11	5.69	5.19	5.25	4.82	4.55	4.43	4.42	4.31	4.16	4.03	3.92	3.92	4.08	4.91	4.93	6.28	6.50	6.55	6.64	6.86	7.09	7.36	7.73	7.93	8.56	6.79	4.51	4.21	4.16	4.64	5.31	5.05	4.89	4.45	5.21	5.53	4.04	3.55	3.50	3.61	3.95	4.19	4.24	3.93	3.48	2.96	2.85	3.00	3.12	2.99	2.34	2.10	3.12	4.51	5.63	5.75	4.93	4.07	3.80	3.69	4.11	4.33	4.04	3.53	3.10	3.00	2.93	2.60	1.96	1.52	1.35	2.14	1.77	1.55	1.33	2.78	2.75	2.68	2.50	2.18	1.81	1.70	1.90	2.18	2.43	2.62	2.76	2.87	2.99	3.09	3.15	3.21	3.28	3.32	3.33	3.39	3.46	3.47	3.48	3.51	3.58	3.74	3.94	4.02	4.02	3.98	3.90	3.84	3.83	3.84	3.89	3.93	3.94	3.91	3.91	3.93	3.95	3.95	3.95	3.96	3.96	3.96	3.96	3.96	3.95	3.94	3.92	3.90	3.87	3.84	3.81	3.78	3.73	3.68	3.63	3.56	3.51	3.46	3.39	3.30	3.21	3.12	3.00	2.86	2.66	2.34	2.09	2.23	2.67	3.08	3.39	3.60	3.91	4.22	4.26	4.23	6.03	6.09	6.23	6.39	6.28	8.37	8.60	9.33	10.15	10.96	12.74	14.40	14.40	
2.46	2.33	2.03	1.73	1.41	1.61	4.50	10.94	6.69	5.17	5.48	5.33	4.96	4.62	4.39	4.36	4.30	4.17	4.04	3.97	3.92	4.03	4.88	6.04	6.31	6.22	6.58	6.76	7.08	7.56	7.83	8.11	8.33	9.32	4.80	4.56	4.48	4.16	3.80	4.27	3.84	4.61	3.95	4.96	5.15	4.46	4.34	4.35	4.43	4.48	4.67	4.68	4.60	4.75	4.05	3.41	3.05	2.72	2.61	2.44	3.21	3.99	4.72	5.56	5.93	6.23	6.03	5.74	5.54	4.65	4.50	4.46	4.33	3.91	3.86	3.90	3.79	3.13	2.18	1.79	1.66	2.59	2.18	1.76	1.44	2.74	2.69	2.60	2.42	2.14	1.91	1.92	2.06	2.25	2.45	2.62	2.75	2.86	2.98	3.06	3.13	3.22	3.28	3.29	3.33	3.41	3.44	3.45	3.48	3.51	3.58	3.77	3.96	4.02	4.00	4.00	3.99	3.92	3.85	3.87	3.93	3.96	3.94	3.92	3.92	3.93	3.94	3.95	3.95	3.96	3.96	3.95	3.96	3.97	3.96	3.94	3.92	3.89	3.87	3.84	3.80	3.76	3.72	3.67	3.61	3.56	3.51	3.45	3.39	3.31	3.23	3.14	3.02	2.84	2.56	2.32	2.37	2.62	2.86	3.10	3.35	3.63	3.88	3.98	4.02	6.05	6.17	6.41	6.61	6.64	6.46	8.60	9.07	9.99	10.85	12.72	14.38	14.38	
2.56	2.44	2.14	1.82	1.46	1.58	1.53	9.91	6.75	5.82	5.40	5.23	4.92	4.64	4.38	4.30	4.22	4.10	3.89	3.73	3.58	3.71	4.80	6.55	6.57	6.60	6.81	7.15	7.41	7.85	8.30	8.64	9.45	5.49	4.49	4.30	4.11	3.50	2.72	2.73	3.49	3.71	3.57	3.50	5.12	4.98	4.90	5.35	5.21	4.97	5.08	5.09	4.90	5.12	5.44	5.07	4.56	4.16	4.01	4.51	4.57	4.21	4.30	4.90	5.31	5.87	6.19	6.05	6.62	6.54	6.78	6.04	5.14	4.40	3.51	3.72	3.98	3.76	2.81	2.14	1.83	1.82	3.14	2.59	2.04	1.60	2.81	2.70	2.56	2.34	2.15	2.14	2.16	2.19	2.32	2.50	2.65	2.75	2.82	2.90	3.00	3.12	3.20	3.23	3.27	3.32	3.38	3.42	3.46	3.48	3.50	3.60	3.80	3.97	3.98	3.94	4.01	4.03	3.91	3.85	3.90	3.94	3.97	3.97	3.96	3.94	3.94	3.95	3.95	3.97	3.97	3.96	3.96	3.98	4.00	3.98	3.96	3.93	3.90	3.88	3.84	3.79	3.75	3.71	3.67	3.62	3.57	3.52	3.47	3.40	3.33	3.25	3.16	3.02	2.81	2.60	2.55	2.64	2.78	2.91	3.07	3.32	3.56	3.71	3.86	3.96	6.07	6.35	6.65	6.76	6.72	6.47	8.83	9.66	10.79	12.93	14.49	14.49	
2.64	2.54	2.25	1.91	1.63	1.48	0.95	9.59	7.39	6.19	5.55	5.20	4.90	4.67	4.38	4.26	4.16	4.06	3.83	3.43	3.07	4.26	4.32	6.71	6.99	7.33	7.33	7.45	7.72	8.17	8.66	9.40	6.16	6.10	4.98	4.46	3.73	3.16	2.53	2.16	4.34	2.57	3.55	4.00	3.71	4.32	4.80	5.15	5.24	5.12	4.98	4.90	5.37	5.41	5.68	5.59	5.13	5.27	5.41	5.42	5.42	5.03	5.05	5.37	5.24	5.39	5.66	5.49	5.39	5.83	5.98	6.45	6.42	5.86	6.31	6.50	5.53	4.53	3.71	2.89	2.41	2.25	2.27	3.33	2.73	2.10	3.05	2.86	2.65	2.42	2.25	2.28	2.32	2.27	2.27	2.39	2.56	2.69	2.75	2.78	2.84	2.95	3.07	3.14	3.19	3.23	3.27	3.36	3.43	3.45	3.48	3.50	3.59	3.81	3.95	3.92	3.94	4.02	3.98	3.88	3.87	3.89	3.93	3.97	3.99	3.98	3.96	3.95	3.95	3.97	3.99	3.99	3.97	3.96	3.99	4.01	3.99	3.97	3.94	3.92	3.89	3.85	3.78	3.74	3.71	3.68	3.63	3.59	3.56	3.50	3.41	3.33	3.24	3.14	3.01	2.87	2.76	2.71	2.75	2.77	2.84	3.05	3.28	3.44	3.63	3.84	6.01	6.23	6.61	6.77	6.67	6.45	8.55	8.96	10.08	12.76	14.61	14.61	
2.72	2.63	2.35	2.03	1.68	1.40	1.08	8.39	7.77	6.12	5.61	5.27	4.93	4.71	4.43	4.25	4.13	4.09	3.88	3.35	2.75	3.92	3.73	6.47	7.09	7.75	7.46	7.48	7.90	8.41	8.91	6.60	6.46	6.01	4.93	4.17	3.57	3.32	3.30	3.39	3.45	3.23	3.23	3.83	3.99	4.02	4.33	4.70	4.90	4.94	5.04	5.09	5.07	4.97	4.99	5.31	4.91	4.87	5.32	5.37	5.30	5.31	4.82	4.96	4.93	4.92	5.19	5.19	5.07	5.28	5.19	5.34	5.49	5.30	5.42	5.58	6.41	5.70	4.49	3.56	2.98	2.87	3.03	3.72	3.33	2.67	2.05	3.13	2.84	2.56	2.38	2.36	2.39	2.34	2.27	2.31	2.45	2.58	2.69	2.76	2.74	2.76	2.91	3.01	3.07	3.14	3.18	3.26	3.36	3.41	3.45	3.48	3.49	3.60	3.81	3.94	3.98	4.00	3.99	3.95	3.91	3.88	3.89	3.93	3.95	3.97	3.97	3.96	3.94	3.95	3.97	4.00	3.98	3.93	3.95	3.99	3.99	3.98	3.95	3.92	3.92	3.90	3.84	3.77	3.75	3.72	3.67	3.64	3.63	3.59	3.50	3.42	3.33	3.23	3.15	3.07	2.97	2.85	2.74	2.64	2.64	2.83	3.05	3.17	3.30	3.59	3.85	6.01	6.41	6.62	6.50	6.37	6.29	6.42	8.96	11.88	14.39	14.39	
2.83	2.74	2.48	2.18	1.76	1.37	1.30	8.57	7.51	6.03	5.51	5.23	4.94	4.76	4.55	4.41	4.31	4.36	4.09	3.48	2.79	3.76	3.43	5.79	6.69	7.64	7.75	7.79	8.01	7.42	7.12	7.01	6.71	5.18	3.88	3.24	3.12	3.37	3.68	4.02	4.15	4.29	4.52	4.37	4.40	4.22	4.11	4.35	4.50	4.57	4.63	4.79	4.83	4.74	4.83	5.15	5.26	5.23	5.06	5.11	4.66	4.66	4.43	4.68	4.73	4.58	4.77	4.84	4.68	4.81	4.73	4.67	4.79	4.77	4.53	4.51	5.29	5.69	5.11	4.33	3.70	3.38	3.21	3.72	3.58	3.26	2.58	3.46	3.11	2.80	2.63	2.56	2.51	2.40	2.29	2.31	2.40	2.45	2.51	2.64	2.67	2.58	2.68	2.85	2.94	3.03	3.10	3.17	3.26	3.34	3.41	3.46	3.48	3.48	3.59	3.80	3.98	4.05	4.00	3.96	3.95	3.93	3.90	3.91	3.93	3.94	3.95	3.97	3.96	3.93	3.94	4.00	4.00	3.94	3.94	3.97	3.98	3.96	3.95	3.94	3.93	3.92	3.87	3.81	3.79	3.77	3.71	3.68	3.68	3.65	3.58	3.51	3.43	3.33	3.27	3.22	3.15	3.02	2.84	2.66	2.56	2.67	2.87	2.96	3.06	3.32	3.62	3.84	6.09	6.42	6.54	6.56	6.58	6.70	6.84	11.44	14.40	14.40	
2.96	2.88	2.65	2.39	1.94	1.33	1.34	6.39	7.32	6.06	5.52	5.21	4.94	4.79	4.69	4.69	4.72	4.79	4.65	3.87	3.34	3.06	3.23	2.87	6.07	3.71	4.08	4.01	4.71	4.30	7.38	7.28	5.97	4.62	3.42	3.12	3.42	3.92	4.33	4.35	4.17	4.42	4.77	4.59	4.47	4.40	4.27	4.22	4.15	4.51	4.50	4.65	4.70	4.63	4.71	4.97	5.13	5.05	4.84	5.04	4.43	4.01	3.95	4.17	4.28	4.01	4.05	4.30	4.37	4.41	4.34	4.42	4.46	4.42	4.28	4.22	5.00	5.16	5.30	5.15	4.65	4.21	3.40	4.44	4.50	3.69	3.13	3.86	3.49	3.16	2.89	2.71	2.67	2.57	2.36	2.37	2.47	2.47	2.45	2.54	2.63	2.46	2.38	2.60	2.80	2.92	3.02	3.10	3.18	3.26	3.36	3.43	3.46	3.46	3.47	3.58	3.80	4.02	4.06	4.00	3.97	3.96	3.94	3.92	3.94	3.95	3.95	3.97	3.97	3.94	3.93	3.99	4.02	3.97	3.95	3.99	3.99	3.96	3.97	3.96	3.96	3.95	3.89	3.83	3.83	3.81	3.76	3.74	3.75	3.73	3.65	3.57	3.50	3.42	3.39	3.36	3.28	3.16	3.02	2.85	2.66	2.61	2.72	2.81	2.93	3.20	3.45	3.68	4.10	4.54	6.72	6.82	6.84	6.91	6.98	11.49	14.24	14.24	
3.06	3.00	2.81	2.59	2.19	1.43	1.63	6.06	6.97	5.91	5.48	5.22	4.93	4.76	4.66	4.68	4.71	5.49	5.06	4.36	3.64	3.26	2.52	4.90	5.65	3.25	3.85	3.97	4.00	4.50	4.66	7.43	7.54	4.31	3.92	4.24	4.38	4.64	4.99	4.62	4.38	4.10	4.08	4.40	4.32	4.34	4.28	4.11	3.64	3.77	4.46	4.60	4.66	4.63	4.72	4.91	4.38	4.28	4.41	4.52	3.93	3.01	2.68	3.35	3.86	4.02	4.15	4.18	4.21	4.27	4.06	4.03	3.95	3.82	3.82	5.04	4.83	4.87	4.95	4.88	4.56	4.61	4.45	4.26	4.11	4.19	4.12	3.95	3.84	3.65	3.32	2.92	2.78	2.72	2.53	2.48	2.55	2.56	2.54	2.59	2.71	2.47	2.13	2.28	2.62	2.81	2.92	3.02	3.12	3.19	3.29	3.39	3.43	3.44	3.46	3.48	3.59	3.80	3.99	4.09	4.07	4.00	3.96	3.93	3.92	3.95	3.97	3.97	3.95	3.94	3.96	3.98	4.00	4.00	3.99	4.00	3.99	3.97	3.97	3.97	3.96	3.97	3.92	3.86	3.85	3.84	3.81	3.80	3.81	3.81	3.74	3.64	3.56	3.49	3.48	3.48	3.40	3.28	3.19	3.06	2.87	2.72	2.69	2.68	2.80	3.12	3.41	3.61	3.94	4.31	4.67	6.84	7.05	7.17	7.26	9.55	14.05	14.05	
3.15	3.10	2.96	2.79	2.48	1.79	2.10	5.85	6.69	5.80	5.37	5.21	5.00	4.85	4.76	4.64	4.68	5.24	5.05	5.29	4.40	3.42	2.66	4.49	5.33	2.92	3.60	3.87	4.03	4.56	4.52	5.04	5.77	5.31	4.39	4.66	4.91	4.87	4.61	4.53	4.63	4.49	4.73	4.43	4.37	4.60	4.55	4.60	4.63	4.51	4.52	4.64	4.67	4.69	4.81	3.96	3.84	3.55	3.35	3.56	2.49	1.06	1.40	2.93	3.47	3.76	3.81	3.75	3.82	4.59	4.74	4.84	4.95	5.07	3.24	3.11	4.73	4.68	4.78	5.06	4.86	4.49	4.33	2.92	2.53	2.25	2.03	2.63	3.12	2.65	2.32	3.33	2.99	2.85	2.75	2.65	2.62	2.63	2.62	2.68	2.82	2.59	2.03	1.98	2.35	2.64	2.80	2.92	3.02	3.11	3.21	3.32	3.39	3.42	3.45	3.48	3.51	3.60	3.75	3.98	4.16	4.11	4.00	3.95	3.92	3.92	3.96	3.98	3.95	3.94	3.97	3.99	3.97	3.97	3.99	4.00	3.99	3.97	3.97	3.97	3.95	3.96	3.96	3.91	3.87	3.87	3.85	3.83	3.84	3.86	3.81	3.71	3.63	3.58	3.56	3.56	3.51	3.42	3.34	3.23	3.08	2.94	2.82	2.67	2.67	2.98	3.36	3.56	3.78	4.07	4.43	4.82	7.18	7.34	7.56	9.76	14.03	14.03	
3.21	3.19	3.09	2.97	2.76	2.29	2.61	5.19	6.38	5.78	5.29	5.13	5.00	4.96	4.85	4.77	5.10	5.19	5.72	5.37	4.34	3.81	3.08	2.33	5.17	2.63	3.34	3.73	4.06	4.71	4.42	4.90	5.70	6.11	5.28	5.31	5.03	4.87	4.71	4.46	4.83	4.86	4.69	4.48	4.45	3.28	2.54	2.73	3.27	4.49	4.62	4.79	4.82	4.84	3.43	3.27	2.99	2.23	1.09	0.47	0.23	0.79	0.79	1.38	1.60	0.79	0.83	1.72	2.85	3.24	4.50	4.52	4.66	4.87	5.00	4.88	4.64	4.54	4.95	2.94	2.77	2.40	3.17	4.61	4.47	3.15	2.65	2.70	2.85	2.72	2.57	2.27	3.22	2.97	2.90	2.80	2.71	2.73	2.72	2.72	2.84	2.67	2.08	1.83	2.07	2.39	2.64	2.81	2.91	3.01	3.13	3.22	3.30	3.36	3.43	3.48	3.51	3.53	3.56	3.73	4.02	4.18	4.12	4.02	3.97	3.95	3.96	3.98	3.96	3.94	3.96	3.98	3.97	3.96	3.98	3.99	4.00	4.00	3.99	3.98	3.96	3.97	3.99	3.95	3.92	3.91	3.88	3.86	3.87	3.89	3.85	3.77	3.69	3.65	3.64	3.63	3.59	3.53	3.47	3.38	3.25	3.14	3.01	2.79	2.65	2.89	3.32	3.54	3.64	3.82	4.14	4.55	5.05	7.34	7.67	9.78	13.76	13.76	
3.26	3.25	3.20	3.11	2.99	2.74	3.05	4.90	6.06	5.76	5.28	5.10	5.04	5.02	4.98	5.11	5.12	6.32	6.16	5.34	4.51	4.01	3.51	2.91	4.17	2.41	3.02	3.56	4.01	4.31	4.48	4.87	5.68	5.89	5.38	4.83	4.87	4.97	4.94	4.93	4.86	4.82	4.43	4.19	2.57	1.13	2.05	4.09	4.68	4.58	4.66	4.91	5.11	3.18	2.58	1.80	0.97	0.20	4.69	4.55	4.91	1.60	1.14	0.61	4.01	1.25	0.10	1.18	1.45	1.30	1.33	1.36	1.71	2.23	4.85	4.66	4.42	4.48	4.86	2.93	2.52	1.59	4.77	4.89	2.66	3.30	2.77	2.51	2.49	2.73	2.85	2.72	2.46	3.14	2.97	2.88	2.79	2.83	2.89	2.83	2.80	2.64	2.16	1.81	1.89	2.15	2.42	2.66	2.80	2.92	3.07	3.16	3.20	3.28	3.38	3.45	3.50	3.52	3.52	3.57	3.76	4.03	4.18	4.13	4.03	3.98	3.96	3.97	3.94	3.93	3.94	3.96	3.98	3.97	3.96	3.96	3.98	4.01	4.00	3.99	3.98	3.99	4.00	3.98	3.96	3.95	3.92	3.89	3.91	3.91	3.89	3.84	3.74	3.70	3.71	3.69	3.65	3.59	3.54	3.49	3.40	3.30	3.17	2.96	2.74	2.88	3.35	3.60	3.59	3.58	3.81	4.21	4.76	7.23	7.81	9.75	11.20	11.20	
3.30	3.29	3.27	3.22	3.16	3.01	3.25	4.72	5.92	5.72	5.25	5.13	5.06	5.13	5.43	5.30	5.99	6.29	6.70	4.51	4.51	3.95	3.67	3.38	2.84	4.84	2.75	3.36	3.90	4.34	4.61	4.94	5.61	5.91	5.12	4.51	4.57	4.62	4.76	4.81	4.74	4.61	4.27	4.34	4.69	5.12	5.19	4.97	4.79	4.65	4.61	4.88	2.56	1.81	1.14	0.35	4.73	4.79	4.82	4.63	4.73	1.46	1.18	4.72	1.08	0.72	0.51	1.26	1.59	1.55	1.31	1.02	1.04	1.27	1.67	4.75	4.34	4.34	4.74	2.55	1.72	4.90	5.06	5.13	3.05	2.63	2.21	2.64	2.37	2.48	2.85	2.97	2.85	2.48	1.98	2.98	2.94	2.96	3.07	3.06	2.84	2.57	2.22	1.82	1.75	1.94	2.19	2.45	2.64	2.80	3.00	3.13	3.15	3.20	3.30	3.39	3.47	3.52	3.54	3.54	3.59	3.77	4.04	4.20	4.16	4.04	3.98	3.99	3.96	3.93	3.94	3.95	3.97	3.99	3.99	3.95	3.96	3.99	4.00	4.00	3.98	3.99	3.99	3.98	3.98	3.96	3.94	3.93	3.93	3.92	3.92	3.90	3.80	3.74	3.76	3.74	3.70	3.66	3.61	3.57	3.52	3.42	3.30	3.13	2.89	2.91	3.37	3.70	3.62	3.48	3.60	3.90	4.45	7.16	8.06	9.88	11.06	11.06	
3.31	3.31	3.32	3.30	3.28	3.19	3.31	4.33	5.88	5.82	5.24	5.01	4.91	5.39	5.56	6.70	6.38	6.92	7.26	4.75	4.63	3.89	3.68	3.59	3.26	4.90	2.71	3.28	3.87	4.38	4.73	5.03	5.43	5.38	4.99	4.91	4.57	4.46	4.62	4.71	4.60	4.51	4.55	4.39	4.50	4.76	4.85	4.78	4.67	4.58	4.55	2.52	2.62	2.26	1.26	0.53	5.06	4.99	5.06	4.99	4.67	1.22	0.95	0.42	0.51	0.43	0.30	0.17	0.33	0.80	0.80	0.91	1.25	1.51	2.06	2.54	2.51	2.37	1.91	1.63	5.08	5.06	5.25	5.19	4.92	3.03	2.57	2.18	2.70	2.42	2.76	3.07	2.90	2.49	2.03	1.81	1.99	2.14	3.23	3.26	2.98	2.58	2.33	1.97	1.69	1.74	1.99	2.27	2.48	2.64	2.84	3.04	3.11	3.15	3.24	3.32	3.41	3.49	3.54	3.56	3.57	3.62	3.79	4.07	4.22	4.16	4.05	4.03	4.01	3.97	3.95	3.95	3.95	3.99	4.03	3.99	3.95	3.97	4.00	4.00	3.99	3.99	3.99	3.99	4.00	3.99	3.97	3.96	3.96	3.93	3.93	3.94	3.87	3.82	3.84	3.80	3.75	3.71	3.66	3.64	3.62	3.52	3.41	3.29	3.07	3.00	3.37	3.74	3.67	3.53	3.58	3.70	4.20	7.07	8.10	10.01	11.13	11.13	
3.30	3.30	3.33	3.33	3.33	3.31	3.42	4.22	5.95	6.07	5.40	5.52	5.35	6.23	7.02	7.27	7.00	7.69	8.22	5.12	4.87	4.04	3.85	3.73	3.49	4.38	5.60	3.40	3.98	4.49	4.88	5.14	4.92	5.07	5.02	4.92	4.66	4.45	4.49	4.59	4.60	4.62	4.60	4.57	4.63	4.68	4.65	4.66	4.58	4.39	4.39	4.57	4.95	1.71	5.25	5.13	5.12	5.12	5.25	5.35	1.53	1.21	1.28	0.95	0.52	0.41	0.43	0.37	0.28	0.17	0.34	1.00	1.60	2.09	4.98	4.98	4.95	2.15	2.31	5.03	5.04	4.99	4.89	5.29	3.84	3.12	2.63	2.35	1.93	1.52	2.65	3.13	3.15	2.81	2.26	1.93	2.09	2.24	2.44	3.43	3.03	2.60	2.44	2.27	1.87	1.59	1.73	2.07	2.35	2.56	2.71	2.87	3.03	3.13	3.21	3.28	3.35	3.45	3.52	3.56	3.59	3.59	3.65	3.85	4.10	4.22	4.15	4.06	4.04	4.01	3.98	3.96	3.94	3.97	4.03	4.02	3.96	3.96	3.99	4.00	4.00	4.01	4.01	4.01	4.02	4.02	4.00	4.00	3.99	3.96	3.95	3.95	3.92	3.89	3.93	3.90	3.83	3.77	3.71	3.69	3.67	3.60	3.52	3.40	3.21	3.10	3.35	3.69	3.66	3.55	3.65	3.66	3.97	4.83	7.82	9.90	11.21	11.21	
3.26	3.27	3.31	3.34	3.35	3.35	3.48	4.04	5.75	6.03	6.13	5.78	6.34	6.55	7.09	6.90	6.50	7.12	7.82	5.15	4.97	4.19	4.01	3.88	3.64	4.66	5.72	3.54	4.08	4.59	4.98	4.78	4.45	4.88	4.84	4.86	4.73	4.52	4.44	4.42	4.44	4.49	4.54	4.62	4.79	4.84	4.65	4.59	4.66	4.43	4.24	4.43	4.75	5.07	5.11	5.01	4.95	4.96	5.15	5.51	1.62	1.45	1.47	1.01	0.66	0.35	0.40	0.45	0.42	0.30	0.67	1.56	4.38	4.61	4.93	5.00	4.98	1.07	4.96	5.07	5.10	4.84	4.83	5.22	5.47	3.42	2.49	1.80	1.38	1.22	1.73	2.37	2.22	1.99	2.70	2.27	2.33	2.44	2.82	2.85	3.16	2.53	2.33	2.37	2.18	1.66	1.49	1.74	2.12	2.46	2.69	2.78	2.88	3.06	3.18	3.24	3.30	3.39	3.49	3.55	3.59	3.60	3.63	3.71	3.91	4.16	4.26	4.15	4.04	4.02	4.01	3.97	3.96	3.98	4.03	4.05	4.00	3.96	3.98	4.00	4.02	4.02	4.02	4.03	4.03	4.04	4.03	4.03	4.02	3.99	3.97	3.97	3.93	3.91	3.96	3.96	3.91	3.85	3.79	3.75	3.73	3.67	3.61	3.51	3.32	3.20	3.32	3.59	3.64	3.56	3.70	3.74	3.78	4.40	5.51	9.62	11.10	11.10	
3.21	3.23	3.28	3.31	3.34	3.36	3.46	3.88	5.69	6.84	6.31	5.94	6.90	7.11	7.40	7.44	7.05	7.15	7.69	5.65	4.90	4.26	4.11	4.00	3.75	5.11	3.28	3.66	4.16	4.66	4.97	5.01	4.95	4.82	4.74	4.77	4.74	4.60	4.50	4.41	4.34	4.36	4.42	4.53	4.77	5.03	4.90	4.53	2.14	0.91	4.48	4.49	4.65	4.80	4.95	5.02	4.95	4.90	5.02	5.44	2.13	5.17	1.55	1.05	0.86	0.45	0.49	0.82	0.74	0.78	1.09	1.77	4.35	4.45	4.78	4.99	1.43	4.89	4.95	5.01	5.07	5.05	5.00	5.29	4.68	3.65	2.64	1.67	1.27	1.23	1.30	1.62	2.21	2.22	1.96	2.64	2.50	2.54	2.90	3.20	3.03	2.80	2.30	2.31	2.28	1.91	1.50	1.44	1.72	2.14	2.56	2.76	2.77	2.94	3.14	3.20	3.26	3.34	3.46	3.54	3.58	3.61	3.63	3.64	3.73	3.98	4.27	4.29	4.09	4.02	4.04	3.98	3.96	4.00	4.02	4.05	4.04	3.99	3.97	4.00	4.02	4.03	4.04	4.04	4.04	4.05	4.05	4.05	4.05	4.03	3.99	3.99	3.95	3.93	3.97	3.98	3.94	3.90	3.85	3.82	3.80	3.74	3.70	3.61	3.46	3.30	3.29	3.49	3.63	3.61	3.75	3.81	3.69	4.03	5.17	7.60	10.91	10.91	
3.16	3.18	3.23	3.27	3.30	3.32	3.38	3.71	6.70	7.23	6.39	6.91	6.86	7.20	7.63	7.93	7.98	7.88	7.48	5.55	4.70	4.24	4.19	4.10	3.89	4.91	6.08	3.88	4.33	4.72	4.81	4.74	4.75	4.71	4.61	4.63	4.66	4.60	4.48	4.39	4.34	4.36	4.34	4.31	4.52	5.04	1.66	0.80	4.37	4.65	4.77	4.74	4.71	4.70	4.77	4.89	4.91	4.90	5.03	5.35	3.39	1.63	1.45	2.32	1.40	0.83	0.47	0.57	0.67	1.18	1.69	4.54	4.48	4.47	4.61	1.67	5.00	5.16	5.18	5.04	4.96	5.00	5.03	5.22	4.56	3.38	2.48	1.67	1.25	1.20	1.20	1.67	2.53	2.93	2.59	2.08	1.63	2.62	2.86	3.12	3.12	2.80	2.18	2.56	2.40	2.16	1.77	1.45	1.43	1.68	2.17	2.59	2.69	2.83	3.07	3.18	3.22	3.29	3.41	3.52	3.57	3.60	3.63	3.64	3.63	3.76	4.10	4.35	4.24	4.08	4.04	3.98	3.93	3.96	4.00	4.02	4.04	4.02	3.99	4.00	4.02	4.03	4.04	4.05	4.06	4.06	4.07	4.07	4.07	4.06	4.04	4.03	3.99	3.96	4.01	4.02	3.97	3.92	3.87	3.86	3.86	3.82	3.78	3.72	3.61	3.45	3.32	3.42	3.60	3.67	3.83	3.88	3.69	3.82	4.92	7.46	10.66	10.66	
3.09	3.12	3.17	3.21	3.24	3.27	3.31	3.51	5.10	7.24	6.49	7.27	7.17	7.20	7.46	7.70	7.84	7.85	6.31	5.57	4.56	4.14	4.20	4.20	4.07	4.62	3.77	4.07	4.64	4.98	4.62	4.37	4.50	4.53	4.51	4.52	4.52	4.51	4.46	4.34	4.20	4.30	4.41	4.14	4.19	1.67	0.71	4.72	4.41	4.54	4.73	4.85	4.87	4.85	4.83	4.79	4.74	4.77	4.93	3.48	1.54	1.53	2.97	1.64	1.25	0.90	0.75	0.37	0.70	1.54	4.32	4.52	4.61	4.62	1.83	4.68	4.87	5.28	5.51	5.37	5.16	5.12	4.57	4.62	4.23	3.06	2.17	1.58	1.18	0.95	0.98	1.77	2.53	3.07	2.81	2.11	1.40	1.06	1.43	3.09	3.11	2.96	2.61	2.22	2.99	2.61	2.22	1.84	1.54	1.49	1.77	2.24	2.53	2.69	2.97	3.16	3.19	3.23	3.34	3.47	3.55	3.58	3.61	3.64	3.64	3.65	3.87	4.21	4.34	4.22	4.09	4.01	3.94	3.92	3.97	4.01	4.02	4.03	4.01	4.00	4.01	4.03	4.05	4.06	4.07	4.08	4.08	4.08	4.08	4.07	4.07	4.08	4.04	3.99	4.03	4.07	4.03	3.96	3.92	3.90	3.90	3.87	3.85	3.82	3.73	3.61	3.47	3.44	3.56	3.69	3.90	3.97	3.80	3.81	4.66	7.14	8.80	8.80	
3.04	3.07	3.11	3.14	3.16	3.20	3.25	3.55	5.03	6.90	7.64	7.55	7.58	7.46	7.51	7.65	7.74	8.13	4.74	5.56	4.62	4.19	4.15	4.26	4.27	4.04	6.35	4.27	4.99	0.41	4.61	4.01	4.16	4.35	4.46	4.41	4.30	4.37	4.42	4.48	4.30	4.15	1.22	4.24	4.12	4.59	4.78	4.57	4.43	4.51	4.62	4.77	4.91	4.98	5.00	4.86	4.68	4.71	3.87	3.56	3.40	3.43	2.02	1.26	0.97	1.24	1.02	0.82	1.53	3.25	4.25	4.45	4.66	4.77	1.82	4.84	4.80	5.12	5.49	5.53	4.73	4.75	4.70	4.32	3.86	3.09	2.59	2.24	1.80	1.33	1.00	1.45	2.68	3.25	2.34	1.27	1.30	1.38	0.63	1.02	3.20	3.09	2.91	2.64	2.56	3.44	2.92	2.51	2.16	1.85	1.76	2.00	2.31	2.53	2.86	3.13	3.19	3.21	3.29	3.42	3.52	3.57	3.60	3.64	3.65	3.63	3.70	3.97	4.26	4.34	4.22	4.08	3.98	3.92	3.94	4.00	4.01	4.01	4.01	4.01	4.02	4.03	4.05	4.06	4.07	4.09	4.10	4.09	4.09	4.07	4.09	4.11	4.09	4.04	4.02	4.07	4.10	4.04	3.99	3.97	3.94	3.90	3.90	3.89	3.83	3.75	3.67	3.61	3.58	3.66	3.96	4.13	4.06	4.03	4.48	6.63	8.27	8.27	
2.98	3.02	3.06	3.08	3.09	3.12	3.17	3.55	4.58	7.68	7.62	7.41	7.42	7.43	7.70	7.95	7.89	7.91	5.83	5.29	4.68	4.34	4.09	4.19	4.38	4.33	5.95	6.43	5.38	4.54	4.72	3.73	3.75	4.17	4.57	4.44	4.13	4.12	4.20	4.50	1.29	4.23	4.20	4.24	4.24	4.39	4.41	4.36	4.37	4.45	4.51	4.67	4.92	5.05	5.09	4.39	4.11	3.94	3.62	3.59	3.50	3.39	2.34	1.13	1.25	1.47	1.42	1.70	3.67	4.35	4.29	4.42	4.64	1.16	4.97	5.04	5.03	5.13	5.38	4.90	4.86	4.87	4.65	4.08	3.60	3.09	2.79	2.49	1.98	1.46	1.13	1.27	2.25	2.94	1.07	1.41	2.15	2.33	1.71	1.61	2.06	3.11	2.97	2.68	2.73	2.70	3.70	3.20	2.82	2.54	2.30	2.20	2.25	2.42	2.77	3.11	3.20	3.24	3.29	3.37	3.49	3.56	3.59	3.62	3.65	3.65	3.66	3.78	4.05	4.29	4.31	4.17	4.04	3.94	3.92	3.98	4.01	4.00	4.01	4.01	4.02	4.04	4.05	4.07	4.08	4.09	4.11	4.12	4.10	4.08	4.09	4.11	4.11	4.10	4.04	4.04	4.09	4.08	4.04	4.03	4.00	3.95	3.93	3.94	3.91	3.86	3.82	3.80	3.71	3.64	3.90	4.25	4.43	4.48	4.62	6.10	7.52	7.52	
2.93	2.96	3.00	3.03	3.03	3.06	3.15	3.47	3.80	7.46	8.10	7.74	7.76	7.78	7.96	8.03	7.51	6.68	5.68	4.90	4.59	4.44	4.15	4.12	3.78	5.87	4.56	6.89	5.71	1.13	1.52	3.71	3.53	3.89	0.92	0.72	1.36	3.88	3.95	4.32	4.61	4.45	4.18	4.18	4.34	4.39	4.28	4.25	4.31	4.36	4.35	4.55	4.98	5.25	4.98	4.62	4.26	3.95	2.37	2.04	1.96	1.91	0.94	1.16	1.68	2.33	2.42	4.09	4.56	4.43	4.40	4.48	0.66	4.78	4.92	5.04	5.18	5.26	5.00	5.11	5.07	4.80	4.67	4.36	3.98	3.47	2.92	2.32	1.84	1.56	1.38	1.11	1.33	1.30	1.01	2.16	2.46	2.39	1.74	2.01	2.23	3.01	2.74	2.91	3.10	3.01	2.70	3.65	3.21	2.89	2.75	2.63	2.46	2.42	2.72	3.07	3.17	3.24	3.32	3.34	3.44	3.54	3.58	3.61	3.65	3.68	3.68	3.70	3.88	4.16	4.31	4.24	4.11	4.00	3.95	3.97	4.01	4.00	4.00	4.01	4.01	4.03	4.05	4.07	4.09	4.09	4.11	4.14	4.13	4.12	4.12	4.12	4.12	4.14	4.12	4.07	4.07	4.10	4.08	4.09	4.09	4.03	3.99	3.99	3.98	3.95	3.91	3.91	3.87	3.72	3.73	4.08	4.59	4.95	5.07	5.91	6.75	6.75	
2.88	2.91	2.95	2.97	2.97	3.01	3.18	3.57	3.62	7.45	8.54	8.16	8.32	8.35	8.32	8.27	8.32	5.40	5.68	4.64	4.50	4.48	4.32	4.18	4.08	4.13	4.49	5.18	6.06	1.82	4.82	4.14	3.70	3.77	4.40	4.74	4.41	3.88	3.87	4.32	4.61	4.58	4.42	4.39	4.55	4.65	4.48	4.33	4.38	4.11	3.78	4.30	4.92	5.38	5.38	4.11	3.70	3.03	2.47	2.17	2.01	0.67	1.10	2.39	3.10	2.69	4.39	4.21	4.66	4.57	4.57	1.43	4.76	5.00	5.14	5.12	5.18	4.85	5.03	5.29	5.28	5.04	4.85	4.60	4.08	3.45	2.95	2.65	2.33	1.90	1.37	0.62	0.37	0.79	1.91	2.32	2.33	2.32	2.26	2.88	3.24	3.07	2.69	2.87	3.30	3.07	3.89	3.73	3.41	2.96	2.78	2.81	2.69	2.54	2.75	3.06	3.11	3.18	3.31	3.33	3.40	3.50	3.56	3.59	3.63	3.68	3.69	3.68	3.77	4.02	4.27	4.31	4.18	4.05	3.97	3.97	4.01	4.01	4.00	4.02	4.02	4.02	4.04	4.07	4.10	4.11	4.11	4.13	4.14	4.14	4.14	4.14	4.14	4.17	4.20	4.15	4.10	4.11	4.10	4.11	4.16	4.12	4.06	4.05	4.05	4.03	3.98	3.96	3.98	3.89	3.73	3.78	4.28	4.98	5.43	5.95	6.34	6.34	
2.83	2.86	2.89	2.92	2.94	2.98	3.15	3.67	3.71	7.53	8.89	8.29	8.36	8.44	8.64	8.61	9.14	6.52	5.60	4.51	4.47	4.48	4.40	4.27	4.07	4.05	4.40	5.55	0.93	5.64	4.52	1.41	4.03	4.04	4.48	4.76	4.72	4.42	4.20	4.37	4.61	4.59	4.49	4.47	4.55	4.71	4.75	4.67	4.71	4.70	4.24	4.12	4.76	5.36	4.82	4.34	3.61	2.74	2.21	1.06	0.40	1.04	2.66	3.66	3.65	3.46	4.90	4.53	4.92	4.86	4.80	0.85	4.98	5.25	5.51	5.19	4.99	4.98	5.12	5.34	5.23	5.15	4.89	4.41	3.75	3.13	2.76	2.55	2.32	1.91	1.21	0.40	0.29	0.85	1.76	2.35	2.24	2.09	2.55	2.88	2.95	2.84	2.51	2.43	2.92	3.01	3.68	3.63	3.48	3.06	2.73	2.72	2.71	2.63	2.80	3.09	3.13	3.15	3.27	3.33	3.38	3.46	3.54	3.58	3.62	3.67	3.70	3.69	3.71	3.86	4.15	4.35	4.27	4.09	3.98	3.96	3.99	4.02	4.03	4.05	4.05	4.04	4.04	4.06	4.09	4.12	4.12	4.14	4.15	4.13	4.13	4.13	4.14	4.17	4.20	4.18	4.15	4.13	4.10	4.11	4.16	4.15	4.12	4.10	4.10	4.09	4.06	4.03	4.05	4.04	3.92	3.77	3.96	4.56	5.25	5.94	6.30	6.30	
2.79	2.83	2.86	2.89	2.90	2.94	3.07	3.55	3.58	7.65	9.34	8.63	8.65	8.74	8.90	8.74	9.22	6.52	5.35	4.42	4.44	4.43	4.43	4.35	4.11	4.03	4.31	5.77	1.39	5.75	4.36	2.25	4.08	4.22	4.59	4.92	5.06	4.98	4.72	4.55	4.59	4.57	4.47	4.50	4.54	4.54	4.58	4.63	4.76	4.93	4.78	4.52	4.70	4.88	4.89	4.60	3.53	2.63	0.96	0.96	1.96	2.56	3.75	3.99	4.13	5.25	5.18	5.30	5.22	5.10	4.91	4.83	4.82	5.02	5.42	5.43	5.25	5.34	5.47	5.43	5.42	5.23	4.89	4.40	3.87	3.31	2.74	2.20	1.87	1.61	1.12	0.72	0.87	1.37	1.92	2.33	2.32	1.82	1.90	2.20	2.46	2.43	2.17	1.96	2.20	2.60	3.47	3.51	3.42	3.12	2.81	2.62	2.57	2.59	2.78	3.06	3.15	3.15	3.24	3.31	3.37	3.43	3.51	3.56	3.60	3.65	3.68	3.69	3.68	3.73	3.96	4.29	4.37	4.18	4.02	3.96	3.96	4.00	4.04	4.05	4.06	4.07	4.06	4.05	4.07	4.10	4.12	4.15	4.18	4.15	4.12	4.12	4.14	4.18	4.16	4.15	4.18	4.18	4.12	4.11	4.15	4.15	4.16	4.18	4.16	4.14	4.12	4.11	4.12	4.14	4.12	4.02	4.00	4.25	4.79	5.70	6.27	6.27	
2.75	2.79	2.83	2.85	2.86	2.88	3.00	3.13	3.13	7.56	10.34	9.08	9.26	9.58	9.57	9.24	9.32	6.65	5.14	4.37	4.45	4.43	4.07	4.44	4.16	4.02	4.25	5.59	1.48	5.55	0.13	4.13	3.97	4.04	4.28	4.67	5.03	5.18	5.01	4.74	4.63	4.50	4.40	4.57	4.78	3.26	4.48	4.36	4.49	4.84	4.11	4.80	4.37	4.42	4.68	3.72	2.49	1.62	2.32	2.57	2.83	3.35	4.12	4.37	5.40	5.32	5.30	5.36	5.28	5.12	4.89	4.71	4.61	4.70	5.09	5.30	5.29	5.43	5.87	5.93	5.82	5.52	5.04	4.33	3.83	3.47	3.00	2.31	1.36	0.93	1.25	1.11	0.92	1.20	1.65	2.04	2.32	1.86	1.47	1.69	2.25	2.28	2.15	1.94	1.96	2.28	3.24	3.35	3.30	3.08	2.85	2.60	2.46	2.50	2.72	2.99	3.09	3.11	3.19	3.28	3.34	3.40	3.48	3.54	3.59	3.64	3.67	3.68	3.68	3.68	3.79	4.12	4.37	4.27	4.10	4.00	3.94	3.96	4.01	4.04	4.05	4.08	4.09	4.07	4.08	4.12	4.11	4.15	4.20	4.18	4.15	4.15	4.18	4.22	4.19	4.15	4.18	4.22	4.19	4.16	4.18	4.16	4.18	4.23	4.23	4.20	4.18	4.18	4.18	4.19	4.23	4.25	4.21	4.20	4.48	5.45	6.12	6.12	
2.73	2.75	2.78	2.80	2.81	2.83	2.92	2.83	2.74	5.63	9.85	9.96	9.15	9.53	10.09	10.05	9.80	6.79	5.04	4.33	4.53	4.15	4.49	4.37	4.18	4.10	4.35	5.32	6.58	1.61	4.24	4.28	3.93	3.74	3.83	4.19	4.73	5.18	5.14	3.89	3.32	2.64	4.23	4.47	4.84	3.58	3.19	2.78	3.06	4.59	4.77	4.61	4.14	2.36	2.27	6.95	4.55	4.22	4.06	3.91	3.85	4.39	4.46	5.15	5.35	5.33	5.27	5.33	5.27	5.10	4.85	4.63	4.54	4.58	4.86	5.20	5.33	5.37	5.72	5.83	5.74	5.55	5.00	4.12	3.48	3.22	2.99	2.18	1.24	1.20	1.53	1.41	1.13	0.98	1.14	1.63	2.24	2.29	1.80	1.68	2.08	2.07	2.06	1.91	1.89	2.08	3.10	3.21	3.17	3.02	2.84	2.58	2.38	2.38	2.62	2.94	3.05	3.06	3.15	3.24	3.30	3.37	3.45	3.52	3.57	3.63	3.67	3.68	3.68	3.67	3.69	3.94	4.27	4.29	4.13	4.06	3.97	3.93	3.99	4.02	4.03	4.07	4.10	4.08	4.08	4.13	4.13	4.14	4.19	4.18	4.16	4.17	4.20	4.23	4.23	4.20	4.18	4.21	4.24	4.22	4.21	4.19	4.20	4.25	4.26	4.25	4.26	4.24	4.23	4.22	4.27	4.35	4.36	4.25	4.36	5.25	5.94	5.94	
2.70	2.72	2.74	2.75	2.77	2.79	2.87	2.87	3.06	5.06	9.42	10.49	8.95	8.82	9.66	10.59	11.81	6.74	5.00	4.24	4.49	4.73	4.70	4.37	4.10	4.05	4.39	5.16	6.78	6.54	4.94	4.45	4.01	3.55	3.45	3.75	4.38	5.11	5.06	4.27	1.20	1.05	4.08	4.39	4.85	4.28	3.44	1.76	2.75	4.22	4.94	4.65	2.00	2.07	4.55	5.48	5.73	5.76	5.49	5.03	5.02	4.66	4.57	4.99	5.11	4.98	4.97	5.17	5.25	5.11	4.89	4.62	4.46	4.47	4.60	4.90	5.24	5.60	5.77	5.84	5.65	5.32	4.78	4.11	3.47	3.05	2.62	2.17	1.64	1.12	1.18	1.33	1.10	0.64	0.68	1.30	1.87	2.10	1.98	1.67	1.97	1.86	1.76	1.77	1.82	3.00	3.05	3.14	3.09	2.94	2.80	2.60	2.37	2.28	2.47	2.84	3.02	3.04	3.10	3.19	3.27	3.34	3.42	3.50	3.56	3.62	3.66	3.68	3.68	3.67	3.66	3.80	4.13	4.27	4.15	4.07	4.00	3.93	3.96	4.00	4.02	4.06	4.10	4.07	4.05	4.10	4.13	4.14	4.19	4.19	4.17	4.19	4.21	4.21	4.22	4.24	4.23	4.20	4.22	4.24	4.24	4.23	4.22	4.24	4.26	4.27	4.29	4.30	4.28	4.27	4.29	4.37	4.43	4.33	4.34	5.09	5.73	5.73	
2.69	2.70	2.71	2.71	2.73	2.76	2.86	2.87	3.37	3.79	9.39	10.60	9.23	8.57	8.81	5.69	7.02	6.75	4.94	4.06	4.25	4.70	4.70	4.67	4.18	4.01	4.27	4.90	6.06	6.68	5.80	4.65	4.00	3.12	3.32	3.42	4.02	4.91	5.35	2.49	1.11	1.25	3.81	4.19	4.77	5.08	3.25	2.19	2.99	3.92	4.96	3.73	2.51	3.24	3.99	4.87	5.64	5.97	5.78	5.35	5.11	4.94	5.09	5.05	5.02	4.84	4.67	4.83	5.03	5.02	4.96	4.79	4.56	4.38	4.46	4.69	5.06	5.65	5.81	6.06	6.04	5.34	4.43	3.70	3.21	2.94	2.64	2.56	2.04	1.46	1.20	0.80	0.59	0.41	0.37	0.49	0.97	1.10	1.37	1.30	1.85	1.72	1.67	1.84	1.78	2.90	2.97	3.10	3.08	2.91	2.74	2.60	2.40	2.22	2.32	2.68	2.92	2.99	3.05	3.13	3.22	3.31	3.39	3.45	3.53	3.59	3.63	3.67	3.68	3.67	3.66	3.73	3.97	4.23	4.24	4.11	4.01	3.94	3.93	3.95	3.98	4.03	4.09	4.08	4.05	4.08	4.12	4.14	4.18	4.21	4.20	4.21	4.22	4.21	4.20	4.23	4.26	4.24	4.21	4.23	4.25	4.27	4.25	4.25	4.26	4.27	4.30	4.33	4.34	4.33	4.33	4.36	4.44	4.39	4.35	4.97	5.56	5.56	
2.67	2.68	2.69	2.68	2.69	2.73	2.85	2.87	3.46	3.61	9.30	8.91	9.63	4.34	8.69	5.29	6.66	6.74	5.11	3.97	4.02	4.45	4.90	4.90	4.42	4.63	4.27	4.60	5.64	7.26	5.41	3.65	4.36	4.00	3.08	3.46	3.96	4.78	4.59	3.16	2.20	3.39	3.36	3.95	5.08	4.45	2.74	2.23	2.29	4.23	4.67	6.72	4.70	4.37	4.59	4.55	4.98	5.10	5.07	5.02	4.86	5.04	5.07	5.06	5.04	4.89	4.63	4.57	4.67	4.75	4.83	4.84	4.65	4.64	4.70	4.69	5.11	5.50	5.58	5.98	6.04	5.34	3.91	2.90	2.38	2.15	2.31	2.80	2.53	1.95	1.63	1.41	1.17	0.85	0.73	0.22	0.37	0.67	0.86	1.07	1.77	1.62	1.65	1.88	1.75	2.79	2.82	2.97	3.02	2.95	2.77	2.59	2.36	2.10	2.13	2.47	2.79	2.92	3.00	3.09	3.17	3.26	3.34	3.41	3.48	3.54	3.57	3.62	3.67	3.67	3.68	3.70	3.81	4.09	4.28	4.21	4.05	3.97	3.94	3.94	3.97	4.03	4.08	4.09	4.08	4.08	4.12	4.14	4.16	4.18	4.20	4.22	4.23	4.23	4.22	4.21	4.24	4.25	4.23	4.24	4.26	4.30	4.30	4.27	4.28	4.30	4.32	4.34	4.36	4.35	4.35	4.38	4.43	4.42	4.36	4.89	5.43	5.43	
2.65	2.66	2.67	2.66	2.67	2.72	2.82	2.95	3.71	3.67	9.47	8.11	5.54	7.81	8.23	9.16	10.47	6.45	5.19	3.98	3.89	4.27	4.74	4.85	4.49	4.18	4.18	4.33	5.02	6.42	6.49	3.65	2.53	1.83	3.69	3.63	4.05	4.70	4.66	2.85	3.23	3.19	3.32	3.78	4.77	5.23	4.81	4.57	5.34	6.60	4.78	6.92	5.96	5.02	5.04	5.27	5.27	4.91	4.94	4.94	5.04	4.90	4.93	4.86	4.81	4.80	4.72	4.57	4.51	4.59	4.70	4.76	4.81	4.72	4.49	4.77	5.04	5.47	5.70	6.08	5.90	5.25	3.94	2.83	1.92	1.77	2.43	2.80	2.79	2.47	2.03	1.74	1.59	1.34	0.98	0.49	0.23	0.19	0.33	0.42	1.68	1.51	1.54	1.83	1.74	2.81	2.71	2.81	2.90	2.93	2.92	2.80	2.47	2.04	1.91	2.21	2.61	2.82	2.93	3.05	3.15	3.23	3.32	3.39	3.47	3.53	3.55	3.58	3.64	3.66	3.67	3.69	3.71	3.90	4.18	4.25	4.13	4.01	3.97	3.96	3.99	4.05	4.07	4.09	4.10	4.08	4.10	4.15	4.17	4.16	4.19	4.22	4.20	4.21	4.23	4.23	4.23	4.23	4.23	4.25	4.28	4.31	4.32	4.31	4.32	4.34	4.34	4.36	4.37	4.36	4.36	4.39	4.42	4.42	4.35	4.78	5.28	5.28	
2.64	2.65	2.66	2.64	2.64	2.68	2.78	2.96	3.95	4.18	9.82	8.32	6.50	6.86	7.34	7.52	8.09	6.03	4.96	4.00	3.90	4.18	4.63	4.77	4.50	4.16	3.96	4.03	4.54	5.82	7.69	4.67	4.16	3.02	3.49	3.50	3.68	3.80	0.43	5.34	5.39	1.15	1.91	4.55	4.32	6.57	6.36	6.27	4.89	4.68	4.87	5.46	5.55	5.20	5.16	4.90	4.97	4.84	4.88	5.15	5.00	4.83	4.83	4.82	4.67	4.68	4.80	4.76	4.67	4.69	4.72	4.71	4.72	4.20	4.33	4.72	4.96	5.35	5.74	6.53	6.21	5.27	3.36	2.38	1.81	2.05	2.60	2.75	2.75	2.83	2.51	1.93	1.69	1.55	1.28	0.84	0.42	0.29	0.40	0.84	1.69	1.40	1.40	1.61	1.59	1.35	2.75	2.74	2.81	2.87	3.00	3.10	2.91	2.31	1.84	1.99	2.43	2.71	2.83	2.96	3.07	3.18	3.28	3.35	3.44	3.53	3.55	3.55	3.60	3.64	3.65	3.67	3.67	3.79	4.03	4.19	4.15	4.03	3.98	3.97	3.99	4.03	4.05	4.08	4.11	4.09	4.09	4.15	4.19	4.18	4.20	4.23	4.20	4.19	4.23	4.25	4.25	4.23	4.24	4.27	4.29	4.31	4.31	4.32	4.34	4.35	4.36	4.39	4.40	4.39	4.39	4.42	4.41	4.40	4.35	4.68	5.07	5.07	
2.63	2.64	2.65	2.64	2.62	2.63	2.70	2.87	3.76	3.99	10.31	8.92	6.57	6.81	7.18	5.67	5.83	5.56	4.51	3.85	3.89	4.09	4.50	4.73	4.57	4.22	4.52	3.86	4.22	5.19	6.67	6.28	5.29	4.74	3.97	3.27	2.28	3.49	5.33	5.11	5.56	5.79	6.17	4.42	4.27	4.62	4.85	4.84	4.91	4.93	5.10	5.48	5.57	5.35	4.95	4.79	4.82	4.78	5.04	5.05	4.93	4.79	4.93	0.93	4.87	4.77	4.84	4.84	4.75	4.65	4.59	4.54	4.53	4.19	4.31	4.44	4.72	5.09	5.44	6.29	5.83	4.77	2.18	1.86	2.22	2.59	2.54	2.60	2.57	2.76	2.89	2.39	2.09	1.92	1.71	1.29	0.67	0.99	1.46	1.52	1.57	1.31	1.40	1.54	1.58	1.48	2.86	2.76	2.74	2.77	2.91	3.13	3.24	2.81	2.03	1.89	2.28	2.64	2.79	2.88	2.98	3.10	3.22	3.28	3.38	3.49	3.52	3.52	3.56	3.59	3.62	3.65	3.66	3.73	3.92	4.12	4.16	4.05	3.98	3.98	3.99	4.00	4.02	4.07	4.11	4.10	4.09	4.13	4.17	4.19	4.24	4.26	4.23	4.21	4.22	4.25	4.27	4.25	4.25	4.27	4.29	4.30	4.30	4.31	4.34	4.35	4.37	4.41	4.41	4.40	4.43	4.46	4.43	4.41	4.42	4.63	4.86	4.86	
2.62	2.63	2.63	2.61	2.60	2.59	2.62	2.75	3.01	3.07	10.30	12.11	8.09	7.47	7.55	6.06	5.84	5.13	4.11	3.58	3.68	3.93	4.31	4.66	4.63	4.24	3.91	3.94	4.07	4.69	5.94	6.75	6.26	4.16	2.54	1.15	3.45	3.61	3.91	3.72	3.94	5.28	4.26	4.31	4.44	4.66	4.76	4.73	4.70	4.75	4.51	4.74	5.06	5.05	4.73	4.65	4.81	4.96	5.07	5.11	4.99	4.85	0.14	5.13	5.08	5.05	4.99	4.91	4.79	4.63	4.49	4.16	3.97	4.06	4.25	4.27	4.53	4.85	5.98	6.17	5.47	3.35	1.91	2.41	3.15	3.28	2.69	2.40	2.37	2.62	2.96	2.63	2.20	2.00	1.89	1.57	1.35	1.56	1.30	0.15	0.99	1.73	1.43	1.38	1.48	1.50	2.93	2.80	2.71	2.68	2.78	3.00	3.24	3.03	2.24	1.87	2.10	2.51	2.77	2.86	2.93	3.04	3.17	3.24	3.32	3.43	3.49	3.52	3.53	3.55	3.59	3.63	3.64	3.67	3.81	4.03	4.17	4.10	3.99	3.97	3.98	3.97	3.99	4.04	4.09	4.11	4.10	4.11	4.15	4.19	4.24	4.28	4.27	4.24	4.22	4.22	4.27	4.28	4.26	4.28	4.31	4.31	4.31	4.32	4.35	4.35	4.36	4.41	4.41	4.39	4.44	4.49	4.47	4.45	4.48	4.62	4.73	4.73	
2.61	2.61	2.60	2.59	2.56	2.55	2.57	2.65	2.21	2.05	7.25	12.21	8.95	8.40	8.21	6.40	5.69	4.79	3.86	3.47	3.47	3.69	4.04	4.46	4.56	4.23	4.17	4.06	4.07	4.48	5.27	6.10	6.14	6.42	5.85	5.03	4.15	3.47	3.36	4.47	3.90	4.11	4.11	3.98	4.06	4.27	4.49	4.77	4.57	4.58	4.61	4.74	4.90	4.84	4.56	4.61	4.57	4.69	4.83	4.97	4.89	4.71	4.81	4.98	5.05	5.03	4.97	4.91	4.89	4.36	4.08	3.94	3.81	3.81	3.91	4.04	4.30	5.48	6.11	6.41	5.06	1.89	2.96	3.61	4.07	4.06	3.37	2.66	2.53	3.03	3.35	3.15	2.77	2.60	2.39	1.92	1.64	1.49	0.25	2.70	1.65	1.10	1.64	1.29	1.24	1.31	1.26	2.83	2.72	2.66	2.72	2.96	3.20	3.01	2.32	1.86	1.94	2.30	2.64	2.81	2.91	3.01	3.12	3.19	3.27	3.38	3.47	3.52	3.51	3.51	3.55	3.60	3.63	3.62	3.69	3.88	4.07	4.09	4.00	3.97	3.99	3.98	3.99	4.03	4.09	4.13	4.12	4.10	4.12	4.15	4.19	4.25	4.30	4.29	4.23	4.19	4.23	4.29	4.27	4.28	4.32	4.33	4.33	4.35	4.37	4.36	4.37	4.40	4.42	4.40	4.43	4.49	4.50	4.49	4.51	4.59	4.65	4.65	
2.60	2.59	2.57	2.55	2.53	2.51	2.53	2.55	2.14	2.47	5.21	10.35	8.41	7.55	7.38	6.52	5.73	4.50	3.72	3.51	3.47	3.53	3.80	4.23	3.64	3.91	4.09	4.04	4.03	4.25	5.33	5.42	5.36	5.20	4.97	5.47	5.18	4.36	3.74	4.19	3.86	3.96	3.87	3.92	3.93	4.13	4.38	4.52	4.55	4.62	4.67	4.68	4.85	5.02	4.86	4.61	4.49	4.52	4.54	4.63	4.65	4.62	4.70	4.86	4.97	5.01	4.96	4.84	4.69	4.55	4.18	3.95	3.98	3.94	4.13	4.57	4.91	5.59	6.42	7.37	3.77	3.88	4.42	4.77	4.49	4.34	4.27	2.96	2.93	3.71	5.50	3.04	2.77	4.91	2.30	1.40	0.65	0.33	1.63	2.14	1.40	0.96	0.48	1.35	1.14	1.12	1.18	1.14	2.70	2.63	2.67	2.95	3.23	3.06	2.35	1.80	1.82	2.13	2.46	2.69	2.84	2.96	3.06	3.12	3.17	3.27	3.40	3.50	3.49	3.45	3.47	3.54	3.59	3.58	3.62	3.79	3.98	4.06	3.99	3.95	3.99	4.00	3.99	4.02	4.09	4.16	4.15	4.12	4.11	4.10	4.09	4.15	4.28	4.34	4.27	4.18	4.21	4.27	4.26	4.27	4.32	4.33	4.32	4.35	4.39	4.38	4.38	4.40	4.42	4.42	4.43	4.46	4.49	4.52	4.52	4.55	4.58	4.58	
2.60	2.59	2.55	2.52	2.50	2.49	2.48	2.50	2.41	2.92	3.52	10.07	10.17	8.35	7.59	5.76	5.58	4.38	3.71	3.58	3.54	3.44	3.58	3.94	4.26	3.99	4.07	4.06	4.04	4.06	4.31	5.24	5.34	4.58	4.92	4.62	4.93	4.79	4.28	4.12	3.97	4.06	3.90	4.00	3.87	3.97	4.23	4.41	4.48	4.58	4.63	4.65	4.86	5.01	4.89	4.67	4.54	4.45	4.34	4.36	4.45	4.51	4.57	4.70	4.88	5.07	4.89	4.61	4.61	4.56	4.30	3.87	3.62	3.49	4.09	3.97	5.62	6.26	5.06	4.82	5.81	5.97	5.55	4.87	4.43	4.51	3.55	3.84	3.66	5.65	5.41	5.30	5.32	4.96	2.02	2.95	3.26	2.58	1.86	1.87	0.98	0.56	0.55	1.57	1.09	1.03	1.16	1.20	2.74	2.59	2.63	2.87	3.19	3.22	2.55	1.77	1.72	2.02	2.31	2.56	2.77	2.94	3.07	3.13	3.14	3.14	3.24	3.42	3.51	3.43	3.39	3.46	3.53	3.54	3.57	3.74	3.95	4.05	3.99	3.92	3.96	4.00	3.99	4.00	4.07	4.14	4.16	4.19	4.21	4.18	4.10	4.07	4.21	4.36	4.33	4.23	4.22	4.26	4.26	4.28	4.32	4.34	4.32	4.33	4.38	4.40	4.38	4.38	4.40	4.43	4.44	4.44	4.46	4.50	4.53	4.53	4.54	4.54	
2.60	2.59	2.55	2.51	2.48	2.46	2.45	2.49	2.56	2.91	2.99	9.27	13.00	11.61	9.94	6.17	5.97	4.36	3.84	3.70	3.62	2.82	3.51	3.68	4.26	3.77	3.87	3.99	3.98	3.95	3.96	4.73	5.75	5.09	5.12	4.63	5.18	5.01	4.94	4.35	4.18	4.26	4.41	4.22	3.91	3.81	4.05	4.28	4.29	4.35	4.50	4.61	4.78	4.93	4.87	4.64	4.55	4.49	4.23	4.18	4.27	4.27	4.28	4.41	4.64	4.90	5.02	4.93	4.87	4.66	4.17	3.60	2.91	2.65	3.04	4.99	4.36	4.28	4.56	5.02	5.74	5.50	6.04	5.75	5.36	3.69	2.97	2.46	2.71	2.49	2.34	2.58	5.50	1.94	4.32	5.52	4.19	2.91	1.87	1.52	1.03	0.59	0.59	0.58	1.31	1.00	1.05	1.20	1.20	2.66	2.62	2.77	3.06	3.30	2.82	1.89	1.68	1.90	2.19	2.46	2.67	2.87	3.05	3.18	3.22	3.15	3.08	3.21	3.46	3.49	3.37	3.39	3.46	3.48	3.51	3.65	3.88	4.05	4.02	3.93	3.92	3.97	4.00	4.00	4.07	4.15	4.17	4.22	4.32	4.37	4.29	4.13	4.16	4.33	4.35	4.29	4.26	4.26	4.26	4.28	4.31	4.33	4.32	4.32	4.36	4.40	4.40	4.38	4.39	4.43	4.46	4.46	4.46	4.48	4.51	4.52	4.53	4.53	
2.60	2.59	2.55	2.50	2.45	2.42	2.41	2.47	2.59	2.85	2.80	8.02	12.44	12.28	12.41	7.06	6.88	4.55	3.93	3.47	3.36	3.43	3.70	3.87	3.39	3.60	3.62	3.79	4.01	3.98	3.64	4.19	5.38	5.43	4.61	4.31	4.46	4.76	4.75	4.55	4.48	4.55	4.64	4.53	4.12	3.82	3.97	4.16	4.04	4.01	4.24	4.53	4.74	4.81	4.90	4.70	4.47	1.39	4.29	3.97	4.04	4.09	4.05	4.14	4.45	4.78	4.87	4.97	5.16	4.68	3.95	3.02	2.16	2.05	1.87	3.13	4.49	4.27	4.54	4.94	5.55	5.75	5.89	3.82	5.25	1.45	1.17	3.59	3.25	6.76	6.31	2.91	2.88	2.86	4.85	4.15	2.93	1.87	1.17	1.07	1.03	0.66	0.54	0.60	0.52	1.30	1.12	1.30	1.31	1.13	2.61	2.69	2.93	3.23	2.95	2.12	1.74	1.77	2.02	2.30	2.49	2.68	2.89	3.07	3.22	3.25	3.05	2.92	3.17	3.43	3.40	3.36	3.40	3.40	3.44	3.56	3.76	3.96	4.05	3.98	3.91	3.94	3.99	4.00	4.06	4.14	4.16	4.16	4.22	4.34	4.40	4.24	4.17	4.29	4.32	4.29	4.27	4.26	4.26	4.29	4.32	4.33	4.33	4.33	4.35	4.40	4.42	4.40	4.40	4.42	4.46	4.48	4.50	4.49	4.48	4.49	4.50	4.50	
2.61	2.60	2.56	2.50	2.43	2.39	2.38	2.44	2.56	2.77	2.66	7.53	11.64	11.43	12.88	8.96	8.24	5.24	4.09	3.94	2.75	3.85	3.21	3.84	3.76	3.56	3.56	3.87	4.17	3.93	3.29	3.58	4.88	5.20	4.78	4.26	4.23	4.34	4.32	4.27	4.35	4.54	4.75	4.76	4.48	4.11	3.94	3.89	4.01	3.84	4.06	4.41	4.67	4.66	4.83	1.21	4.50	4.42	4.27	3.88	3.81	3.85	3.79	3.88	4.40	4.73	4.93	5.24	5.04	4.47	3.40	2.11	1.33	1.22	4.49	4.24	4.41	4.48	4.32	4.61	5.29	5.62	5.77	2.28	0.88	0.61	2.77	6.02	4.86	4.21	2.34	3.55	3.56	3.87	4.41	5.76	2.30	1.67	1.40	1.17	1.06	0.89	0.76	0.53	0.74	1.62	1.27	1.48	1.51	1.28	2.71	2.71	2.88	3.10	2.89	2.24	1.77	1.66	1.86	2.15	2.35	2.53	2.75	2.94	3.12	3.31	3.19	2.78	2.75	3.12	3.34	3.40	3.39	3.33	3.35	3.47	3.62	3.79	3.94	3.97	3.93	3.93	3.96	3.98	4.03	4.08	4.09	4.09	4.10	4.19	4.32	4.29	4.23	4.30	4.31	4.25	4.25	4.27	4.29	4.30	4.33	4.35	4.36	4.37	4.36	4.39	4.42	4.41	4.40	4.42	4.44	4.46	4.50	4.52	4.51	4.48	4.47	4.47	
2.61	2.60	2.56	2.50	2.43	2.37	2.35	2.40	2.50	2.67	2.59	7.86	11.59	10.39	11.59	13.89	8.52	6.84	4.03	3.07	2.89	2.94	2.58	3.91	3.84	3.67	3.82	3.31	4.26	3.38	3.11	3.19	4.19	5.03	5.03	4.30	3.90	4.14	4.05	4.00	4.09	4.37	4.68	4.75	4.72	1.97	4.46	4.17	4.12	3.92	4.18	4.46	4.65	4.62	4.64	4.82	4.71	4.55	4.44	4.24	3.95	3.74	3.23	3.56	4.14	4.53	5.64	5.50	5.01	4.07	1.73	4.68	4.67	4.87	4.57	4.33	0.75	1.61	4.41	4.28	4.97	2.71	1.75	1.23	1.27	5.44	5.86	6.04	6.20	1.78	4.04	4.44	4.03	4.25	3.92	2.71	2.11	1.71	1.61	1.42	1.18	1.08	0.65	0.50	1.05	1.69	1.26	1.43	1.68	1.56	1.54	1.52	3.00	3.07	2.89	2.35	1.84	1.64	1.76	2.03	2.23	2.42	2.64	2.87	3.06	3.31	3.37	2.91	2.53	2.70	3.06	3.37	3.47	3.37	3.31	3.42	3.57	3.68	3.77	3.87	3.90	3.91	3.91	3.93	4.00	4.05	4.06	4.08	4.11	4.15	4.23	4.25	4.26	4.33	4.32	4.26	4.23	4.26	4.30	4.31	4.32	4.33	4.37	4.40	4.38	4.39	4.41	4.41	4.40	4.42	4.45	4.45	4.46	4.52	4.54	4.49	4.45	4.45	
2.61	2.59	2.55	2.49	2.42	2.35	2.32	2.35	2.44	2.42	2.37	7.24	10.99	10.35	9.83	11.63	13.92	7.61	4.59	3.15	2.65	1.80	4.06	4.03	2.63	4.24	4.28	2.48	2.78	2.78	2.30	3.06	3.55	4.40	4.90	4.75	2.17	3.06	2.67	3.95	3.93	4.14	4.49	4.60	4.71	1.99	1.32	4.45	4.15	4.03	2.89	4.77	4.87	4.86	4.78	4.84	4.94	4.94	4.90	4.58	4.13	3.53	3.05	3.45	4.09	5.06	4.97	4.88	4.92	2.09	1.63	2.24	2.04	2.24	2.24	2.53	1.58	0.49	0.75	1.54	1.77	0.99	2.28	2.40	5.56	5.58	5.90	1.71	1.98	3.62	6.61	5.05	4.64	4.44	6.07	2.37	2.04	1.84	1.67	1.56	1.42	1.19	0.66	0.55	0.90	1.57	1.19	1.37	1.67	1.74	1.60	1.63	1.73	3.15	2.98	2.56	2.10	1.86	1.86	2.04	2.18	2.31	2.54	2.83	3.03	3.25	3.42	3.13	2.61	2.45	2.67	3.10	3.44	3.47	3.37	3.41	3.57	3.68	3.72	3.79	3.85	3.87	3.86	3.87	3.96	4.04	4.06	4.08	4.13	4.17	4.21	4.21	4.26	4.33	4.32	4.27	4.24	4.25	4.29	4.31	4.31	4.30	4.35	4.40	4.39	4.39	4.41	4.41	4.40	4.42	4.47	4.48	4.44	4.46	4.51	4.49	4.45	4.45	
2.61	2.59	2.54	2.48	2.42	2.34	2.29	2.30	2.37	2.14	2.17	4.45	9.60	10.95	9.31	9.32	12.26	11.66	5.95	4.88	4.45	4.01	4.02	4.09	4.02	3.99	2.62	3.03	2.44	1.91	1.96	3.24	3.21	3.70	4.45	4.82	1.82	4.57	4.26	4.16	1.82	3.97	4.25	4.44	4.58	1.70	5.00	4.66	4.11	4.00	4.51	5.00	5.19	5.26	5.25	5.24	5.20	5.16	5.06	4.96	3.51	2.00	2.95	3.54	4.17	4.99	4.63	4.77	4.13	2.59	2.67	2.64	2.92	2.94	2.67	2.49	1.24	0.27	0.29	0.84	1.74	2.10	3.09	5.69	5.63	5.87	1.41	1.73	3.79	6.58	6.53	4.91	6.93	4.83	3.39	2.49	2.05	1.82	1.60	1.62	1.46	0.92	0.61	0.57	0.64	0.56	0.34	1.49	1.60	1.71	1.76	2.01	2.13	1.90	3.05	2.66	2.29	2.12	2.11	2.24	2.31	2.34	2.52	2.84	3.08	3.23	3.36	3.22	2.81	2.43	2.41	2.75	3.18	3.42	3.41	3.40	3.54	3.65	3.70	3.75	3.81	3.84	3.85	3.88	3.93	3.99	4.03	4.07	4.10	4.18	4.23	4.21	4.27	4.34	4.31	4.26	4.24	4.25	4.27	4.30	4.32	4.31	4.33	4.38	4.38	4.38	4.42	4.43	4.40	4.38	4.44	4.49	4.47	4.44	4.47	4.48	4.46	4.46	
2.62	2.59	2.54	2.48	2.40	2.33	2.26	2.27	2.32	2.11	2.52	3.10	8.67	11.56	9.67	8.65	9.58	12.33	10.12	7.31	4.88	3.91	3.89	4.07	1.23	2.98	3.18	3.42	2.60	4.31	3.93	1.18	3.30	3.42	3.94	4.67	2.11	5.10	4.70	0.75	4.12	3.90	4.03	4.29	4.54	4.83	4.97	4.64	4.07	3.88	4.28	4.80	5.12	5.28	5.34	5.41	5.39	5.51	5.47	4.46	2.76	1.60	3.16	3.45	4.95	4.86	4.92	3.39	3.95	4.41	4.72	4.77	4.98	2.35	1.68	0.94	4.53	0.62	1.60	4.63	5.02	5.56	6.02	5.88	5.75	2.12	1.28	5.87	6.12	6.62	4.60	5.07	6.92	5.31	3.23	2.67	2.05	1.74	1.46	1.25	0.97	1.00	1.19	0.98	0.70	0.70	0.52	1.59	1.65	1.56	1.63	1.96	2.25	2.24	1.82	2.70	2.37	2.22	2.23	2.37	2.46	2.47	2.56	2.83	3.14	3.30	3.28	3.20	2.95	2.52	2.37	2.60	2.92	3.20	3.32	3.36	3.47	3.59	3.66	3.72	3.78	3.83	3.85	3.89	3.93	3.96	4.00	4.05	4.07	4.14	4.22	4.21	4.25	4.33	4.31	4.28	4.26	4.26	4.26	4.28	4.32	4.33	4.35	4.38	4.37	4.36	4.41	4.45	4.40	4.37	4.41	4.47	4.49	4.48	4.46	4.46	4.46	4.46	
2.63	2.60	2.54	2.47	2.40	2.32	2.25	2.24	2.30	2.21	2.65	2.99	8.76	12.00	9.87	8.85	8.30	9.44	12.24	7.20	5.78	4.32	4.02	4.05	0.61	2.05	4.01	3.05	4.42	2.57	1.89	4.12	3.78	3.59	1.43	4.15	4.34	1.25	1.72	3.70	4.30	3.94	3.91	4.16	1.19	4.82	4.92	4.55	3.95	3.71	3.98	4.45	4.81	4.98	5.09	5.29	5.61	5.90	5.59	4.04	2.16	2.05	2.96	3.93	4.41	4.04	2.77	1.68	4.02	3.99	4.21	4.56	2.61	1.57	1.41	0.93	1.35	4.68	4.97	4.99	4.97	5.31	5.68	5.89	2.53	3.50	2.38	5.97	6.01	6.32	4.71	6.83	5.85	5.75	3.61	2.99	2.14	1.68	1.38	1.43	1.55	1.46	1.34	1.26	0.98	0.51	0.12	0.65	0.29	1.62	1.43	1.54	1.96	2.28	2.12	2.81	2.50	2.37	2.35	2.45	2.58	2.67	2.64	2.75	3.10	3.34	3.23	3.09	2.91	2.53	2.39	2.58	2.83	3.05	3.21	3.29	3.40	3.54	3.63	3.68	3.75	3.81	3.83	3.88	3.93	3.96	3.99	4.03	4.05	4.11	4.19	4.20	4.24	4.30	4.30	4.29	4.30	4.29	4.27	4.27	4.30	4.34	4.36	4.38	4.37	4.34	4.38	4.43	4.42	4.39	4.39	4.43	4.47	4.48	4.46	4.43	4.43	4.43	
2.65	2.62	2.55	2.47	2.40	2.32	2.24	2.24	2.28	2.27	2.62	2.47	9.19	12.39	10.03	8.87	7.86	7.83	10.66	7.48	5.27	5.60	5.00	4.61	4.27	1.13	4.29	1.65	4.18	4.23	4.41	1.61	0.80	1.44	3.35	3.83	4.40	4.55	4.59	4.10	4.52	4.13	1.10	4.11	4.47	4.80	4.90	4.53	3.91	3.56	3.69	4.12	4.53	4.70	4.78	5.05	5.60	6.23	5.79	3.13	2.68	2.96	3.17	3.69	4.34	2.43	0.84	1.76	4.09	3.96	3.99	4.26	2.23	2.09	4.32	4.57	4.85	4.82	4.73	4.70	4.79	5.00	5.21	5.45	5.70	3.08	5.77	5.84	5.86	5.96	6.14	6.50	6.39	4.85	3.92	3.19	2.44	1.96	1.80	1.91	1.78	1.45	1.23	1.33	1.25	0.79	0.25	0.14	0.25	0.58	1.81	1.70	2.03	2.38	2.30	2.93	2.62	2.53	2.50	2.56	2.73	2.93	2.89	2.81	3.06	3.30	3.21	2.99	2.66	2.32	2.30	2.51	2.76	2.96	3.11	3.22	3.33	3.48	3.60	3.65	3.73	3.80	3.80	3.85	3.93	3.95	3.98	4.03	4.05	4.12	4.21	4.21	4.24	4.28	4.26	4.26	4.29	4.29	4.27	4.28	4.30	4.32	4.35	4.38	4.38	4.36	4.37	4.40	4.43	4.41	4.38	4.40	4.45	4.46	4.45	4.42	4.40	4.40	
2.67	2.64	2.57	2.48	2.40	2.32	2.25	2.21	2.25	2.28	2.62	2.59	9.70	13.32	10.29	8.52	7.21	7.35	10.10	6.73	6.12	5.12	2.67	4.09	5.46	4.04	4.84	1.30	4.16	4.04	4.17	2.24	4.43	4.07	3.65	3.64	4.09	4.71	5.10	5.08	4.73	4.33	1.43	4.15	4.37	4.69	4.84	4.53	3.98	3.55	3.46	3.78	4.26	4.46	4.41	4.53	5.23	6.72	6.13	4.04	3.64	3.45	3.28	3.64	3.34	0.93	1.28	2.62	4.09	4.03	4.02	4.15	4.58	4.77	4.47	4.37	4.64	4.84	4.73	4.56	4.57	4.64	4.88	5.14	5.31	5.55	5.69	5.70	5.75	5.86	6.02	6.28	6.29	4.28	3.90	3.33	2.78	2.57	2.48	2.25	1.97	1.74	1.52	1.42	1.36	1.04	0.84	0.64	0.23	0.45	0.57	1.96	1.97	2.37	2.49	3.06	2.68	2.57	2.54	2.56	2.74	3.05	3.15	3.08	3.17	3.29	3.21	2.94	2.44	2.04	2.07	2.34	2.62	2.85	3.01	3.14	3.26	3.40	3.53	3.61	3.70	3.79	3.81	3.85	3.91	3.92	3.94	4.02	4.05	4.12	4.22	4.23	4.24	4.27	4.24	4.23	4.25	4.27	4.26	4.27	4.31	4.33	4.34	4.36	4.39	4.39	4.39	4.41	4.43	4.42	4.38	4.39	4.43	4.46	4.45	4.42	4.40	4.40	
2.68	2.65	2.58	2.50	2.41	2.32	2.25	2.20	2.20	2.23	2.37	2.29	9.84	11.27	6.67	7.64	7.14	7.95	5.32	5.75	7.92	5.07	8.85	8.05	5.19	5.35	4.12	2.21	4.34	4.10	4.11	4.31	4.49	4.08	3.68	3.54	3.81	4.33	4.76	4.95	4.81	4.43	4.13	4.08	4.22	4.52	4.72	4.48	4.07	3.75	3.55	3.68	4.18	4.40	4.15	3.92	4.34	6.39	7.53	5.18	4.35	3.77	3.24	2.95	3.50	1.01	2.60	3.94	4.02	4.07	4.14	4.27	4.41	4.53	4.52	4.39	4.41	4.65	4.71	4.60	4.65	4.57	4.56	2.44	5.24	5.37	5.64	5.75	5.82	5.94	6.08	6.30	6.33	4.54	4.06	3.60	3.12	2.67	2.40	2.18	1.81	1.60	1.42	1.37	1.53	1.25	0.65	0.31	0.23	0.35	0.18	0.42	1.90	2.19	2.54	3.32	2.88	2.64	2.56	2.57	2.75	3.04	3.21	3.32	3.43	3.40	3.19	2.89	2.45	1.96	1.88	2.15	2.47	2.72	2.90	3.05	3.20	3.33	3.46	3.55	3.65	3.74	3.81	3.88	3.93	3.91	3.90	3.97	4.03	4.10	4.19	4.23	4.28	4.29	4.25	4.23	4.24	4.26	4.26	4.27	4.31	4.35	4.34	4.36	4.39	4.39	4.39	4.41	4.45	4.44	4.42	4.41	4.41	4.42	4.43	4.42	4.40	4.40	
2.70	2.68	2.61	2.52	2.43	2.33	2.25	2.19	2.17	2.17	2.03	1.98	8.92	12.17	7.34	4.80	6.78	9.14	5.70	5.09	6.51	3.58	4.24	7.59	8.63	8.19	5.91	3.26	5.04	3.20	4.38	4.37	4.52	4.46	4.15	2.99	3.78	3.97	4.35	4.70	4.79	4.47	4.09	3.95	4.02	4.27	4.52	4.37	4.02	3.87	3.77	3.75	4.08	4.34	4.15	3.73	3.82	5.51	7.68	6.07	4.47	3.52	2.46	1.84	1.11	3.21	2.54	2.28	3.97	4.06	4.19	4.36	4.45	4.43	4.51	4.43	4.29	4.41	4.63	4.62	4.69	0.61	4.34	4.55	4.97	5.14	5.36	5.57	5.73	5.88	6.12	6.41	6.01	4.55	4.18	3.79	3.34	2.74	2.12	1.84	1.67	1.60	1.63	1.72	1.63	1.19	0.64	0.24	0.05	0.27	0.06	0.25	0.34	2.18	2.33	2.23	1.88	2.84	2.68	2.70	2.92	3.16	3.27	3.47	3.72	3.64	3.22	2.86	2.58	2.12	1.84	1.98	2.30	2.56	2.77	2.96	3.12	3.28	3.42	3.52	3.59	3.66	3.75	3.86	3.94	3.95	3.92	3.94	4.00	4.09	4.17	4.21	4.30	4.34	4.29	4.25	4.24	4.26	4.26	4.27	4.29	4.33	4.33	4.35	4.38	4.41	4.40	4.40	4.44	4.45	4.45	4.47	4.46	4.40	4.36	4.37	4.37	4.37	
2.70	2.68	2.63	2.54	2.44	2.34	2.25	2.19	2.15	2.18	1.82	1.77	5.97	11.44	7.76	4.94	6.12	6.06	5.31	2.10	4.11	7.16	5.94	7.64	6.09	6.82	8.66	4.72	6.47	5.79	5.36	4.99	4.82	4.73	0.20	0.83	0.37	4.03	4.10	4.47	4.85	4.70	4.19	3.98	3.98	4.12	4.32	4.27	3.96	3.74	3.65	3.60	3.77	4.07	4.07	3.75	3.71	4.83	7.06	6.23	1.68	3.41	1.76	2.54	2.13	3.49	2.85	2.67	4.01	4.05	4.19	4.34	4.45	4.47	4.52	4.43	4.21	4.23	4.45	4.57	4.65	2.52	4.38	4.35	4.64	4.93	5.12	5.33	5.55	5.76	6.08	6.23	5.62	4.24	3.73	3.33	2.93	2.50	2.12	1.86	1.77	1.70	1.52	1.38	1.12	0.89	0.66	0.32	0.26	0.40	0.43	0.19	0.14	2.32	3.43	3.36	1.90	1.48	1.72	2.15	2.63	2.58	2.73	3.09	3.16	2.49	3.35	2.94	2.68	2.28	1.92	1.86	2.06	2.32	2.56	2.81	3.03	3.20	3.37	3.48	3.54	3.61	3.69	3.79	3.88	3.94	3.95	3.94	3.97	4.08	4.17	4.19	4.27	4.36	4.34	4.29	4.28	4.28	4.27	4.27	4.29	4.32	4.33	4.34	4.37	4.42	4.42	4.39	4.39	4.40	4.42	4.46	4.53	4.53	4.42	4.33	4.30	4.30	
2.71	2.69	2.63	2.55	2.46	2.34	2.24	2.19	2.15	2.17	2.03	2.25	4.76	9.91	8.74	6.46	7.71	6.72	5.54	3.54	3.19	4.99	6.38	6.25	6.98	6.95	7.68	9.19	6.82	4.47	6.16	6.34	6.03	5.75	5.36	4.92	4.19	0.98	4.18	4.33	4.83	1.09	4.47	4.10	4.09	4.15	4.26	4.29	4.15	3.89	3.65	3.53	3.62	3.84	3.91	3.70	3.82	4.11	6.51	2.57	4.44	4.31	5.27	3.82	3.35	4.01	4.21	4.06	4.04	4.07	4.19	4.30	4.47	4.60	4.61	4.35	3.97	4.09	4.31	4.42	1.15	4.64	4.42	4.38	4.50	4.78	4.99	5.16	5.37	5.67	6.05	6.27	5.24	4.20	3.45	3.01	2.76	2.56	2.30	1.95	1.74	1.67	1.54	1.43	1.10	0.86	0.85	0.59	0.24	0.03	0.21	0.24	0.40	0.82	2.07	1.89	1.55	1.81	1.87	2.09	2.56	2.75	3.04	3.16	2.93	2.51	3.55	3.16	2.82	2.46	2.14	1.94	1.96	2.09	2.30	2.61	2.90	3.11	3.29	3.42	3.49	3.56	3.66	3.74	3.82	3.90	3.95	3.95	3.95	4.04	4.15	4.17	4.21	4.31	4.35	4.33	4.31	4.31	4.30	4.27	4.29	4.33	4.35	4.36	4.38	4.41	4.40	4.37	4.34	4.32	4.30	4.32	4.44	4.59	4.60	4.43	4.30	4.30	
2.73	2.70	2.63	2.56	2.46	2.35	2.24	2.17	2.14	2.15	2.29	2.70	3.52	9.51	8.52	7.91	10.53	9.89	6.06	5.40	3.60	5.04	6.02	6.80	6.71	4.10	4.65	8.13	9.01	8.19	8.40	6.54	6.57	4.27	5.18	4.70	5.97	4.81	4.74	4.46	4.68	4.88	4.57	4.22	4.22	4.28	4.31	4.35	4.36	4.24	3.98	3.82	3.83	3.89	3.96	3.84	3.62	3.65	6.02	2.39	3.99	4.66	4.95	5.27	4.92	4.73	4.34	4.07	3.94	3.92	4.07	4.24	4.40	4.66	4.74	4.34	3.77	3.83	1.42	4.21	4.45	4.65	4.49	4.40	4.45	4.67	4.86	4.95	5.09	5.46	5.92	6.22	5.14	3.77	3.26	2.90	2.88	2.72	2.46	2.19	1.88	1.80	1.71	1.60	1.17	0.88	0.94	0.89	0.77	0.63	0.42	0.23	0.18	0.36	1.96	1.64	1.67	2.00	1.88	1.85	2.20	2.86	3.43	3.13	2.70	2.55	2.15	3.40	3.05	2.71	2.44	2.25	2.16	2.08	2.12	2.40	2.76	3.02	3.23	3.38	3.45	3.53	3.63	3.73	3.80	3.88	3.96	3.98	3.95	3.99	4.14	4.21	4.19	4.22	4.29	4.32	4.32	4.33	4.33	4.30	4.30	4.33	4.35	4.36	4.41	4.47	4.47	4.45	4.43	4.41	4.31	4.18	4.21	4.40	4.58	4.53	4.41	4.41	
2.76	2.72	2.64	2.56	2.48	2.35	2.24	2.17	2.13	2.18	2.22	2.34	3.02	9.27	13.11	11.01	10.13	8.97	9.12	6.10	4.84	3.67	4.64	6.41	6.07	7.65	4.44	4.97	8.61	7.97	8.16	8.00	8.56	7.69	8.23	7.32	7.49	7.22	6.40	5.62	5.30	5.01	4.54	4.34	3.08	4.41	2.57	4.32	4.36	4.33	4.14	4.06	4.11	3.98	4.03	3.95	3.67	5.09	5.73	2.77	4.13	4.63	4.78	5.09	5.14	4.94	4.59	4.32	4.08	3.78	3.96	4.32	4.44	4.64	1.17	4.46	0.57	3.67	3.87	3.92	3.99	4.33	4.54	4.57	4.56	4.66	4.84	4.88	4.90	5.23	5.66	5.99	4.71	2.74	2.80	2.95	3.07	2.78	2.75	2.51	2.17	1.99	1.88	1.58	1.15	0.95	0.90	0.83	0.73	0.76	0.66	0.44	0.55	0.67	0.82	2.17	2.14	2.06	1.96	1.83	1.85	2.39	3.36	2.75	2.61	2.41	2.18	2.06	3.27	2.98	2.70	2.48	2.36	2.19	2.05	2.24	2.61	2.92	3.18	3.36	3.45	3.52	3.61	3.71	3.80	3.87	3.95	4.01	3.98	3.95	4.08	4.25	4.26	4.21	4.23	4.27	4.29	4.33	4.34	4.31	4.30	4.30	4.32	4.34	4.42	4.54	4.59	4.61	4.63	4.65	4.56	4.27	4.13	4.24	4.41	4.48	4.45	4.45	
2.79	2.74	2.66	2.57	2.49	2.37	2.25	2.15	2.12	2.17	2.15	2.30	2.66	9.29	12.23	10.51	8.69	8.21	7.79	7.73	5.80	4.95	4.11	3.91	5.44	6.16	7.55	6.85	7.92	7.88	7.22	6.15	7.19	8.93	9.12	10.08	6.87	10.40	7.67	7.47	7.06	6.18	4.42	4.35	4.47	4.52	4.40	4.34	4.31	4.17	2.93	3.94	4.24	4.06	3.86	3.82	4.86	5.17	8.11	4.76	4.22	4.62	4.62	4.91	5.09	5.10	4.85	4.66	1.08	4.14	4.13	4.64	4.89	4.82	4.82	4.70	4.27	3.96	3.90	3.77	3.59	3.80	4.30	4.59	4.64	4.68	4.84	4.68	4.89	5.15	5.50	5.81	3.30	2.19	2.70	3.15	3.14	2.76	2.92	2.81	2.31	2.24	2.03	1.69	1.55	1.41	1.26	1.08	0.89	0.83	0.86	0.64	0.59	0.89	1.27	1.55	1.38	1.06	2.18	2.29	2.26	2.17	2.54	2.85	2.60	2.28	2.12	2.14	3.48	3.29	3.06	2.75	2.53	2.31	2.10	2.15	2.48	2.82	3.09	3.32	3.44	3.52	3.60	3.68	3.76	3.83	3.92	3.99	4.00	3.95	3.98	4.16	4.30	4.28	4.24	4.25	4.26	4.29	4.31	4.30	4.31	4.33	4.32	4.31	4.35	4.44	4.49	4.52	4.58	4.71	4.75	4.46	4.20	4.24	4.35	4.41	4.41	4.41	
2.81	2.77	2.69	2.60	2.50	2.38	2.26	2.15	2.10	2.14	2.21	2.52	2.71	9.53	12.02	10.68	9.08	8.51	8.45	8.53	7.91	5.33	5.49	4.82	4.01	4.82	5.27	6.37	7.09	7.28	7.43	4.42	4.42	8.13	8.17	8.67	9.24	10.01	7.08	7.54	7.82	5.33	5.79	4.40	4.32	3.00	4.49	4.46	4.36	2.97	2.59	3.69	4.20	4.41	4.07	3.65	4.87	5.18	4.84	5.12	4.81	4.62	4.50	4.75	4.93	5.01	4.90	4.75	1.06	4.62	4.42	4.73	0.34	0.96	4.96	4.92	4.63	4.34	4.31	4.21	3.77	3.62	4.05	4.47	4.62	4.68	4.76	4.85	4.87	5.07	5.43	4.12	1.65	1.76	2.87	3.34	3.24	2.71	2.98	3.08	2.71	2.50	2.26	2.03	1.89	1.75	1.56	1.32	1.06	1.09	1.21	1.04	0.77	0.91	1.35	1.45	1.07	0.84	1.46	2.22	2.38	2.06	2.49	2.69	2.64	2.34	2.08	2.04	1.95	3.56	3.47	3.21	2.84	2.56	2.29	2.11	2.34	2.72	2.99	3.23	3.39	3.49	3.58	3.67	3.74	3.81	3.89	3.96	3.99	3.99	3.97	4.04	4.19	4.29	4.27	4.26	4.28	4.29	4.30	4.29	4.29	4.34	4.33	4.27	4.26	4.31	4.36	4.37	4.41	4.61	4.76	4.57	4.30	4.30	4.38	4.39	4.38	4.38	
2.83	2.80	2.72	2.63	2.52	2.39	2.27	2.14	2.08	2.11	2.22	2.55	2.60	9.80	11.94	10.63	10.20	8.96	8.11	7.25	5.10	5.47	7.84	5.69	4.58	4.98	5.58	5.92	6.37	7.24	6.70	4.57	4.06	7.92	7.78	7.95	6.17	6.29	6.37	6.43	7.38	8.01	6.65	4.66	4.15	4.22	4.53	4.72	4.07	1.80	3.15	3.79	4.24	4.64	4.85	4.46	4.90	4.62	5.03	4.67	4.56	4.41	4.42	4.63	4.73	4.72	4.66	4.55	4.56	4.64	4.58	4.66	5.00	5.12	5.03	4.97	4.70	4.35	4.30	1.99	1.99	3.75	3.81	4.29	4.57	4.67	4.68	4.74	4.83	4.92	5.23	2.11	1.33	2.66	3.50	3.90	3.39	2.65	2.97	3.32	3.36	3.09	2.75	2.41	2.15	1.89	1.68	1.46	1.15	1.21	1.42	1.45	1.04	1.06	1.50	1.53	1.24	0.97	1.48	2.62	2.78	2.17	1.62	1.49	1.34	2.58	2.25	2.05	1.86	1.91	3.73	3.61	3.23	2.92	2.63	2.22	2.21	2.57	2.91	3.16	3.35	3.48	3.57	3.66	3.74	3.81	3.89	3.95	3.99	4.01	4.02	4.04	4.10	4.21	4.26	4.25	4.28	4.30	4.31	4.29	4.24	4.27	4.32	4.30	4.28	4.29	4.35	4.36	4.39	4.57	4.72	4.56	4.36	4.37	4.43	4.40	4.37	4.37	
2.85	2.82	2.75	2.65	2.52	2.39	2.27	2.13	2.05	2.06	2.17	2.45	2.53	8.98	12.30	11.48	10.69	8.24	7.28	6.13	7.71	4.99	5.62	7.85	5.65	5.50	5.67	4.26	6.12	6.53	6.83	4.37	4.20	3.88	7.82	6.02	6.14	6.27	6.26	6.18	6.97	11.21	7.45	5.24	0.74	3.97	4.37	4.79	2.18	4.29	4.09	4.20	4.46	5.29	4.95	3.80	5.86	4.59	4.68	4.41	4.15	3.99	4.29	4.67	4.68	4.45	4.19	4.07	4.16	4.36	4.58	4.72	4.80	4.88	4.98	5.03	4.77	4.40	1.94	4.18	3.99	3.95	3.71	4.08	4.46	4.59	4.70	4.77	4.81	4.85	4.32	0.42	2.43	3.49	4.02	3.76	3.21	2.90	3.05	3.19	3.48	3.31	2.93	2.55	2.51	2.44	2.22	1.94	1.53	1.34	1.45	1.63	1.13	1.22	1.58	1.51	1.33	1.23	1.66	2.58	2.90	2.49	1.99	1.62	1.56	1.55	2.70	2.31	1.97	1.91	2.09	3.79	3.55	3.27	3.05	2.60	2.28	2.44	2.82	3.12	3.31	3.46	3.57	3.66	3.74	3.81	3.88	3.95	4.00	4.02	4.04	4.07	4.10	4.16	4.21	4.21	4.23	4.28	4.30	4.30	4.25	4.24	4.30	4.34	4.33	4.31	4.33	4.32	4.37	4.58	4.69	4.53	4.37	4.39	4.44	4.41	4.36	4.36	
2.87	2.84	2.77	2.68	2.54	2.39	2.25	2.11	2.00	1.97	2.09	2.02	1.87	5.49	11.44	12.51	10.95	8.64	6.81	5.86	7.15	4.01	4.27	7.37	6.87	5.87	4.65	4.33	4.28	6.19	7.13	4.28	4.36	4.13	3.84	6.41	3.93	4.37	4.86	5.48	6.66	8.16	6.12	2.80	4.04	4.06	4.33	4.62	4.57	1.71	4.21	4.42	4.68	5.56	5.43	4.54	3.87	4.39	4.55	4.27	3.88	3.63	3.99	0.25	4.91	4.60	3.81	3.47	3.73	4.09	4.48	4.75	4.81	4.80	4.91	5.13	1.62	0.99	1.25	4.32	2.28	2.31	4.06	4.14	4.44	4.56	4.54	4.54	4.57	4.73	2.18	2.09	2.79	3.70	4.62	4.36	3.68	3.28	3.36	3.47	3.80	3.50	3.11	2.44	2.42	2.64	2.49	2.15	1.84	1.79	1.72	1.51	1.11	1.54	1.62	1.51	1.31	1.40	1.72	1.98	2.64	2.24	2.00	1.73	1.67	2.05	3.39	2.84	2.32	2.15	2.36	3.75	3.67	3.50	3.39	3.07	2.58	2.46	2.74	3.07	3.28	3.44	3.56	3.65	3.74	3.81	3.88	3.95	4.00	4.03	4.05	4.07	4.11	4.16	4.20	4.19	4.20	4.25	4.31	4.33	4.29	4.24	4.27	4.32	4.33	4.32	4.31	4.26	4.31	4.54	4.65	4.50	4.38	4.39	4.42	4.41	4.37	4.37	
2.89	2.85	2.78	2.70	2.56	2.39	2.25	2.10	1.96	1.90	1.94	1.69	1.76	3.80	9.75	12.98	11.18	6.68	5.88	5.71	5.98	6.52	4.07	4.54	8.19	6.74	4.86	4.67	4.18	3.74	7.39	6.92	4.23	4.25	3.98	3.82	3.91	4.22	4.65	5.15	6.25	7.48	8.52	5.51	4.18	4.78	4.63	2.13	4.36	4.07	4.12	4.21	4.47	5.52	5.94	4.89	3.97	4.49	4.74	4.31	2.63	3.55	3.73	4.36	4.98	0.96	3.85	3.02	3.21	3.79	4.33	4.67	4.85	4.94	4.98	0.74	0.51	0.57	0.97	4.60	1.70	4.55	4.33	4.35	4.51	4.64	4.60	4.49	3.41	1.63	5.06	4.04	3.98	4.33	4.93	5.49	4.51	3.62	3.37	3.61	3.94	3.38	2.79	2.27	2.51	3.03	2.86	2.59	2.15	2.46	1.87	1.34	1.62	1.69	1.56	1.59	1.64	1.79	1.40	0.57	0.41	1.61	2.85	2.94	3.16	3.42	3.17	3.47	2.94	2.63	2.64	3.75	3.74	3.69	3.65	3.45	2.97	2.63	2.73	3.03	3.26	3.43	3.55	3.65	3.74	3.81	3.87	3.94	4.00	4.04	4.06	4.08	4.11	4.16	4.21	4.22	4.20	4.23	4.31	4.37	4.32	4.25	4.25	4.29	4.32	4.33	4.31	4.26	4.29	4.45	4.56	4.50	4.43	4.41	4.41	4.41	4.38	4.38	
2.93	2.89	2.81	2.71	2.59	2.41	2.25	2.09	1.94	1.84	1.84	1.70	2.17	2.55	8.86	12.99	8.83	6.89	5.27	4.76	4.97	5.54	3.48	4.07	4.46	5.08	8.15	5.14	4.59	4.19	3.89	3.81	6.19	4.19	3.92	3.74	3.82	4.09	4.44	4.83	5.76	6.31	9.20	7.60	5.96	5.19	3.49	4.79	1.42	4.05	4.10	4.02	4.17	5.36	5.05	4.90	4.39	2.47	1.04	4.91	4.38	4.06	4.05	4.44	5.02	5.22	4.45	3.34	3.11	3.57	4.20	4.59	4.74	4.93	0.70	0.55	0.99	1.41	4.52	4.51	2.56	4.52	4.34	4.37	4.51	4.70	4.83	3.15	0.89	2.40	4.85	4.90	5.07	5.53	5.13	5.30	4.33	3.37	2.87	3.25	3.46	2.59	2.42	2.64	2.89	2.87	2.68	2.38	2.34	2.23	2.09	1.45	1.75	1.59	1.42	1.58	1.86	1.81	1.23	1.07	1.25	3.61	4.18	3.57	3.38	3.70	4.02	3.87	3.55	3.30	3.13	3.90	3.85	3.82	3.80	3.65	3.24	2.84	2.78	3.00	3.24	3.42	3.55	3.66	3.75	3.82	3.88	3.94	4.00	4.05	4.07	4.09	4.11	4.14	4.20	4.24	4.21	4.20	4.28	4.38	4.38	4.29	4.24	4.26	4.32	4.35	4.33	4.31	4.33	4.39	4.45	4.47	4.45	4.42	4.42	4.42	4.40	4.40	
2.95	2.92	2.83	2.73	2.62	2.44	2.26	2.09	1.92	1.79	1.80	1.75	2.26	2.42	8.39	12.57	11.59	8.82	6.16	4.90	4.34	3.90	6.01	3.22	3.81	4.16	4.31	6.01	5.42	4.32	3.96	3.74	7.74	4.13	3.96	3.68	3.68	3.94	4.29	4.57	5.51	5.43	8.53	8.54	7.92	5.87	4.59	4.89	2.74	4.00	4.43	4.56	4.74	10.14	5.70	4.85	4.68	4.94	2.73	0.96	1.85	0.99	4.51	4.69	5.16	4.72	4.18	4.64	4.21	4.01	4.36	4.71	4.70	3.47	0.85	0.62	0.69	4.23	4.43	4.50	4.61	4.62	4.50	4.53	4.75	3.94	2.40	0.27	1.94	2.75	4.14	5.24	4.70	5.06	5.07	5.09	3.25	2.93	2.73	2.84	2.52	1.73	2.28	2.14	2.25	2.48	2.64	2.45	2.27	2.66	2.51	1.50	1.32	1.43	1.45	1.38	1.66	1.51	1.51	1.73	2.03	3.27	4.38	3.64	3.15	3.27	3.60	3.70	3.79	3.83	3.60	4.07	3.91	3.87	3.83	3.69	3.37	2.97	2.81	2.97	3.22	3.41	3.54	3.66	3.75	3.83	3.89	3.94	4.00	4.05	4.08	4.10	4.12	4.12	4.16	4.20	4.20	4.19	4.24	4.35	4.41	4.35	4.27	4.26	4.31	4.37	4.37	4.36	4.36	4.36	4.39	4.43	4.42	4.39	4.41	4.42	4.42	4.42	
3.00	2.96	2.88	2.76	2.64	2.48	2.29	2.09	1.91	1.76	1.74	1.84	2.52	2.21	8.15	12.08	11.87	9.32	6.87	4.63	4.05	2.92	3.11	6.04	3.03	3.46	3.78	4.00	6.75	4.15	3.81	3.66	6.77	3.97	3.69	3.46	3.46	3.77	4.17	4.44	5.42	8.11	8.04	10.18	11.22	12.08	7.60	7.42	3.78	5.40	5.50	5.61	5.80	5.88	5.17	4.61	4.60	4.90	5.27	5.08	4.49	4.22	4.21	4.41	4.77	4.88	4.69	4.77	1.12	4.53	4.58	5.00	4.16	1.53	0.92	0.61	1.20	4.28	4.47	4.71	4.86	4.96	5.01	4.30	4.43	2.27	0.59	1.94	2.72	3.51	3.85	4.17	4.83	5.00	5.57	5.78	3.95	3.00	2.78	2.87	2.61	1.93	1.82	2.26	2.16	2.00	2.34	2.51	2.59	3.16	3.27	2.06	1.17	1.52	1.64	1.42	1.13	1.71	2.39	2.80	2.92	3.26	4.11	4.09	3.53	3.47	3.59	3.52	3.63	3.90	3.82	4.16	3.99	3.99	3.92	3.74	3.48	3.09	2.83	2.91	3.17	3.38	3.53	3.65	3.75	3.83	3.89	3.94	3.99	4.04	4.09	4.13	4.14	4.14	4.15	4.17	4.19	4.20	4.23	4.30	4.37	4.35	4.30	4.27	4.29	4.34	4.39	4.41	4.37	4.36	4.41	4.42	4.39	4.36	4.38	4.40	4.40	4.40	
3.05	3.01	2.93	2.81	2.68	2.53	2.34	2.12	1.92	1.73	1.67	1.83	2.79	2.79	8.06	11.68	11.78	8.64	7.46	7.48	5.44	4.41	3.75	3.19	3.23	5.80	6.31	3.32	6.32	3.86	3.62	3.37	6.97	7.05	7.16	3.15	3.21	3.52	3.93	4.28	5.53	7.94	8.27	9.59	10.07	9.47	9.79	7.75	7.57	10.36	9.03	10.07	6.64	6.20	4.76	4.34	4.33	4.78	1.61	5.05	4.30	3.92	3.91	4.23	4.47	4.21	3.80	3.83	4.11	4.18	4.29	4.84	1.31	0.62	1.09	1.01	3.52	4.98	4.92	3.87	4.92	4.45	4.65	4.62	4.17	4.63	5.20	4.79	4.44	4.83	4.48	4.35	4.93	4.98	5.82	5.59	4.52	3.87	3.09	2.91	2.58	2.21	1.98	1.78	1.94	1.89	2.06	2.58	3.52	4.01	3.84	2.90	1.86	1.12	1.61	2.88	4.33	5.18	4.36	3.98	3.68	3.78	4.40	4.44	4.04	3.93	3.77	3.70	3.63	3.65	3.73	4.10	4.04	4.15	4.11	3.91	3.68	3.31	2.94	2.86	3.07	3.34	3.52	3.65	3.75	3.83	3.89	3.95	4.00	4.04	4.09	4.13	4.16	4.18	4.18	4.17	4.18	4.20	4.23	4.29	4.34	4.33	4.30	4.28	4.29	4.35	4.42	4.41	4.37	4.38	4.43	4.43	4.39	4.38	4.39	4.39	4.38	4.38	
3.08	3.04	2.97	2.85	2.71	2.56	2.39	2.15	1.93	1.72	1.60	1.71	2.71	2.66	7.97	11.16	10.87	11.91	12.33	8.73	6.87	5.18	4.32	3.76	3.43	3.14	2.86	3.05	3.35	5.62	3.44	3.57	6.87	4.33	3.35	3.21	3.13	3.29	3.62	3.98	5.61	8.07	8.78	9.43	7.74	7.62	7.59	7.71	7.64	10.73	9.77	11.24	7.33	6.02	4.41	4.11	4.14	4.57	5.15	4.96	4.31	4.07	4.07	4.41	4.38	3.93	3.19	3.16	3.37	3.62	3.81	4.24	1.27	0.61	1.13	0.97	3.86	0.47	2.28	7.77	4.21	4.29	4.42	5.52	5.48	7.41	5.09	5.49	5.83	5.82	6.02	5.06	4.76	4.79	5.12	3.84	5.11	5.73	4.77	3.50	2.18	1.24	1.51	1.74	2.15	2.13	2.31	2.68	3.38	4.20	4.18	3.89	4.06	5.33	5.08	4.07	4.87	6.31	5.77	4.99	4.20	3.86	4.69	5.08	4.45	4.08	3.84	3.87	3.58	3.34	3.37	4.03	4.01	4.20	4.29	4.17	3.96	3.65	3.26	2.98	3.03	3.30	3.52	3.66	3.76	3.84	3.90	3.96	4.01	4.04	4.08	4.12	4.17	4.21	4.20	4.18	4.19	4.22	4.26	4.32	4.37	4.36	4.32	4.28	4.29	4.38	4.43	4.39	4.37	4.39	4.41	4.42	4.41	4.40	4.42	4.40	4.38	4.38	
3.11	3.09	3.02	2.90	2.75	2.60	2.43	2.20	1.97	1.73	1.54	1.56	2.13	2.01	7.48	10.70	10.49	10.89	12.24	8.94	7.83	6.37	4.99	4.25	3.85	3.58	3.30	3.11	3.10	3.01	2.84	2.88	4.40	3.39	3.50	3.40	3.25	3.28	3.42	3.65	5.85	8.04	8.56	8.03	5.14	5.15	5.26	5.50	8.23	9.64	10.25	11.46	8.00	6.33	4.38	3.98	4.10	4.62	5.03	4.64	4.09	4.09	4.35	4.74	4.91	4.06	3.05	2.82	2.94	3.29	3.59	3.57	0.96	1.04	0.84	4.41	4.06	5.77	6.01	7.91	3.75	3.71	3.77	7.82	7.38	7.28	7.69	8.24	5.27	5.54	5.91	6.17	4.48	3.69	2.60	4.68	5.30	5.81	5.51	2.95	1.55	1.99	2.34	1.76	2.30	2.54	2.82	2.80	2.80	3.43	3.70	3.00	3.55	4.95	5.37	4.65	4.83	5.73	5.74	5.77	5.05	4.14	4.57	5.34	4.81	4.02	3.64	3.66	3.68	3.51	3.45	4.03	3.97	4.09	4.26	4.29	4.17	3.92	3.63	3.31	3.15	3.33	3.56	3.68	3.77	3.85	3.92	3.97	4.02	4.05	4.08	4.10	4.16	4.22	4.20	4.17	4.18	4.22	4.27	4.32	4.37	4.40	4.35	4.27	4.28	4.37	4.40	4.37	4.38	4.39	4.38	4.38	4.41	4.40	4.42	4.41	4.39	4.39	
3.15	3.12	3.05	2.94	2.80	2.65	2.49	2.26	2.02	1.77	1.53	1.44	1.43	1.11	5.32	10.39	10.60	10.45	11.31	8.28	8.20	6.56	4.57	4.73	4.09	3.70	3.53	3.43	3.34	3.17	2.85	2.72	2.89	3.14	3.36	3.43	3.43	3.47	3.44	6.28	6.23	7.85	5.79	5.73	5.67	5.60	5.51	5.59	9.06	9.84	9.91	11.03	8.57	7.41	5.00	4.14	4.16	4.84	5.55	4.91	4.32	4.14	4.52	5.13	5.28	4.47	3.31	3.04	2.92	3.19	3.52	1.33	3.59	1.24	4.31	3.39	5.90	6.55	6.96	3.96	3.69	3.67	3.85	7.48	7.05	6.96	7.32	7.69	7.49	8.08	8.67	5.59	5.96	4.65	4.46	4.76	4.79	4.79	4.01	1.33	1.84	2.23	2.56	2.01	2.46	2.59	2.46	2.33	2.50	2.73	2.29	2.14	3.20	4.21	4.99	4.57	4.59	5.05	5.16	5.71	5.94	5.08	4.68	5.08	5.02	4.27	3.87	3.61	3.67	3.59	4.03	3.98	3.93	3.94	4.05	4.18	4.23	4.01	3.74	3.54	3.37	3.43	3.61	3.71	3.79	3.86	3.92	3.98	4.03	4.06	4.08	4.10	4.15	4.21	4.21	4.18	4.17	4.19	4.24	4.27	4.30	4.36	4.37	4.31	4.32	4.36	4.36	4.38	4.41	4.40	4.36	4.36	4.40	4.41	4.41	4.41	4.40	4.40	
3.19	3.16	3.08	2.98	2.85	2.71	2.54	2.33	2.08	1.82	1.56	1.39	1.24	1.24	4.73	9.60	10.59	10.19	10.63	7.46	8.43	7.20	5.17	5.12	4.38	3.88	3.60	3.49	3.38	3.28	3.03	2.76	4.58	2.96	3.29	3.44	3.49	3.60	3.59	6.99	7.28	6.05	6.01	4.35	4.59	4.65	9.22	6.20	9.09	9.03	9.27	10.24	8.29	8.45	6.77	5.13	4.53	4.83	4.20	6.14	2.54	4.96	5.04	5.67	6.14	5.76	5.15	4.68	4.21	3.91	1.89	3.60	3.49	3.26	3.98	4.02	4.28	6.35	7.03	3.44	3.46	3.72	3.99	4.24	7.57	7.21	6.91	6.90	7.02	7.82	8.44	4.93	5.51	6.03	6.26	6.22	6.21	3.92	2.93	1.10	2.10	3.60	3.12	2.48	2.46	2.32	2.03	2.06	2.58	2.62	2.20	3.24	3.69	3.86	4.41	4.33	4.07	4.31	4.62	5.21	5.63	5.24	4.88	5.01	4.96	4.31	4.31	3.98	3.63	3.33	3.98	3.93	3.90	3.92	3.94	4.03	4.25	4.20	3.80	3.48	3.42	3.53	3.67	3.76	3.82	3.88	3.94	3.99	4.03	4.05	4.07	4.11	4.16	4.21	4.22	4.23	4.20	4.20	4.23	4.25	4.26	4.30	4.32	4.35	4.39	4.36	4.32	4.39	4.43	4.41	4.36	4.35	4.38	4.42	4.41	4.39	4.38	4.38	
3.25	3.22	3.13	3.03	2.91	2.77	2.60	2.41	2.16	1.89	1.62	1.45	1.28	1.65	3.07	8.92	10.67	9.96	10.25	11.09	12.05	7.33	5.65	5.52	4.70	4.14	3.72	3.48	3.28	3.13	2.96	2.77	2.69	2.83	3.16	3.37	3.47	4.05	7.40	3.77	3.59	3.57	3.75	4.03	4.31	4.59	6.92	8.72	5.72	8.15	7.51	9.22	10.21	7.98	7.80	6.47	4.63	4.39	7.21	6.38	5.38	1.68	5.29	5.67	6.23	6.37	5.99	5.76	6.09	0.75	4.40	2.30	3.11	5.11	3.64	3.41	5.85	6.08	6.56	3.03	3.22	3.72	3.83	4.08	7.62	7.89	7.86	7.32	7.58	8.02	8.33	8.34	8.43	5.46	6.01	6.14	6.12	6.42	0.88	6.05	6.09	6.69	4.37	2.75	2.52	2.23	2.24	2.62	2.83	2.73	3.01	3.58	3.83	3.40	3.70	4.00	3.85	3.89	4.23	4.81	5.17	4.95	4.62	4.61	3.90	3.86	3.99	4.03	3.71	3.28	4.05	3.96	3.92	3.93	3.93	3.93	4.18	4.41	4.14	3.61	3.45	3.59	3.73	3.80	3.85	3.90	3.95	4.01	4.04	4.04	4.05	4.10	4.16	4.20	4.21	4.23	4.23	4.23	4.23	4.25	4.26	4.28	4.29	4.34	4.40	4.36	4.31	4.35	4.41	4.40	4.38	4.37	4.37	4.41	4.44	4.41	4.38	4.38	
3.31	3.28	3.18	3.08	2.98	2.86	2.68	2.49	2.25	1.99	1.71	1.51	1.45	1.93	1.86	8.55	10.68	9.63	10.00	6.35	11.83	6.27	6.29	6.14	5.06	4.46	3.88	3.59	3.29	3.05	2.83	2.67	2.59	2.66	2.93	3.20	3.40	4.40	4.21	3.70	3.48	3.49	4.11	3.98	4.19	7.93	7.39	6.38	5.73	7.89	7.43	8.68	9.28	9.77	10.29	7.29	4.21	4.28	5.98	6.74	7.69	9.13	4.59	4.75	5.59	8.87	9.62	9.28	6.24	4.31	3.56	2.91	2.97	3.53	3.96	3.30	3.65	6.23	6.22	2.85	3.05	6.17	3.34	3.76	7.47	4.10	4.14	8.01	7.66	7.75	8.33	4.83	8.65	9.18	9.81	5.72	6.05	0.83	6.23	6.01	5.92	6.41	3.99	2.78	2.62	2.57	3.15	3.54	3.37	3.47	3.59	3.48	3.72	3.43	3.43	3.61	3.70	3.75	3.92	4.35	4.83	4.90	4.45	4.22	3.71	3.49	3.40	3.48	3.65	3.42	4.16	3.98	3.94	3.90	3.85	3.74	3.95	4.39	4.47	4.15	3.77	3.69	3.79	3.84	3.89	3.93	3.97	4.03	4.08	4.05	4.05	4.10	4.14	4.17	4.20	4.22	4.24	4.26	4.26	4.25	4.26	4.27	4.30	4.34	4.36	4.35	4.34	4.34	4.37	4.37	4.37	4.40	4.41	4.41	4.45	4.47	4.44	4.44	
3.35	3.32	3.24	3.13	3.03	2.91	2.74	2.56	2.33	2.08	1.79	1.55	1.59	2.34	1.94	8.49	6.96	9.16	5.16	10.15	6.81	11.24	6.80	5.32	5.63	4.78	4.11	3.37	3.25	3.00	2.72	2.49	2.41	2.49	2.75	3.06	3.35	4.85	3.91	3.64	3.31	3.30	3.60	3.94	7.89	7.59	4.39	4.44	5.44	4.98	7.28	8.31	8.69	9.05	10.82	7.81	4.19	3.33	5.15	6.48	6.67	4.78	4.93	5.15	5.31	5.51	9.28	8.96	8.20	5.96	4.18	3.43	3.79	3.25	3.89	3.52	3.67	3.99	3.68	3.16	5.07	4.93	5.86	3.25	7.17	3.68	3.93	7.86	7.23	7.60	4.25	4.40	9.23	5.88	5.05	6.61	5.99	6.36	6.38	6.27	6.11	6.47	2.31	2.95	2.96	3.19	3.56	3.72	3.51	3.34	3.39	3.34	3.64	3.70	3.72	3.68	3.61	3.73	3.78	3.73	4.02	4.50	4.70	4.08	3.97	3.77	3.58	3.42	3.48	3.53	3.16	4.04	3.96	3.93	3.83	3.55	3.63	4.08	4.34	4.29	4.02	3.84	3.83	3.88	3.92	3.96	3.99	4.05	4.11	4.09	4.08	4.12	4.14	4.16	4.20	4.23	4.23	4.28	4.30	4.28	4.26	4.26	4.32	4.38	4.33	4.33	4.38	4.37	4.36	4.35	4.35	4.38	4.43	4.41	4.44	4.51	4.52	4.52	
3.38	3.36	3.28	3.18	3.08	2.97	2.80	2.62	2.40	2.16	1.85	1.59	1.55	2.50	2.50	8.53	7.22	7.84	4.60	9.08	6.12	11.17	9.62	6.14	4.49	5.12	4.25	3.36	3.19	2.92	2.62	2.31	2.24	2.33	2.58	2.91	3.25	5.16	3.99	3.78	3.38	3.24	5.13	5.03	4.68	4.19	4.35	4.40	5.33	7.56	7.21	8.19	8.53	8.95	10.84	7.45	6.79	5.40	4.80	4.38	3.83	7.28	8.06	5.00	5.56	5.96	6.10	9.25	7.81	5.99	4.66	3.86	4.07	4.60	4.33	3.96	3.81	3.98	3.97	3.83	3.91	3.63	3.08	5.72	6.40	3.04	3.53	7.33	7.60	8.49	4.34	4.71	5.06	6.37	5.26	5.67	6.14	6.46	6.72	6.84	6.68	4.56	2.71	3.33	3.41	3.54	3.33	3.03	2.85	2.71	2.84	3.08	3.32	3.55	3.98	4.00	3.63	3.75	3.97	3.64	3.50	3.98	4.56	3.91	4.08	4.02	3.99	3.80	3.60	3.64	3.41	4.17	4.03	3.96	3.86	3.49	3.38	3.71	3.96	4.03	4.00	3.93	3.88	3.90	3.95	3.97	4.00	4.04	4.10	4.11	4.09	4.11	4.15	4.17	4.21	4.24	4.22	4.25	4.30	4.29	4.27	4.25	4.33	4.40	4.32	4.31	4.38	4.37	4.34	4.32	4.31	4.34	4.37	4.37	4.42	4.50	4.53	4.53	
3.42	3.39	3.32	3.24	3.14	3.03	2.88	2.70	2.48	2.24	1.93	1.61	1.45	1.92	1.96	8.36	7.75	5.78	8.31	8.64	9.51	10.70	10.80	6.73	5.03	3.75	4.45	3.48	3.26	2.90	2.60	2.26	2.03	1.99	2.27	2.71	5.01	5.31	3.90	3.91	3.62	3.48	3.50	3.55	3.74	4.11	4.32	5.62	5.20	7.65	7.24	8.35	8.83	9.54	11.13	7.36	7.10	6.36	5.61	5.07	4.51	3.97	7.02	3.64	4.01	6.31	6.49	9.75	8.99	6.10	4.65	5.11	4.45	4.88	4.66	4.32	3.99	3.96	4.13	4.21	4.25	4.11	3.75	3.46	3.14	5.69	5.94	6.54	3.88	4.03	4.22	4.60	5.02	5.15	5.19	5.59	6.15	6.44	6.69	7.12	5.31	2.51	3.73	3.70	3.57	3.54	3.15	2.70	2.70	2.82	2.75	3.04	3.43	3.54	3.96	4.16	3.51	3.24	3.46	3.55	3.54	4.00	3.65	3.95	4.21	4.17	4.10	3.98	3.71	3.64	4.31	4.20	4.10	3.98	3.80	3.46	3.31	3.53	3.78	3.88	3.93	3.95	3.91	3.91	3.96	3.99	4.00	4.04	4.09	4.12	4.10	4.09	4.12	4.16	4.21	4.25	4.23	4.23	4.28	4.28	4.26	4.24	4.32	4.40	4.31	4.30	4.37	4.37	4.35	4.32	4.30	4.32	4.32	4.33	4.43	4.49	4.47	4.47	
3.47	3.43	3.35	3.28	3.19	3.07	2.94	2.77	2.57	2.32	2.03	1.67	1.38	1.04	1.09	4.52	10.88	6.75	8.53	4.98	9.62	10.45	11.18	6.94	5.12	3.82	4.49	3.57	3.49	3.01	2.66	2.35	1.95	6.30	2.00	2.63	3.05	5.61	3.61	3.76	3.68	3.69	3.71	3.63	3.69	4.00	4.23	5.66	7.63	8.01	8.34	8.83	9.57	10.25	11.19	6.50	7.01	8.27	5.96	5.75	5.52	4.82	4.08	7.37	3.60	4.04	4.44	9.72	9.63	8.24	4.68	6.39	5.90	5.29	4.89	4.58	4.18	4.00	4.13	4.23	4.13	4.34	4.13	3.85	3.66	3.44	3.29	5.88	7.40	3.40	3.76	4.16	4.63	4.95	5.07	5.37	5.89	6.32	6.44	6.90	2.42	4.81	4.58	4.03	3.60	3.18	2.66	2.33	2.49	2.95	2.83	2.59	2.86	2.95	3.25	3.85	3.61	3.28	2.93	2.91	3.09	2.91	3.44	3.39	3.65	4.03	4.39	4.21	4.03	3.96	4.29	4.15	4.10	4.00	3.72	3.47	3.39	3.53	3.72	3.79	3.86	3.92	3.91	3.90	3.95	4.00	4.01	4.03	4.08	4.14	4.15	4.11	4.12	4.16	4.20	4.26	4.25	4.26	4.30	4.31	4.27	4.24	4.33	4.40	4.31	4.29	4.34	4.37	4.38	4.36	4.33	4.32	4.30	4.29	4.43	4.51	4.46	4.46	
3.51	3.47	3.39	3.33	3.25	3.13	3.00	2.83	2.64	2.40	2.13	1.76	1.39	1.06	1.37	1.75	9.60	7.19	9.13	5.19	9.57	6.07	10.97	7.49	5.07	3.66	4.56	3.73	3.83	3.28	2.85	2.60	2.26	1.97	2.05	2.64	3.24	3.45	3.55	3.58	3.57	3.69	3.84	3.88	3.93	4.13	6.06	7.55	7.95	8.41	8.87	9.35	10.00	9.87	10.73	6.10	5.71	5.64	5.88	6.00	6.84	5.43	4.54	5.92	8.41	3.78	4.46	9.57	9.47	9.83	9.48	6.81	7.26	6.49	5.51	4.98	4.55	4.22	4.13	4.15	4.09	4.23	4.33	4.02	3.93	3.68	3.40	3.21	6.58	2.74	3.12	3.68	4.21	4.58	4.84	5.18	5.62	6.09	6.12	6.56	5.43	5.25	4.53	3.77	3.20	2.74	2.57	2.46	2.22	2.15	2.05	1.82	1.78	1.68	1.49	1.81	2.54	3.12	3.25	2.91	2.91	2.74	2.94	3.25	3.30	3.63	4.27	4.26	4.31	4.21	4.23	4.08	4.02	3.97	3.68	3.48	3.45	3.53	3.67	3.73	3.80	3.89	3.91	3.91	3.93	3.98	4.00	4.02	4.06	4.11	4.16	4.16	4.16	4.17	4.20	4.24	4.25	4.27	4.34	4.36	4.30	4.26	4.34	4.39	4.33	4.32	4.34	4.34	4.36	4.36	4.35	4.33	4.31	4.27	4.39	4.50	4.49	4.49	
3.56	3.51	3.43	3.37	3.31	3.20	3.07	2.92	2.73	2.49	2.23	1.88	1.52	1.36	1.71	1.42	9.00	7.28	5.54	5.34	9.62	6.09	11.03	7.27	4.83	3.51	4.58	3.94	3.35	3.56	3.11	2.85	2.55	2.20	2.41	2.56	3.32	3.74	3.88	3.82	3.74	3.83	4.04	4.27	4.43	6.47	6.81	8.20	8.43	8.79	9.16	9.50	10.16	9.45	10.34	5.89	5.14	4.71	4.68	4.91	5.41	7.65	5.06	4.34	7.15	3.64	8.87	9.15	9.69	5.31	5.47	11.56	8.06	7.40	6.15	4.72	3.69	4.66	4.31	4.13	3.95	4.39	4.10	4.24	4.13	3.78	3.37	3.15	2.74	6.34	2.28	2.91	3.61	4.05	4.34	4.70	5.96	6.07	9.57	10.50	9.90	5.44	5.02	4.39	3.77	3.35	3.50	3.48	3.07	2.35	1.76	1.79	1.74	1.51	1.36	1.12	1.41	2.29	3.04	2.65	2.52	2.64	2.84	2.71	2.97	3.34	3.49	3.67	3.78	4.00	4.13	3.94	3.84	3.81	3.60	3.41	3.40	3.51	3.64	3.71	3.78	3.86	3.91	3.92	3.94	3.97	4.00	4.03	4.05	4.08	4.12	4.15	4.16	4.17	4.20	4.22	4.22	4.24	4.32	4.35	4.30	4.27	4.33	4.35	4.32	4.34	4.35	4.32	4.31	4.32	4.33	4.34	4.33	4.31	4.36	4.43	4.47	4.47	
3.60	3.56	3.48	3.41	3.36	3.25	3.13	2.99	2.82	2.59	2.34	2.01	1.68	1.48	1.80	1.49	8.54	7.17	9.56	5.50	9.69	10.13	11.02	7.26	4.89	3.69	4.52	3.96	3.55	3.62	3.20	2.91	2.57	2.19	6.53	2.52	3.25	3.78	4.09	4.18	4.16	4.16	4.67	7.18	8.09	8.52	8.60	8.67	8.69	8.91	9.24	9.67	10.27	10.97	9.68	5.78	4.88	4.53	4.41	4.57	5.04	7.66	5.33	4.78	4.24	8.38	8.05	8.98	4.46	5.36	10.27	10.16	10.67	9.41	6.30	4.91	4.33	3.57	4.64	4.25	3.86	4.44	4.23	3.71	4.33	4.06	3.61	3.25	2.80	2.17	6.55	2.10	2.85	3.40	3.71	4.00	5.63	8.59	9.39	10.03	11.74	8.90	7.36	5.83	5.58	5.07	4.86	4.77	4.20	3.34	2.43	2.27	2.18	2.01	1.98	1.87	2.02	2.24	2.68	2.48	2.21	2.35	2.62	2.85	2.86	3.10	3.24	3.24	3.52	3.86	4.15	3.92	3.63	3.54	3.45	3.34	3.35	3.48	3.62	3.69	3.75	3.83	3.89	3.92	3.95	3.98	4.01	4.04	4.06	4.07	4.09	4.13	4.14	4.15	4.18	4.21	4.20	4.21	4.28	4.32	4.27	4.29	4.35	4.30	4.27	4.32	4.37	4.36	4.32	4.30	4.31	4.32	4.32	4.35	4.38	4.39	4.39	4.39	
3.63	3.60	3.53	3.46	3.40	3.31	3.18	3.05	2.90	2.68	2.45	2.14	1.82	1.54	1.75	1.49	8.10	10.24	9.49	9.21	9.71	10.22	10.66	7.43	5.33	4.06	3.49	3.72	3.36	3.05	3.10	2.84	2.52	2.20	2.97	2.57	3.09	3.55	3.86	4.04	5.76	5.54	7.69	8.27	8.32	8.45	8.50	8.62	8.74	8.97	9.33	9.93	10.55	11.40	6.69	5.69	4.72	4.45	4.25	4.33	4.69	5.08	7.10	4.78	5.96	7.35	8.09	3.97	4.32	4.63	9.78	9.57	9.88	9.84	8.06	5.84	4.50	3.90	3.28	4.61	3.99	3.72	4.11	3.82	3.70	4.22	3.87	3.58	3.11	2.47	1.93	1.84	2.26	2.86	3.26	3.54	5.63	7.81	8.68	9.60	10.95	10.00	10.44	10.66	8.63	7.09	6.13	5.89	5.32	4.19	3.33	3.08	2.90	2.58	2.51	2.59	2.51	2.14	2.20	2.61	2.44	2.51	2.28	2.44	2.53	2.78	2.99	3.44	3.33	3.65	4.11	4.02	3.56	3.31	3.26	3.28	3.33	3.43	3.55	3.66	3.72	3.80	3.87	3.91	3.95	3.98	4.01	4.04	4.06	4.08	4.10	4.14	4.15	4.15	4.18	4.20	4.21	4.25	4.31	4.31	4.24	4.30	4.41	4.34	4.27	4.31	4.35	4.37	4.36	4.35	4.32	4.31	4.30	4.36	4.43	4.40	4.36	4.36	
3.65	3.63	3.58	3.50	3.44	3.36	3.25	3.12	2.97	2.76	2.53	2.25	1.93	1.62	1.57	1.43	7.78	10.89	9.63	9.48	9.95	10.38	9.99	7.18	6.12	4.41	3.58	3.52	3.12	2.86	2.95	2.69	2.37	2.06	2.17	2.40	2.78	3.20	3.49	6.04	5.99	5.73	7.85	7.99	8.05	7.98	8.13	8.47	8.81	9.10	9.49	10.02	10.43	11.64	5.70	4.47	4.47	5.15	4.14	4.04	4.15	4.36	4.45	6.31	6.79	7.22	8.05	3.65	3.99	4.54	9.71	9.63	9.66	9.73	8.95	7.36	5.24	4.30	3.75	3.59	4.32	3.83	4.35	4.41	3.64	4.29	3.96	3.80	3.45	2.77	2.01	5.56	1.67	2.27	2.84	3.27	5.90	6.18	6.39	9.19	9.75	9.32	9.27	9.67	9.95	9.17	7.56	6.43	5.68	4.93	4.68	4.36	3.74	3.28	3.20	3.22	2.96	2.44	1.88	1.92	2.38	2.78	2.34	2.07	2.16	2.28	2.42	3.44	3.26	3.43	3.88	3.95	3.56	3.16	3.00	3.08	3.25	3.39	3.50	3.62	3.70	3.78	3.86	3.90	3.94	3.98	4.01	4.03	4.06	4.09	4.12	4.15	4.16	4.17	4.19	4.19	4.21	4.28	4.36	4.33	4.23	4.26	4.42	4.41	4.30	4.30	4.34	4.34	4.36	4.38	4.36	4.31	4.29	4.33	4.43	4.43	4.39	4.39	
3.66	3.66	3.62	3.55	3.47	3.40	3.30	3.18	3.03	2.85	2.62	2.35	2.02	1.69	1.45	1.40	5.85	10.08	9.86	9.85	10.32	10.70	6.99	6.74	5.32	4.06	3.17	3.15	2.62	3.26	2.90	2.58	2.09	1.75	1.88	2.12	2.47	2.92	3.20	6.20	6.21	7.19	7.30	7.51	7.36	7.61	8.33	8.80	8.86	9.01	9.33	9.70	10.00	11.66	6.09	6.40	3.99	4.40	4.74	3.96	3.86	3.97	4.10	6.25	6.94	6.96	7.33	8.25	3.37	9.07	9.19	9.37	9.49	9.73	9.69	8.62	6.94	5.01	4.20	3.64	4.47	4.79	4.66	3.75	3.74	3.43	4.07	3.89	3.67	3.15	2.42	1.65	6.34	1.74	2.45	3.01	5.99	6.32	6.59	9.56	9.31	9.19	8.91	8.78	9.31	9.61	8.23	6.63	5.54	5.35	5.60	5.44	4.41	3.88	3.68	3.46	3.18	2.77	2.31	2.33	2.62	2.96	2.54	2.31	2.34	2.22	2.08	3.60	3.41	3.49	3.77	3.85	3.59	3.15	2.79	2.81	3.07	3.32	3.48	3.59	3.67	3.75	3.83	3.89	3.94	3.97	4.00	4.02	4.04	4.08	4.13	4.15	4.15	4.17	4.18	4.16	4.17	4.26	4.37	4.34	4.23	4.21	4.36	4.45	4.32	4.30	4.36	4.34	4.34	4.38	4.40	4.35	4.30	4.30	4.38	4.42	4.41	4.41	
3.68	3.68	3.65	3.59	3.51	3.43	3.34	3.25	3.15	2.96	2.72	2.45	2.13	1.76	1.48	1.60	5.03	9.00	10.03	10.25	10.55	10.70	7.61	4.33	3.37	2.66	3.88	2.99	2.34	3.40	3.05	2.71	2.09	1.61	1.67	1.88	2.19	2.60	2.96	6.44	6.52	7.04	6.58	6.07	5.18	7.14	4.36	4.32	8.72	8.75	8.99	9.38	9.91	11.53	7.79	7.29	5.67	4.52	4.45	4.52	3.73	3.80	3.86	6.00	4.76	6.63	6.94	8.00	3.27	8.96	9.00	9.09	9.42	9.83	10.09	9.64	8.08	6.27	4.61	5.50	4.99	4.56	4.26	3.92	3.70	3.45	4.27	4.06	3.76	3.38	2.95	2.32	1.73	1.65	2.16	2.93	3.24	3.63	6.87	8.93	8.90	9.29	9.20	8.91	9.36	9.54	8.18	6.91	6.02	5.72	5.89	5.92	4.61	4.14	3.61	3.12	3.06	2.92	2.85	2.94	2.80	3.01	2.71	2.50	2.33	3.92	3.99	3.88	3.67	3.69	3.92	4.01	3.80	3.36	2.79	2.64	2.90	3.21	3.44	3.57	3.66	3.72	3.80	3.87	3.94	3.99	4.03	4.03	4.03	4.05	4.10	4.12	4.14	4.17	4.19	4.16	4.13	4.23	4.34	4.32	4.24	4.19	4.30	4.43	4.33	4.28	4.37	4.35	4.32	4.36	4.41	4.40	4.35	4.32	4.34	4.40	4.41	4.41	
3.72	3.71	3.68	3.63	3.55	3.47	3.35	3.25	3.17	2.99	2.75	2.52	2.22	1.88	1.52	1.70	3.14	6.65	9.77	10.10	10.70	10.65	7.99	8.17	7.03	5.32	4.06	3.01	2.56	3.63	3.28	2.99	2.49	1.88	1.66	1.72	1.88	2.25	3.02	6.44	7.01	3.79	3.75	3.41	5.43	6.91	7.53	8.03	8.28	8.37	8.59	9.15	9.92	11.21	10.81	6.15	6.92	5.55	4.05	3.56	3.29	5.57	3.63	4.57	6.27	4.65	6.77	7.60	3.20	4.19	4.56	9.63	9.98	7.67	10.27	9.93	8.78	7.22	5.38	4.36	3.30	4.96	4.40	3.93	3.52	3.26	3.07	4.28	3.90	3.34	3.01	2.55	1.79	6.12	1.77	2.56	3.43	3.69	8.56	8.52	8.48	8.93	8.88	9.01	9.78	9.78	8.38	7.65	6.79	6.17	6.09	6.13	5.09	4.63	3.81	3.36	3.61	3.59	3.30	2.89	2.36	2.08	2.93	2.60	4.00	4.04	2.48	2.48	3.98	3.80	3.97	4.20	4.13	3.79	3.13	2.70	2.83	3.16	3.42	3.59	3.68	3.74	3.79	3.85	3.91	3.99	4.06	4.07	4.06	4.06	4.08	4.10	4.13	4.16	4.21	4.20	4.16	4.22	4.31	4.30	4.26	4.21	4.27	4.41	4.33	4.26	4.36	4.38	4.34	4.34	4.39	4.41	4.38	4.37	4.37	4.37	4.37	4.37	
3.76	3.74	3.71	3.67	3.60	3.52	3.38	3.25	5.80	2.99	2.81	2.60	2.29	1.97	1.63	1.63	1.96	6.21	7.38	9.59	10.42	10.79	10.80	8.55	5.36	3.30	2.40	3.38	2.66	2.36	3.46	3.18	2.75	2.17	1.75	1.73	1.79	2.12	3.53	3.88	3.98	4.01	4.10	4.00	3.61	5.32	7.17	7.35	7.64	7.88	8.27	9.08	10.05	10.97	11.25	9.58	7.90	7.10	5.66	4.65	4.24	4.07	3.75	3.66	3.58	3.41	6.03	7.00	7.90	3.63	4.58	9.94	4.76	10.17	10.13	9.78	9.23	7.51	5.84	5.71	4.48	5.57	5.01	4.52	4.02	3.30	4.36	2.93	2.84	3.41	2.95	2.39	1.79	5.37	1.53	2.19	3.45	6.96	8.15	8.34	8.66	8.66	8.53	9.23	10.13	9.87	8.93	8.63	7.97	6.86	6.60	7.78	6.35	5.35	4.79	4.53	4.66	4.55	4.00	3.34	2.77	2.66	3.47	3.11	4.26	2.56	2.54	2.62	2.58	3.99	3.85	4.10	4.31	4.22	3.67	2.99	2.90	3.16	3.43	3.59	3.70	3.78	3.81	3.85	3.89	3.96	4.03	4.07	4.08	4.09	4.09	4.09	4.10	4.12	4.18	4.20	4.19	4.23	4.27	4.25	4.24	4.22	4.26	4.37	4.34	4.26	4.31	4.39	4.38	4.34	4.37	4.40	4.37	4.36	4.40	4.40	4.37	4.37	
3.78	3.77	3.74	3.69	3.64	3.55	3.45	3.38	3.25	3.07	2.87	2.66	2.38	2.06	1.77	1.63	1.75	5.97	7.39	9.14	9.78	10.37	11.16	8.55	4.86	3.82	2.79	2.53	3.09	2.47	3.72	3.37	2.95	2.41	1.93	1.83	1.82	2.14	2.67	3.17	3.86	3.97	4.27	4.50	4.33	3.86	3.49	6.61	7.06	7.67	8.31	9.37	10.18	10.16	10.62	11.69	12.19	8.13	7.63	6.12	5.11	4.63	4.21	3.91	3.67	3.53	3.45	3.05	7.49	7.95	3.80	9.46	9.79	9.99	10.05	10.18	10.09	7.44	5.50	4.21	6.14	3.73	5.84	5.51	4.93	4.08	3.41	3.19	3.22	3.65	3.09	2.50	2.11	1.61	1.55	1.87	3.51	7.67	8.13	8.40	8.47	8.42	8.42	9.14	9.86	9.90	9.54	9.43	8.63	7.51	7.40	8.60	7.74	6.31	6.14	6.13	5.72	5.27	4.61	4.20	3.90	3.53	4.07	3.96	3.43	2.99	2.68	2.65	2.73	2.67	3.90	3.88	4.19	4.41	4.09	3.36	3.05	3.19	3.42	3.58	3.69	3.79	3.84	3.87	3.90	3.94	4.01	4.06	4.08	4.11	4.11	4.09	4.09	4.11	4.15	4.19	4.22	4.27	4.28	4.22	4.20	4.21	4.23	4.31	4.32	4.27	4.27	4.33	4.36	4.34	4.34	4.38	4.39	4.35	4.38	4.45	4.47	4.47	
3.81	3.80	3.76	3.73	3.67	3.59	3.52	3.44	3.30	4.05	2.89	2.71	2.45	2.15	1.84	1.66	1.76	5.83	7.31	8.73	9.17	9.97	11.04	12.39	5.58	4.45	3.47	3.31	3.15	3.12	2.98	3.62	3.20	2.65	2.26	1.94	1.85	2.06	2.57	3.04	3.71	3.89	6.21	6.21	5.66	4.51	3.99	6.36	7.14	7.84	8.77	9.47	9.05	9.33	10.05	10.85	11.95	12.85	8.24	8.12	7.27	6.17	5.24	4.60	4.14	3.87	3.64	3.50	6.94	7.87	3.15	9.19	5.35	5.46	10.48	8.80	10.77	8.49	6.37	5.35	6.90	5.29	4.71	4.25	3.85	4.93	4.23	3.95	3.55	3.20	3.32	2.71	2.36	1.67	5.83	1.61	2.47	4.44	8.33	8.69	8.46	8.03	7.81	8.20	8.74	9.08	9.32	9.72	9.28	8.02	7.93	8.99	8.38	7.06	6.92	6.79	6.62	5.80	4.95	4.46	4.50	4.53	3.44	4.22	3.90	3.43	2.96	2.65	2.80	3.00	4.06	3.79	3.95	4.31	4.28	3.73	3.26	3.27	3.46	3.60	3.70	3.78	3.84	3.88	3.90	3.93	4.00	4.04	4.07	4.12	4.14	4.12	4.11	4.11	4.14	4.17	4.22	4.32	4.35	4.26	4.21	4.23	4.23	4.26	4.30	4.29	4.27	4.30	4.34	4.35	4.35	4.38	4.40	4.38	4.34	4.40	4.47	4.47	
3.85	3.83	3.79	3.75	3.72	3.64	3.56	3.46	3.35	3.21	2.99	2.78	2.52	2.22	1.87	1.63	1.65	5.70	7.20	6.60	8.63	9.56	10.84	11.73	6.26	5.00	4.20	3.98	4.13	4.32	3.80	3.58	3.25	2.87	2.48	2.12	2.05	2.18	2.54	2.96	3.64	3.85	6.12	6.02	5.97	5.59	5.02	6.55	7.18	8.21	9.26	8.16	7.97	8.64	9.36	10.05	10.90	11.83	12.20	11.99	7.21	7.21	5.95	5.73	4.98	4.40	3.82	3.64	3.44	7.81	7.97	8.47	4.17	5.04	5.82	5.54	10.71	9.90	8.75	7.88	8.90	8.76	7.29	6.98	5.76	5.09	4.67	4.28	4.14	3.61	3.89	3.10	2.74	1.90	4.93	1.33	1.87	6.51	7.47	8.34	8.20	7.93	7.35	7.50	7.84	8.29	8.72	9.17	9.23	8.34	8.63	9.36	8.34	7.57	7.42	6.98	6.55	6.42	5.62	4.84	4.67	4.90	4.59	2.39	4.40	3.84	3.17	2.75	2.99	3.25	4.14	3.81	3.81	4.07	4.19	3.92	3.50	3.41	3.53	3.65	3.73	3.78	3.83	3.88	3.91	3.92	3.96	4.00	4.04	4.10	4.14	4.15	4.15	4.15	4.14	4.13	4.18	4.30	4.39	4.31	4.24	4.27	4.28	4.26	4.27	4.29	4.28	4.31	4.34	4.36	4.37	4.38	4.37	4.37	4.35	4.36	4.40	4.40	
3.87	3.86	3.83	3.78	3.74	3.68	3.59	3.51	3.41	3.27	3.08	2.86	2.60	2.30	1.91	1.56	1.56	3.89	7.19	6.65	8.27	9.16	10.58	11.48	6.26	4.81	3.85	3.46	3.42	3.79	3.90	3.91	2.81	2.64	2.26	2.12	2.29	2.47	2.75	3.51	3.65	3.88	6.06	6.10	7.69	7.61	5.34	6.55	7.45	9.23	8.33	7.24	7.91	8.58	8.97	9.43	10.19	10.86	10.93	11.12	11.23	10.31	7.71	6.14	5.70	4.91	4.18	3.77	6.36	7.93	8.10	8.13	8.48	4.06	5.50	10.32	10.11	9.67	9.71	9.01	9.20	9.53	9.12	8.35	7.68	7.46	7.40	6.13	5.64	4.91	3.98	3.93	3.15	2.62	1.80	5.28	5.16	5.68	6.60	7.49	8.23	8.05	7.31	7.08	7.62	8.29	8.64	8.86	8.98	8.54	8.71	9.07	7.99	7.62	7.87	7.39	6.97	6.98	6.62	6.15	5.64	4.78	5.73	6.17	3.01	4.57	3.77	3.24	3.33	3.46	4.19	3.89	3.79	3.86	3.97	3.92	3.65	3.54	3.60	3.69	3.76	3.80	3.85	3.90	3.93	3.94	3.96	3.98	4.02	4.06	4.11	4.13	4.15	4.18	4.16	4.12	4.12	4.23	4.36	4.30	4.23	4.28	4.30	4.26	4.26	4.28	4.29	4.29	4.32	4.32	4.33	4.35	4.35	4.36	4.38	4.37	4.37	4.37	
3.89	3.88	3.86	3.81	3.77	3.72	3.63	3.53	3.42	3.29	3.12	2.92	2.66	2.38	1.99	1.56	1.60	3.70	4.53	6.60	6.40	8.92	10.69	11.41	6.48	4.94	3.88	3.35	2.87	2.56	2.91	3.09	2.24	2.16	1.74	1.76	2.13	2.45	2.72	3.59	3.58	6.06	6.30	8.02	8.72	8.94	8.88	8.89	9.62	9.14	7.34	6.97	7.73	8.34	8.66	9.13	9.80	10.18	10.13	10.22	10.63	10.48	8.71	7.03	5.98	5.17	4.41	3.91	3.70	8.57	8.74	8.61	3.27	8.58	8.94	9.57	9.45	8.78	9.10	9.00	9.22	9.64	9.57	8.77	7.90	7.72	7.60	6.55	6.26	6.62	6.00	5.45	4.70	3.22	2.46	1.72	5.42	5.51	2.63	7.13	7.96	7.86	7.24	6.93	7.36	7.79	8.03	8.27	8.60	9.11	9.12	8.58	7.45	7.23	7.79	7.54	7.28	7.33	7.02	6.29	5.66	5.43	5.64	6.17	3.68	5.32	4.63	4.02	3.73	3.59	4.22	4.01	3.85	3.70	3.69	3.74	3.65	3.58	3.61	3.69	3.76	3.81	3.86	3.90	3.92	3.95	3.96	4.00	4.03	4.04	4.07	4.09	4.12	4.16	4.13	4.11	4.11	4.17	4.31	4.29	4.19	4.21	4.26	4.25	4.26	4.28	4.29	4.28	4.30	4.33	4.30	4.30	4.33	4.36	4.38	4.37	4.37	4.37	
3.92	3.91	3.88	3.84	3.79	3.75	3.67	3.56	3.45	3.33	3.17	2.98	2.75	2.46	2.10	1.68	1.74	3.46	4.34	6.59	6.39	8.99	10.65	11.95	5.76	4.47	3.74	3.44	3.03	2.57	2.36	2.45	1.84	1.82	1.52	1.57	1.89	2.14	2.33	3.44	3.41	6.31	6.35	7.74	8.33	8.69	8.91	9.66	9.35	8.28	7.25	6.63	7.55	8.15	8.24	8.90	8.93	9.19	9.27	9.53	10.63	11.10	9.40	7.35	6.39	5.44	4.72	4.07	3.65	8.24	8.49	8.52	8.61	8.76	3.89	9.52	9.24	7.96	8.00	7.83	8.24	8.88	9.05	8.65	7.69	7.35	7.39	6.59	5.99	6.02	5.44	5.06	4.64	4.42	4.31	2.27	4.75	4.97	2.19	6.59	7.60	7.60	7.09	6.85	6.94	7.08	7.18	7.40	7.78	8.52	8.96	8.64	8.05	7.60	7.64	7.65	7.63	7.66	7.25	5.84	5.82	5.50	6.46	8.92	6.97	6.26	5.65	4.87	4.27	3.78	4.38	4.19	3.96	3.65	3.44	3.47	3.55	3.59	3.62	3.68	3.74	3.79	3.85	3.90	3.93	3.94	3.95	3.98	4.03	4.04	4.06	4.07	4.09	4.15	4.12	4.10	4.11	4.14	4.26	4.31	4.22	4.17	4.20	4.22	4.24	4.26	4.28	4.28	4.30	4.36	4.35	4.31	4.31	4.35	4.36	4.37	4.37	4.37	
3.95	3.93	3.90	3.87	3.83	3.78	3.70	3.59	3.49	3.37	3.22	3.03	2.82	2.54	2.20	1.83	1.87	3.28	4.16	6.53	6.49	8.99	10.35	12.46	5.24	4.09	2.98	2.73	2.76	2.35	1.88	2.76	2.09	2.16	1.85	1.78	1.92	1.99	2.01	2.22	3.39	6.03	6.46	6.99	7.46	7.95	8.63	9.43	8.58	8.13	7.72	6.61	7.84	8.30	8.21	8.54	7.74	8.10	8.32	8.53	9.82	11.42	10.15	7.99	6.90	5.74	5.17	4.40	3.73	7.40	7.82	8.08	8.52	8.76	8.99	9.32	8.87	7.68	7.21	7.18	7.75	8.44	8.94	8.72	7.43	6.66	6.80	6.85	6.21	5.54	4.91	4.57	4.28	4.26	4.51	4.22	4.01	4.96	1.83	2.76	6.86	6.63	6.85	6.61	6.69	6.87	6.95	7.12	7.43	7.71	7.90	8.05	8.28	8.11	7.63	7.80	8.35	8.71	8.65	7.31	5.88	5.22	6.03	6.21	6.18	6.66	6.73	5.82	5.00	4.22	4.74	4.53	4.21	3.75	3.40	3.32	3.46	3.59	3.65	3.70	3.75	3.78	3.84	3.89	3.94	3.96	3.94	3.96	4.01	4.03	4.07	4.09	4.10	4.16	4.18	4.14	4.12	4.15	4.24	4.32	4.29	4.20	4.18	4.21	4.21	4.24	4.28	4.29	4.30	4.36	4.39	4.36	4.33	4.35	4.36	4.36	4.37	4.37	
3.98	3.96	3.92	3.89	3.86	3.81	3.73	3.62	3.53	3.41	3.27	3.08	2.87	2.62	2.29	1.94	1.99	2.98	4.05	6.57	6.63	8.82	9.87	12.15	5.39	4.48	2.85	2.31	2.68	2.47	2.15	3.48	2.84	2.31	2.21	1.93	1.89	1.93	1.86	1.91	3.40	3.47	6.25	6.94	7.27	7.65	8.58	9.00	8.00	7.99	8.05	6.95	7.96	8.07	8.05	8.01	7.30	7.74	7.94	8.54	9.20	11.02	10.40	8.80	7.19	5.93	5.46	4.84	4.26	3.89	7.81	8.19	8.48	8.67	8.74	9.04	8.45	7.51	6.94	6.77	7.27	8.19	9.31	9.16	7.07	6.04	5.81	6.38	6.28	5.28	4.68	4.54	4.30	4.20	4.32	4.21	3.66	4.66	5.25	5.79	6.43	6.57	6.59	6.26	6.39	6.58	6.80	6.93	7.03	7.09	7.15	7.21	7.51	7.40	6.83	6.81	7.56	8.05	8.34	8.22	6.34	5.76	5.77	5.84	5.96	6.51	6.96	6.41	5.58	5.63	5.14	4.88	4.54	4.02	3.51	3.33	3.42	3.55	3.63	3.70	3.75	3.78	3.81	3.83	3.90	3.96	3.95	3.96	3.99	4.01	4.06	4.10	4.10	4.15	4.21	4.18	4.14	4.15	4.23	4.31	4.29	4.23	4.21	4.23	4.22	4.24	4.27	4.28	4.29	4.34	4.39	4.39	4.35	4.36	4.38	4.37	4.36	4.36	
4.02	3.99	3.93	3.90	3.89	3.84	3.76	3.66	3.57	3.45	3.31	3.14	2.93	2.67	2.36	1.99	1.97	2.76	3.99	6.66	6.62	8.68	9.48	11.56	5.74	4.99	3.30	2.40	2.32	2.91	3.24	3.33	3.29	2.66	2.29	1.77	1.56	1.61	1.61	1.62	3.57	3.76	3.75	6.54	6.95	7.76	8.51	8.73	7.77	7.95	8.07	6.87	7.72	7.78	7.75	7.82	7.07	7.35	7.80	8.52	8.11	10.77	10.40	8.59	6.53	5.96	5.59	5.13	4.64	4.44	7.43	8.43	8.59	3.91	9.11	9.22	8.11	7.31	6.36	5.79	6.46	7.51	8.88	9.45	8.01	6.92	5.67	5.63	5.97	5.56	4.87	4.38	4.22	3.87	3.93	4.21	4.04	4.21	4.93	5.27	3.39	6.69	6.48	6.03	6.01	6.25	6.57	6.47	6.36	6.42	6.66	6.71	6.79	6.81	5.44	5.17	5.30	5.57	5.89	6.18	6.16	5.80	5.54	5.50	5.73	6.24	6.62	6.75	6.18	6.01	5.53	5.18	4.83	4.31	3.69	3.42	3.45	3.53	3.60	3.68	3.73	3.78	3.82	3.81	3.84	3.92	3.94	3.97	3.99	4.01	4.05	4.07	4.07	4.12	4.20	4.19	4.16	4.17	4.22	4.28	4.27	4.21	4.23	4.25	4.23	4.25	4.29	4.27	4.27	4.31	4.37	4.38	4.35	4.36	4.37	4.37	4.36	4.36	
4.07	4.02	3.94	3.92	3.92	3.88	3.79	3.70	3.60	3.49	3.35	3.18	2.98	2.72	2.41	2.03	1.86	2.23	3.96	6.69	6.62	8.59	9.27	10.96	8.72	5.42	4.00	3.09	3.15	3.74	3.90	3.76	3.38	2.80	2.45	1.77	1.31	4.78	1.39	1.51	1.85	3.78	3.83	6.08	7.04	7.58	7.91	7.88	7.50	7.61	7.92	7.29	7.81	7.91	7.87	7.62	6.62	6.94	7.37	7.90	6.50	10.60	10.30	9.27	6.92	6.08	5.71	5.20	4.79	6.81	8.03	9.19	4.04	4.21	7.55	8.96	8.04	7.53	6.11	5.01	5.92	7.52	4.20	9.45	8.25	7.77	6.80	6.07	5.85	5.93	5.45	4.86	4.10	4.04	3.93	4.20	4.49	3.85	2.26	2.63	2.88	4.03	6.07	6.01	6.04	6.26	6.44	6.18	4.72	4.78	5.03	5.17	5.20	5.19	5.14	5.04	5.02	5.14	5.37	5.65	5.72	5.60	4.80	4.62	4.58	4.75	5.07	5.47	5.91	6.04	5.79	5.37	4.95	4.46	3.83	3.52	3.52	3.56	3.59	3.66	3.71	3.75	3.82	3.84	3.83	3.87	3.91	3.94	3.98	4.01	4.04	4.03	4.04	4.08	4.16	4.18	4.15	4.18	4.20	4.24	4.26	4.21	4.20	4.22	4.22	4.25	4.31	4.30	4.27	4.29	4.33	4.36	4.36	4.36	4.38	4.37	4.37	4.37	
4.11	4.07	3.98	3.94	3.95	3.91	3.83	3.73	3.63	3.52	3.40	3.23	3.02	2.76	2.45	2.08	1.81	2.04	3.81	6.62	6.59	8.61	9.23	10.55	9.68	5.87	4.72	4.10	3.82	3.70	3.52	3.15	3.14	2.95	2.86	2.18	1.60	1.39	1.43	1.45	1.66	2.06	3.84	6.10	6.95	7.46	7.31	7.10	7.02	7.18	7.49	7.45	7.47	7.42	7.44	7.35	6.62	7.08	7.55	7.49	6.38	10.38	9.71	9.49	9.63	8.13	6.14	5.01	4.76	4.92	9.63	4.76	4.53	4.49	9.35	8.54	7.67	7.32	6.41	5.22	5.76	7.24	7.97	9.54	8.54	7.92	7.18	6.03	5.44	5.40	5.20	5.10	5.32	5.14	4.77	4.52	4.78	3.93	2.16	2.70	2.68	3.98	4.31	4.54	4.63	4.68	4.78	4.84	4.79	4.78	4.98	5.03	4.93	4.76	4.71	4.78	4.80	4.20	4.23	4.49	4.76	4.76	4.63	4.61	4.63	4.73	4.85	4.88	5.14	5.60	5.77	5.51	5.06	4.51	3.93	3.64	3.62	3.62	3.58	3.61	3.67	3.70	3.76	3.84	3.86	3.86	3.88	3.90	3.93	3.98	4.02	4.02	4.02	4.04	4.11	4.15	4.13	4.15	4.19	4.19	4.23	4.22	4.18	4.19	4.18	4.22	4.29	4.31	4.29	4.30	4.32	4.34	4.36	4.37	4.38	4.40	4.40	4.40	
4.13	4.10	4.02	3.96	3.97	3.95	3.86	3.77	3.67	3.55	3.44	3.28	3.07	2.81	2.49	2.08	1.75	1.87	3.64	6.54	6.59	8.77	9.43	10.35	9.73	6.95	5.89	5.46	4.96	4.45	3.91	3.37	3.18	3.15	2.88	2.65	2.07	1.64	1.48	1.38	1.37	1.79	4.04	4.32	6.68	7.05	7.04	6.91	6.86	7.07	7.25	7.18	6.78	6.73	6.88	6.80	6.46	6.97	7.46	3.72	6.67	10.05	9.13	9.12	10.09	8.63	5.94	4.74	4.27	7.88	9.07	9.25	9.32	9.49	9.08	7.85	7.14	6.95	6.54	5.13	5.14	6.72	7.03	8.64	9.08	8.21	7.45	6.27	5.62	5.17	4.60	4.41	4.75	4.78	4.56	4.78	3.61	3.46	2.93	2.47	2.45	3.25	4.33	4.49	4.53	4.68	4.76	4.78	4.80	4.83	5.02	5.04	4.94	4.79	4.49	4.39	4.32	4.17	4.04	4.18	4.47	4.50	4.29	4.33	4.54	4.72	4.84	4.71	4.66	5.01	5.40	5.49	5.29	4.75	4.12	3.78	3.75	3.74	3.62	3.55	3.60	3.65	3.69	3.77	3.85	3.86	3.87	3.91	3.91	3.94	4.00	4.02	4.02	4.03	4.09	4.16	4.13	4.11	4.15	4.17	4.20	4.22	4.20	4.19	4.18	4.19	4.24	4.29	4.30	4.31	4.32	4.35	4.38	4.35	4.36	4.42	4.46	4.46	
4.12	4.12	4.06	3.98	3.99	3.97	3.89	3.81	3.71	3.59	3.47	3.32	3.12	2.85	2.52	2.06	1.56	1.62	3.50	6.65	6.45	8.64	9.19	10.13	9.77	8.18	7.47	7.33	6.79	6.05	5.80	5.10	4.21	3.58	3.17	2.94	2.34	1.79	1.45	1.32	1.23	1.56	4.25	4.87	7.20	6.79	6.66	6.79	6.64	6.84	7.13	7.27	6.40	6.43	6.64	6.31	6.02	6.81	6.98	3.79	7.42	8.69	8.46	8.98	10.41	9.61	6.42	4.85	3.94	7.76	8.64	8.95	9.24	9.25	8.31	7.43	6.98	6.79	6.93	5.63	4.79	6.71	6.79	7.86	8.91	8.32	7.91	7.36	7.05	6.48	5.26	4.35	4.27	4.26	4.19	3.52	3.74	3.65	3.47	2.15	2.82	2.71	4.41	4.64	4.44	4.70	4.69	4.60	4.64	4.74	4.87	4.62	4.73	4.63	4.55	4.55	4.41	4.14	3.93	4.00	4.27	4.34	4.08	3.99	4.22	4.46	4.71	4.66	4.48	4.57	4.77	4.98	5.14	4.95	4.36	3.88	3.77	3.80	3.71	3.55	3.51	3.58	3.63	3.68	3.78	3.82	3.83	3.89	3.92	3.92	3.97	4.01	4.01	4.01	4.10	4.19	4.17	4.11	4.11	4.15	4.19	4.21	4.20	4.19	4.20	4.19	4.22	4.27	4.29	4.28	4.29	4.33	4.37	4.34	4.31	4.39	4.46	4.46	
4.12	4.14	4.10	4.01	4.00	4.00	3.93	3.84	3.76	3.65	3.53	3.38	3.18	2.91	2.56	2.10	1.45	1.37	3.18	3.94	6.33	6.45	8.50	9.47	9.36	8.41	7.72	7.63	7.43	7.12	6.98	6.85	5.67	4.65	3.85	3.38	2.56	1.82	1.25	1.09	1.08	1.39	2.04	5.07	5.98	6.27	6.08	6.35	6.50	6.79	7.11	7.40	6.08	5.66	6.06	6.18	6.03	6.93	2.75	4.22	7.77	7.45	7.51	8.44	9.74	10.38	7.13	5.43	4.37	8.45	4.40	4.82	5.36	8.67	7.28	6.65	6.34	6.06	6.37	6.14	4.92	6.03	6.47	7.55	8.60	8.10	7.81	7.52	7.39	6.94	5.86	4.79	4.39	4.49	3.66	3.69	3.80	3.84	3.42	3.46	2.53	2.22	2.97	4.86	4.21	4.75	4.80	4.41	4.39	4.39	4.41	4.50	4.60	4.58	4.63	4.74	4.54	4.06	3.80	3.92	4.18	4.23	4.04	3.94	4.03	4.15	4.30	4.40	4.36	4.33	4.25	4.23	4.45	4.54	4.26	3.89	3.70	3.71	3.72	3.61	3.50	3.51	3.55	3.61	3.71	3.77	3.78	3.84	3.91	3.92	3.95	4.00	4.00	4.00	4.09	4.18	4.20	4.14	4.09	4.11	4.19	4.21	4.18	4.16	4.19	4.20	4.20	4.24	4.28	4.26	4.27	4.30	4.34	4.35	4.31	4.35	4.40	4.40	
4.14	4.15	4.13	4.04	4.02	4.02	3.96	3.88	3.80	3.71	3.60	3.44	3.26	3.02	2.64	2.13	1.42	1.22	2.53	3.61	6.14	6.51	8.26	8.89	8.63	7.98	7.44	7.28	7.01	6.82	6.56	6.53	6.66	6.41	4.84	4.28	3.16	2.03	1.09	1.49	0.89	1.15	1.65	2.66	6.18	5.39	5.34	5.95	6.55	7.05	7.27	7.47	5.49	3.09	5.21	5.65	5.99	6.40	4.06	7.19	6.99	6.96	7.22	7.88	9.02	9.48	7.64	5.47	4.48	8.46	4.21	5.58	8.91	7.36	7.00	6.18	5.78	5.57	5.73	5.95	4.67	4.89	5.92	6.80	7.93	7.71	7.65	7.48	7.46	7.09	6.11	5.08	4.54	3.99	3.86	3.79	3.89	4.21	4.23	3.50	3.48	2.50	2.60	3.70	4.21	4.11	4.20	4.34	4.42	4.41	4.38	4.38	4.38	4.46	4.70	4.96	4.78	4.14	3.84	3.99	4.13	4.09	4.06	4.15	4.26	4.20	4.00	3.97	4.08	4.12	3.99	3.88	3.91	3.86	3.73	3.66	3.60	3.59	3.62	3.57	3.51	3.50	3.49	3.53	3.63	3.71	3.75	3.79	3.85	3.88	3.93	3.97	3.98	4.00	4.09	4.19	4.24	4.21	4.12	4.08	4.15	4.21	4.18	4.15	4.17	4.20	4.19	4.21	4.25	4.26	4.28	4.30	4.31	4.35	4.38	4.36	4.36	4.36	
4.18	4.18	4.15	4.08	4.05	4.05	4.00	3.92	3.85	3.77	3.66	3.52	3.34	3.14	2.80	2.34	4.45	1.38	2.17	3.39	3.63	6.39	7.38	8.63	8.20	7.72	7.38	7.07	6.50	6.25	5.96	5.67	5.85	6.32	6.67	4.84	4.18	2.88	1.54	0.98	0.83	0.95	1.44	2.41	6.41	5.49	4.51	5.16	5.60	6.90	7.19	7.36	5.39	3.33	4.28	4.83	5.34	5.36	6.15	6.72	6.17	6.38	6.84	7.31	8.52	8.64	6.96	6.08	6.34	7.59	3.63	5.97	7.81	6.77	7.07	6.50	5.94	5.57	5.61	5.99	4.91	4.57	5.70	6.17	7.54	7.37	7.57	7.46	7.32	7.38	6.60	5.44	4.79	4.12	3.97	3.76	3.75	4.17	4.53	4.55	3.73	3.43	2.79	3.44	4.12	4.06	4.05	4.21	4.36	4.45	4.42	4.28	4.11	4.21	4.56	4.95	4.96	4.42	4.16	4.25	4.17	3.98	4.01	4.34	4.65	4.42	3.88	3.67	3.70	3.76	3.85	3.90	3.79	3.48	3.20	3.17	3.31	3.43	3.49	3.45	3.43	3.46	3.47	3.49	3.55	3.62	3.69	3.73	3.77	3.82	3.88	3.91	3.94	3.96	4.04	4.16	4.25	4.25	4.16	4.08	4.12	4.19	4.18	4.16	4.17	4.20	4.21	4.21	4.22	4.24	4.27	4.30	4.29	4.33	4.40	4.41	4.38	4.38	
4.22	4.22	4.18	4.11	4.08	4.08	4.03	3.96	3.90	3.83	3.74	3.62	3.46	3.28	3.03	2.74	2.20	1.73	2.06	2.76	3.45	3.76	7.42	8.53	7.87	7.67	7.49	7.07	6.50	6.21	5.67	5.11	5.03	4.87	5.83	6.31	4.90	3.85	2.45	1.29	0.86	0.92	1.39	2.54	6.40	5.37	4.59	5.36	5.82	6.01	6.00	6.11	5.89	3.71	4.23	5.23	5.68	5.61	6.51	6.47	5.81	6.14	6.58	6.86	7.99	8.35	6.49	5.42	5.67	6.39	3.21	8.89	7.65	6.64	6.77	6.52	6.14	5.63	5.49	5.62	5.34	4.60	5.44	6.16	6.99	7.34	7.72	7.41	7.19	7.05	6.25	5.46	4.62	4.31	4.10	3.81	3.66	3.53	3.81	4.20	4.49	4.19	3.40	3.44	4.00	4.01	3.97	4.09	4.25	4.45	4.48	4.28	4.04	4.08	4.33	4.68	4.85	4.62	4.52	4.54	4.30	4.02	4.03	4.48	4.87	4.58	3.91	3.55	3.41	3.38	3.66	3.97	3.89	3.46	3.00	2.75	2.83	3.10	3.29	3.34	3.33	3.35	3.43	3.51	3.55	3.60	3.65	3.69	3.73	3.79	3.84	3.88	3.89	3.90	3.96	4.08	4.20	4.26	4.21	4.11	4.11	4.18	4.19	4.17	4.19	4.22	4.22	4.22	4.23	4.24	4.25	4.28	4.29	4.28	4.35	4.41	4.41	4.41	
4.25	4.25	4.21	4.14	4.11	4.11	4.06	4.00	3.95	3.89	3.82	3.72	3.60	3.45	3.28	3.06	2.71	2.29	2.16	2.25	2.46	3.74	4.87	8.31	7.38	7.20	7.17	6.72	6.26	6.12	5.79	5.30	4.45	4.50	5.33	6.23	5.88	4.56	3.25	1.92	1.09	0.92	1.54	2.75	5.78	5.68	5.05	5.46	6.04	6.10	5.76	5.87	5.59	4.45	4.30	2.59	5.80	5.88	5.55	5.34	5.37	5.85	6.08	7.09	7.78	8.46	6.32	4.45	4.34	4.82	5.81	8.27	7.79	6.77	6.49	6.32	6.19	5.52	5.36	5.48	5.29	4.35	2.72	5.28	6.23	7.08	7.62	7.80	7.91	6.96	5.64	5.06	4.59	4.39	4.16	3.93	3.79	3.61	3.70	3.96	4.32	4.50	4.07	3.76	3.99	4.03	3.98	4.06	4.19	4.34	4.35	4.28	4.20	4.17	4.20	4.36	4.53	4.56	4.61	4.63	4.45	4.21	4.22	4.61	4.90	4.62	4.05	3.65	3.43	3.31	3.47	3.85	4.01	3.67	3.16	2.68	2.48	2.65	2.92	3.11	3.19	3.19	3.28	3.44	3.53	3.58	3.63	3.67	3.72	3.79	3.84	3.88	3.89	3.88	3.92	4.02	4.13	4.25	4.27	4.14	4.10	4.15	4.17	4.16	4.19	4.24	4.22	4.21	4.24	4.26	4.24	4.26	4.28	4.26	4.29	4.37	4.40	4.40	
4.27	4.28	4.25	4.17	4.14	4.13	4.09	4.03	4.00	3.95	3.89	3.82	3.74	3.63	3.50	3.36	3.20	2.96	2.07	1.70	1.87	3.70	4.79	7.54	7.37	7.36	7.13	6.36	5.95	5.55	5.47	5.02	4.68	4.50	3.27	3.57	4.29	4.35	3.62	2.60	1.56	1.24	1.90	2.98	3.57	3.91	3.70	3.17	3.16	6.04	5.43	5.53	5.64	4.52	2.85	2.86	2.95	6.19	5.11	5.03	5.40	5.78	5.92	6.18	7.43	8.13	6.66	4.44	3.98	5.03	5.13	7.62	7.76	6.86	6.18	5.88	6.06	5.79	5.67	5.45	5.02	3.41	2.80	3.10	3.74	4.47	4.95	5.43	8.21	7.89	6.14	5.43	4.90	4.64	4.51	4.37	4.04	3.85	3.79	3.83	4.08	4.44	4.43	4.18	4.11	4.08	4.08	4.17	4.28	4.19	4.01	4.11	4.34	4.37	4.25	4.25	4.35	4.46	4.52	4.49	4.44	4.32	4.28	4.53	4.78	4.58	4.08	3.77	3.66	3.58	3.50	3.68	3.95	3.83	3.43	2.98	2.51	2.34	2.48	2.74	2.93	2.99	3.08	3.26	3.41	3.50	3.57	3.62	3.68	3.74	3.82	3.88	3.89	3.88	3.92	3.99	4.05	4.18	4.29	4.18	4.08	4.11	4.13	4.13	4.16	4.22	4.21	4.19	4.22	4.25	4.26	4.27	4.28	4.27	4.28	4.33	4.37	4.37	
4.27	4.29	4.28	4.21	4.17	4.16	4.13	4.08	4.04	4.02	3.97	3.92	3.87	3.82	3.72	3.69	3.73	3.62	2.66	1.86	1.36	2.46	4.68	5.57	7.19	7.61	7.31	6.39	6.07	5.16	4.58	4.89	4.71	3.78	3.32	3.52	4.05	4.10	3.64	2.82	2.01	1.87	2.46	2.88	3.11	3.47	3.44	3.11	3.24	3.86	3.95	3.62	3.71	3.48	2.86	2.94	3.34	6.09	3.55	2.93	2.92	3.17	5.71	6.04	6.44	6.95	6.63	4.81	3.90	5.13	5.46	6.94	7.22	6.59	5.79	5.68	5.85	5.56	5.45	4.28	4.35	3.89	3.17	3.19	3.41	3.90	4.45	4.96	5.76	6.38	6.23	5.79	5.38	5.00	4.66	4.47	4.23	4.13	4.08	3.96	4.02	4.29	4.48	4.48	4.31	4.13	4.13	4.30	4.41	4.09	3.69	3.87	4.31	4.48	4.46	4.44	4.46	4.53	4.55	4.47	4.46	4.44	4.30	4.29	4.47	4.40	3.97	3.71	3.76	3.82	3.75	3.74	3.85	3.79	3.58	3.36	2.93	2.41	2.21	2.34	2.61	2.77	2.90	3.09	3.28	3.41	3.51	3.60	3.66	3.70	3.76	3.84	3.87	3.87	3.90	3.96	3.99	4.09	4.28	4.23	4.10	4.09	4.10	4.11	4.14	4.19	4.19	4.19	4.21	4.23	4.25	4.29	4.31	4.28	4.29	4.32	4.35	4.35	
4.28	4.30	4.31	4.25	4.19	4.19	4.16	4.12	4.08	4.07	4.07	4.04	4.00	3.99	3.96	4.00	4.21	4.37	3.20	1.55	0.95	2.17	3.27	5.26	7.04	7.50	7.19	6.43	5.74	4.87	4.45	4.79	4.06	3.81	3.44	3.40	3.85	3.94	3.50	2.89	2.42	2.53	2.98	2.99	2.88	3.00	3.14	2.99	2.96	3.79	3.97	3.50	3.20	2.96	2.45	3.10	3.54	3.92	3.65	2.89	2.76	3.11	3.48	3.77	6.18	6.67	6.78	5.40	3.91	2.59	5.38	6.94	7.12	6.58	5.87	5.41	4.48	4.38	4.08	4.06	4.33	4.33	3.77	3.26	2.97	3.02	4.14	4.74	5.35	5.90	5.90	5.45	5.12	4.73	4.42	4.31	4.22	4.27	4.34	4.20	4.12	4.25	4.42	4.59	4.57	4.28	4.12	4.29	4.51	4.21	3.66	3.71	4.14	4.45	4.57	4.57	4.58	4.62	4.65	4.69	4.73	4.55	4.16	3.77	3.67	3.35	3.78	3.52	3.61	3.77	3.91	3.97	3.88	3.71	3.62	3.59	3.40	2.89	2.32	2.14	2.29	2.51	2.70	2.92	3.14	3.30	3.43	3.57	3.67	3.70	3.73	3.79	3.82	3.83	3.87	3.94	3.95	4.02	4.23	4.30	4.16	4.08	4.09	4.11	4.14	4.18	4.18	4.19	4.22	4.23	4.22	4.26	4.30	4.28	4.28	4.31	4.33	4.33	
4.31	4.32	4.33	4.28	4.22	4.21	4.20	4.16	4.12	4.11	4.16	4.17	4.11	4.12	4.19	4.26	4.56	5.16	4.06	0.81	0.76	1.76	2.70	3.57	5.49	6.26	6.64	6.19	6.05	5.17	4.39	3.69	3.69	3.63	3.36	3.52	3.93	3.98	3.61	3.14	2.88	3.10	3.34	3.15	2.88	2.90	3.17	3.17	3.03	3.30	3.66	3.42	2.97	2.72	2.59	2.91	3.53	3.67	3.61	3.06	2.70	2.96	3.42	3.78	4.17	4.64	5.09	5.02	3.79	2.95	3.33	4.65	6.79	5.46	5.17	4.72	4.38	4.26	4.03	3.97	3.93	4.19	4.16	3.75	3.14	2.81	3.13	3.90	4.58	5.08	5.34	5.31	5.04	4.64	4.32	4.22	4.20	4.28	4.40	4.29	4.20	4.29	4.44	4.65	4.72	4.47	4.17	4.20	4.44	4.30	3.83	3.68	3.93	4.38	4.71	4.60	4.57	4.58	4.69	4.95	5.00	4.55	3.84	3.35	3.37	3.11	2.57	2.39	2.10	3.44	3.77	4.16	4.07	3.77	3.69	3.68	3.57	3.25	2.79	2.36	2.17	2.25	2.47	2.73	2.97	3.15	3.29	3.46	3.61	3.67	3.72	3.79	3.80	3.82	3.87	3.91	3.91	3.96	4.13	4.31	4.28	4.14	4.09	4.11	4.14	4.18	4.19	4.20	4.22	4.24	4.23	4.23	4.27	4.28	4.29	4.30	4.31	4.31	
4.35	4.35	4.36	4.31	4.25	4.24	4.24	4.21	4.16	4.14	4.23	4.30	4.22	4.24	4.40	4.46	4.80	4.09	4.67	1.05	0.81	1.32	2.01	2.93	3.54	4.28	6.54	6.31	6.27	5.59	4.61	3.70	3.52	3.34	3.32	3.69	4.07	4.02	3.78	3.52	3.40	3.53	3.54	3.32	3.05	3.03	3.24	3.28	3.12	3.14	3.36	3.25	2.92	2.81	2.88	3.19	3.35	3.31	3.34	3.13	2.73	2.67	3.06	3.46	4.01	4.25	4.59	4.90	4.25	3.47	3.74	4.63	5.26	5.15	5.03	4.67	4.16	3.89	3.74	3.71	3.85	4.11	4.31	4.14	3.52	2.98	3.08	3.73	4.38	4.63	4.84	5.07	4.89	4.61	4.41	4.26	4.29	4.39	4.39	4.23	4.11	4.20	4.50	4.80	4.80	4.59	4.32	4.23	4.36	4.27	3.87	3.61	3.69	4.42	4.88	4.87	4.73	4.70	4.78	5.02	5.11	4.56	3.59	2.94	3.12	2.95	2.55	2.24	1.75	1.45	3.24	2.48	2.65	4.09	3.99	3.88	3.61	3.29	3.09	2.82	2.42	2.19	2.30	2.60	2.85	3.04	3.20	3.37	3.53	3.59	3.68	3.79	3.81	3.82	3.88	3.91	3.89	3.91	4.01	4.19	4.33	4.26	4.12	4.10	4.13	4.17	4.18	4.20	4.23	4.25	4.24	4.24	4.27	4.30	4.32	4.31	4.30	4.30	
4.39	4.39	4.38	4.34	4.27	4.26	4.28	4.25	4.21	4.17	4.26	4.40	4.36	4.37	2.98	3.09	3.38	4.18	4.00	1.66	0.80	1.03	1.47	2.37	3.07	3.87	6.08	5.16	5.31	5.28	4.60	4.05	3.72	3.48	3.47	3.89	4.23	4.13	3.98	3.89	3.84	3.84	3.66	3.44	3.29	3.25	3.29	3.26	3.21	3.18	3.19	3.08	2.96	3.02	3.11	3.22	3.25	3.19	3.22	3.18	2.98	2.88	3.09	3.40	3.62	3.76	3.84	4.16	4.16	3.68	3.98	4.43	4.89	4.91	5.00	4.90	4.37	3.78	3.53	3.63	3.84	4.00	4.24	4.30	3.98	3.58	3.46	3.66	4.05	4.27	4.46	4.68	4.47	4.33	4.40	4.32	4.41	4.63	4.56	4.25	3.92	3.89	4.39	4.90	4.94	4.42	4.51	4.29	4.42	4.20	3.57	3.20	3.45	4.09	4.84	5.14	5.01	4.94	5.29	5.50	5.15	3.75	2.34	2.88	3.44	3.54	3.09	2.46	1.85	1.37	2.66	3.12	3.07	3.40	3.54	3.12	3.77	3.24	3.11	3.05	2.76	2.32	2.20	2.48	2.77	2.98	3.17	3.35	3.48	3.55	3.63	3.74	3.80	3.81	3.86	3.91	3.90	3.92	3.96	4.04	4.22	4.30	4.19	4.10	4.14	4.17	4.15	4.18	4.24	4.25	4.23	4.25	4.27	4.29	4.32	4.32	4.32	4.32	
4.42	4.42	4.40	4.36	4.28	4.28	4.32	4.30	4.27	4.22	4.27	4.45	3.01	2.94	3.02	3.13	3.47	4.22	4.28	2.68	0.97	0.99	1.17	1.79	2.64	3.60	4.51	4.90	4.93	4.69	4.39	4.07	3.87	3.83	3.87	4.18	4.44	4.29	4.22	4.26	4.17	4.07	3.86	3.62	3.56	3.51	3.41	3.26	3.24	3.26	3.10	2.92	2.95	3.15	3.24	3.15	3.07	3.15	3.29	3.29	3.18	3.14	3.23	3.34	3.50	3.65	3.59	3.72	3.95	3.86	3.89	4.12	4.30	4.37	4.61	4.88	4.55	3.97	3.70	3.79	3.97	3.96	4.02	4.12	4.16	4.23	4.00	3.64	3.73	3.94	4.16	4.37	4.05	3.86	4.15	4.28	4.42	4.77	4.87	4.50	3.91	3.65	4.11	4.88	4.85	4.60	4.33	4.48	4.71	4.45	3.65	2.90	3.18	3.81	4.53	5.55	5.39	5.24	5.60	5.92	4.90	3.18	1.70	2.82	3.76	3.94	3.45	2.65	1.93	2.61	1.44	2.40	2.78	3.52	3.92	3.05	2.62	3.30	3.06	3.07	2.94	2.49	2.16	2.32	2.64	2.89	3.11	3.29	3.41	3.51	3.61	3.69	3.76	3.81	3.83	3.88	3.91	3.92	3.98	4.02	4.12	4.26	4.21	4.11	4.14	4.18	4.16	4.16	4.21	4.23	4.21	4.21	4.24	4.26	4.28	4.30	4.31	4.31	
4.45	4.44	4.42	4.38	4.31	4.31	4.36	4.35	4.32	4.28	4.27	4.42	3.06	3.05	3.06	3.19	3.47	4.20	4.42	3.21	1.60	1.14	1.12	1.36	2.11	3.25	4.22	4.72	4.66	4.48	4.22	3.98	3.93	4.13	4.37	4.76	4.90	4.61	4.51	4.63	4.44	4.23	4.09	3.88	3.78	3.77	3.65	3.32	3.13	3.11	2.98	2.82	2.89	3.20	3.29	3.06	2.95	3.14	3.33	3.25	3.21	3.32	3.39	3.34	3.44	3.62	3.51	3.54	3.77	3.87	3.99	4.07	4.01	4.01	4.21	4.53	4.46	4.14	4.00	4.10	4.23	4.07	3.86	3.84	4.07	4.47	4.36	3.80	3.59	3.66	3.89	4.14	3.81	3.50	3.88	4.16	4.25	4.67	5.03	4.38	3.61	3.50	4.07	4.70	4.95	4.85	4.60	4.67	4.96	4.79	3.99	2.90	2.70	3.44	5.23	5.83	5.86	5.59	5.79	5.93	4.65	2.83	1.31	2.85	4.43	3.56	2.77	2.82	2.90	1.60	2.50	1.03	2.09	2.61	3.61	2.77	2.95	3.67	3.12	3.08	3.04	2.67	2.23	2.24	2.52	2.79	3.03	3.22	3.34	3.46	3.58	3.66	3.72	3.79	3.82	3.85	3.90	3.90	3.94	4.00	4.11	4.22	4.17	4.10	4.12	4.16	4.17	4.18	4.19	4.20	4.19	4.19	4.22	4.25	4.28	4.29	4.28	4.28	
4.50	4.47	4.44	4.41	4.34	4.34	4.38	4.39	4.36	4.34	4.28	4.35	2.98	3.15	3.15	3.23	3.51	4.08	4.44	3.51	2.20	1.72	1.49	1.37	1.76	2.50	3.59	4.45	4.53	4.32	4.19	3.98	3.90	4.12	4.52	5.02	5.24	5.00	4.91	4.93	4.60	4.36	4.34	4.18	4.04	4.09	3.85	3.28	3.01	2.94	2.88	2.91	2.98	3.20	3.24	3.04	2.94	3.06	3.08	3.01	3.21	3.52	3.56	3.39	3.40	3.57	3.56	3.48	3.52	3.70	3.91	3.96	3.88	3.84	3.92	4.11	4.21	4.04	3.97	4.32	4.63	4.36	3.93	3.80	4.05	4.44	4.39	3.93	3.66	3.64	3.71	3.90	3.73	3.38	3.75	4.15	4.16	4.72	5.00	4.42	3.72	3.49	3.81	4.39	4.84	4.99	5.02	5.23	5.46	5.06	4.13	2.87	2.33	2.75	5.16	6.19	6.46	6.29	6.38	5.85	3.63	2.39	0.83	3.09	4.66	3.85	2.91	1.95	2.08	2.67	1.50	2.21	1.84	2.03	2.83	3.93	2.91	2.61	3.35	3.12	3.11	2.84	2.38	2.23	2.44	2.73	2.98	3.18	3.31	3.41	3.54	3.64	3.69	3.75	3.78	3.81	3.86	3.87	3.87	3.92	4.07	4.18	4.15	4.12	4.12	4.13	4.18	4.20	4.18	4.17	4.19	4.21	4.22	4.24	4.27	4.28	4.28	4.28	
4.51	4.49	4.45	4.42	4.37	4.35	4.40	4.42	4.41	4.40	4.36	4.33	4.56	3.13	3.22	3.27	3.51	4.09	4.50	3.83	1.48	1.98	1.94	1.41	1.81	2.19	3.09	3.97	4.15	4.06	4.05	4.00	3.96	4.11	4.52	5.06	5.44	5.40	5.28	5.12	4.74	4.48	4.53	4.58	4.60	4.53	4.01	3.34	3.23	3.02	2.77	2.86	3.15	3.26	3.14	2.91	2.88	2.81	2.73	2.91	3.38	3.73	3.71	3.50	3.41	3.53	3.61	3.45	3.32	3.41	3.63	3.81	3.85	3.78	3.70	3.77	3.98	3.78	3.57	4.21	4.88	4.67	4.13	3.96	4.13	4.36	4.29	3.94	3.78	3.77	3.66	3.63	3.49	3.21	3.56	4.37	4.29	4.62	4.94	4.41	3.80	3.55	3.63	3.96	4.32	5.59	5.71	5.92	6.13	5.61	4.48	3.22	2.11	3.00	4.54	5.61	6.01	6.25	6.45	4.92	3.16	1.93	0.71	3.88	4.91	4.18	3.40	2.55	3.12	2.16	2.65	2.28	1.84	1.75	2.19	3.09	3.43	2.78	3.64	3.14	3.06	2.92	2.53	2.26	2.36	2.65	2.93	3.15	3.30	3.40	3.51	3.62	3.68	3.74	3.78	3.81	3.87	3.90	3.89	3.91	4.03	4.11	4.12	4.16	4.15	4.14	4.17	4.21	4.21	4.19	4.19	4.21	4.22	4.23	4.24	4.26	4.27	4.27	
4.50	4.49	4.47	4.44	4.40	4.37	4.41	4.45	4.46	4.46	4.45	4.40	4.53	3.12	3.27	3.31	3.53	2.35	3.00	3.47	1.65	1.63	2.17	2.35	2.31	2.42	2.96	3.57	3.76	3.82	3.86	3.87	4.00	4.34	4.80	5.27	5.79	6.05	5.74	5.24	4.56	4.40	4.64	4.86	5.08	4.54	3.37	3.47	3.80	3.42	2.68	2.69	3.21	3.42	3.03	2.49	1.92	2.50	2.63	3.15	3.71	3.90	3.79	3.59	3.47	3.54	3.62	3.48	3.24	3.14	3.26	3.53	3.75	3.74	3.56	3.59	3.88	3.55	3.11	3.92	4.98	4.90	4.34	4.00	4.06	4.04	3.77	3.65	3.71	3.68	3.43	3.58	3.31	2.92	3.55	4.32	4.44	4.59	4.80	4.41	3.95	3.75	3.68	3.74	4.68	5.08	5.45	5.88	6.28	5.85	4.65	3.42	2.31	2.33	4.21	5.44	6.22	6.72	6.05	3.65	5.12	1.65	1.77	4.23	5.16	4.45	3.55	2.65	2.06	2.58	2.73	2.44	2.04	1.71	1.80	2.37	3.42	2.79	3.83	3.24	3.04	2.94	2.65	2.35	2.34	2.58	2.86	3.08	3.24	3.36	3.48	3.60	3.69	3.77	3.82	3.86	3.92	3.95	3.98	4.02	4.05	4.05	4.06	4.14	4.17	4.17	4.18	4.19	4.22	4.22	4.20	4.19	4.21	4.23	4.24	4.25	4.25	4.25	
4.50	4.49	4.48	4.47	4.43	4.39	4.43	4.49	4.50	4.51	4.52	4.48	4.53	3.20	3.36	3.41	1.67	2.05	3.04	5.72	1.50	1.36	2.07	2.46	2.66	2.87	3.20	3.49	3.54	3.68	3.77	3.72	3.86	4.41	4.83	5.24	6.70	6.87	6.38	5.52	4.52	4.31	4.44	4.72	5.22	4.76	3.38	3.23	4.04	3.50	2.67	2.55	2.95	2.79	1.65	2.51	2.27	2.42	2.85	3.56	4.01	3.89	3.66	3.65	3.49	3.54	3.65	3.56	3.34	3.11	3.05	3.24	3.55	3.68	3.54	3.55	3.82	3.37	2.73	3.66	5.11	5.01	4.50	4.12	3.99	3.94	3.82	3.75	3.75	3.62	3.45	3.40	2.86	2.32	3.29	4.32	4.66	4.98	4.85	4.23	3.97	3.92	3.67	3.93	4.62	5.06	5.50	6.04	6.53	6.06	5.05	4.01	3.12	2.24	3.29	5.00	6.68	7.53	5.15	3.35	4.71	1.14	2.69	4.28	5.00	4.65	3.63	2.51	3.27	2.74	2.32	2.56	2.28	1.94	1.76	1.97	2.78	2.94	3.81	3.39	3.16	3.06	2.83	2.52	2.43	2.60	2.84	3.05	3.20	3.32	3.44	3.57	3.67	3.73	3.78	3.83	3.88	3.89	3.94	4.04	4.09	4.05	4.02	4.08	4.16	4.20	4.20	4.18	4.18	4.21	4.21	4.20	4.20	4.23	4.25	4.25	4.25	4.25	
4.51	4.50	4.48	4.48	4.46	4.41	4.44	4.52	4.54	4.55	4.57	4.57	4.54	4.75	3.34	1.75	5.55	6.13	3.15	4.22	1.45	1.39	2.00	2.27	2.54	2.92	3.30	3.49	3.41	3.52	3.68	3.69	3.76	4.15	4.53	4.94	6.53	7.01	6.95	5.85	4.65	4.57	4.60	4.80	5.47	4.44	3.12	3.13	3.78	3.96	3.12	2.51	1.93	1.01	2.95	2.33	2.13	2.56	3.33	4.17	4.44	4.13	3.79	3.50	3.29	3.39	3.51	3.46	3.28	3.21	3.07	3.17	3.39	3.59	3.56	3.62	3.66	2.76	2.41	3.60	5.04	5.27	4.85	4.40	4.16	4.00	3.89	3.81	3.76	3.65	3.54	3.49	2.77	1.88	2.93	4.13	5.55	4.87	4.62	4.35	4.25	4.11	3.51	3.28	3.94	4.96	5.74	6.62	7.29	6.89	5.38	4.32	3.69	2.96	2.53	4.15	6.17	7.47	4.37	3.09	1.62	1.24	3.31	4.52	4.95	4.42	3.94	3.11	2.34	3.04	2.51	2.02	2.37	2.14	1.96	0.30	0.70	2.31	3.53	3.42	3.20	3.11	2.95	2.63	2.51	2.65	2.86	3.06	3.21	3.30	3.40	3.54	3.64	3.67	3.68	3.74	3.79	3.82	3.86	3.93	4.03	4.06	4.03	4.05	4.10	4.17	4.19	4.18	4.16	4.17	4.19	4.22	4.22	4.22	4.26	4.25	4.23	4.23	
4.50	4.50	4.50	4.49	4.48	4.44	4.45	4.54	4.58	4.59	4.62	4.65	4.63	4.70	3.32	1.77	1.73	2.19	3.16	4.19	1.55	0.93	1.64	1.97	2.23	2.65	3.06	3.22	3.17	3.30	3.46	3.57	3.73	3.81	4.02	5.64	6.18	7.25	7.52	6.25	4.95	4.94	4.72	4.97	5.73	3.64	2.56	3.55	4.01	3.80	2.47	1.21	0.51	2.97	2.86	2.37	2.19	2.62	3.53	4.72	5.10	4.41	3.87	3.59	3.35	3.39	3.53	3.54	3.33	2.90	2.85	3.12	3.31	3.43	3.50	3.64	3.59	2.77	2.04	3.06	4.64	5.40	5.15	4.75	4.06	4.12	3.97	3.76	3.88	3.73	3.84	3.65	2.89	1.68	2.35	3.62	5.91	5.16	4.76	4.63	4.53	4.30	3.65	3.28	3.44	4.05	4.96	6.10	7.06	7.38	5.89	4.58	4.23	3.50	2.66	3.93	5.99	6.96	4.34	3.20	1.96	1.55	3.74	4.53	4.74	4.00	3.38	3.20	2.43	1.79	2.81	2.25	0.09	2.22	0.79	0.52	0.50	1.07	3.19	3.29	3.15	3.01	2.88	2.62	2.51	2.65	2.84	3.00	3.16	3.26	3.35	3.50	3.64	3.66	3.65	3.71	3.76	3.82	3.87	3.87	3.92	4.00	4.02	4.03	4.06	4.11	4.17	4.19	4.17	4.15	4.14	4.18	4.20	4.19	4.25	4.26	4.23	4.23	
4.49	4.50	4.51	4.50	4.49	4.47	4.48	4.56	4.61	4.62	4.67	4.73	4.73	4.76	4.95	5.48	1.88	2.38	3.51	4.56	2.19	0.52	1.08	1.69	2.05	2.50	2.86	2.99	2.98	3.14	3.29	3.53	3.72	3.73	3.73	5.08	5.79	7.42	8.00	6.86	5.56	5.28	4.89	5.04	5.40	3.82	2.64	3.91	4.34	2.88	0.99	1.73	1.48	2.95	2.78	2.50	2.35	2.65	3.54	5.01	5.29	3.67	3.29	3.80	3.52	3.48	3.64	3.61	3.34	2.97	2.92	3.15	3.28	3.31	3.44	3.58	3.45	2.81	2.06	2.82	4.32	6.09	5.13	4.76	4.20	3.78	3.73	3.78	3.81	4.04	4.19	3.44	2.10	1.09	1.91	4.63	6.00	5.51	4.97	4.77	4.57	4.30	3.82	3.46	3.62	3.68	4.36	5.56	6.77	7.25	6.34	5.30	4.75	4.20	3.28	3.81	5.92	6.55	4.36	3.17	2.07	1.94	3.95	4.73	4.42	3.84	3.17	2.62	2.27	1.64	3.09	0.65	1.98	1.29	0.85	0.53	0.51	1.16	2.87	3.06	3.08	2.98	2.79	2.51	2.43	2.60	2.82	2.97	3.09	3.20	3.30	3.46	3.61	3.66	3.66	3.70	3.75	3.83	3.89	3.90	3.91	3.95	4.00	4.01	4.03	4.08	4.15	4.18	4.17	4.17	4.14	4.14	4.15	4.14	4.20	4.24	4.23	4.23	
4.49	4.50	4.51	4.51	4.50	4.49	4.50	4.57	4.63	4.65	4.71	4.78	4.81	4.88	4.94	5.40	1.94	6.57	7.73	4.86	3.67	0.26	0.54	1.48	2.05	2.55	2.91	3.02	3.05	3.20	3.32	3.59	3.89	4.35	4.41	4.63	5.85	7.10	7.97	7.40	6.17	5.74	5.51	5.59	5.23	3.82	2.63	3.57	3.96	2.43	1.51	2.02	1.85	3.15	2.89	2.74	2.01	2.84	3.75	5.23	5.42	3.84	3.34	3.19	3.05	3.35	3.47	3.08	3.44	3.26	3.20	3.33	3.41	3.35	3.35	3.41	2.62	3.21	2.09	2.58	3.58	6.84	6.02	5.15	4.30	3.88	3.84	3.92	3.89	4.03	4.27	3.43	3.25	2.37	2.45	2.53	3.93	6.18	5.51	5.10	4.46	4.20	4.00	3.65	3.73	3.52	3.53	5.11	6.23	7.10	6.81	5.84	5.12	4.72	3.99	3.68	5.08	5.76	4.12	2.73	1.30	2.54	4.11	4.79	4.18	3.13	2.50	2.12	1.64	1.91	1.24	0.81	0.64	0.54	0.99	0.58	0.55	0.96	2.61	2.81	2.94	2.95	2.77	2.45	2.36	2.55	2.81	2.98	3.08	3.17	3.28	3.44	3.58	3.64	3.66	3.69	3.74	3.82	3.90	3.95	3.94	3.98	4.02	4.01	4.00	4.03	4.10	4.14	4.13	4.17	4.19	4.16	4.14	4.12	4.16	4.21	4.22	4.22	
4.50	4.50	4.51	4.51	4.51	4.51	4.53	4.57	4.63	4.67	4.74	4.81	4.87	4.97	5.01	5.44	2.02	6.60	7.77	5.03	5.23	0.84	0.85	1.43	2.23	2.75	3.14	3.31	3.30	3.42	3.44	3.41	4.69	4.69	4.63	5.13	5.59	6.62	7.65	7.66	6.57	5.76	5.77	5.90	4.76	3.13	2.78	3.66	2.47	1.70	2.05	2.61	2.56	3.46	3.16	2.95	2.45	2.88	3.50	5.00	5.93	4.37	3.67	3.29	3.27	3.39	3.39	3.12	2.98	3.07	3.38	3.62	3.60	3.39	2.99	2.61	2.44	2.03	1.72	2.32	3.14	6.33	6.74	5.53	4.49	4.21	4.20	4.13	4.10	4.31	4.24	3.12	3.23	2.43	1.95	3.92	3.23	6.27	6.18	5.69	4.67	4.41	4.29	3.82	3.79	3.57	2.96	3.88	5.24	6.64	7.38	6.46	5.70	5.32	4.50	3.97	4.68	5.02	3.70	2.32	1.64	3.16	4.13	4.39	3.39	2.25	1.84	1.49	1.52	1.47	1.53	1.26	1.00	0.65	1.37	0.91	0.68	0.74	2.49	2.61	2.77	2.86	2.72	2.43	2.33	2.51	2.78	2.96	3.07	3.16	3.26	3.41	3.58	3.68	3.69	3.71	3.74	3.77	3.83	3.90	3.93	3.98	4.07	4.10	4.07	4.05	4.07	4.10	4.08	4.13	4.20	4.19	4.18	4.16	4.16	4.19	4.21	4.21	
4.51	4.50	4.51	4.52	4.51	4.52	4.54	4.58	4.63	4.68	4.77	4.84	4.91	5.03	5.09	5.44	2.36	6.65	7.71	5.00	6.59	1.56	1.67	1.57	2.37	2.90	3.36	3.72	3.86	3.91	3.79	3.54	4.02	4.45	4.65	5.43	5.77	6.27	7.05	7.87	7.13	5.94	5.78	5.50	4.35	3.62	2.79	1.80	1.95	2.70	3.16	3.05	3.83	3.69	3.40	3.13	3.08	3.23	3.60	4.67	6.28	4.92	3.91	3.50	3.43	3.33	3.19	3.06	3.05	3.10	3.31	3.54	3.49	3.17	2.40	2.00	2.54	2.41	1.50	2.52	2.99	5.68	6.43	5.98	5.11	4.72	4.51	4.15	4.20	4.79	4.25	3.03	3.10	2.52	1.66	3.14	4.09	5.31	5.97	5.89	4.98	4.71	4.65	4.06	3.96	3.91	3.24	3.18	4.54	5.95	7.41	6.96	6.14	5.64	4.70	4.32	4.83	4.55	2.92	2.15	2.05	3.66	4.23	3.68	2.66	1.86	1.34	1.45	1.58	1.60	1.52	1.45	1.31	1.02	0.74	1.43	1.09	1.01	2.52	2.52	2.64	2.77	2.68	2.41	2.30	2.45	2.71	2.90	3.04	3.15	3.24	3.33	3.52	3.70	3.76	3.75	3.76	3.78	3.81	3.86	3.91	3.96	4.07	4.17	4.20	4.19	4.14	4.10	4.07	4.11	4.18	4.18	4.20	4.21	4.18	4.17	4.18	4.18	
4.50	4.50	4.51	4.51	4.51	4.53	4.55	4.59	4.64	4.69	4.79	4.87	4.95	5.08	5.19	5.43	5.99	6.56	7.61	5.09	7.23	2.16	2.40	2.02	2.36	2.80	3.38	3.88	4.37	4.44	4.16	3.60	3.68	4.14	4.85	5.10	5.55	5.71	6.22	7.46	7.78	6.33	6.15	5.17	3.76	2.53	1.41	1.57	2.18	3.17	2.71	3.53	3.68	3.71	3.55	3.11	3.45	3.89	4.36	5.05	5.88	5.56	4.62	3.90	3.39	3.16	3.07	3.00	3.11	3.28	3.43	3.39	3.11	2.66	2.04	1.91	2.38	2.42	3.06	1.79	4.33	5.26	6.79	6.67	5.78	5.28	4.85	4.22	4.16	4.75	3.96	3.00	3.01	2.51	1.60	3.13	4.34	5.15	5.86	6.07	5.33	4.92	4.85	4.37	4.23	4.06	3.47	2.99	4.13	5.34	6.59	7.42	6.51	5.44	4.70	4.64	4.90	4.04	2.58	1.65	2.50	4.14	4.02	2.81	2.09	1.37	1.30	1.32	1.13	1.08	1.28	1.48	1.38	1.13	1.15	1.86	1.48	1.38	1.37	2.60	2.63	2.73	2.67	2.42	2.27	2.41	2.66	2.85	2.99	3.13	3.23	3.26	3.37	3.58	3.72	3.77	3.79	3.82	3.86	3.89	3.91	3.94	3.99	4.07	4.16	4.25	4.25	4.16	4.08	4.09	4.15	4.14	4.14	4.20	4.21	4.17	4.16	4.16	
4.49	4.50	4.50	4.51	4.52	4.53	4.56	4.60	4.65	4.70	4.79	4.88	4.97	5.09	5.25	5.47	5.88	6.42	7.44	5.20	7.59	2.98	3.21	2.59	2.97	3.11	3.40	3.97	4.41	4.70	4.54	3.95	4.13	4.68	5.11	5.24	5.61	5.79	5.85	6.73	7.60	6.39	6.10	4.44	1.71	1.75	2.04	2.45	2.30	3.17	2.61	3.42	3.51	3.67	3.70	3.54	3.60	4.18	5.05	5.17	5.91	5.86	5.13	4.22	3.38	3.12	3.06	3.05	3.25	3.46	3.55	3.06	2.30	2.01	1.78	1.82	1.96	1.94	3.03	1.50	3.76	4.61	6.21	7.19	6.63	5.93	5.26	4.62	4.62	4.52	3.30	3.14	3.10	2.53	1.06	2.84	2.70	3.75	5.75	6.06	5.95	5.49	5.14	4.62	4.65	4.36	3.52	2.82	3.39	4.52	5.69	7.33	7.10	5.36	4.75	4.85	4.93	3.39	2.29	1.57	3.22	4.03	3.39	2.60	1.64	1.43	1.18	1.16	1.30	1.33	1.45	1.54	1.37	1.25	1.50	1.61	1.82	1.71	1.79	2.77	2.75	2.77	2.67	2.40	2.21	2.33	2.59	2.79	2.93	3.08	3.22	3.25	3.31	3.46	3.62	3.72	3.75	3.79	3.84	3.87	3.87	3.89	3.93	3.97	4.02	4.14	4.25	4.23	4.12	4.07	4.11	4.11	4.09	4.16	4.20	4.17	4.15	4.15	
4.48	4.49	4.50	4.51	4.52	4.54	4.56	4.60	4.65	4.70	4.77	4.87	4.98	5.10	5.27	5.48	5.82	6.32	7.29	6.96	7.60	3.89	3.61	3.20	3.44	3.57	3.48	3.87	4.34	4.77	5.11	4.46	4.09	4.56	5.27	5.72	5.90	6.11	6.23	6.77	6.99	5.62	6.01	3.34	1.87	2.24	3.00	2.92	2.65	3.67	3.17	3.66	3.59	3.74	1.02	3.96	3.99	4.35	5.19	5.47	6.01	6.13	5.34	4.13	3.42	3.11	2.85	3.10	3.44	3.47	3.27	2.57	1.87	1.63	1.54	1.33	3.37	1.53	3.14	1.46	2.81	4.81	5.74	6.74	6.89	6.48	5.63	5.06	5.08	3.92	3.02	3.31	2.53	2.68	0.67	1.71	2.36	3.55	5.29	5.15	5.65	5.82	5.59	4.87	4.97	4.98	4.04	2.96	2.80	4.00	5.09	6.67	6.77	5.32	4.69	4.95	4.80	2.83	2.09	1.98	3.91	4.29	3.02	2.27	1.73	1.75	1.61	1.41	1.26	1.52	1.73	1.60	1.55	1.65	1.88	1.96	2.08	2.05	2.01	2.84	2.81	2.83	2.72	2.39	2.11	2.17	2.43	2.68	2.84	3.00	3.17	3.25	3.31	3.43	3.57	3.66	3.70	3.73	3.78	3.83	3.85	3.88	3.91	3.95	4.00	4.06	4.17	4.28	4.21	4.09	4.09	4.11	4.09	4.13	4.18	4.16	4.14	4.14	
4.49	4.49	4.50	4.50	4.51	4.53	4.56	4.60	4.65	4.69	4.75	4.85	4.96	5.08	5.24	5.43	5.70	6.16	3.09	6.80	7.72	4.59	4.04	3.53	3.67	3.30	3.53	3.95	4.39	5.29	5.72	5.32	4.39	4.16	4.69	5.34	5.50	5.57	6.09	6.70	5.27	3.33	5.24	1.53	2.21	2.46	2.98	3.05	4.11	3.88	3.60	3.93	3.74	3.79	3.96	4.16	4.41	4.68	5.22	5.91	6.09	6.18	5.60	4.71	4.03	3.24	2.62	3.27	3.78	3.63	2.84	1.86	1.49	1.83	1.71	3.24	3.23	1.73	1.34	1.66	2.54	3.04	4.14	5.78	7.60	7.34	6.33	5.61	5.08	3.88	3.28	3.59	2.79	2.82	2.43	1.31	2.26	3.35	5.56	5.17	5.17	5.29	5.72	5.19	4.87	5.28	4.53	2.95	2.44	3.97	4.99	6.34	6.47	5.27	4.74	4.93	4.67	3.24	2.44	2.45	4.02	4.06	2.41	1.58	1.35	1.72	1.70	1.46	1.53	1.76	1.87	1.79	1.89	2.02	1.93	1.87	2.17	2.22	2.10	2.97	2.89	2.91	2.85	2.51	2.12	2.06	2.29	2.58	2.77	2.92	3.09	3.21	3.29	3.40	3.53	3.64	3.70	3.72	3.76	3.82	3.87	3.92	3.92	3.94	4.01	4.05	4.09	4.25	4.30	4.15	4.09	4.12	4.12	4.13	4.16	4.16	4.15	4.15	
4.48	4.48	4.49	4.50	4.50	4.52	4.56	4.59	4.64	4.69	4.74	4.82	4.94	5.06	5.19	5.37	5.59	5.90	6.65	6.41	6.84	5.64	3.18	4.29	4.37	3.80	3.51	3.59	4.55	5.00	5.78	6.27	5.16	4.51	4.84	5.23	5.52	5.77	6.15	5.92	4.15	3.08	3.51	1.74	2.12	2.29	2.56	2.60	3.90	3.65	4.14	3.98	3.75	3.69	3.78	4.09	4.57	4.93	5.33	6.23	6.50	6.60	6.00	5.15	4.51	3.75	2.89	3.23	3.79	3.44	1.93	2.43	1.92	1.71	1.56	3.19	3.12	1.80	2.08	1.85	2.49	2.41	3.23	4.42	6.03	8.77	7.80	6.57	5.24	4.08	3.46	2.81	3.22	2.61	2.58	0.55	2.73	2.90	4.26	6.13	5.71	5.06	5.66	5.70	5.17	5.19	4.62	3.48	2.53	3.00	4.71	6.38	6.49	5.52	5.34	5.15	4.42	3.38	2.65	2.51	3.31	3.13	2.28	1.94	1.47	1.57	1.71	1.98	2.08	2.17	2.03	1.79	1.95	2.19	2.08	2.04	2.37	2.32	2.18	2.05	3.03	3.04	3.03	2.78	2.39	2.18	2.24	2.51	2.75	2.88	3.01	3.15	3.24	3.34	3.46	3.59	3.68	3.72	3.76	3.80	3.87	3.94	3.95	3.94	3.99	4.04	4.03	4.15	4.32	4.22	4.09	4.13	4.14	4.12	4.12	4.15	4.16	4.16	
4.47	4.47	4.48	4.49	4.50	4.51	4.55	4.59	4.62	4.67	4.72	4.79	4.89	5.01	5.13	5.29	5.49	5.73	6.22	7.27	7.75	6.36	5.04	4.85	5.09	4.82	4.20	3.86	4.55	5.03	5.49	6.31	5.66	4.85	5.11	5.47	5.83	6.43	6.95	5.46	3.47	2.42	2.44	1.93	1.81	2.18	2.61	2.66	3.97	3.60	4.03	3.89	3.71	3.71	3.88	4.28	4.78	5.17	5.54	6.37	6.65	6.99	6.50	5.46	4.87	4.05	3.11	3.32	3.75	2.74	1.70	2.50	2.01	1.71	3.02	3.02	2.96	2.11	2.75	2.41	1.42	3.17	2.66	3.56	5.03	7.71	9.00	7.94	5.54	4.51	3.53	2.84	2.33	3.16	2.90	2.45	2.20	2.52	3.62	4.66	6.63	5.49	5.54	6.26	6.12	5.70	4.87	3.93	3.06	2.59	3.87	5.51	5.89	5.42	5.49	5.03	3.80	2.63	1.97	1.57	1.70	1.68	2.38	2.46	1.91	1.73	2.25	2.54	2.60	2.54	2.27	1.89	2.13	2.53	2.48	2.34	2.52	2.38	2.23	2.16	3.14	3.13	3.17	3.00	2.67	2.40	2.31	2.44	2.71	2.88	2.98	3.11	3.22	3.32	3.41	3.51	3.64	3.71	3.75	3.78	3.83	3.90	3.94	3.95	4.00	4.06	4.03	4.06	4.24	4.23	4.09	4.10	4.16	4.13	4.10	4.13	4.15	4.15	
4.46	4.46	4.47	4.48	4.48	4.49	4.53	4.58	4.61	4.65	4.70	4.76	4.85	4.95	5.06	5.21	5.38	5.60	5.96	6.67	7.37	6.41	4.97	4.90	5.28	5.54	5.32	4.44	4.61	5.06	5.60	6.34	6.01	5.21	5.05	5.23	5.60	6.33	7.00	3.94	1.67	1.08	1.02	1.30	2.23	3.34	3.22	3.26	4.21	3.83	4.17	3.92	3.67	0.51	3.54	3.85	4.80	5.30	5.75	6.99	7.06	7.12	6.84	6.14	5.39	4.20	3.07	3.53	3.65	2.38	1.63	1.28	1.23	1.96	1.69	1.51	1.69	2.67	2.96	2.64	2.65	2.15	2.45	3.23	4.41	7.03	7.80	8.53	6.79	5.46	4.02	3.06	2.61	3.54	3.09	2.63	2.18	3.69	3.03	4.01	5.91	6.07	5.29	5.47	6.44	6.46	5.31	4.24	3.19	2.66	3.60	4.77	5.19	5.15	4.97	4.19	2.97	1.92	1.12	0.98	1.66	2.53	2.51	2.58	2.76	3.10	3.23	3.25	3.23	3.14	3.12	3.19	3.20	3.23	3.13	2.71	2.61	2.41	2.29	2.28	3.25	3.19	3.24	3.14	2.85	2.57	2.41	2.37	2.58	2.83	2.97	3.08	3.20	3.32	3.39	3.47	3.59	3.69	3.73	3.77	3.80	3.86	3.91	3.93	3.98	4.06	4.09	4.09	4.18	4.20	4.11	4.08	4.14	4.16	4.14	4.12	4.12	4.12	
4.44	4.44	4.45	4.47	4.47	4.48	4.52	4.56	4.59	4.62	4.67	4.73	4.80	4.89	4.99	5.11	5.27	5.46	5.71	6.23	7.05	6.43	4.75	4.61	5.11	5.63	5.94	5.24	4.62	4.80	5.58	6.38	6.48	5.85	5.55	5.68	5.99	6.20	5.67	2.13	1.36	1.19	2.13	3.12	4.01	3.94	3.89	4.75	4.41	4.53	4.33	4.10	3.75	3.27	2.78	2.66	3.24	4.55	5.11	7.61	7.77	8.13	7.56	6.94	6.06	4.85	3.78	3.75	3.33	2.33	1.58	1.40	1.46	2.30	1.92	1.75	1.62	2.47	2.89	2.14	2.70	1.71	2.47	3.03	3.98	6.46	7.13	8.62	7.75	5.98	4.48	3.46	2.80	3.67	3.23	2.85	2.26	3.32	4.43	3.42	5.24	6.42	5.95	5.18	5.73	6.34	5.71	4.59	3.14	2.37	3.59	4.92	5.33	5.19	4.13	2.51	1.74	1.22	1.63	2.72	3.95	4.90	5.57	4.85	4.25	3.83	3.30	2.91	2.75	2.84	3.06	3.34	3.24	3.02	2.92	2.69	2.50	2.29	2.30	2.47	3.30	3.22	3.23	3.22	3.04	2.78	2.61	2.44	2.46	2.69	2.90	3.03	3.13	3.26	3.35	3.42	3.53	3.63	3.70	3.76	3.80	3.84	3.89	3.90	3.92	4.00	4.09	4.16	4.21	4.19	4.14	4.11	4.11	4.13	4.16	4.13	4.09	4.09	
4.43	4.43	4.44	4.46	4.45	4.46	4.50	4.54	4.57	4.59	4.64	4.69	4.75	4.82	4.90	5.01	5.14	5.30	5.50	5.87	5.68	6.65	5.04	4.42	4.72	5.41	6.04	6.43	5.71	5.04	5.36	6.07	6.68	6.36	5.93	6.08	6.33	5.49	2.65	1.53	1.64	2.25	3.50	3.70	4.01	4.19	4.77	4.62	4.64	4.57	4.30	4.09	0.80	3.50	2.82	2.12	2.09	2.86	3.98	4.69	7.30	7.79	8.95	8.39	6.86	5.33	4.22	3.82	3.06	2.54	2.08	1.95	1.70	1.41	2.18	1.25	1.78	2.44	3.12	2.62	2.80	2.01	2.75	3.21	3.82	5.80	7.31	7.57	8.35	6.64	4.92	3.46	3.01	3.75	3.41	0.13	2.36	3.30	3.75	4.39	3.51	5.10	6.95	6.23	5.74	6.15	5.81	3.55	1.94	1.66	2.77	4.87	5.63	4.75	2.07	0.81	0.74	1.62	1.91	2.39	3.57	4.43	4.63	5.34	5.76	4.44	3.64	2.71	2.11	1.99	1.90	1.96	2.03	1.74	1.51	1.68	2.20	1.95	2.16	2.41	3.25	3.23	3.24	3.19	3.12	2.97	2.85	2.67	2.50	2.55	2.76	2.93	3.06	3.19	3.30	3.39	3.50	3.59	3.66	3.73	3.79	3.83	3.87	3.88	3.90	3.95	4.02	4.13	4.20	4.17	4.12	4.14	4.14	4.12	4.14	4.12	4.10	4.10	
4.42	4.42	4.42	4.44	4.44	4.44	4.48	4.52	4.55	4.56	4.60	4.65	4.69	4.75	4.82	4.91	5.02	5.16	5.33	5.55	6.23	6.75	3.36	4.89	4.51	4.89	5.59	6.99	6.89	5.92	5.40	5.91	6.62	6.92	6.54	6.14	5.79	3.56	1.72	1.43	1.95	2.09	3.08	3.07	4.08	4.30	4.52	4.49	4.47	4.48	4.12	3.78	3.75	3.72	3.32	2.40	1.77	1.94	2.97	3.71	4.57	7.08	9.00	9.49	8.22	5.90	4.61	3.70	2.98	2.51	2.27	2.13	1.77	1.41	1.32	1.52	1.84	2.27	2.69	3.01	2.67	3.00	3.08	4.54	5.25	5.54	7.18	7.61	8.07	7.65	5.48	3.82	3.40	3.76	3.35	3.19	2.81	3.72	4.44	4.01	4.50	4.12	6.34	7.07	6.52	5.99	4.91	1.48	1.23	1.34	2.10	4.53	5.62	3.56	1.10	0.35	1.60	2.57	2.38	2.19	2.37	3.16	4.55	4.13	5.05	6.30	4.41	3.52	2.98	2.56	2.05	1.84	1.86	1.81	1.89	1.87	1.58	1.90	2.01	2.21	2.04	3.21	3.27	3.19	3.10	3.06	3.02	2.91	2.70	2.59	2.65	2.77	2.91	3.08	3.23	3.36	3.48	3.56	3.62	3.69	3.76	3.83	3.88	3.86	3.87	3.92	3.98	4.09	4.15	4.12	4.07	4.09	4.15	4.14	4.11	4.10	4.10	4.10	
4.41	4.41	4.41	4.42	4.42	4.42	4.45	4.50	4.52	4.53	4.56	4.60	4.64	4.69	4.74	4.81	4.90	5.01	5.15	5.31	5.73	6.39	6.54	5.78	4.96	4.79	5.12	6.39	7.03	6.64	5.69	5.86	6.45	7.13	7.66	6.95	4.46	2.20	1.54	1.80	2.55	2.55	3.29	2.95	3.82	3.95	4.24	4.31	4.27	4.35	4.08	3.66	3.61	3.82	3.57	3.00	1.99	1.76	1.94	2.76	3.64	4.56	6.63	9.31	9.40	7.33	6.13	4.64	3.37	2.51	2.18	1.82	1.80	1.55	1.71	2.03	2.16	2.06	3.18	2.93	2.36	2.29	2.80	3.48	4.00	5.34	5.90	7.76	8.42	8.76	5.96	4.27	3.88	3.77	3.27	2.95	2.79	3.40	4.13	5.22	4.58	5.07	5.31	6.13	7.08	6.68	4.19	5.47	1.37	2.05	2.54	4.15	5.07	1.99	0.32	1.20	2.38	3.28	3.45	3.20	2.95	2.80	3.16	4.24	3.66	4.92	6.72	5.02	3.92	3.42	3.03	2.87	2.79	2.65	2.69	2.35	1.84	2.22	1.88	1.82	1.87	3.28	3.31	3.28	3.16	3.15	3.18	3.12	2.96	2.84	2.80	2.74	2.74	2.91	3.12	3.27	3.41	3.51	3.57	3.63	3.71	3.81	3.88	3.86	3.85	3.87	3.94	4.08	4.14	4.07	4.03	4.04	4.10	4.13	4.10	4.09	4.08	4.08	
4.40	4.40	4.40	4.40	4.41	4.41	4.43	4.48	4.49	4.49	4.52	4.56	4.59	4.61	4.66	4.71	4.78	4.87	4.97	5.12	5.34	5.82	6.40	6.29	5.51	5.04	4.98	5.96	6.42	7.27	6.48	6.06	6.32	7.11	8.14	7.33	2.41	2.28	2.03	2.50	2.69	3.75	3.32	3.86	3.70	3.75	3.95	4.14	4.19	4.23	1.88	3.84	3.78	4.07	4.19	3.68	2.71	1.92	1.80	2.17	2.89	3.68	4.60	6.40	9.87	9.18	6.92	5.32	3.83	2.66	2.26	2.04	1.82	1.79	1.95	2.18	2.17	1.62	3.45	3.06	2.49	2.13	2.41	3.09	3.77	5.20	5.71	7.21	8.00	9.24	6.47	4.86	4.54	3.86	3.30	2.90	2.48	3.09	3.78	4.44	5.36	4.86	5.14	6.14	6.77	7.47	5.27	4.93	0.61	3.13	3.67	3.79	3.22	1.03	0.98	2.06	2.74	3.04	3.05	2.93	3.09	3.21	2.92	2.87	3.50	3.59	4.53	5.44	6.81	5.33	4.67	4.47	4.08	3.47	2.99	2.49	2.16	2.80	2.16	1.88	1.97	3.36	3.37	3.34	3.25	3.22	3.28	3.31	3.21	3.16	3.18	3.00	2.74	2.77	3.01	3.21	3.35	3.46	3.53	3.58	3.65	3.76	3.84	3.86	3.86	3.87	3.90	4.06	4.16	4.08	4.01	4.01	4.04	4.07	4.10	4.11	4.10	4.10	
4.39	4.38	4.38	4.38	4.39	4.39	4.41	4.45	4.46	4.45	4.48	4.50	4.53	4.55	4.58	4.62	4.66	4.73	4.80	4.90	5.01	5.32	6.03	6.47	5.91	5.20	4.84	5.56	5.89	7.28	7.27	7.03	7.09	7.46	8.03	5.58	2.77	2.53	2.37	2.53	2.13	3.49	3.04	3.75	3.59	3.62	3.72	3.94	4.15	4.24	4.16	3.93	3.90	4.20	4.53	3.57	3.45	2.63	2.79	2.03	2.37	2.96	3.76	5.38	8.70	10.43	8.74	5.50	4.25	2.79	2.36	2.33	2.46	2.70	2.35	1.86	1.95	3.85	3.70	3.50	1.60	2.15	2.17	2.28	2.88	3.68	4.53	5.80	8.24	9.32	7.98	5.58	5.44	4.02	3.35	2.87	2.90	2.87	3.55	4.33	5.48	5.61	5.21	5.35	6.44	5.26	5.15	4.55	2.12	4.39	4.13	2.94	0.71	1.00	1.90	2.34	2.68	2.70	2.27	1.99	2.08	2.17	1.93	1.58	1.62	2.96	3.35	3.98	4.83	5.54	5.74	5.24	4.99	4.19	3.30	2.92	2.82	2.63	2.47	2.11	2.10	2.18	3.29	3.28	3.24	3.20	3.29	3.40	3.35	3.36	3.51	3.41	2.98	2.77	2.93	3.18	3.33	3.43	3.52	3.56	3.61	3.72	3.80	3.82	3.87	3.90	3.88	3.98	4.14	4.16	4.11	4.08	4.05	4.03	4.06	4.09	4.10	4.10	
4.37	4.37	4.36	4.36	4.37	4.37	4.38	4.41	4.42	4.42	4.43	4.45	4.47	4.48	4.50	4.52	4.55	4.60	4.64	4.69	4.74	4.96	5.62	6.45	6.30	5.53	5.45	5.29	5.32	6.81	7.34	7.80	8.25	8.43	8.34	4.17	3.26	2.35	2.11	2.08	2.03	2.16	3.19	3.89	3.65	3.62	3.74	3.96	4.23	4.51	4.54	4.23	4.09	4.26	4.55	3.89	3.80	2.97	2.35	3.54	2.05	2.37	3.03	4.54	5.26	8.49	10.55	5.83	4.93	3.20	2.53	2.47	2.86	2.54	1.63	1.48	4.04	3.95	3.83	1.50	2.52	1.71	2.65	1.90	1.91	2.50	3.42	4.48	5.62	8.84	10.59	6.07	6.43	4.49	3.60	0.92	2.51	2.53	2.92	3.86	5.53	6.06	6.28	5.94	5.75	3.05	5.08	0.71	3.00	3.82	3.45	0.99	2.52	2.96	3.35	3.40	3.27	3.20	3.12	2.97	4.22	5.25	5.08	4.66	4.17	3.68	0.69	2.28	4.01	4.50	4.09	3.65	3.62	3.48	3.13	2.91	2.87	3.27	2.62	1.93	1.73	1.99	3.16	3.14	3.15	3.12	3.19	3.35	3.34	3.34	3.58	3.64	3.29	2.94	2.91	3.11	3.28	3.39	3.50	3.55	3.58	3.66	3.75	3.77	3.82	3.91	3.93	3.93	4.02	4.09	4.16	4.20	4.13	4.04	4.04	4.06	4.07	4.07	
4.36	4.36	4.35	4.35	4.36	4.36	4.35	4.38	4.39	4.38	4.39	4.40	4.41	4.42	4.42	4.43	4.44	4.46	4.48	4.50	4.51	4.68	5.21	6.28	6.34	6.41	5.74	5.29	6.33	6.77	7.20	7.68	8.41	8.95	8.20	3.68	3.59	2.45	1.82	2.10	2.52	3.90	3.50	4.14	3.85	3.71	3.84	0.38	4.42	4.71	4.89	4.74	4.47	4.38	4.73	4.18	4.08	3.21	2.54	3.07	3.32	3.58	2.43	3.23	4.49	7.69	9.94	8.52	5.03	3.86	2.77	2.23	1.92	2.20	4.27	4.54	4.16	3.87	3.62	2.61	3.93	2.70	3.10	2.37	3.86	2.01	2.65	3.71	5.06	5.82	9.31	6.05	6.79	5.05	4.21	1.47	2.05	2.57	2.51	3.06	4.06	5.20	6.30	6.85	5.11	2.41	5.41	1.66	2.84	3.32	3.18	4.18	4.41	4.57	4.61	4.57	4.35	4.42	4.71	4.49	3.93	4.58	2.77	5.56	4.81	4.56	1.16	3.89	0.54	0.80	1.03	1.34	1.47	1.93	2.28	2.07	2.17	2.50	3.03	2.64	2.19	1.95	3.22	3.08	3.05	3.01	3.05	3.24	3.31	3.27	3.47	3.63	3.46	3.16	3.01	3.07	3.20	3.30	3.42	3.52	3.58	3.63	3.70	3.72	3.75	3.85	3.98	4.04	4.01	3.97	4.00	4.12	4.14	4.09	4.08	4.07	4.05	4.05	
4.33	4.34	4.33	4.33	4.34	4.34	4.33	4.35	4.36	4.35	4.35	4.35	4.35	4.36	4.35	4.35	4.34	4.34	4.33	4.33	4.30	4.38	4.82	6.22	6.41	6.75	6.14	5.24	6.21	6.59	7.14	7.78	8.64	9.43	7.33	3.50	3.77	2.97	2.44	3.07	2.84	3.82	3.52	4.28	4.03	3.80	3.79	4.07	4.47	4.83	5.04	5.01	4.45	4.61	5.02	4.75	3.90	3.51	2.90	2.62	3.09	3.81	4.55	2.80	3.84	4.86	7.40	10.38	4.04	3.84	2.59	2.84	5.26	4.73	4.84	4.57	4.25	3.89	3.45	2.72	3.69	4.15	2.61	2.90	2.26	4.12	2.30	3.18	4.61	7.74	8.98	5.93	6.56	5.21	1.95	2.44	2.62	1.57	2.88	2.70	3.44	4.47	5.84	6.88	3.45	2.58	2.14	1.11	2.92	6.00	5.14	5.10	5.31	5.41	5.22	5.18	5.27	5.52	5.90	5.77	5.38	4.74	3.84	3.20	2.94	2.78	2.22	1.68	1.64	1.76	1.76	2.05	2.35	2.64	2.61	2.53	2.81	3.11	3.35	3.24	2.96	2.46	2.09	3.33	3.13	3.02	3.05	3.23	3.38	3.38	3.41	3.53	3.45	3.27	3.15	3.15	3.20	3.24	3.35	3.48	3.59	3.68	3.72	3.69	3.65	3.72	3.89	4.07	4.15	4.09	3.96	3.98	4.05	4.06	4.09	4.08	4.05	4.05	
4.31	4.32	4.32	4.32	4.32	4.32	4.30	4.32	4.33	4.32	4.31	4.31	4.30	4.29	4.27	4.26	4.24	4.22	4.19	4.17	4.13	4.11	4.42	6.15	7.69	6.78	6.14	6.30	5.94	6.36	7.01	7.60	8.24	9.79	2.75	4.35	4.09	3.60	3.26	3.60	2.94	3.93	3.62	4.42	4.24	3.97	3.72	3.81	4.28	4.81	5.21	5.31	4.87	4.82	5.38	5.28	4.54	3.73	3.11	2.99	2.95	3.56	4.18	5.11	3.41	4.46	8.50	9.68	5.59	6.16	5.61	5.45	5.19	4.95	4.79	4.60	2.98	2.75	2.25	2.02	3.58	4.20	3.49	3.42	2.51	1.99	2.08	2.82	4.10	5.27	8.68	4.99	6.36	2.03	3.61	3.43	3.02	3.23	2.12	2.33	3.28	3.92	5.79	4.31	8.00	7.03	6.32	6.69	6.67	6.56	6.53	6.05	5.78	5.72	5.58	5.70	5.67	5.78	6.38	6.61	6.24	5.72	5.28	4.46	4.05	3.80	3.16	2.57	2.29	2.06	2.70	3.34	3.68	3.87	3.93	3.72	3.45	3.17	2.96	3.04	3.02	2.65	3.84	3.68	3.41	3.21	3.17	3.23	3.42	3.51	3.44	3.45	3.38	3.25	3.20	3.25	3.31	3.29	3.34	3.44	3.54	3.70	3.86	3.80	3.62	3.62	3.75	3.90	4.11	4.22	4.12	3.99	3.97	4.00	4.04	4.05	4.04	4.04	
4.29	4.30	4.31	4.31	4.31	4.30	4.28	4.29	4.30	4.28	4.26	4.25	4.24	4.22	4.19	4.16	4.13	4.10	4.06	4.01	3.97	3.95	4.11	5.54	7.64	7.06	7.21	6.49	6.15	6.06	6.30	6.77	7.62	9.63	5.46	5.16	4.52	4.23	3.95	4.04	3.27	4.16	3.86	4.51	4.37	4.17	3.80	3.63	3.90	4.44	5.03	5.45	5.46	5.45	5.64	5.78	4.09	3.98	3.17	3.08	3.48	4.43	4.73	4.76	5.68	6.68	8.09	6.79	4.92	5.57	5.28	5.34	5.11	4.57	4.17	3.76	3.23	3.01	2.72	2.10	3.83	4.28	4.22	3.92	2.91	2.24	2.28	2.78	3.97	5.04	8.06	6.24	5.15	3.32	4.24	4.17	3.08	1.74	1.57	2.25	3.11	3.61	3.85	6.34	6.71	7.20	6.30	5.99	6.18	6.60	7.09	7.10	6.92	6.62	6.01	5.72	5.40	5.45	5.88	6.44	6.37	6.07	6.19	5.75	5.23	5.18	5.29	4.79	4.53	4.54	4.22	3.98	4.13	4.32	4.52	4.19	3.53	2.81	2.49	2.21	2.30	2.65	2.81	2.76	3.59	3.38	3.28	3.23	3.37	3.52	3.45	3.44	3.37	3.20	3.14	3.21	3.32	3.33	3.36	3.40	3.44	3.57	3.87	3.97	3.74	3.64	3.69	3.75	3.91	4.13	4.21	4.08	3.98	4.00	4.01	4.01	4.03	4.03	
4.28	4.28	4.30	4.29	4.29	4.28	4.26	4.26	4.27	4.24	4.21	4.20	4.18	4.15	4.11	4.07	4.03	3.98	3.92	3.86	3.81	3.82	4.10	5.39	7.13	8.15	8.03	6.97	6.34	6.15	6.19	6.69	7.83	10.24	5.51	5.49	5.26	5.81	5.30	4.52	5.19	4.29	4.53	4.45	4.28	4.16	0.51	3.46	3.50	3.95	4.53	5.09	5.67	6.37	6.28	6.42	4.51	4.26	3.25	3.11	3.85	4.72	4.52	3.98	4.74	5.96	7.66	4.00	4.93	3.64	5.10	2.58	2.06	2.35	4.74	4.14	1.78	1.70	2.93	2.55	3.91	4.33	4.54	4.26	3.41	2.72	2.23	2.89	3.96	4.91	8.25	7.39	4.45	4.09	4.91	4.81	3.12	3.98	2.07	3.43	3.44	3.48	6.17	6.36	6.88	7.31	6.91	6.04	5.93	6.25	6.69	6.96	7.19	7.29	6.91	6.45	5.97	5.55	5.49	5.64	5.79	5.61	5.87	5.68	5.01	4.69	5.07	5.00	4.66	4.94	4.52	3.80	3.51	3.51	3.46	3.12	2.28	1.57	2.26	2.05	1.97	2.39	2.58	2.75	3.57	3.49	3.40	3.31	3.42	3.54	3.46	3.47	3.46	3.28	3.17	3.18	3.19	3.24	3.33	3.37	3.36	3.40	3.65	3.92	3.85	3.73	3.74	3.75	3.80	3.96	4.15	4.16	4.04	4.01	4.00	3.99	4.01	4.01	
4.27	4.27	4.28	4.28	4.27	4.26	4.24	4.23	4.24	4.22	4.18	4.15	4.12	4.09	4.04	3.99	3.93	3.86	3.80	3.73	3.68	3.66	4.03	5.08	6.79	7.96	8.13	7.69	6.65	6.20	6.45	7.44	9.24	5.66	6.10	6.12	5.77	5.67	5.60	6.08	5.49	4.60	4.60	4.43	4.17	1.50	3.77	3.35	3.22	3.52	4.03	4.55	5.25	6.75	6.61	6.78	5.08	4.50	3.32	2.66	4.06	4.86	4.48	3.79	4.16	5.03	6.31	4.09	3.61	3.73	2.93	2.37	2.38	5.55	5.22	4.75	2.15	2.18	3.40	2.26	3.89	4.44	5.35	4.47	3.75	3.13	2.90	2.94	3.82	4.68	6.38	8.48	5.79	5.10	4.48	4.61	3.30	4.81	4.15	5.96	3.69	3.81	4.14	4.59	5.02	5.56	7.21	6.59	6.01	5.60	6.15	6.62	7.02	7.12	7.10	6.91	6.55	6.20	5.77	5.37	5.22	5.04	5.09	4.48	3.22	2.16	1.99	2.57	2.77	2.87	2.76	2.15	1.35	0.92	0.75	0.85	1.01	1.10	1.00	2.19	1.98	2.10	2.42	2.82	3.43	3.46	3.50	3.47	3.56	3.63	3.51	3.49	3.56	3.46	3.38	3.34	3.22	3.18	3.28	3.33	3.32	3.35	3.50	3.72	3.79	3.77	3.78	3.80	3.80	3.84	4.00	4.14	4.12	4.04	3.97	3.95	3.97	3.97	
4.27	4.27	4.27	4.27	4.25	4.24	4.23	4.21	4.21	4.19	4.14	4.11	4.07	4.02	3.97	3.90	3.84	3.76	3.68	3.60	3.57	3.57	3.80	4.14	6.30	7.93	7.93	8.50	8.02	7.37	7.14	7.95	5.11	5.45	5.71	5.66	5.75	5.81	6.05	6.03	5.64	5.10	4.73	4.52	2.15	4.00	1.11	0.84	3.11	3.18	3.51	3.92	4.58	6.51	6.69	7.40	5.66	4.79	3.48	2.23	3.66	4.91	4.77	4.05	4.24	4.97	6.36	3.88	4.77	3.49	3.06	4.79	5.09	5.34	5.32	1.95	3.34	2.77	2.07	2.05	4.02	4.65	4.70	4.67	4.08	3.65	3.16	3.21	3.67	4.30	5.60	7.73	7.63	6.37	4.12	5.12	5.32	5.47	5.36	3.66	3.63	3.91	4.31	4.92	5.29	5.67	6.15	6.28	5.91	5.58	5.85	6.34	6.60	6.70	7.03	7.10	6.70	6.63	6.26	5.95	5.28	4.66	4.20	3.66	3.07	2.94	2.66	2.32	2.23	2.07	1.89	1.84	1.99	1.85	1.49	1.24	1.21	1.22	1.39	1.60	2.39	2.45	2.77	2.95	3.27	3.29	3.43	3.53	3.66	3.70	3.54	3.43	3.49	3.49	3.48	3.48	3.37	3.28	3.33	3.36	3.34	3.38	3.49	3.59	3.68	3.72	3.76	3.82	3.83	3.80	3.87	4.03	4.16	4.14	4.01	3.93	3.93	3.93	
4.26	4.25	4.25	4.25	4.24	4.23	4.21	4.19	4.18	4.16	4.11	4.06	4.01	3.96	3.90	3.82	3.74	3.64	3.56	3.48	3.44	3.55	3.90	4.04	7.15	8.04	7.77	8.28	8.73	9.52	6.65	5.59	4.82	4.91	5.27	5.49	5.51	5.56	5.74	5.83	5.61	5.13	4.78	4.58	4.46	4.17	3.60	3.16	2.99	3.08	3.34	3.71	3.86	4.25	6.14	8.17	4.53	5.52	3.28	2.63	3.48	4.50	4.55	3.98	6.69	9.12	9.54	11.10	5.54	5.02	3.71	3.24	2.55	2.09	2.47	5.50	5.48	2.94	4.55	1.95	4.03	4.58	3.99	4.66	4.25	4.06	3.19	4.07	3.83	4.16	5.02	5.03	7.05	7.41	5.16	5.02	5.12	4.17	4.01	3.87	3.78	3.18	3.19	3.41	3.84	4.21	6.24	6.54	6.34	5.44	5.10	4.37	4.69	5.00	5.47	5.93	6.23	6.48	6.60	7.15	6.92	6.41	6.08	5.79	5.32	4.61	4.11	3.66	3.34	2.92	2.58	2.27	2.22	2.09	1.80	1.57	1.36	1.42	1.94	2.28	2.70	2.67	2.76	3.32	3.23	3.21	3.32	3.50	3.71	3.75	3.56	3.36	3.30	3.30	3.37	3.42	3.36	3.31	3.34	3.38	3.37	3.40	3.49	3.55	3.61	3.65	3.71	3.81	3.84	3.81	3.81	3.89	4.07	4.17	4.08	3.94	3.89	3.89	
4.26	4.25	4.24	4.24	4.23	4.21	4.19	4.16	4.15	4.13	4.08	4.02	3.97	3.91	3.84	3.75	3.65	3.53	3.43	3.33	3.30	3.43	4.13	4.36	7.61	7.60	7.07	7.39	7.97	10.11	4.81	5.84	4.48	4.50	4.80	5.11	5.27	5.30	5.39	5.54	5.48	5.13	4.79	4.60	4.48	3.55	3.75	3.24	3.10	3.29	3.63	3.79	3.76	4.75	5.11	7.79	4.42	6.10	4.91	2.99	4.23	5.08	4.97	6.79	7.67	7.85	8.39	9.62	11.47	8.48	5.15	4.46	3.64	3.13	6.73	6.88	5.84	4.53	3.31	2.47	4.37	4.69	3.66	4.44	3.99	3.82	3.72	3.79	4.00	4.31	4.87	6.71	6.92	4.90	4.59	4.45	4.09	3.93	3.80	3.75	3.62	3.20	2.95	3.00	3.50	4.05	4.35	4.73	5.11	5.09	5.12	4.20	4.31	4.56	5.02	5.57	6.06	6.42	6.71	6.97	6.95	7.00	7.22	7.03	6.49	5.84	5.31	4.99	4.44	3.50	3.16	2.96	2.72	2.66	2.41	1.90	1.47	1.89	2.32	2.54	2.72	2.71	2.71	3.29	3.24	3.23	3.27	3.42	3.69	3.82	3.70	3.51	3.29	3.16	3.20	3.28	3.24	3.17	3.22	3.32	3.35	3.39	3.47	3.53	3.56	3.60	3.66	3.77	3.83	3.82	3.80	3.82	3.94	4.10	4.13	3.99	3.89	3.89	
4.24	4.24	4.23	4.23	4.22	4.20	4.18	4.14	4.13	4.11	4.06	3.99	3.93	3.87	3.78	3.67	3.56	3.43	3.31	3.17	3.13	3.23	4.02	4.31	8.15	7.60	6.65	6.64	7.59	9.87	3.71	3.49	4.01	3.58	4.60	4.90	5.15	5.17	5.18	5.25	5.24	5.06	4.89	4.80	4.63	3.84	3.88	1.20	3.42	3.39	3.68	3.97	4.44	4.34	5.64	7.53	7.67	6.10	5.64	5.29	5.24	8.60	7.00	6.04	6.52	7.48	7.87	8.48	9.76	11.30	9.76	7.89	7.62	2.54	7.68	7.92	4.39	6.61	4.72	3.93	5.24	5.30	4.37	4.57	3.93	3.62	3.64	3.89	4.24	4.74	5.01	6.62	8.23	4.29	3.99	3.91	3.52	3.54	3.73	3.62	3.52	3.26	2.74	2.74	3.14	3.61	3.88	4.20	5.02	5.11	4.90	4.51	4.22	4.28	3.95	4.22	4.64	4.89	5.05	6.65	6.48	6.41	6.87	7.49	7.53	7.20	6.74	6.44	5.67	4.68	4.33	3.99	3.65	3.42	2.94	2.62	2.38	2.18	2.15	2.29	2.51	3.13	2.73	3.26	3.22	3.20	3.21	3.32	3.55	3.78	3.88	3.80	3.52	3.22	3.14	3.23	3.22	3.10	3.10	3.20	3.28	3.36	3.46	3.53	3.53	3.54	3.60	3.69	3.77	3.80	3.78	3.80	3.86	3.98	4.12	4.05	3.94	3.94	
4.22	4.23	4.22	4.22	4.21	4.19	4.16	4.13	4.11	4.09	4.03	3.96	3.89	3.82	3.72	3.60	3.48	3.32	3.18	3.02	2.92	2.99	3.39	3.58	8.53	9.34	6.88	6.32	7.56	9.54	4.49	4.02	2.20	4.00	4.71	4.93	5.12	5.19	5.17	5.12	5.01	4.42	5.05	5.16	3.12	4.30	3.84	2.93	3.60	3.53	3.57	3.75	4.49	5.67	6.55	4.64	6.97	7.12	7.63	7.77	7.58	7.56	7.29	6.05	6.26	7.19	7.66	8.09	8.76	9.63	10.36	9.18	7.82	10.93	11.06	11.15	11.97	12.64	4.47	7.24	7.24	6.03	6.38	5.79	4.88	3.11	4.07	4.64	5.01	5.27	6.18	7.32	4.39	3.57	3.32	3.26	2.91	3.01	3.16	3.63	3.26	3.17	2.93	2.74	2.95	3.31	3.55	3.87	4.41	4.79	4.80	4.68	4.50	4.16	3.85	3.89	4.28	4.61	4.82	5.02	5.06	4.85	4.80	5.25	5.76	6.09	6.27	7.20	7.33	6.85	6.17	5.36	4.82	4.27	3.84	3.67	3.22	2.56	2.26	2.22	2.38	2.95	3.10	3.18	3.17	3.16	3.20	3.29	3.41	3.61	3.88	3.95	3.68	3.37	3.22	3.26	3.33	3.28	3.16	3.10	3.16	3.27	3.39	3.49	3.52	3.52	3.55	3.62	3.70	3.77	3.80	3.82	3.82	3.84	4.02	4.07	3.99	3.99	
4.22	4.22	4.22	4.21	4.20	4.18	4.16	4.12	4.09	4.06	4.01	3.93	3.86	3.77	3.66	3.54	3.40	3.23	3.05	2.86	2.71	2.70	2.63	2.55	5.99	10.03	8.75	8.82	10.05	12.25	7.01	4.95	5.49	4.93	4.71	4.93	5.11	5.18	5.19	5.17	1.52	4.98	5.16	5.27	4.92	4.33	3.91	3.38	3.78	3.85	3.67	3.52	4.43	3.86	4.07	6.89	6.41	6.26	6.67	6.89	7.12	7.35	7.31	5.02	5.36	6.69	7.07	7.19	7.50	9.07	9.55	8.22	7.40	9.47	9.53	9.51	10.01	10.82	11.51	8.61	8.11	11.22	7.97	7.46	6.56	3.26	5.83	5.72	5.80	5.88	5.79	7.31	4.14	3.75	3.56	3.56	3.15	3.03	2.85	2.40	2.77	2.94	2.87	2.84	2.96	3.00	3.19	3.56	4.03	4.54	4.75	4.65	4.48	4.28	3.97	3.76	3.83	4.19	4.59	4.75	4.79	4.55	4.34	4.21	5.15	5.47	5.77	6.10	6.52	6.77	6.75	6.54	6.33	5.51	4.86	4.43	3.78	3.24	2.89	2.55	2.58	2.98	3.00	3.07	3.13	3.19	3.25	3.32	3.32	3.44	3.82	4.03	3.77	3.41	3.27	3.26	3.38	3.52	3.47	3.22	3.07	3.12	3.26	3.39	3.47	3.51	3.53	3.57	3.63	3.71	3.80	3.86	3.83	3.75	3.86	3.99	3.99	3.99	
4.21	4.21	4.22	4.21	4.19	4.17	4.14	4.11	4.07	4.04	3.98	3.90	3.82	3.73	3.62	3.49	3.34	3.16	2.94	2.72	2.53	2.40	2.26	2.38	4.19	8.69	11.08	10.58	10.36	11.21	10.56	6.60	4.15	5.24	4.61	4.69	4.92	5.15	5.20	1.48	5.13	5.04	5.24	3.55	4.95	4.42	4.08	3.76	3.92	3.90	3.61	3.85	3.18	3.42	3.86	6.47	5.99	6.07	6.36	5.84	6.26	6.73	7.33	4.67	3.70	5.88	3.85	6.76	7.70	8.16	8.91	7.27	7.46	8.92	9.08	9.27	9.34	9.59	9.75	9.89	10.19	11.00	11.20	7.46	6.68	10.32	9.02	9.39	9.73	5.61	8.44	10.59	5.88	4.01	3.36	3.84	3.88	3.20	3.25	2.32	3.47	3.15	3.02	3.09	1.73	2.83	2.94	3.29	3.61	4.12	4.60	4.61	4.33	4.14	4.08	3.98	3.78	3.87	4.26	4.50	4.54	4.30	3.87	3.77	4.05	4.28	4.40	4.56	4.86	5.27	6.55	6.66	6.76	6.75	6.27	5.37	4.65	3.96	4.47	2.80	3.01	2.36	2.11	3.04	3.07	3.19	3.31	3.38	3.32	3.42	3.83	4.18	3.99	3.49	3.21	3.13	3.20	3.47	3.66	3.51	3.21	3.07	3.12	3.25	3.36	3.45	3.51	3.54	3.54	3.58	3.70	3.84	3.86	3.80	3.81	3.90	3.92	3.92	
4.22	4.21	4.21	4.20	4.18	4.16	4.14	4.10	4.05	4.01	3.96	3.89	3.81	3.71	3.59	3.46	3.29	3.10	2.87	2.62	2.37	2.19	2.04	2.44	2.48	7.92	10.47	9.98	10.00	10.66	12.16	9.36	5.99	3.97	3.72	2.79	4.60	2.61	1.38	4.97	4.93	4.96	5.23	5.39	4.91	4.44	1.98	4.14	4.12	4.13	3.99	3.31	3.69	3.11	3.57	5.03	5.70	5.57	5.70	6.14	6.50	7.17	7.47	4.96	3.94	3.03	4.39	4.27	7.08	7.93	8.40	6.96	6.80	8.14	8.44	8.65	8.89	8.98	9.18	9.32	9.57	9.94	10.09	9.03	9.26	9.73	4.82	6.11	5.71	8.68	9.03	10.57	8.05	4.69	4.08	3.11	3.17	2.98	2.48	4.62	4.09	3.76	3.52	3.49	3.38	3.00	1.66	3.13	3.42	3.76	4.24	4.51	4.18	3.90	3.95	4.18	4.03	3.69	3.92	4.29	4.37	4.14	3.79	3.68	3.69	3.71	3.66	3.72	4.11	4.51	4.84	5.08	5.22	5.65	6.12	6.33	5.79	4.50	4.89	4.37	3.72	3.60	2.24	3.16	3.04	3.05	3.21	3.35	3.31	3.36	3.72	4.13	4.13	3.66	3.18	2.96	2.97	3.26	3.61	3.70	3.54	3.29	3.14	3.17	3.26	3.36	3.46	3.53	3.49	3.46	3.57	3.72	3.83	3.88	3.88	3.88	3.87	3.87	
4.22	4.21	4.20	4.20	4.18	4.16	4.13	4.09	4.04	4.00	3.96	3.88	3.80	3.70	3.57	3.44	3.26	3.06	2.82	2.55	2.26	2.03	1.92	2.27	2.27	7.46	10.13	9.74	9.88	10.37	11.28	12.82	9.13	5.66	3.75	2.28	5.01	4.72	4.70	4.70	4.78	4.98	4.35	5.26	4.70	4.18	4.06	4.23	4.44	4.57	3.73	3.87	2.49	2.97	3.18	4.84	5.10	5.24	5.38	3.65	3.95	4.40	7.42	4.89	4.03	3.02	4.73	4.62	3.45	7.67	8.31	5.15	4.67	7.65	7.84	8.02	8.26	8.28	8.58	9.06	9.23	9.63	9.48	8.00	8.07	8.63	4.17	4.44	6.31	6.21	9.11	10.15	11.83	7.43	5.28	4.91	3.82	3.12	5.04	4.90	4.56	4.30	4.07	3.97	3.78	3.41	3.15	3.17	1.25	3.56	3.85	4.22	4.10	3.91	3.95	3.21	1.48	3.69	3.68	4.07	4.24	4.07	3.87	3.81	3.73	3.63	3.44	3.37	3.62	3.85	4.12	4.38	4.44	4.81	5.26	5.52	6.08	5.92	4.73	4.44	4.31	4.11	3.48	3.28	3.11	2.97	3.05	3.20	3.19	3.18	3.51	3.95	4.10	3.85	3.32	2.95	2.88	3.10	3.47	3.69	3.72	3.62	3.38	3.21	3.22	3.29	3.40	3.51	3.49	3.43	3.49	3.60	3.72	3.86	3.94	3.89	3.83	3.83	
4.22	4.21	4.20	4.19	4.18	4.15	4.13	4.09	4.04	3.99	3.95	3.88	3.78	3.68	3.56	3.41	3.24	3.03	2.77	2.51	2.18	1.90	1.83	2.15	1.75	7.10	9.58	9.49	9.74	10.08	10.51	11.55	12.22	8.72	5.06	7.77	7.06	6.38	5.70	5.36	5.38	5.57	4.26	5.30	4.75	4.19	3.90	4.07	4.47	5.16	4.89	3.35	2.51	3.81	2.98	3.15	3.52	4.96	3.51	3.89	3.24	4.64	5.04	4.71	3.98	3.05	6.36	2.78	5.20	5.59	8.20	5.34	4.71	7.42	7.70	7.87	8.10	8.03	8.22	8.62	8.52	9.48	9.10	7.31	7.35	7.76	3.71	4.03	6.59	6.70	6.76	9.90	11.00	11.87	5.86	6.59	4.51	5.44	5.24	5.10	4.83	4.34	3.84	4.35	4.26	3.91	3.48	3.44	3.65	3.66	3.73	3.94	4.04	4.06	4.13	4.33	4.33	3.97	3.77	3.97	4.17	4.08	3.93	3.96	4.00	3.91	3.67	3.18	3.27	3.37	3.65	3.88	3.86	4.07	4.29	4.36	5.08	5.71	5.30	4.88	4.60	3.56	3.52	1.50	1.50	3.08	3.06	3.11	3.06	3.07	3.33	3.77	4.08	4.05	3.62	3.10	2.88	2.99	3.30	3.53	3.65	3.74	3.59	3.28	3.18	3.24	3.35	3.46	3.47	3.42	3.43	3.48	3.58	3.78	3.97	3.94	3.85	3.85	
4.21	4.21	4.20	4.19	4.18	4.15	4.13	4.09	4.03	3.99	3.94	3.87	3.78	3.67	3.55	3.40	3.23	3.02	2.76	2.48	2.15	1.82	1.65	1.97	1.70	6.87	9.48	9.46	9.62	9.89	10.16	10.65	10.74	10.50	10.64	8.10	8.14	3.61	3.20	6.24	6.75	4.60	5.66	4.71	2.15	2.99	4.46	4.47	4.72	5.00	3.70	3.61	2.91	3.59	3.48	2.72	3.02	3.21	3.26	2.59	2.92	3.57	5.13	4.64	3.91	3.15	2.86	2.89	3.30	3.99	6.43	5.35	4.15	3.48	7.47	7.59	7.84	7.85	7.97	5.45	5.34	9.14	9.05	5.90	5.76	7.11	3.18	3.74	4.00	6.90	7.13	9.64	10.59	12.05	9.21	6.25	6.34	6.23	5.63	5.42	5.29	4.89	4.20	3.73	3.47	2.95	3.97	3.84	3.90	3.94	3.91	3.91	4.07	4.25	4.26	4.28	4.41	4.38	4.19	4.08	4.11	4.06	3.92	4.03	4.26	4.26	3.96	3.46	3.09	3.21	3.45	3.54	3.56	3.66	3.79	3.80	4.37	4.99	4.61	4.31	3.59	3.98	1.81	1.49	3.19	3.11	3.10	3.10	3.02	2.97	3.07	3.38	3.83	4.08	3.89	3.34	2.91	2.91	3.16	3.34	3.46	3.66	3.65	3.32	3.12	3.16	3.27	3.37	3.41	3.37	3.36	3.37	3.41	3.60	3.89	3.99	3.95	3.95	
4.20	4.21	4.20	4.19	4.18	4.15	4.13	4.09	4.04	3.98	3.94	3.87	3.78	3.67	3.55	3.41	3.23	3.03	2.78	2.49	2.15	1.79	1.48	1.60	1.41	6.50	9.36	9.23	9.28	9.64	9.99	10.24	9.46	9.11	9.52	9.96	7.73	8.02	8.09	7.37	11.48	4.79	7.12	3.26	4.06	5.24	5.59	5.37	5.24	4.40	4.41	4.03	3.68	3.39	3.07	2.96	4.16	2.79	2.94	2.15	2.47	3.26	5.19	5.39	3.72	2.95	5.99	2.86	3.27	3.91	6.67	5.31	4.14	3.35	7.08	7.24	7.60	6.40	3.98	5.66	5.59	9.37	8.85	4.99	3.55	6.51	2.86	3.29	4.02	4.16	7.52	7.73	9.91	10.91	12.88	9.40	6.29	6.51	4.78	3.79	3.12	2.53	2.14	2.02	1.83	3.15	4.41	4.30	4.25	4.20	4.06	4.01	4.23	4.41	3.97	4.17	4.40	4.63	4.61	4.40	4.21	4.12	4.04	4.20	4.49	4.52	4.25	3.68	3.20	3.22	3.37	3.44	3.46	3.52	2.55	3.64	3.93	4.39	4.31	4.13	3.28	2.42	1.62	1.64	2.94	2.93	3.04	3.12	3.08	2.97	2.83	2.87	3.30	3.78	3.92	3.57	3.03	2.87	3.06	3.18	3.26	3.50	3.60	3.33	3.09	3.08	3.15	3.26	3.33	3.31	3.28	3.28	3.27	3.35	3.65	3.94	4.03	4.03	
4.20	4.20	4.20	4.20	4.18	4.16	4.13	4.09	4.04	3.98	3.94	3.88	3.78	3.68	3.56	3.42	3.25	3.05	2.81	2.53	2.20	1.81	1.42	1.14	1.14	4.69	8.59	9.08	8.98	9.40	9.65	9.50	8.61	6.87	7.05	7.15	7.18	7.30	7.45	10.69	10.66	11.10	7.15	4.63	6.84	6.37	5.93	9.18	6.02	4.90	4.46	4.17	4.00	3.97	3.42	2.70	2.24	3.80	2.05	1.79	2.11	2.96	3.90	5.74	3.73	2.86	5.65	2.61	3.14	3.80	6.86	5.45	4.19	3.42	6.96	6.97	6.76	3.82	4.01	4.24	5.82	9.25	8.52	4.75	3.36	5.65	2.71	3.08	3.51	4.35	4.49	7.94	9.28	9.87	10.75	12.63	10.98	6.02	6.42	4.85	3.09	2.66	2.23	2.09	3.81	4.80	4.71	4.69	4.65	4.50	4.26	4.18	4.38	4.52	4.17	4.22	4.38	4.64	4.26	4.03	3.69	4.32	4.31	4.50	4.73	4.68	4.44	3.96	3.47	3.37	3.41	3.49	3.56	3.51	3.51	3.51	3.60	3.93	4.14	4.18	2.74	2.44	2.93	1.49	2.69	2.71	2.91	3.09	3.17	3.14	2.82	2.51	2.77	3.30	3.66	3.59	3.09	2.84	2.97	3.09	3.15	3.34	3.47	3.30	3.05	2.97	2.99	3.06	3.14	3.16	3.13	3.14	3.17	3.15	3.28	3.70	3.96	3.96	
4.21	4.21	4.21	4.20	4.18	4.16	4.13	4.09	4.04	3.99	3.93	3.88	3.80	3.69	3.58	3.45	3.28	3.09	2.86	2.59	2.27	1.89	1.46	1.02	1.11	1.97	7.14	9.00	9.10	9.35	9.31	8.45	7.06	6.91	6.99	7.06	7.13	5.44	9.72	10.02	10.02	10.07	10.21	5.92	6.59	6.33	6.10	8.60	8.38	6.43	4.97	4.16	3.68	3.57	3.61	3.22	2.32	2.05	2.86	1.48	1.82	2.63	3.45	3.97	3.76	3.03	5.59	2.46	3.02	3.74	6.94	4.83	4.17	3.51	3.30	7.35	3.66	3.91	4.11	4.39	5.98	6.50	7.76	4.96	3.12	2.30	2.30	2.71	3.24	4.58	4.59	8.07	9.01	9.79	9.89	10.98	13.18	9.23	6.61	5.08	3.74	2.95	2.57	4.67	4.33	4.03	4.89	4.93	4.94	3.32	2.65	4.39	2.26	4.59	4.62	4.56	4.46	4.41	4.29	4.04	3.76	3.57	3.85	4.24	4.26	4.13	3.89	4.21	3.76	3.59	3.61	3.74	3.82	3.68	3.42	3.33	3.45	3.71	4.00	4.24	1.99	2.76	1.76	1.28	2.49	2.58	2.75	2.95	3.15	3.30	2.96	2.35	2.37	2.81	3.28	3.43	3.02	2.68	2.81	3.00	3.06	3.19	3.30	3.21	2.94	2.73	2.67	2.68	2.71	2.73	2.71	2.72	2.82	2.83	2.82	3.22	3.57	3.57	
4.22	4.21	4.21	4.20	4.18	4.16	4.14	4.09	4.05	4.00	3.94	3.89	3.81	3.71	3.60	3.47	3.32	3.13	2.92	2.66	2.36	2.00	1.58	1.25	1.24	1.29	5.19	8.90	9.08	9.21	9.06	7.22	5.08	4.86	4.70	4.61	4.75	8.63	9.12	9.55	9.69	9.62	5.29	5.21	6.09	6.09	6.24	6.59	8.84	8.46	5.77	4.30	3.37	2.84	2.72	2.71	2.26	2.66	1.94	1.41	1.60	2.19	2.82	3.35	3.41	2.86	2.40	2.44	2.92	3.66	7.07	4.79	4.25	3.56	3.22	3.74	3.55	3.91	4.19	4.52	6.05	6.70	6.55	5.16	3.20	2.13	5.93	2.25	2.94	3.42	4.81	7.86	8.67	8.96	8.97	10.03	11.73	11.90	9.48	5.99	5.00	3.79	3.00	5.29	4.98	4.52	4.41	4.37	4.13	3.58	2.77	2.36	2.22	4.60	4.75	4.93	4.95	4.85	4.50	4.13	3.85	3.89	4.28	4.47	4.44	4.39	4.12	3.60	3.11	2.94	3.87	4.01	4.19	4.08	3.63	3.18	3.16	3.34	3.55	2.20	3.67	2.94	2.07	2.54	2.37	2.47	2.62	2.77	3.04	3.34	3.09	2.39	2.16	2.40	2.88	3.25	2.94	2.43	2.44	2.69	2.80	2.96	3.09	3.05	2.86	2.63	2.46	2.39	2.38	2.33	2.25	2.20	2.24	2.32	2.29	2.59	2.93	2.93	
4.23	4.22	4.22	4.21	4.19	4.17	4.14	4.10	4.06	4.01	3.96	3.90	3.83	3.74	3.63	3.50	3.35	3.18	2.99	2.74	2.46	2.11	1.73	1.40	1.33	1.25	5.19	8.79	8.84	9.06	8.61	5.29	4.86	4.80	4.53	4.48	8.19	8.69	9.03	9.28	9.40	9.09	5.05	4.98	4.80	4.66	4.78	6.87	7.52	9.48	7.39	5.10	4.07	4.72	3.57	3.91	3.46	2.95	2.29	1.67	1.57	1.79	2.13	2.59	2.83	2.48	2.15	2.25	2.73	3.49	6.87	4.72	4.35	3.67	3.31	3.29	3.50	3.81	4.13	6.08	6.20	9.62	6.85	4.88	3.48	2.40	4.80	1.99	2.57	3.15	5.06	7.62	7.73	8.37	8.28	9.37	10.66	11.67	13.03	9.83	7.26	5.73	6.61	5.95	5.58	5.10	4.92	4.64	4.28	2.10	1.84	2.63	2.57	4.66	4.76	4.95	3.44	2.90	2.35	1.97	2.04	4.23	4.65	4.79	4.76	3.58	3.28	3.85	3.27	3.12	3.10	3.12	3.29	3.25	3.03	3.80	3.49	3.43	1.23	1.10	1.56	3.26	2.32	2.66	2.39	2.37	2.45	2.60	2.93	3.28	3.09	2.50	2.14	2.16	2.58	3.04	2.94	2.47	5.02	2.47	2.56	2.83	3.09	3.01	2.90	2.78	2.52	2.38	2.41	2.33	2.15	2.03	1.85	1.69	1.64	2.00	2.35	2.35	
4.23	4.23	4.22	4.21	4.20	4.18	4.15	4.11	4.06	4.02	3.97	3.91	3.84	3.76	3.66	3.53	3.39	3.24	3.05	2.81	2.55	2.22	1.85	1.46	1.29	1.17	5.27	6.78	8.72	8.81	5.84	5.09	4.28	4.14	4.30	4.49	8.35	8.67	5.69	5.33	9.29	5.00	4.81	4.64	6.82	4.14	4.26	4.69	5.33	8.24	9.89	7.38	5.27	5.74	4.40	4.45	3.89	3.42	2.83	2.21	1.87	1.79	1.74	1.85	2.07	1.87	1.73	1.92	2.42	3.40	4.13	6.62	4.18	3.55	4.45	3.38	3.55	3.69	3.95	6.22	6.36	10.13	7.03	5.12	3.93	2.83	2.08	1.91	2.22	2.76	5.05	7.36	7.74	5.96	7.72	9.01	10.10	11.04	12.29	13.85	9.86	7.78	6.52	6.97	6.30	5.85	3.26	2.09	1.70	1.75	1.77	3.08	3.21	4.88	4.90	3.58	3.54	3.05	2.44	1.99	2.22	4.41	4.77	3.57	3.65	3.51	3.30	3.12	2.97	3.65	3.63	3.47	3.37	3.28	2.99	1.96	1.64	1.13	0.67	1.24	2.04	2.14	2.75	1.90	2.57	2.37	2.32	2.47	2.91	3.27	3.03	2.49	2.17	2.23	2.69	2.99	2.88	2.63	2.56	2.65	4.16	3.02	3.25	3.09	2.97	2.89	2.62	2.53	2.24	2.43	2.20	2.10	1.77	1.16	0.63	1.56	2.18	2.18	
4.23	4.23	4.22	4.22	4.20	4.18	4.16	4.12	4.08	4.04	3.99	3.92	3.86	3.79	3.69	3.57	3.44	3.29	3.12	2.90	2.64	2.32	1.94	1.49	1.18	1.11	5.30	6.96	8.50	8.34	5.80	4.91	4.20	3.98	4.13	6.59	4.68	4.87	5.32	5.60	9.35	5.12	6.40	5.90	5.95	3.65	3.76	4.23	4.73	5.53	9.00	10.05	6.73	4.93	5.59	4.27	4.44	3.93	3.42	2.81	2.44	2.18	1.83	1.62	1.49	1.21	1.15	1.44	1.94	3.31	4.07	6.87	4.07	3.52	3.28	3.43	3.67	3.72	3.82	6.27	8.55	10.19	8.02	5.59	4.64	3.35	2.26	1.75	1.92	2.47	3.07	6.74	7.40	6.11	7.68	8.68	9.40	10.20	11.34	12.34	13.38	9.57	8.12	7.31	6.45	5.34	3.74	2.39	1.89	1.72	1.78	3.55	3.88	4.34	4.22	3.75	3.48	2.44	2.87	2.77	2.77	3.30	3.56	3.58	3.54	3.32	3.32	3.28	3.15	3.15	3.36	3.38	3.14	2.29	2.15	1.97	2.07	1.85	1.56	1.92	3.64	3.70	3.18	2.28	2.82	2.49	2.27	2.36	2.94	3.45	3.18	2.48	2.20	2.59	3.13	3.07	2.69	2.61	2.84	3.01	3.02	3.23	3.39	3.25	3.13	2.95	2.72	2.74	2.76	2.60	2.52	2.56	2.28	1.60	1.02	1.59	2.49	2.49	
4.25	4.24	4.23	4.23	4.21	4.19	4.17	4.13	4.09	4.05	4.00	3.94	3.88	3.82	3.73	3.62	3.49	3.35	3.19	2.99	2.75	2.44	2.06	1.57	1.01	0.96	5.18	7.02	6.92	6.50	5.32	4.74	4.23	4.09	6.87	4.51	4.79	5.03	5.47	5.89	5.75	5.59	4.04	4.60	5.13	3.02	3.20	3.60	4.14	5.21	5.93	9.75	9.78	5.99	7.02	5.62	4.28	4.53	3.99	3.43	3.00	2.71	2.36	1.94	1.49	1.02	0.78	0.84	1.23	2.06	3.12	4.59	3.98	3.62	3.39	3.43	3.67	3.80	3.88	6.68	8.75	9.40	8.72	6.45	5.40	3.98	2.63	1.67	1.57	2.12	2.94	3.42	3.57	6.24	6.43	8.20	8.72	9.23	10.09	10.99	11.89	12.80	13.15	7.57	7.46	5.50	4.42	3.11	2.39	2.20	2.41	4.23	4.60	4.81	3.45	2.67	2.44	2.40	2.63	2.56	2.98	3.50	3.73	3.63	3.49	3.35	3.47	3.39	3.33	3.11	3.14	2.99	3.28	3.35	3.16	3.09	3.13	3.03	4.43	3.72	3.35	3.91	3.97	3.58	3.06	2.72	2.44	2.50	3.15	3.67	3.34	2.51	2.27	3.04	3.56	3.11	2.52	2.53	3.07	3.37	3.34	3.62	4.31	4.00	3.64	3.35	2.93	2.60	2.53	2.64	4.59	3.57	3.40	2.93	2.87	4.37	4.94	4.94	
4.25	4.25	4.24	4.23	4.22	4.20	4.18	4.14	4.10	4.07	4.02	3.95	3.90	3.85	3.77	3.66	3.54	3.41	3.26	3.07	2.85	2.57	2.20	1.71	1.02	0.95	2.93	6.95	7.30	6.54	5.18	4.43	4.06	4.16	4.37	4.64	4.93	5.24	5.99	6.06	6.28	6.18	5.23	3.98	3.51	4.63	2.45	2.95	3.52	4.18	5.61	6.40	10.02	10.96	5.37	6.96	5.55	4.23	4.67	4.11	3.63	3.29	2.96	2.49	1.96	1.40	0.93	0.66	0.65	1.24	2.32	4.36	3.58	3.35	3.24	3.32	3.50	3.70	6.87	8.24	8.61	8.80	9.20	7.78	5.44	4.82	3.31	1.89	2.24	1.60	2.33	3.15	3.53	6.71	6.85	7.94	8.45	8.61	9.08	9.80	10.71	11.66	11.65	12.02	12.86	5.44	5.61	4.46	3.41	3.15	3.15	4.94	5.32	4.18	3.14	2.66	2.81	2.81	2.78	2.61	2.73	3.62	3.41	3.35	3.06	2.78	2.84	4.81	5.61	6.22	6.13	6.39	6.32	5.19	4.79	4.49	5.35	5.19	4.80	4.27	3.79	3.60	3.75	3.81	3.58	3.24	2.89	2.90	3.41	3.69	3.27	2.59	5.19	3.60	3.90	3.24	5.40	3.59	2.94	3.49	6.32	3.39	3.25	3.50	3.64	2.49	1.55	0.38	1.38	2.62	2.56	3.54	3.42	2.96	3.02	4.21	6.27	6.27	
4.26	4.25	4.25	4.24	4.23	4.21	4.19	4.16	4.13	4.09	4.05	3.98	3.92	3.88	3.81	3.70	3.58	3.47	3.32	3.15	2.94	2.68	2.34	1.89	1.27	1.07	2.57	4.35	7.28	5.50	5.20	4.36	3.94	4.05	4.27	4.56	4.94	6.09	6.05	6.10	6.59	6.70	5.67	4.42	3.53	2.59	3.12	2.22	2.78	3.39	4.12	5.99	6.76	7.40	11.09	5.47	6.92	5.65	4.33	3.37	4.38	3.99	3.68	3.13	2.65	2.12	1.61	1.06	0.64	0.76	1.54	2.67	4.33	3.07	3.07	3.28	3.92	6.90	7.38	7.69	7.57	8.04	8.82	9.28	6.90	5.85	4.42	2.73	1.60	1.38	1.71	2.53	3.55	7.12	7.05	7.20	8.30	6.99	8.28	9.10	10.22	10.30	10.35	10.81	11.59	12.93	5.42	5.57	5.09	4.90	4.35	4.41	4.86	4.02	2.96	2.77	3.11	3.08	3.14	3.02	2.94	2.58	1.68	3.42	5.46	5.98	6.12	6.21	5.65	5.50	5.43	5.85	6.59	6.50	6.50	5.76	5.33	5.15	4.86	4.47	4.06	3.69	3.71	4.13	4.19	3.82	3.47	3.48	3.63	3.32	2.80	5.94	5.52	4.35	4.17	3.51	2.89	0.18	1.75	3.44	3.52	4.32	4.34	4.02	3.82	3.66	3.28	2.50	2.06	2.34	1.58	5.15	6.50	6.24	5.48	4.43	4.26	4.26	
4.27	4.26	4.25	4.25	4.23	4.22	4.20	4.18	4.14	4.10	4.06	4.00	3.94	3.90	3.84	3.74	3.63	3.52	3.39	3.24	3.04	2.81	2.50	2.10	1.56	1.15	1.72	4.03	5.08	5.30	5.11	4.38	3.86	3.86	4.04	4.32	4.74	6.14	6.07	9.19	9.73	7.11	6.02	4.80	3.97	3.09	2.21	3.65	2.18	2.82	3.45	4.16	6.25	6.91	7.55	10.70	6.62	4.89	5.78	4.66	3.85	5.06	4.72	4.32	3.70	3.21	2.69	2.10	1.34	0.87	1.06	2.02	2.75	2.92	2.97	4.08	4.09	7.30	7.32	6.79	6.79	7.17	7.73	8.54	8.51	6.71	5.61	4.08	2.48	1.71	3.46	2.15	3.89	4.20	4.08	7.48	7.25	6.51	6.22	9.17	9.64	9.30	9.73	10.31	10.78	11.57	12.17	8.16	4.68	4.70	4.64	5.52	5.85	4.50	3.99	3.71	3.53	3.44	3.48	2.93	2.12	2.62	4.70	5.67	6.50	6.00	6.51	6.24	5.31	4.77	4.70	5.22	6.18	6.99	6.97	6.22	5.42	5.13	5.07	4.90	4.44	3.67	3.58	4.50	5.10	6.99	6.70	6.36	4.26	3.45	0.81	2.60	3.43	4.25	3.97	3.37	2.82	2.20	2.63	3.20	2.51	6.91	8.64	8.60	8.47	8.29	8.27	7.72	6.26	5.43	5.21	5.74	6.35	6.17	5.50	4.40	3.75	3.75	
4.28	4.27	4.27	4.26	4.25	4.23	4.21	4.19	4.16	4.12	4.09	4.03	3.96	3.93	3.88	3.79	3.69	3.59	3.47	3.32	3.15	2.94	2.67	2.33	1.86	1.30	1.69	3.91	4.84	5.03	4.84	4.19	4.02	3.79	3.98	4.21	4.56	5.99	5.99	9.61	10.81	5.63	6.51	4.79	4.26	3.47	2.61	1.91	1.81	2.27	2.86	3.48	4.18	6.42	6.97	10.09	10.17	8.93	6.31	5.03	5.11	4.35	3.87	3.65	4.90	4.20	3.45	3.29	2.51	1.59	1.22	1.56	2.20	2.56	2.77	4.23	4.28	6.97	6.88	6.72	6.75	7.02	7.51	8.20	8.75	8.44	6.92	4.97	3.57	2.36	2.05	2.18	3.02	3.55	4.34	4.16	6.54	6.21	8.44	9.06	8.45	8.51	9.14	9.67	10.14	10.69	10.99	10.89	10.68	10.30	10.10	11.29	5.27	4.44	4.29	4.50	4.49	4.11	3.30	2.54	4.04	4.82	4.65	4.77	4.62	5.23	6.19	6.55	6.05	4.90	4.24	4.45	5.56	6.75	7.29	6.98	6.19	6.03	6.28	6.01	5.34	4.09	1.79	3.87	5.27	5.01	4.90	4.33	4.05	3.32	2.13	2.92	2.87	7.52	9.49	9.52	9.59	8.92	7.26	6.42	6.33	7.31	8.33	8.49	8.39	8.25	8.12	7.59	6.62	5.97	5.55	5.09	4.91	4.74	4.29	3.58	3.18	3.18	
4.28	4.28	4.27	4.27	4.26	4.24	4.22	4.20	4.18	4.14	4.10	4.05	3.99	3.95	3.91	3.84	3.74	3.65	3.54	3.41	3.26	3.07	2.84	2.55	2.14	1.59	1.82	3.48	4.62	4.72	4.55	4.04	3.78	3.85	4.02	4.22	4.50	5.87	9.00	9.69	10.46	7.09	6.99	5.51	4.82	3.93	3.08	2.25	3.33	1.74	2.24	2.87	3.53	4.23	6.50	8.82	9.52	9.43	9.01	8.11	7.29	6.61	6.08	5.66	5.69	5.42	4.31	3.81	3.49	2.67	1.85	1.70	1.95	2.25	2.58	4.45	4.55	4.59	4.61	4.50	4.41	4.47	4.71	7.69	7.92	8.00	8.13	5.49	4.14	2.86	2.26	2.26	2.84	4.33	4.28	4.01	6.90	8.06	8.36	6.48	7.93	8.36	8.79	9.23	9.63	9.90	9.96	9.73	9.52	9.63	9.97	10.33	10.68	10.59	10.14	8.63	5.02	4.28	5.31	5.48	5.20	5.05	4.72	4.88	4.48	4.62	5.41	6.51	6.68	5.61	4.31	3.92	4.87	6.04	7.01	7.61	6.97	6.56	6.50	5.77	4.93	3.84	2.40	3.95	4.00	5.43	8.77	9.69	9.85	9.97	9.05	7.29	6.84	8.06	9.17	9.39	9.30	8.66	7.57	6.94	6.58	6.24	6.35	6.52	6.50	6.41	6.21	5.95	5.68	5.30	4.98	4.77	4.53	4.30	3.97	3.53	3.30	3.30	
4.29	4.29	4.28	4.27	4.26	4.25	4.23	4.21	4.19	4.16	4.12	4.08	4.02	3.97	3.94	3.88	3.80	3.71	3.60	3.49	3.35	3.19	2.99	2.74	2.39	1.91	2.02	3.19	4.03	4.28	4.18	3.87	3.79	3.91	4.02	4.20	5.99	8.31	9.18	9.84	9.83	9.18	6.35	6.42	4.99	4.64	3.78	2.92	2.05	3.68	1.78	2.39	3.04	3.65	4.32	6.91	8.54	8.58	8.23	8.11	7.94	7.57	6.55	5.95	5.70	5.68	4.46	4.26	4.04	3.26	2.43	1.93	1.89	2.12	2.47	4.56	4.75	4.84	4.70	4.59	4.46	4.50	4.64	4.99	5.18	5.29	5.68	5.70	4.53	3.08	2.34	2.26	2.53	4.22	4.31	6.88	7.37	7.25	6.47	6.53	6.87	7.06	8.82	9.13	9.41	9.29	9.18	8.93	8.69	8.86	9.22	9.49	9.63	9.78	9.83	9.97	10.26	9.77	8.41	7.26	6.08	5.60	5.30	6.11	5.76	5.64	5.64	6.45	7.19	6.88	5.50	4.37	4.78	5.48	6.30	7.28	6.71	6.44	8.21	8.70	9.01	9.44	9.13	8.07	7.58	8.03	9.04	9.71	9.91	9.82	9.02	7.83	7.09	6.78	6.87	7.04	6.91	6.65	6.41	6.09	5.87	5.82	5.79	5.80	5.80	5.71	5.59	5.43	5.20	4.99	4.77	4.56	4.36	4.15	3.91	3.60	3.43	3.43	
4.30	4.29	4.29	4.28	4.27	4.26	4.24	4.23	4.21	4.18	4.15	4.11	4.05	4.00	3.97	3.92	3.86	3.77	3.67	3.57	3.45	3.31	3.13	2.92	2.63	2.23	2.25	3.03	3.68	3.89	3.84	3.66	3.75	3.92	6.04	6.12	6.06	8.45	9.10	9.46	9.58	9.71	9.15	6.51	6.09	4.66	4.54	3.71	2.75	1.91	1.79	1.98	2.75	3.34	3.92	6.85	7.28	7.20	7.14	7.02	7.11	7.17	6.88	6.21	5.63	4.52	4.24	4.12	3.63	3.35	2.69	1.98	1.74	2.00	2.32	2.66	4.66	4.90	4.79	4.68	4.62	4.67	4.82	5.08	5.21	5.10	5.37	5.65	4.69	3.23	2.30	2.14	2.25	2.74	4.34	4.30	7.75	4.42	4.42	4.43	7.32	8.42	8.59	8.80	9.07	8.82	8.77	8.46	8.16	8.26	8.65	8.99	9.10	9.17	9.19	9.28	9.73	10.21	9.93	9.13	7.77	7.41	7.54	7.28	7.27	6.95	6.80	6.83	7.39	7.78	7.76	7.44	7.22	7.29	7.60	8.11	8.25	8.22	8.52	8.87	9.26	9.55	9.24	8.46	7.92	7.58	7.37	7.41	7.45	7.27	6.99	6.68	6.34	6.21	6.19	6.18	6.16	6.05	5.87	5.72	5.58	5.50	5.49	5.49	5.45	5.38	5.27	5.12	4.97	4.80	4.64	4.48	4.28	4.09	3.89	3.69	3.59	3.59	
4.31	4.31	4.30	4.29	4.29	4.28	4.26	4.25	4.23	4.20	4.16	4.13	4.08	4.03	3.99	3.95	3.90	3.82	3.73	3.64	3.54	3.42	3.27	3.08	2.85	2.52	2.46	2.94	3.47	3.74	3.76	3.65	3.74	3.85	6.33	6.40	6.45	8.19	8.45	8.73	8.99	9.32	9.61	9.10	6.49	5.53	5.34	4.36	3.38	2.42	1.59	1.61	2.31	3.09	3.69	4.31	7.28	7.16	7.05	6.81	6.74	6.70	6.44	5.34	5.02	4.54	4.10	3.56	3.37	3.21	2.78	2.08	1.73	1.92	2.16	2.38	2.76	3.27	3.50	3.46	3.33	3.24	3.43	3.83	4.20	4.22	4.18	4.62	4.56	3.29	2.18	1.94	2.07	2.45	4.28	4.51	4.51	4.60	4.49	4.29	7.54	8.17	8.79	8.80	8.81	8.46	8.28	8.13	8.09	8.23	8.66	9.06	9.20	7.67	7.08	7.11	7.15	7.65	8.34	8.90	9.44	8.78	7.47	7.07	6.55	6.65	6.98	6.98	7.15	7.46	7.85	8.04	7.94	7.83	7.80	7.87	7.94	7.75	7.45	7.37	7.43	7.37	7.24	7.05	6.78	6.63	6.60	6.58	6.54	6.46	6.30	6.12	5.98	5.87	5.84	5.82	5.77	5.68	5.58	5.47	5.39	5.32	5.27	5.24	5.19	5.12	5.03	4.93	4.81	4.68	4.55	4.41	4.25	4.09	3.93	3.78	3.70	3.70	
4.31	4.31	4.31	4.30	4.30	4.28	4.27	4.26	4.24	4.22	4.19	4.15	4.10	4.06	4.02	3.99	3.94	3.88	3.80	3.72	3.62	3.51	3.38	3.22	3.01	2.73	2.56	2.80	3.25	3.64	3.75	3.79	3.70	3.76	6.63	6.54	6.52	6.43	7.88	7.97	8.30	8.77	9.19	9.30	8.28	6.62	5.25	5.28	4.11	3.09	2.12	1.85	1.80	2.63	3.37	4.25	4.79	5.16	7.04	5.40	5.28	5.23	5.32	5.35	5.08	4.52	3.96	3.41	3.17	3.08	2.91	2.44	2.04	2.02	2.09	2.20	2.48	2.93	3.23	3.31	3.19	3.04	3.25	3.59	3.98	4.20	4.04	4.14	4.24	3.32	2.12	1.84	2.03	2.34	4.34	4.58	4.12	4.23	4.69	7.16	6.82	8.02	8.95	9.11	9.20	6.63	6.37	6.33	6.26	6.24	5.60	6.34	6.69	6.27	4.42	4.58	4.30	3.54	4.30	5.23	6.11	6.80	6.78	6.56	6.26	6.14	6.39	6.56	6.65	6.75	6.88	6.97	6.95	6.83	6.73	6.71	6.73	6.76	6.77	6.74	6.70	6.65	6.56	6.42	6.31	6.21	6.17	6.14	6.11	6.03	5.93	5.82	5.71	5.63	5.56	5.53	5.49	5.43	5.36	5.29	5.23	5.18	5.14	5.09	5.04	4.98	4.90	4.81	4.71	4.60	4.48	4.37	4.25	4.12	3.99	3.86	3.81	3.81	
4.32	4.32	4.31	4.31	4.30	4.29	4.28	4.27	4.25	4.23	4.21	4.17	4.14	4.10	4.06	4.02	3.98	3.93	3.87	3.79	3.71	3.60	3.49	3.34	3.16	2.87	2.57	2.53	2.86	3.38	3.58	3.78	3.62	3.74	6.54	6.43	6.35	6.33	6.41	6.61	6.92	7.18	7.28	7.43	7.61	7.68	6.84	5.24	5.18	4.06	3.01	2.03	1.71	2.24	3.06	4.31	4.81	5.07	5.14	5.18	5.14	5.08	5.25	5.43	5.17	4.93	4.26	3.60	3.28	3.20	3.21	3.00	2.54	2.24	2.15	2.20	2.32	2.58	2.87	3.14	3.18	2.97	3.05	3.40	3.83	4.13	3.88	3.62	3.72	3.11	1.85	1.48	2.04	2.57	3.16	3.58	3.74	3.85	4.07	3.73	5.53	5.06	5.25	6.08	6.31	5.92	4.32	4.20	3.77	3.01	3.45	4.02	4.60	4.99	4.78	4.60	4.16	3.75	4.24	5.00	5.61	6.06	6.25	6.25	6.16	6.06	6.06	6.13	6.21	6.30	6.38	6.42	6.41	6.37	6.31	6.28	6.28	6.28	6.29	6.28	6.25	6.20	6.15	6.07	5.98	5.92	5.86	5.80	5.75	5.70	5.65	5.58	5.51	5.45	5.41	5.37	5.33	5.27	5.22	5.17	5.11	5.06	5.01	4.97	4.92	4.86	4.80	4.73	4.64	4.55	4.46	4.37	4.27	4.17	4.06	3.95	3.90	3.90	
4.34	4.33	4.33	4.32	4.31	4.31	4.30	4.29	4.27	4.25	4.23	4.19	4.16	4.12	4.08	4.05	4.01	3.96	3.92	3.86	3.78	3.68	3.58	3.46	3.30	3.03	2.58	2.22	2.36	2.95	3.38	3.86	3.79	3.88	3.84	3.79	3.90	4.01	6.37	6.57	6.84	7.03	7.11	7.27	7.63	7.90	7.67	6.63	5.26	5.09	4.10	3.00	2.13	2.09	2.79	3.67	4.79	4.69	5.03	4.72	4.65	4.59	4.59	4.75	4.98	4.99	4.57	3.95	3.62	3.59	3.69	3.61	3.14	2.62	2.43	2.40	2.41	2.48	2.53	2.85	3.22	3.11	2.98	3.20	3.77	4.28	4.06	3.45	3.04	2.58	1.75	1.29	1.89	2.85	3.36	3.44	3.54	3.75	3.62	3.78	3.92	3.12	3.22	3.81	4.38	4.76	4.52	4.20	3.68	3.24	3.53	4.02	4.43	4.74	4.78	4.64	4.51	4.40	4.51	4.85	5.20	5.46	5.65	5.75	5.78	5.80	5.82	5.86	5.92	5.98	6.03	6.06	6.05	6.03	6.01	6.00	6.00	5.99	5.99	5.98	5.95	5.90	5.85	5.80	5.74	5.68	5.65	5.62	5.59	5.54	5.48	5.43	5.37	5.31	5.26	5.22	5.19	5.15	5.11	5.07	5.02	4.98	4.94	4.90	4.85	4.80	4.74	4.67	4.60	4.52	4.44	4.36	4.29	4.20	4.11	4.03	3.99	3.99	
4.35	4.34	4.34	4.33	4.33	4.32	4.31	4.30	4.29	4.27	4.24	4.22	4.18	4.15	4.11	4.07	4.04	3.99	3.96	3.93	3.85	3.76	3.66	3.55	3.43	3.25	2.78	2.11	1.96	2.47	3.04	3.31	4.00	4.02	4.03	3.99	3.96	4.00	4.06	4.12	4.32	6.94	6.95	7.14	7.56	7.90	7.63	7.14	6.14	5.59	4.73	4.06	3.05	2.38	2.62	3.49	4.19	4.59	4.72	4.55	4.45	4.43	4.42	4.51	4.67	4.75	4.48	4.00	3.81	3.96	4.20	4.23	3.84	3.20	2.90	2.91	2.96	2.95	2.70	2.63	2.91	3.37	3.09	2.86	3.30	4.22	4.29	3.50	2.81	2.35	1.94	1.57	2.07	3.03	3.35	3.35	3.56	3.81	3.74	3.82	3.75	3.26	3.29	3.77	4.19	4.47	4.46	4.26	4.02	3.81	3.79	3.97	4.18	4.32	4.42	4.46	4.48	4.54	4.65	4.80	5.01	5.21	5.35	5.45	5.51	5.56	5.60	5.64	5.69	5.73	5.76	5.79	5.80	5.78	5.76	5.74	5.74	5.73	5.73	5.72	5.71	5.68	5.64	5.61	5.57	5.53	5.48	5.45	5.41	5.37	5.33	5.29	5.26	5.21	5.17	5.14	5.11	5.07	5.03	4.99	4.95	4.91	4.87	4.83	4.79	4.74	4.69	4.63	4.57	4.50	4.43	4.35	4.29	4.23	4.15	4.08	4.05	4.05	
4.36	4.36	4.35	4.34	4.33	4.33	4.32	4.31	4.30	4.28	4.26	4.23	4.21	4.17	4.14	4.10	4.07	4.02	4.00	3.99	3.94	3.85	3.76	3.66	3.57	3.48	3.15	2.36	1.86	2.15	2.63	3.05	3.36	3.54	3.65	4.07	4.03	4.08	4.12	4.18	4.36	4.64	4.80	4.88	5.14	5.65	6.00	5.98	5.87	5.54	5.02	4.52	3.95	3.10	2.79	3.40	4.14	4.56	4.61	4.37	4.24	4.17	4.09	4.15	4.39	4.53	4.20	3.68	3.50	3.80	4.22	4.53	4.52	3.82	3.14	3.05	2.93	2.73	2.43	2.28	2.96	3.42	3.27	2.88	2.76	3.60	4.00	3.67	3.27	2.83	2.49	2.26	2.42	2.98	3.28	3.33	3.49	3.66	3.73	3.76	3.75	3.64	3.61	3.78	3.98	4.08	4.12	4.10	4.02	3.98	3.98	4.04	4.14	4.25	4.34	4.39	4.45	4.53	4.64	4.75	4.89	5.03	5.15	5.24	5.30	5.36	5.41	5.45	5.49	5.52	5.55	5.57	5.59	5.59	5.58	5.58	5.58	5.57	5.56	5.54	5.52	5.51	5.49	5.46	5.43	5.40	5.37	5.33	5.30	5.28	5.23	5.19	5.17	5.13	5.09	5.06	5.03	5.00	4.98	4.94	4.90	4.86	4.82	4.78	4.74	4.70	4.65	4.60	4.55	4.48	4.43	4.36	4.31	4.26	4.20	4.13	4.10	4.10	
4.37	4.36	4.36	4.35	4.34	4.34	4.33	4.32	4.31	4.30	4.28	4.25	4.23	4.20	4.16	4.13	4.10	4.05	4.04	4.04	4.02	3.96	3.87	3.77	3.72	3.71	3.58	2.81	1.93	1.99	2.39	2.76	3.21	3.48	3.59	3.60	3.57	3.58	3.66	3.75	4.37	4.57	4.70	4.84	5.10	5.51	5.73	5.69	5.55	5.32	4.85	4.52	4.29	3.75	3.19	3.42	4.16	4.69	4.74	4.47	4.24	3.95	3.64	3.45	3.79	4.29	4.04	3.59	3.52	3.76	4.07	4.53	4.97	4.54	3.68	3.93	4.19	4.07	3.79	3.42	3.35	3.65	3.85	3.67	3.36	3.60	3.92	3.86	3.65	3.31	3.02	2.87	2.87	3.06	3.28	3.39	3.51	3.60	3.65	3.70	3.73	3.75	3.76	3.80	3.90	3.99	4.03	4.04	4.03	4.02	4.04	4.08	4.14	4.21	4.29	4.37	4.43	4.50	4.58	4.69	4.80	4.89	4.98	5.06	5.14	5.19	5.24	5.29	5.32	5.35	5.38	5.40	5.42	5.43	5.43	5.43	5.43	5.43	5.43	5.42	5.40	5.38	5.37	5.35	5.32	5.29	5.26	5.23	5.20	5.18	5.16	5.12	5.09	5.07	5.04	5.00	4.97	4.95	4.92	4.89	4.85	4.82	4.78	4.74	4.71	4.67	4.63	4.59	4.54	4.49	4.43	4.39	4.33	4.29	4.25	4.18	4.15	4.15	
4.38	4.37	4.37	4.36	4.35	4.35	4.34	4.33	4.32	4.31	4.29	4.28	4.25	4.22	4.19	4.16	4.13	4.07	4.05	4.07	4.07	4.05	3.97	3.88	3.86	3.90	4.00	3.33	2.11	2.00	2.37	2.62	3.04	3.39	3.52	3.51	3.49	3.53	3.58	3.64	3.81	3.97	4.07	4.27	4.63	5.09	5.33	5.36	5.41	5.25	4.84	4.51	4.37	4.01	3.44	3.34	3.97	4.71	4.95	4.87	4.63	4.11	3.63	3.20	3.40	4.07	4.05	4.11	4.53	4.58	4.55	4.85	5.35	4.52	4.14	4.63	4.70	4.67	4.45	4.12	3.86	3.91	4.07	4.05	3.87	3.76	3.79	3.75	3.59	3.40	3.26	3.20	3.20	3.26	3.37	3.46	3.54	3.62	3.65	3.68	3.73	3.78	3.81	3.83	3.86	3.93	3.99	4.01	4.03	4.03	4.06	4.10	4.15	4.19	4.25	4.32	4.39	4.46	4.53	4.60	4.69	4.78	4.86	4.93	5.00	5.06	5.10	5.14	5.18	5.21	5.24	5.27	5.29	5.30	5.31	5.32	5.32	5.31	5.31	5.31	5.30	5.28	5.28	5.26	5.23	5.20	5.19	5.16	5.13	5.11	5.09	5.05	5.02	5.01	4.98	4.95	4.92	4.90	4.87	4.86	4.82	4.80	4.77	4.74	4.71	4.68	4.64	4.60	4.56	4.52	4.46	4.41	4.37	4.32	4.29	4.24	4.21	4.21	
4.39	4.39	4.38	4.37	4.37	4.36	4.35	4.34	4.33	4.32	4.31	4.29	4.27	4.25	4.22	4.19	4.15	4.11	4.07	4.08	4.12	4.11	4.04	3.98	3.96	4.03	4.29	3.85	2.54	2.19	2.47	2.66	2.94	3.25	3.43	3.45	3.45	3.53	3.59	3.59	3.69	3.80	3.86	4.05	4.35	4.70	4.94	5.05	5.16	5.13	4.86	4.67	4.64	4.34	3.81	3.53	3.88	4.59	4.97	5.23	5.45	5.30	5.01	4.68	4.48	4.60	4.61	4.63	4.88	4.98	4.90	4.97	5.17	5.23	5.02	4.72	4.55	4.45	4.30	4.11	3.96	3.90	3.92	3.95	3.94	3.89	3.82	3.77	3.67	3.55	3.46	3.43	3.43	3.45	3.50	3.56	3.61	3.65	3.70	3.72	3.73	3.78	3.84	3.85	3.85	3.90	3.95	3.99	4.01	4.03	4.05	4.09	4.13	4.18	4.23	4.28	4.34	4.40	4.47	4.54	4.61	4.68	4.74	4.81	4.87	4.93	4.98	5.02	5.06	5.10	5.13	5.15	5.17	5.19	5.21	5.22	5.23	5.23	5.22	5.21	5.21	5.19	5.19	5.18	5.15	5.13	5.12	5.11	5.08	5.06	5.05	5.02	4.99	4.97	4.96	4.93	4.91	4.89	4.87	4.85	4.82	4.79	4.77	4.73	4.70	4.67	4.64	4.61	4.56	4.53	4.49	4.44	4.40	4.36	4.32	4.28	4.25	4.25	
4.41	4.40	4.39	4.38	4.38	4.37	4.36	4.35	4.34	4.33	4.32	4.31	4.29	4.27	4.24	4.22	4.18	4.14	4.09	4.11	4.16	4.14	4.09	4.05	4.06	4.13	4.44	4.28	3.23	2.62	2.68	2.84	3.00	3.20	3.38	3.42	3.43	3.53	3.63	3.58	3.56	3.69	3.78	3.91	4.16	4.40	4.59	4.71	4.82	4.90	4.78	4.73	4.87	4.86	4.66	4.48	4.52	4.82	5.08	5.34	5.62	5.72	5.61	5.34	5.05	4.88	4.74	4.60	4.61	4.71	4.73	4.76	4.80	4.76	4.70	4.65	4.57	4.48	4.36	4.26	4.15	4.06	4.02	4.01	4.01	3.96	3.88	3.81	3.75	3.67	3.61	3.56	3.55	3.57	3.60	3.64	3.67	3.69	3.71	3.74	3.76	3.77	3.83	3.87	3.86	3.87	3.94	3.97	3.98	4.01	4.04	4.07	4.10	4.15	4.19	4.24	4.29	4.35	4.41	4.46	4.53	4.60	4.66	4.71	4.77	4.83	4.88	4.92	4.96	5.00	5.04	5.06	5.08	5.10	5.12	5.13	5.14	5.15	5.15	5.15	5.15	5.14	5.13	5.13	5.12	5.09	5.09	5.09	5.06	5.03	5.02	5.01	4.98	4.96	4.95	4.93	4.90	4.88	4.86	4.84	4.82	4.78	4.76	4.74	4.70	4.68	4.65	4.63	4.58	4.54	4.51	4.47	4.43	4.40	4.36	4.32	4.30	4.30	
4.41	4.41	4.40	4.39	4.38	4.38	4.37	4.36	4.35	4.34	4.33	4.32	4.30	4.29	4.26	4.24	4.21	4.16	4.11	4.15	4.20	4.17	4.12	4.10	4.10	4.18	4.45	4.55	3.94	3.18	3.02	3.15	3.22	3.33	3.46	3.46	3.49	3.59	3.67	3.59	3.48	3.62	3.72	3.81	4.01	4.17	4.33	4.45	4.55	4.67	4.66	4.64	4.74	4.84	4.86	4.82	4.81	4.88	4.97	5.07	5.16	5.19	5.14	5.00	4.85	4.72	4.62	4.57	4.59	4.64	4.68	4.70	4.70	4.67	4.62	4.58	4.53	4.46	4.38	4.31	4.27	4.21	4.14	4.09	4.09	4.08	4.01	3.93	3.86	3.80	3.75	3.70	3.67	3.66	3.68	3.70	3.73	3.75	3.75	3.76	3.78	3.78	3.80	3.87	3.88	3.85	3.90	3.95	3.96	3.98	4.02	4.04	4.06	4.10	4.14	4.19	4.24	4.29	4.35	4.40	4.44	4.51	4.57	4.63	4.68	4.74	4.79	4.83	4.87	4.91	4.96	4.99	5.01	5.03	5.05	5.07	5.08	5.09	5.10	5.11	5.11	5.12	5.12	5.11	5.11	5.09	5.08	5.08	5.06	5.03	5.02	5.00	4.98	4.96	4.94	4.92	4.89	4.87	4.85	4.83	4.81	4.78	4.75	4.74	4.72	4.69	4.67	4.64	4.60	4.57	4.55	4.52	4.47	4.44	4.41	4.37	4.35	4.35	
4.43	4.42	4.41	4.41	4.40	4.39	4.38	4.38	4.36	4.35	4.34	4.33	4.32	4.30	4.28	4.27	4.24	4.19	4.14	4.15	4.21	4.18	4.15	4.15	4.14	4.18	4.34	4.58	4.45	3.93	3.65	3.64	3.58	3.59	3.65	3.61	3.64	3.69	3.71	3.66	3.58	3.63	3.69	3.75	3.86	3.97	4.09	4.20	4.30	4.40	4.46	4.47	4.50	4.53	4.56	4.58	4.60	4.65	4.72	4.82	4.92	4.97	4.96	4.91	4.83	4.75	4.67	4.62	4.62	4.63	4.65	4.66	4.65	4.64	4.62	4.59	4.54	4.48	4.41	4.33	4.29	4.26	4.20	4.14	4.10	4.10	4.08	4.02	3.97	3.92	3.88	3.83	3.80	3.77	3.76	3.76	3.77	3.78	3.79	3.78	3.79	3.79	3.78	3.82	3.86	3.85	3.85	3.91	3.92	3.94	3.98	4.01	4.02	4.06	4.10	4.13	4.18	4.22	4.27	4.33	4.38	4.43	4.48	4.55	4.60	4.65	4.71	4.76	4.80	4.84	4.88	4.92	4.95	4.98	5.01	5.03	5.05	5.06	5.06	5.07	5.07	5.08	5.08	5.07	5.08	5.06	5.05	5.06	5.04	5.03	5.01	5.00	4.98	4.95	4.94	4.92	4.90	4.88	4.87	4.85	4.83	4.81	4.78	4.76	4.73	4.71	4.69	4.66	4.63	4.59	4.57	4.54	4.51	4.47	4.44	4.41	4.39	4.39	
4.44	4.43	4.42	4.41	4.41	4.40	4.38	4.38	4.37	4.36	4.35	4.34	4.33	4.32	4.30	4.28	4.26	4.21	4.16	4.14	4.19	4.19	4.17	4.17	4.16	4.19	4.28	4.52	4.67	4.41	4.08	3.95	3.83	3.77	3.76	3.72	3.73	3.75	3.75	3.73	3.68	3.67	3.70	3.73	3.79	3.87	3.96	4.06	4.16	4.25	4.33	4.38	4.44	4.49	4.51	4.53	4.56	4.59	4.65	4.74	4.84	4.91	4.93	4.88	4.84	4.79	4.71	4.67	4.65	4.64	4.65	4.64	4.64	4.63	4.61	4.60	4.57	4.50	4.44	4.36	4.30	4.28	4.24	4.17	4.12	4.10	4.09	4.05	4.01	3.97	3.92	3.88	3.85	3.82	3.80	3.79	3.78	3.79	3.80	3.79	3.79	3.79	3.79	3.80	3.85	3.85	3.84	3.88	3.90	3.92	3.95	3.99	4.00	4.03	4.07	4.10	4.15	4.20	4.23	4.29	4.34	4.40	4.45	4.50	4.56	4.61	4.67	4.72	4.77	4.81	4.84	4.88	4.91	4.94	4.98	5.01	5.04	5.05	5.05	5.05	5.05	5.05	5.06	5.06	5.06	5.04	5.03	5.04	5.03	5.02	5.00	4.98	4.97	4.95	4.94	4.93	4.91	4.89	4.88	4.86	4.85	4.83	4.81	4.78	4.75	4.72	4.71	4.68	4.64	4.60	4.57	4.54	4.51	4.48	4.45	4.42	4.41	4.41	
