ncols	121
nrows	160
xllcorner	1648855.938895
yllcorner	466851.943984
cellsize	500.000000
NODATA_value	nan
3.75	4.10	4.70	1.29	3.48	2.31	3.26	8.02	9.25	4.50	3.93	4.07	4.14	3.93	3.22	2.57	2.98	3.00	4.06	4.73	4.73	4.30	4.31	1.77	3.44	3.17	3.54	3.79	3.89	3.98	4.05	4.09	4.20	4.80	7.44	9.22	5.14	5.21	5.24	4.87	5.00	4.96	4.52	4.37	3.83	7.24	5.47	4.46	3.16	4.16	3.38	2.96	5.02	4.83	4.55	4.51	2.67	3.01	3.02	4.53	4.76	4.13	4.11	3.63	4.09	8.14	4.35	3.60	3.13	4.23	8.71	4.43	0.92	1.14	2.40	2.69	3.02	3.45	5.87	8.79	10.03	5.23	4.57	3.95	3.68	3.98	3.12	3.39	6.30	7.63	5.05	4.68	9.63	9.14	9.32	9.98	5.28	3.58	2.42	1.18	3.10	4.77	7.36	10.51	6.49	5.79	10.80	2.35	3.54	2.18	3.06	4.32	5.09	4.50	3.80	3.28	3.24	6.39	9.64	10.33	10.33	
3.75	4.10	4.70	1.29	3.48	2.31	3.26	8.02	9.25	4.50	3.93	4.07	4.14	3.93	3.22	2.57	2.98	3.00	4.06	4.73	4.73	4.30	4.31	1.77	3.44	3.17	3.54	3.79	3.89	3.98	4.05	4.09	4.20	4.80	7.44	9.22	5.14	5.21	5.24	4.87	5.00	4.96	4.52	4.37	3.83	7.24	5.47	4.46	3.16	4.16	3.38	2.96	5.02	4.83	4.55	4.51	2.67	3.01	3.02	4.53	4.76	4.13	4.11	3.63	4.09	8.14	4.35	3.60	3.13	4.23	8.71	4.43	0.92	1.14	2.40	2.69	3.02	3.45	5.87	8.79	10.03	5.23	4.57	3.95	3.68	3.98	3.12	3.39	6.30	7.63	5.05	4.68	9.63	9.14	9.32	9.98	5.28	3.58	2.42	1.18	3.10	4.77	7.36	10.51	6.49	5.79	10.80	2.35	3.54	2.18	3.06	4.32	5.09	4.50	3.80	3.28	3.24	6.39	9.64	10.33	10.33	
3.91	4.17	5.11	2.51	2.41	1.97	2.10	4.08	7.63	8.98	3.88	4.26	1.39	1.72	2.36	3.09	3.16	3.24	5.83	4.92	2.36	2.26	1.70	0.58	2.89	2.90	3.39	3.67	3.80	3.90	3.95	3.93	3.69	3.55	6.64	6.56	5.08	5.16	6.02	5.62	5.77	5.66	5.10	4.68	3.47	3.88	8.09	4.77	3.18	4.52	3.85	2.75	3.38	7.53	5.18	0.92	2.48	2.62	2.38	4.01	5.79	4.43	4.52	3.50	2.69	4.20	5.45	4.59	3.26	3.77	8.73	4.10	3.89	2.94	3.52	3.04	2.81	2.98	3.89	8.04	9.34	2.69	2.95	1.82	2.76	3.25	2.83	2.55	5.91	4.56	3.79	7.62	5.85	8.48	5.92	10.11	5.46	4.46	2.95	2.97	2.72	3.81	6.93	7.48	9.39	9.10	9.91	1.60	3.40	3.38	2.89	4.05	6.81	2.68	3.41	2.96	2.45	2.72	6.63	10.11	10.11	
2.30	4.37	5.52	1.85	1.32	1.31	1.65	2.24	3.95	4.34	5.12	4.07	4.36	3.15	3.34	3.25	3.64	4.76	6.63	0.65	1.05	1.34	0.33	2.28	2.36	2.63	3.15	3.44	3.60	3.73	3.74	3.66	3.21	2.77	3.53	4.45	4.66	6.31	6.29	6.51	7.63	9.36	10.90	8.60	9.65	10.01	5.88	5.97	3.99	4.69	4.55	2.84	2.56	4.78	7.96	2.34	2.88	2.64	1.50	2.61	8.27	7.79	6.06	4.45	2.19	2.76	4.76	7.40	4.13	4.96	1.10	3.49	0.44	3.81	2.24	1.83	3.01	2.74	4.48	7.58	8.45	9.61	1.97	1.61	1.56	3.11	3.09	2.05	3.47	5.84	3.91	3.09	5.32	3.94	8.03	9.53	6.48	6.10	3.90	3.39	2.39	2.93	3.88	7.15	6.47	8.39	10.83	2.47	4.03	3.46	2.70	3.62	8.29	1.76	1.84	3.04	2.16	1.78	3.59	7.38	7.38	
2.13	2.39	4.85	10.15	4.85	1.63	2.09	3.51	3.02	3.68	5.16	3.55	2.96	2.89	3.32	3.49	4.03	5.35	2.25	1.79	1.79	1.13	0.26	2.19	2.13	2.44	2.94	3.22	3.43	3.57	3.57	3.49	3.21	2.98	3.41	3.78	6.17	7.41	8.86	9.96	8.75	8.93	8.22	7.76	7.98	8.66	9.97	11.24	5.63	5.30	4.69	3.49	2.54	3.77	5.75	3.41	2.59	1.91	1.34	1.48	4.88	8.87	9.56	2.65	3.25	2.88	3.56	3.96	5.67	9.84	5.42	1.82	4.39	1.60	3.37	3.58	3.30	3.28	4.39	6.92	8.23	4.70	7.06	5.37	3.84	4.53	3.32	2.77	2.68	3.89	6.46	3.24	3.19	3.25	5.58	8.20	6.83	8.02	5.20	4.01	2.57	3.01	3.79	7.75	7.66	7.38	9.96	3.62	4.25	3.54	2.47	3.38	8.92	2.18	2.56	2.55	3.03	1.95	3.18	7.12	7.12	
2.39	2.48	3.45	8.91	5.65	2.37	2.21	2.94	6.63	7.22	8.83	1.96	1.93	3.22	3.19	3.93	5.30	5.00	0.63	2.20	1.76	0.41	0.88	2.27	2.16	2.27	2.60	2.98	3.27	3.42	3.44	3.38	3.17	2.92	3.09	5.00	6.70	9.12	8.19	6.40	6.37	6.93	6.04	6.15	6.23	6.22	7.59	8.84	10.08	11.33	5.99	4.04	3.04	3.20	5.15	5.89	1.43	0.91	1.85	1.26	2.28	7.67	9.89	5.96	4.76	3.71	4.23	3.52	3.71	5.32	5.49	2.14	2.67	3.85	3.56	3.56	3.48	4.11	4.29	7.59	1.44	4.05	4.27	5.24	4.70	4.37	4.50	3.79	2.79	2.71	3.73	6.36	3.76	3.02	3.57	6.08	5.69	4.54	8.12	4.47	2.78	3.07	3.55	8.00	8.52	8.79	9.72	2.98	5.01	3.21	2.78	3.58	9.43	3.17	4.19	0.72	2.36	2.84	3.22	4.02	4.02	
2.58	2.78	4.11	8.02	10.14	2.97	3.62	3.11	5.89	6.46	5.13	1.19	3.35	2.66	2.86	4.86	7.54	1.40	0.79	1.14	2.22	1.75	1.08	0.99	2.35	2.19	2.24	2.73	3.13	3.30	3.35	3.30	3.09	2.79	2.86	5.16	7.77	8.50	4.77	4.32	4.55	4.67	3.88	3.46	3.25	3.53	6.51	5.79	5.45	8.64	10.44	5.82	4.47	3.45	4.82	4.50	3.84	3.27	2.68	1.52	1.89	6.71	7.88	10.18	5.65	4.63	4.67	4.28	7.35	4.23	8.74	4.83	4.69	3.84	3.26	3.29	3.55	4.21	4.52	5.19	3.74	3.80	3.97	4.43	4.47	4.47	4.88	3.78	3.07	2.46	2.81	3.96	4.20	3.50	3.22	3.97	3.82	4.09	7.86	4.66	2.78	2.92	3.40	6.66	8.94	9.43	10.96	8.38	6.23	2.64	3.33	5.03	6.28	1.16	3.89	3.67	4.21	3.96	3.54	3.19	3.19	
2.51	3.99	3.61	4.49	4.82	5.01	3.82	5.54	4.57	6.46	1.97	1.55	1.06	2.31	2.40	4.76	9.13	0.86	0.62	2.14	3.98	2.39	1.03	1.12	1.06	2.13	1.95	2.51	3.00	3.21	3.27	3.24	2.99	2.67	2.71	5.58	7.77	7.48	4.52	4.18	4.31	4.27	3.94	3.70	3.23	7.51	4.52	4.21	3.52	3.41	7.72	8.97	5.22	4.64	5.26	3.91	4.52	4.39	3.43	2.42	2.17	2.49	3.72	7.42	9.51	9.76	10.18	3.36	3.17	3.41	5.48	5.26	4.63	4.29	3.21	2.90	3.85	3.24	4.42	8.70	6.05	1.59	2.98	4.18	4.13	4.60	4.99	1.47	3.66	3.40	3.42	3.34	4.20	3.97	3.20	3.28	3.30	3.66	5.15	4.85	2.88	2.76	3.41	6.86	8.38	8.67	7.76	8.13	8.33	5.90	5.66	10.51	2.62	1.80	2.10	3.89	4.12	4.60	2.78	2.74	2.74	
2.22	4.13	6.47	3.95	3.98	7.21	4.16	4.57	4.35	4.23	5.61	1.99	3.30	2.29	2.30	3.56	10.07	1.86	0.72	4.46	3.84	1.37	0.64	1.19	0.77	2.20	1.79	2.35	2.91	3.14	3.22	3.20	2.95	2.65	2.82	3.23	3.90	6.64	4.82	4.74	4.76	4.33	4.31	4.27	3.32	3.05	5.66	4.73	3.51	2.87	3.43	4.33	4.39	5.34	6.61	4.75	4.40	4.54	3.95	3.56	2.77	2.27	2.40	2.51	7.24	7.46	9.30	7.11	0.92	3.32	4.15	4.20	4.34	4.89	3.77	2.83	2.86	2.72	4.26	5.05	9.56	2.77	4.68	4.63	4.30	5.84	3.67	4.64	4.20	4.52	3.78	3.29	3.76	3.97	3.04	2.98	3.14	3.14	4.57	4.71	2.97	2.79	3.65	7.91	4.20	4.32	4.43	4.53	4.68	4.58	4.02	4.36	6.51	6.17	3.44	3.58	4.34	5.30	3.17	2.74	2.74	
2.16	2.94	7.88	4.40	3.28	3.24	4.24	8.34	4.36	4.28	5.41	2.26	3.49	2.40	2.78	4.63	9.76	5.11	4.26	6.02	2.45	0.51	1.06	1.73	1.64	1.07	1.91	2.33	2.88	3.08	3.20	3.18	2.98	2.67	2.83	5.43	5.54	7.53	5.56	5.70	6.05	5.15	5.57	5.31	3.38	4.76	7.23	5.05	3.47	2.51	3.18	4.07	4.22	5.86	5.15	4.20	4.36	4.83	4.18	4.75	1.12	2.47	2.78	2.26	2.74	4.26	7.74	10.65	1.92	1.53	3.19	3.32	3.77	5.25	4.56	3.22	2.84	2.67	2.71	4.66	8.20	10.54	6.00	5.67	4.34	4.61	4.51	4.24	3.97	4.75	3.67	3.96	3.38	2.56	2.93	2.92	3.20	2.83	3.45	4.19	2.98	2.84	3.80	4.41	4.58	4.57	4.55	4.44	4.39	4.38	4.13	4.01	9.09	2.70	4.27	3.08	4.11	7.41	1.94	3.17	3.17	
2.73	3.22	4.31	4.03	3.28	2.70	7.05	4.51	4.11	3.71	9.21	4.98	4.06	2.44	3.20	4.92	4.10	4.56	3.38	5.78	1.32	1.23	1.45	1.74	1.48	1.71	2.00	2.37	2.84	3.04	3.17	3.17	3.04	2.71	2.62	2.82	5.57	7.82	8.81	9.66	10.46	7.77	7.20	5.88	2.74	4.23	8.20	5.95	2.57	2.56	5.48	4.69	4.85	4.84	4.27	3.51	4.02	6.73	5.04	1.52	3.11	3.09	3.95	2.40	1.86	3.84	7.47	9.66	5.97	3.54	3.68	3.18	3.58	6.78	1.86	2.72	3.42	3.20	2.16	2.22	4.95	8.42	10.04	10.71	5.04	5.23	5.00	4.43	3.05	4.24	5.85	1.63	0.36	1.39	3.72	3.46	3.54	2.91	3.11	3.30	2.72	2.86	3.59	4.39	4.95	5.10	5.06	4.73	4.59	4.67	4.68	4.64	5.18	2.86	4.19	2.74	3.30	8.73	5.11	3.69	3.69	
3.69	4.00	4.30	4.43	2.60	2.42	3.19	4.15	3.87	4.88	4.75	6.21	4.00	2.44	3.11	7.65	5.59	4.13	3.41	5.46	4.00	2.64	2.01	1.47	1.19	2.07	1.90	2.41	2.81	3.00	3.16	3.18	3.11	2.83	2.55	2.47	2.57	5.44	7.52	8.13	9.66	10.76	10.98	7.97	2.31	4.30	4.91	7.91	4.09	2.14	3.32	7.63	5.84	4.91	3.66	2.92	2.93	4.46	8.96	4.97	3.62	5.15	4.42	3.46	2.01	2.46	3.94	7.54	7.92	5.72	3.95	3.63	4.89	1.45	3.38	2.69	2.78	2.51	2.79	2.10	2.22	5.04	7.54	9.25	9.85	6.29	4.78	3.10	2.65	4.62	4.13	4.16	3.43	4.51	3.75	3.43	1.66	3.40	3.64	3.34	2.27	2.48	3.18	6.85	7.09	8.12	7.42	6.69	7.05	6.68	6.60	5.69	2.85	4.90	3.76	2.61	3.74	5.13	4.83	4.03	4.03	
3.96	4.24	1.10	4.16	2.99	2.49	3.06	4.20	4.06	3.82	4.95	5.90	4.37	2.53	2.87	5.08	3.43	4.12	4.12	5.24	4.02	3.23	2.88	2.95	1.97	2.13	1.77	2.29	2.72	2.95	3.13	3.18	3.15	2.98	2.70	2.42	2.43	5.20	5.67	7.54	8.43	9.18	9.85	12.53	5.50	3.82	3.78	10.01	4.15	1.87	2.27	4.68	10.01	4.76	3.77	2.85	2.52	3.06	7.90	2.67	0.56	3.67	4.47	3.76	3.15	2.16	3.03	4.85	9.33	4.93	3.43	4.22	0.63	1.71	3.50	0.52	2.13	2.89	3.29	2.64	2.31	2.53	3.01	5.70	8.91	9.09	9.76	10.62	6.77	6.45	3.25	4.51	3.72	3.92	4.85	1.26	3.79	3.66	4.46	3.88	2.08	1.88	2.72	3.60	8.11	9.24	8.13	8.25	9.44	10.05	9.56	9.47	6.85	3.88	3.61	3.22	3.78	6.46	3.65	3.82	3.82	
4.23	6.50	4.29	4.63	3.13	2.46	2.94	4.96	8.46	8.34	8.52	5.72	5.08	3.08	3.43	6.88	5.21	4.74	5.12	1.12	0.84	0.70	0.78	0.48	0.83	2.24	1.80	2.09	2.53	2.88	3.10	3.18	3.17	3.08	2.84	2.45	2.31	2.60	5.42	7.17	8.60	9.11	9.59	12.00	5.07	4.77	4.03	5.51	1.60	2.43	2.08	4.15	7.66	2.76	5.10	4.52	3.16	2.68	4.48	3.53	3.84	3.53	4.36	5.10	3.27	2.43	2.32	4.19	6.73	9.12	6.60	5.16	5.59	5.34	3.19	3.36	3.57	4.10	4.05	3.46	2.81	2.57	2.58	2.98	5.65	6.11	8.73	9.34	10.21	4.95	2.12	1.45	3.74	3.86	3.35	4.54	3.63	3.98	4.60	1.68	2.40	1.55	2.41	3.65	8.32	6.74	5.34	6.31	8.58	8.87	7.71	8.02	10.03	10.31	3.46	4.09	5.65	2.83	3.92	3.23	3.23	
4.39	4.06	4.15	4.74	3.81	2.15	2.49	3.78	3.95	4.05	8.74	9.62	2.76	3.91	3.49	4.41	4.84	1.42	5.91	4.96	2.86	1.60	1.54	1.37	0.61	0.28	2.11	2.03	2.25	2.75	3.07	3.17	3.18	3.13	2.95	2.58	2.22	2.31	5.07	6.86	8.16	9.07	9.60	11.44	6.03	6.49	7.03	5.78	4.00	2.74	4.27	3.75	4.56	7.96	5.66	4.22	2.91	3.31	5.74	2.64	3.41	3.43	4.28	6.99	3.87	3.21	2.27	3.90	6.95	4.30	4.82	4.82	4.09	4.53	4.96	4.42	4.23	4.42	4.66	3.55	2.80	3.00	2.44	2.42	2.61	3.26	7.88	9.13	10.25	11.08	3.60	2.48	1.82	1.06	4.72	0.96	2.12	4.64	4.23	1.96	2.77	1.57	2.09	6.76	8.59	3.96	3.34	6.52	6.06	5.65	4.42	4.01	5.51	5.73	8.80	8.35	4.57	4.01	3.10	2.87	2.87	
4.50	4.06	4.30	5.19	3.25	1.99	1.83	5.05	4.69	4.25	4.71	4.83	5.21	4.06	3.15	4.08	6.82	6.83	5.60	7.74	2.55	1.39	0.35	0.47	0.79	0.36	0.38	2.23	2.13	2.64	3.05	3.16	3.19	3.16	3.02	2.73	2.22	2.09	4.74	6.43	7.85	9.03	10.02	11.54	12.09	9.96	10.53	2.39	2.39	4.27	3.76	3.96	4.04	9.69	10.94	10.99	2.85	3.82	1.19	3.06	3.17	3.27	3.79	5.00	3.60	4.22	3.12	3.96	4.57	2.92	4.75	4.39	2.96	3.87	4.18	4.23	4.31	4.68	4.66	1.46	2.32	2.30	2.90	2.40	2.05	2.01	5.11	7.72	10.07	7.72	10.76	6.51	5.25	4.30	4.62	2.66	1.32	4.73	4.68	1.08	3.01	1.95	2.13	7.17	4.84	3.96	3.40	3.78	4.06	4.18	3.91	7.88	4.56	5.38	9.36	8.67	2.79	3.34	2.97	2.48	2.48	
4.23	5.08	3.91	5.86	1.98	2.52	1.30	2.64	7.75	8.25	8.73	2.46	3.19	2.77	2.77	3.07	4.12	4.24	4.66	10.50	4.27	2.07	1.08	0.42	0.15	1.02	1.01	2.39	2.24	2.61	3.02	3.15	3.20	3.19	3.08	2.86	2.30	1.96	4.52	6.31	7.89	9.33	9.51	9.93	11.09	10.79	9.90	9.48	8.17	7.87	7.91	8.22	8.01	7.28	7.47	8.15	9.29	9.33	6.66	4.69	3.13	3.23	4.28	7.27	9.72	2.92	3.99	6.13	6.04	4.57	5.51	5.81	4.63	1.23	3.34	3.87	4.85	6.10	1.26	0.46	2.97	2.80	2.22	3.21	2.34	1.45	1.71	5.48	9.30	4.88	8.73	6.72	6.93	0.28	4.27	2.33	3.56	3.86	2.34	2.59	2.99	2.55	2.71	4.40	4.54	4.14	4.29	4.26	3.85	3.85	3.65	7.34	8.19	8.31	8.67	6.23	2.23	3.80	3.26	2.70	2.70	
4.04	3.53	3.40	5.77	2.49	3.09	1.71	1.44	4.80	9.11	9.37	9.11	2.56	3.65	3.58	3.09	3.05	2.92	3.10	8.27	8.98	6.14	3.38	1.59	1.38	1.71	1.53	2.18	2.29	2.66	2.99	3.14	3.21	3.21	3.14	2.95	2.47	2.00	2.00	4.81	7.25	7.83	8.14	9.22	10.28	8.64	8.78	8.19	6.58	6.44	6.91	6.42	6.16	4.97	4.94	5.08	5.13	7.43	8.48	6.10	3.50	2.97	7.55	9.19	8.30	4.34	3.42	3.59	4.05	5.58	5.30	6.12	4.00	3.27	2.78	3.52	7.44	1.92	1.01	1.18	3.51	1.54	3.18	3.39	1.56	1.35	1.13	5.08	8.13	7.90	6.54	9.94	6.98	2.72	4.08	2.32	3.96	4.02	4.58	3.81	3.27	3.02	3.54	4.38	5.41	4.40	6.01	4.84	3.91	3.77	4.03	3.39	7.17	8.44	4.91	8.69	5.85	4.73	4.17	4.10	4.10	
4.08	3.42	3.03	5.34	8.29	4.74	2.10	1.64	2.33	8.25	9.54	10.62	2.17	3.93	4.06	3.55	3.19	3.09	3.21	4.28	6.31	6.39	5.95	4.30	1.88	0.99	2.09	1.85	2.19	2.67	2.96	3.12	3.22	3.24	3.18	3.04	2.68	2.19	2.03	4.93	5.68	7.75	7.95	9.76	10.12	8.33	9.91	7.23	5.23	5.83	6.19	4.19	4.17	3.82	3.36	3.71	4.31	4.53	4.91	4.95	3.65	3.01	4.85	5.11	8.04	4.50	3.71	3.27	3.01	3.67	4.86	9.11	2.81	3.82	2.37	2.76	8.26	0.71	0.31	1.58	1.37	0.61	4.92	3.76	0.97	1.92	1.05	1.78	6.22	7.07	7.85	5.72	8.54	3.72	1.89	2.85	4.05	5.25	4.23	3.48	3.17	3.45	4.44	5.98	5.65	6.22	8.51	7.64	4.60	3.88	4.28	3.89	5.57	8.28	8.52	8.70	5.58	4.15	8.06	5.77	5.77	
4.73	3.72	2.96	5.07	5.31	5.49	4.99	2.34	1.99	5.82	9.14	10.20	2.93	1.90	3.60	4.08	3.94	3.80	3.46	3.99	4.81	5.48	4.63	2.42	1.44	0.21	0.44	1.65	1.97	2.61	2.91	3.11	3.23	3.26	3.22	3.13	2.86	2.44	2.14	2.43	5.61	7.54	8.03	10.63	7.19	6.63	7.63	6.55	6.14	4.08	4.01	4.14	4.08	3.94	3.74	3.90	4.49	4.64	4.35	4.35	3.65	3.52	4.38	7.88	7.93	2.11	3.96	3.36	2.88	3.45	4.78	9.11	2.67	4.36	2.53	2.50	8.90	5.10	3.83	3.65	3.98	4.35	4.76	4.21	1.74	1.14	1.55	1.23	2.22	6.19	9.23	9.63	10.95	7.92	6.38	5.75	6.67	6.03	4.41	4.20	3.27	3.55	4.65	7.01	4.89	4.69	3.52	5.65	9.26	4.85	4.59	6.05	6.17	6.97	7.83	8.51	5.36	3.75	3.82	6.45	6.45	
3.97	2.71	1.74	3.43	3.82	4.28	3.79	2.64	1.83	5.11	8.20	9.19	10.49	5.04	3.77	4.06	4.22	2.20	2.87	4.21	1.23	4.57	6.39	4.75	1.82	0.39	0.47	1.71	1.83	2.47	2.87	3.09	3.23	3.27	3.26	3.20	3.00	2.68	2.25	2.17	5.12	7.22	8.59	10.90	5.11	3.71	4.39	4.49	4.46	4.40	4.09	4.14	4.11	4.16	5.15	4.49	5.04	5.23	3.99	4.15	3.88	5.35	4.90	4.28	6.91	5.02	3.69	3.40	3.12	3.66	3.78	8.10	8.31	5.12	3.16	3.21	7.34	5.08	0.56	3.67	3.35	3.65	4.64	7.36	2.10	0.85	2.42	1.27	1.52	2.62	7.90	10.87	6.15	5.14	4.61	5.73	6.71	6.27	4.93	4.11	3.42	3.53	4.34	7.85	5.74	4.01	4.39	7.38	5.46	8.74	4.91	5.87	5.65	5.95	7.68	8.41	4.70	3.68	4.03	6.85	6.85	
4.49	3.88	3.79	3.84	3.89	4.29	4.07	2.87	2.00	2.42	5.53	7.21	8.99	10.62	5.17	3.57	4.38	4.77	4.25	4.58	4.53	4.28	5.93	2.14	1.78	1.39	1.41	2.07	1.83	2.30	2.79	3.05	3.21	3.28	3.29	3.25	3.10	2.88	2.39	2.09	2.65	5.48	8.20	10.57	5.14	3.97	4.03	8.62	4.45	4.87	4.57	4.50	5.09	5.43	7.00	3.96	6.68	6.92	4.86	5.28	4.55	3.44	4.79	4.39	4.60	4.20	3.92	3.51	3.46	4.96	4.49	7.57	5.41	5.15	3.61	4.21	4.25	0.77	2.20	4.12	3.58	3.20	3.59	6.33	2.46	1.91	1.46	1.52	1.30	2.30	5.96	10.99	5.48	3.01	2.22	2.24	4.12	5.04	5.20	4.03	3.80	4.11	5.90	8.18	8.18	4.79	4.69	3.75	8.19	10.58	4.26	3.54	4.13	5.55	7.77	7.95	4.66	3.60	4.48	7.40	7.40	
5.07	4.46	3.93	4.21	4.22	4.56	4.62	3.51	2.16	2.17	2.75	5.71	7.17	9.19	9.83	7.96	5.08	3.91	4.21	4.31	4.62	4.54	7.75	2.27	2.64	2.56	1.44	2.46	1.86	2.10	2.68	3.00	3.19	3.26	3.30	3.28	3.17	3.00	2.58	2.23	2.65	5.64	8.10	8.82	5.29	4.58	4.49	4.53	4.83	4.69	6.04	6.14	5.46	6.06	7.43	5.08	6.09	7.59	6.99	4.86	1.03	2.54	4.35	6.05	4.74	3.77	3.80	3.68	3.39	7.17	6.67	4.32	4.76	4.14	7.69	5.40	5.25	6.43	6.33	4.49	5.30	3.61	2.99	5.88	7.93	2.38	1.56	1.96	1.34	2.21	5.95	10.74	6.52	4.86	3.46	4.34	0.98	3.16	3.07	3.27	3.88	6.23	7.27	7.96	8.99	6.52	4.85	5.68	8.19	9.30	7.22	3.60	3.39	3.05	6.00	7.92	4.42	3.60	7.00	10.22	10.22	
4.96	4.36	4.00	4.50	4.93	5.34	5.25	2.54	2.57	2.05	2.03	2.24	5.88	6.62	9.15	8.92	5.54	4.23	3.92	4.03	4.61	5.44	7.12	1.84	1.50	0.71	0.91	1.06	2.01	1.93	2.50	2.90	3.13	3.23	3.29	3.31	3.22	3.10	2.76	2.45	2.60	5.83	8.38	4.84	4.67	4.74	5.32	5.17	6.39	6.23	6.94	7.69	6.52	6.15	6.95	5.99	4.32	8.99	6.13	5.10	4.52	3.76	3.64	3.92	3.67	3.51	3.70	4.00	4.41	4.73	9.50	4.84	4.88	4.86	4.05	4.12	4.15	3.91	4.01	3.83	3.95	4.20	2.93	5.51	9.36	3.34	1.84	2.50	1.61	1.96	6.09	9.70	12.11	3.63	3.61	3.50	2.40	3.47	2.69	2.66	3.71	6.80	8.34	8.13	8.23	10.59	5.91	5.70	6.41	8.26	9.13	6.66	4.91	3.14	3.38	6.75	4.07	3.69	5.20	9.95	9.95	
4.25	4.17	3.93	5.76	5.06	5.13	5.73	1.88	1.40	2.03	1.90	1.91	2.18	6.47	7.18	9.24	5.84	4.42	3.95	4.00	4.54	7.24	5.24	1.72	0.50	0.41	0.69	0.57	2.39	1.98	2.26	2.70	3.01	3.17	3.27	3.31	3.27	3.18	2.92	2.60	2.63	6.05	6.17	4.29	4.35	5.38	6.87	7.13	7.61	6.70	7.30	8.70	9.93	9.76	9.89	7.70	4.50	4.03	4.69	4.77	4.78	3.44	3.33	3.49	3.53	3.09	3.69	5.34	4.25	6.56	4.11	5.23	6.66	1.92	1.41	3.16	4.34	4.26	3.87	3.53	3.74	3.66	3.09	3.04	6.59	7.60	3.22	3.02	1.91	2.07	5.95	9.44	11.70	3.65	2.82	2.61	2.61	2.67	2.60	2.37	5.89	6.91	8.84	10.06	10.41	6.77	6.11	5.77	5.56	7.76	9.09	6.89	6.36	4.43	3.85	6.41	3.80	3.80	8.12	8.54	8.54	
3.87	4.01	4.79	5.27	6.02	5.29	4.66	1.72	1.43	1.46	2.18	2.06	2.12	2.48	6.59	8.78	5.79	4.11	4.06	4.06	6.22	10.05	2.75	2.26	1.14	0.42	0.44	1.31	0.71	2.28	2.22	2.45	2.79	3.07	3.24	3.31	3.32	3.24	3.04	2.71	2.75	3.50	3.89	5.97	5.21	5.33	7.06	7.30	7.52	5.98	5.08	7.09	8.56	9.82	10.35	9.01	3.90	4.64	0.49	1.25	2.70	2.63	3.12	3.29	3.14	2.65	3.58	7.18	4.75	3.71	6.60	4.60	6.64	5.70	5.44	3.68	4.26	3.10	0.95	2.12	3.93	3.94	3.54	3.25	3.93	5.82	5.38	3.25	2.07	2.12	6.00	9.97	9.52	4.54	4.41	4.07	3.15	3.35	2.52	2.26	3.28	7.01	9.08	8.21	8.84	7.13	6.04	6.74	6.06	6.54	8.68	6.13	5.19	5.36	4.11	4.48	3.80	3.36	5.26	6.10	6.10	
3.82	4.62	5.89	6.28	7.25	5.82	4.68	5.40	4.77	1.59	1.32	3.18	2.60	2.04	2.33	7.84	6.24	3.53	3.16	6.68	8.71	10.34	7.46	3.15	1.04	1.77	2.17	1.33	0.91	0.89	2.47	2.35	2.54	2.95	3.21	3.31	3.35	3.29	3.18	2.84	2.84	3.24	3.22	5.46	7.10	8.07	8.55	8.33	8.56	6.50	5.34	6.99	7.66	3.99	10.28	9.35	6.67	4.93	6.86	3.99	2.95	3.08	2.32	2.04	2.75	2.06	2.82	8.62	7.66	5.42	5.01	4.55	4.71	5.60	3.20	4.89	3.45	6.03	4.50	4.12	4.22	4.42	4.16	4.09	4.25	1.32	3.74	2.44	1.90	2.11	6.11	10.06	6.95	3.73	3.30	3.84	3.48	3.03	2.22	2.09	5.93	9.14	7.01	7.42	7.88	6.68	5.88	4.65	5.37	3.74	7.21	5.20	4.87	4.82	3.96	4.22	4.12	3.16	3.97	8.47	8.47	
4.66	5.86	6.68	2.19	4.50	5.88	5.24	4.92	5.82	6.39	6.40	4.97	0.97	2.37	1.90	4.17	6.23	3.11	2.94	6.97	7.92	9.94	9.88	3.53	2.68	2.65	1.92	0.59	0.69	0.30	0.32	2.45	2.44	2.83	3.16	3.30	3.37	3.34	3.29	2.97	2.88	2.98	2.68	5.17	6.98	8.27	10.13	11.02	11.46	11.04	11.14	10.25	7.19	8.20	8.83	9.60	8.56	7.18	9.38	5.84	4.88	4.78	3.91	2.49	2.80	1.87	2.04	8.38	7.71	7.29	4.91	4.38	4.20	9.11	6.00	1.39	0.54	2.57	4.26	2.80	3.72	3.65	4.75	4.54	4.04	4.30	1.27	1.85	1.71	2.05	6.35	9.93	11.26	5.27	1.94	0.93	0.77	2.75	2.07	1.86	6.75	7.10	6.68	6.68	6.48	4.96	4.89	4.85	4.53	3.65	4.49	4.56	4.65	4.94	4.37	4.26	4.68	3.51	2.92	3.93	3.93	
4.08	6.32	7.36	3.70	4.15	4.23	4.67	3.66	3.75	4.00	4.10	4.44	4.50	2.73	2.28	3.01	3.76	2.57	3.14	8.17	9.72	8.43	6.57	4.99	2.69	1.79	0.76	0.17	0.56	0.30	0.75	2.49	2.50	2.76	3.09	3.30	3.39	3.38	3.36	3.07	2.93	2.84	2.38	2.33	5.01	7.30	9.20	10.96	10.75	10.26	10.49	8.43	6.12	6.83	8.01	9.27	8.69	7.97	9.36	10.67	6.78	4.85	3.33	2.98	3.29	2.35	2.53	6.06	4.59	4.56	4.63	4.26	3.85	8.40	10.43	2.68	1.07	0.63	4.33	4.10	4.75	4.54	5.02	5.18	2.63	0.75	1.64	2.18	1.70	1.83	6.19	9.31	11.61	2.50	2.03	1.81	2.07	3.03	2.17	1.93	4.12	4.26	4.32	4.54	4.47	4.50	4.33	4.67	4.69	4.01	3.85	3.71	4.65	5.63	5.30	4.89	4.92	2.56	2.66	2.51	2.51	
2.88	5.91	5.93	4.38	3.70	3.55	3.85	3.89	3.91	4.11	4.21	4.25	4.31	3.78	2.96	2.79	2.63	2.07	1.96	6.46	8.39	9.99	11.24	3.76	2.45	1.11	0.84	0.59	0.69	0.96	0.61	2.40	2.51	2.72	3.04	3.30	3.41	3.43	3.40	3.21	3.05	2.80	2.32	2.14	4.71	6.67	9.22	10.80	10.18	10.71	10.01	8.65	6.43	5.87	7.91	8.96	8.16	7.74	8.42	9.02	7.70	7.49	6.97	5.47	3.81	3.00	3.46	4.65	4.54	4.06	4.36	4.50	4.06	4.07	8.40	2.61	3.40	5.09	5.01	3.67	4.02	3.99	5.85	8.56	5.92	3.88	2.86	2.41	1.86	1.86	3.37	8.56	11.10	6.17	3.97	3.56	2.92	2.93	2.41	2.45	3.83	4.37	4.34	4.38	4.45	4.40	3.80	4.67	5.20	4.69	3.87	2.71	3.68	7.35	7.52	5.68	3.46	2.27	3.05	2.44	2.44	
4.60	5.35	5.65	3.90	3.49	3.43	4.05	4.36	4.33	4.62	4.58	4.23	4.35	3.96	3.29	2.81	2.20	2.07	1.93	2.87	6.65	8.50	10.26	10.56	7.35	1.64	0.80	0.69	0.82	0.57	0.39	2.34	2.44	2.68	3.02	3.32	3.42	3.47	3.43	3.34	3.21	2.88	2.37	2.07	2.12	6.19	8.93	9.37	9.22	10.78	9.04	8.06	7.20	6.50	7.85	8.28	7.45	7.57	8.50	8.49	6.74	5.26	5.66	4.85	4.06	3.30	3.64	7.23	4.73	3.84	4.55	4.73	4.41	6.17	5.85	2.46	2.76	3.97	5.38	5.64	4.30	3.63	5.67	6.86	6.52	4.93	2.77	2.36	2.01	2.11	5.86	8.73	10.90	1.97	1.86	2.04	1.80	2.12	2.65	2.91	4.89	5.38	5.23	4.84	4.80	3.53	3.20	5.78	5.83	4.88	2.55	2.83	2.50	3.90	7.42	7.42	1.88	2.58	3.08	2.33	2.33	
5.24	3.12	3.36	2.89	3.41	3.60	4.66	5.27	4.83	5.22	4.41	4.23	4.26	3.66	3.04	1.84	2.18	2.42	2.28	1.71	2.67	7.00	9.84	10.38	11.64	1.89	0.94	1.02	1.05	0.49	1.01	2.43	2.41	2.70	3.03	3.33	3.44	3.50	3.48	3.43	3.31	3.07	2.58	2.14	2.04	4.81	8.27	8.52	8.67	10.20	7.97	7.17	7.26	6.74	6.86	6.58	6.33	6.57	6.59	6.49	6.07	4.72	4.63	4.56	4.18	3.62	3.25	8.19	7.10	4.47	4.13	4.41	4.35	7.31	6.84	5.21	4.29	4.26	4.49	4.63	4.73	3.74	6.59	4.23	7.47	5.73	2.80	2.26	1.91	2.13	6.38	8.99	10.95	3.70	2.75	2.51	2.63	3.34	2.81	2.92	4.87	7.80	7.16	5.60	4.63	2.63	2.78	6.45	8.51	3.07	2.55	3.17	2.51	3.29	6.84	9.42	2.14	2.70	3.54	2.47	2.47	
5.56	3.10	0.61	3.96	3.36	3.69	6.36	5.95	4.61	6.86	5.17	4.56	3.30	0.66	1.18	1.11	2.80	3.11	2.73	1.62	1.32	6.13	8.78	9.80	11.38	1.89	2.34	2.69	3.03	3.13	2.19	2.60	2.38	2.71	3.04	3.33	3.45	3.52	3.52	3.49	3.39	3.22	2.84	2.37	2.20	2.71	6.10	8.55	9.39	7.38	6.40	4.93	4.58	4.42	4.24	4.27	3.98	3.83	4.19	4.46	4.61	4.54	4.40	4.33	4.43	5.37	5.02	7.05	5.02	6.53	5.50	4.66	4.89	5.91	6.33	5.98	5.49	4.40	4.59	4.20	4.77	4.92	4.14	3.99	4.67	7.40	2.72	2.28	1.69	1.83	6.39	9.19	10.73	9.17	3.66	2.54	2.59	3.21	2.93	2.99	4.35	8.08	9.32	6.71	3.41	2.32	1.73	3.12	6.48	2.01	4.89	3.75	2.87	3.10	6.13	7.45	4.69	4.92	2.00	3.17	3.17	
5.17	4.59	3.90	4.03	3.36	3.46	6.56	7.24	3.59	6.72	6.47	0.49	3.45	4.27	4.50	3.78	3.34	4.90	2.52	1.71	0.93	2.35	7.44	9.26	11.63	6.94	3.52	2.61	2.39	2.54	1.85	2.61	2.27	2.62	3.02	3.31	3.45	3.54	3.56	3.53	3.46	3.33	3.07	2.69	2.36	2.61	5.88	9.14	5.34	4.60	4.63	4.73	4.95	4.72	4.37	4.51	4.31	3.97	3.94	3.94	3.99	4.37	4.34	3.89	6.79	7.62	4.18	5.44	4.02	4.58	4.41	6.67	5.16	4.69	5.42	5.48	4.72	4.93	4.42	4.43	4.08	4.22	3.90	3.82	4.54	5.86	2.26	2.84	1.63	1.59	6.38	8.65	9.92	11.24	3.34	2.50	2.84	3.07	2.94	3.09	6.50	8.07	9.48	10.97	4.11	2.58	4.15	4.52	6.15	3.97	4.94	2.87	3.66	3.34	3.98	5.87	4.82	4.59	3.57	3.84	3.84	
5.64	5.66	4.73	3.82	3.32	3.32	7.22	8.76	3.37	8.01	5.43	4.21	4.39	4.43	4.70	4.47	4.25	4.78	1.93	1.52	1.08	1.54	5.73	6.69	9.72	11.80	2.73	1.28	0.99	1.38	1.37	2.66	2.31	2.47	2.90	3.27	3.45	3.55	3.59	3.56	3.52	3.43	3.25	2.97	2.50	2.37	6.01	6.05	4.70	7.24	4.76	4.71	6.30	5.20	5.17	5.41	4.97	4.31	3.89	3.57	3.53	5.02	5.09	4.51	6.97	4.37	9.11	4.47	4.15	4.00	3.85	4.55	6.38	4.50	3.63	3.72	4.41	5.15	5.29	4.52	4.82	4.53	3.81	3.57	4.48	5.61	2.60	2.20	1.92	1.62	3.80	7.97	9.25	10.91	5.74	4.63	3.89	3.17	2.86	2.99	7.02	8.43	8.81	11.03	12.50	5.75	4.60	4.55	5.65	4.17	2.99	4.16	3.50	4.54	5.54	7.68	2.04	3.35	4.52	3.14	3.14	
4.51	4.35	4.02	3.42	3.30	5.36	7.24	10.35	0.41	3.20	4.21	4.25	4.19	4.46	5.12	4.76	3.58	3.04	1.07	2.46	1.76	1.73	1.69	2.91	7.23	12.42	3.13	2.43	1.66	0.95	0.46	1.05	2.70	2.53	2.76	3.20	3.45	3.55	3.59	3.58	3.56	3.51	3.37	3.16	2.70	2.46	3.44	4.35	4.57	5.04	5.35	5.87	6.51	6.50	6.06	6.02	5.13	4.25	3.12	3.41	3.76	6.94	5.63	6.84	5.18	6.57	4.32	7.92	4.76	4.05	3.85	3.55	3.87	5.30	3.65	4.36	3.90	3.86	4.04	4.34	4.97	4.82	3.96	3.29	4.35	6.42	4.51	3.68	2.22	1.67	3.72	8.03	9.63	8.81	6.91	5.28	4.08	3.36	2.80	2.98	7.30	8.41	8.06	9.67	10.65	4.71	4.70	8.65	7.49	5.79	5.38	6.55	5.37	5.87	5.64	8.15	3.82	4.40	4.26	3.61	3.61	
4.78	4.07	3.65	3.22	3.00	5.52	8.01	9.75	2.04	3.34	3.74	3.88	3.64	4.92	5.46	2.12	0.52	0.29	0.37	1.02	1.58	1.47	1.33	1.53	6.24	10.07	10.97	6.03	5.00	3.81	2.64	2.27	1.37	3.05	2.81	3.12	3.43	3.53	3.58	3.59	3.58	3.56	3.44	3.27	2.95	2.81	3.31	3.66	5.28	6.77	7.10	7.09	7.31	8.02	8.69	8.08	5.58	3.31	2.68	3.39	3.53	2.55	3.31	5.72	8.68	4.74	6.31	8.94	5.47	4.70	4.07	3.68	3.30	3.80	5.23	3.40	4.26	3.93	3.84	4.08	4.89	4.97	4.05	3.30	4.22	5.63	4.34	3.61	2.16	1.44	3.46	8.44	7.91	7.77	7.17	6.82	4.65	3.49	2.98	3.88	7.14	7.82	7.84	9.43	5.40	3.74	3.24	3.28	7.21	7.86	6.27	9.19	9.38	6.13	6.27	9.52	10.04	3.45	3.28	3.01	3.01	
4.67	4.22	3.93	3.28	2.58	5.26	8.92	9.93	2.18	3.38	3.74	3.43	3.46	4.82	6.74	1.95	3.16	3.42	3.97	3.35	0.96	2.01	1.52	1.56	5.13	7.68	8.86	7.35	7.08	7.29	5.63	4.18	3.66	3.71	3.10	3.08	3.36	3.48	3.55	3.58	3.59	3.58	3.48	3.33	3.05	2.96	3.27	4.72	6.18	8.06	9.59	10.47	10.81	10.44	10.74	11.46	11.84	2.45	1.95	3.78	4.00	2.75	2.86	3.84	4.42	8.73	9.16	8.02	5.55	5.89	4.06	3.76	3.89	3.48	3.96	4.48	4.48	4.22	3.93	4.00	4.71	4.88	4.42	3.82	4.41	4.46	4.11	3.11	2.06	1.36	3.53	7.12	6.38	6.64	4.92	5.31	4.86	3.26	2.77	4.08	7.83	8.41	9.41	10.32	6.75	4.43	3.52	3.44	7.76	5.80	4.04	7.01	6.58	4.71	4.48	8.78	10.61	3.64	3.86	2.94	2.94	
4.27	4.27	4.35	3.89	2.75	5.04	8.22	9.71	5.84	4.52	2.94	3.90	3.63	5.04	4.79	2.81	3.34	4.30	4.49	1.94	2.52	1.77	2.12	1.66	2.36	6.52	6.85	5.83	4.90	5.63	5.38	4.49	4.34	4.12	3.21	2.95	3.23	3.38	3.49	3.55	3.58	3.57	3.49	3.35	3.02	2.75	2.97	5.21	7.69	8.80	9.79	10.71	10.65	9.72	9.85	10.42	11.39	12.16	4.25	3.45	3.12	3.27	2.90	3.79	5.03	4.82	5.27	6.12	3.58	3.98	4.72	5.15	2.65	2.06	1.55	4.15	4.32	4.31	4.13	4.20	4.47	4.72	4.48	4.24	5.00	5.29	4.35	3.23	2.21	1.82	2.79	3.92	3.92	4.11	4.29	4.51	4.29	2.59	1.68	3.61	7.89	9.38	10.18	7.13	6.47	5.08	3.28	3.78	7.70	5.87	4.05	4.20	4.57	4.55	4.65	4.22	8.51	11.17	4.42	3.49	3.49	
3.63	4.18	5.23	4.48	4.25	6.64	7.97	6.01	5.36	4.35	3.83	3.56	4.07	4.28	4.70	4.44	4.59	4.06	4.38	5.20	4.76	2.45	2.14	1.87	2.45	3.75	4.85	4.78	4.60	4.87	4.89	4.36	4.61	4.55	3.16	2.64	2.95	3.18	3.37	3.48	3.54	3.55	3.49	3.34	3.00	2.52	2.54	5.50	8.01	8.64	9.14	10.09	10.58	9.58	9.83	10.19	10.80	11.88	4.54	4.05	4.60	3.46	2.96	4.89	4.17	3.95	5.24	5.75	3.96	3.37	3.65	4.17	5.16	4.22	4.34	4.26	4.25	4.24	4.26	4.58	4.63	4.87	4.65	3.91	4.80	5.52	2.29	0.83	2.76	2.60	3.15	3.76	3.58	3.58	4.15	4.64	4.04	2.43	0.93	1.49	7.05	9.05	10.15	5.24	4.67	4.26	3.38	4.13	4.82	4.20	3.73	4.18	4.62	4.55	5.72	4.63	7.80	11.02	5.43	4.36	4.36	
3.14	5.18	6.54	4.82	4.44	6.03	7.10	7.88	4.22	4.17	3.86	4.24	1.22	4.46	4.47	4.54	0.91	3.97	4.08	5.53	4.40	1.96	1.14	1.77	2.53	3.14	3.96	4.49	4.83	4.67	4.45	4.42	5.11	4.29	3.28	2.51	2.51	2.81	3.20	3.38	3.49	3.53	3.49	3.33	3.02	2.42	2.35	5.56	7.94	8.49	8.70	9.26	10.10	9.85	10.00	9.88	10.25	11.85	5.05	4.43	4.79	3.67	3.18	3.67	4.00	3.99	4.53	5.56	4.29	2.95	1.76	3.73	4.16	4.40	4.31	4.34	4.31	4.19	4.28	4.64	4.66	5.03	4.50	3.63	3.93	7.37	1.62	1.27	3.11	3.56	3.51	3.20	3.33	3.67	4.36	5.46	3.51	1.58	0.78	1.07	3.62	8.23	9.90	5.52	5.30	4.27	4.13	4.15	4.32	3.84	3.82	7.01	8.31	9.08	9.20	9.27	8.50	6.09	7.01	5.36	5.36	
2.86	6.42	7.11	5.51	4.45	6.04	6.03	4.50	4.65	3.31	4.77	4.03	4.54	4.78	3.61	4.41	4.27	3.36	4.03	6.78	1.34	1.11	1.15	1.03	1.45	3.15	3.50	4.42	4.81	4.19	4.15	4.87	5.55	3.76	2.53	1.76	2.22	2.35	2.90	3.22	3.41	3.50	3.50	3.35	3.11	2.47	2.29	5.50	6.11	8.35	8.40	8.69	9.45	9.76	9.96	9.65	9.77	11.47	12.32	4.85	4.97	4.12	3.76	3.70	3.80	3.90	4.32	5.38	1.72	4.90	2.96	1.34	3.91	4.08	3.98	4.16	4.28	4.23	4.18	4.51	4.46	5.92	5.29	3.91	5.11	5.10	5.17	0.79	4.09	4.16	0.86	2.94	4.32	4.90	5.68	5.58	2.81	2.02	1.00	0.88	3.23	4.62	8.95	5.34	4.10	4.33	5.00	5.14	4.81	3.99	2.89	2.51	3.45	4.22	6.52	5.65	4.54	6.69	5.42	4.80	4.80	
2.51	6.82	7.81	5.86	5.51	8.28	3.89	4.19	5.87	6.82	7.52	6.81	4.60	4.51	1.27	4.74	4.63	2.44	4.50	1.56	3.44	2.84	1.90	1.69	0.46	2.61	3.78	5.26	4.85	4.39	5.01	5.63	4.87	1.07	0.23	0.45	2.42	2.12	2.48	3.01	3.33	3.46	3.49	3.37	3.23	2.71	2.41	2.73	5.69	8.07	8.37	8.64	9.29	9.55	9.61	9.71	9.93	11.13	12.30	5.84	5.06	4.39	4.25	4.00	3.82	3.87	4.09	4.93	5.57	1.24	4.96	2.17	4.00	1.28	3.64	3.93	4.38	4.33	4.00	4.36	5.01	6.11	6.34	0.89	4.71	4.89	1.35	3.16	4.77	4.64	4.51	2.79	5.19	6.42	7.73	5.47	1.88	0.48	1.54	0.87	1.55	4.52	8.03	4.65	4.08	4.55	6.95	6.96	5.89	4.17	3.41	2.24	2.74	6.62	4.40	4.26	7.01	5.35	5.02	7.65	7.65	
1.96	2.83	8.66	7.02	4.59	4.45	5.69	4.11	3.93	4.23	4.47	5.02	7.94	7.39	7.57	9.04	8.22	6.18	8.34	5.86	2.73	3.23	4.91	4.28	0.80	4.96	5.36	5.98	5.05	5.03	5.72	4.26	0.79	0.44	0.07	1.59	1.17	2.19	2.11	2.77	3.27	3.42	3.48	3.43	3.35	3.05	2.73	2.55	2.77	5.92	7.69	8.35	9.04	9.13	9.23	9.58	9.78	10.46	10.95	5.22	4.93	4.19	4.55	4.29	3.86	3.93	4.14	10.27	5.06	5.53	1.74	2.23	4.27	1.75	3.19	3.61	4.49	3.45	4.03	5.30	4.52	5.73	3.66	2.62	4.44	5.31	1.09	0.62	4.44	4.48	2.19	5.09	4.68	5.32	6.42	6.06	2.09	1.62	1.72	1.17	1.16	4.01	5.20	4.44	3.80	4.77	7.91	8.93	8.71	4.25	4.19	2.79	2.76	3.67	4.03	4.04	7.23	5.48	5.78	4.33	4.33	
1.97	2.53	5.46	5.65	5.25	4.46	4.10	3.98	3.89	3.74	3.53	3.35	5.52	5.63	5.64	6.08	7.83	6.62	6.24	8.52	5.41	3.82	4.96	4.12	3.49	4.15	6.38	7.41	6.60	6.22	4.93	2.48	2.00	1.58	1.68	1.66	0.53	0.54	2.05	2.66	3.24	3.41	3.48	3.49	3.46	3.32	3.09	2.69	2.61	3.14	5.60	5.94	8.61	8.74	8.77	9.47	10.11	10.96	12.06	11.70	5.85	5.35	4.89	4.60	3.91	4.04	4.50	4.61	4.73	5.60	2.08	4.47	3.99	2.35	2.80	3.23	4.46	4.40	4.12	6.17	5.05	6.29	4.00	4.52	4.84	3.89	2.78	4.56	0.83	4.58	4.24	4.11	5.60	2.00	7.05	8.26	7.91	2.64	1.36	2.15	1.25	2.05	3.59	4.23	3.79	4.28	7.88	9.07	10.28	4.17	4.83	3.38	3.03	3.81	3.88	4.08	5.88	3.00	3.56	3.37	3.37	
2.45	2.95	5.20	7.99	5.74	4.01	4.11	4.10	4.06	3.83	3.64	3.45	3.53	3.91	3.72	3.88	6.38	5.96	6.48	8.24	5.81	5.25	5.46	4.36	3.14	3.18	3.91	7.18	9.24	9.67	4.14	2.21	1.69	1.55	0.91	0.29	1.39	1.58	2.28	2.75	3.26	3.43	3.52	3.54	3.54	3.46	3.33	3.02	2.77	2.94	2.83	5.25	7.56	8.07	8.27	9.27	10.10	10.77	10.89	11.53	12.44	12.41	5.88	4.55	4.19	4.28	4.68	4.69	4.60	5.80	4.10	3.38	2.42	3.01	2.90	3.01	5.59	4.10	3.88	6.45	3.92	5.85	4.12	2.75	2.83	4.35	4.87	1.11	4.78	4.76	3.43	4.02	5.59	5.45	5.12	4.05	5.39	7.53	2.72	1.12	1.90	1.82	2.95	4.85	4.57	4.29	7.02	7.78	9.58	5.53	3.34	3.70	3.44	5.13	4.33	5.32	4.17	3.58	3.43	3.10	3.10	
2.71	3.26	7.62	9.05	1.84	1.35	3.50	1.43	1.21	3.10	3.71	3.99	3.79	3.70	3.73	3.83	4.28	4.37	4.27	6.35	6.24	4.93	4.79	4.43	3.21	2.94	3.15	6.67	8.25	10.65	7.14	1.48	0.88	1.74	2.61	2.73	2.52	2.98	2.59	2.95	3.33	3.46	3.57	3.59	3.60	3.55	3.47	3.29	3.07	3.02	2.71	2.52	5.18	5.37	7.31	8.42	9.26	9.44	9.67	10.42	11.72	11.24	8.20	5.40	4.71	4.84	4.94	4.72	4.53	7.46	1.87	2.34	3.31	3.46	3.25	3.04	5.51	2.11	4.57	7.63	1.04	4.28	7.54	4.21	3.17	3.80	3.99	4.30	6.24	6.02	4.85	4.28	4.04	4.56	4.25	3.49	4.40	5.49	6.30	2.53	2.97	2.11	2.53	4.71	7.14	6.92	7.57	7.66	9.55	7.80	4.44	4.13	4.05	5.30	6.91	5.66	4.45	4.18	3.73	3.35	3.35	
3.05	4.71	4.18	4.95	6.48	5.93	5.89	5.73	4.90	4.45	4.38	4.41	4.26	3.93	3.79	3.78	3.98	4.10	4.02	4.23	4.67	4.67	4.55	4.41	3.32	2.31	2.73	6.28	7.67	8.64	9.27	9.02	7.65	5.61	4.77	4.60	3.61	3.37	2.91	3.16	3.40	3.49	3.59	3.62	3.63	3.61	3.56	3.46	3.32	3.20	2.88	2.61	2.69	4.73	4.96	7.46	7.91	8.28	9.25	9.99	10.60	10.41	9.75	8.02	10.34	5.57	11.59	11.67	11.34	11.64	6.14	5.18	4.09	3.55	3.38	3.12	5.33	3.65	4.46	5.26	4.37	4.92	5.82	5.07	3.26	4.07	3.60	3.50	3.75	4.35	4.77	4.61	4.23	4.47	4.18	3.48	3.70	4.17	4.99	5.47	3.10	2.33	2.24	4.27	7.96	8.75	9.56	9.19	10.44	12.56	5.57	3.37	3.24	4.20	6.00	6.16	5.41	4.40	3.96	3.98	3.98	
4.16	5.04	4.22	4.35	4.50	4.55	4.44	4.19	4.24	4.29	4.52	4.69	4.65	4.21	4.10	4.04	4.01	3.81	3.73	3.89	4.20	4.56	4.91	4.94	3.90	2.60	2.27	3.04	6.07	6.73	6.93	7.35	8.25	7.58	5.68	5.18	4.23	3.83	3.37	3.46	3.42	3.42	3.53	3.60	3.63	3.63	3.62	3.57	3.49	3.38	3.15	2.92	2.76	2.48	2.58	5.28	6.68	7.25	8.79	9.34	8.92	9.67	10.60	10.21	6.30	9.11	8.72	9.58	9.02	8.97	6.08	5.35	3.79	4.26	3.38	3.21	4.98	4.79	6.81	5.79	3.68	5.23	6.17	2.58	5.02	3.65	4.51	3.94	3.68	4.05	4.46	4.73	4.81	4.87	4.81	4.06	3.78	3.87	3.86	3.95	3.23	2.18	2.00	4.01	7.89	7.85	4.07	4.11	8.95	11.23	9.62	2.05	2.94	5.26	5.59	4.71	4.45	4.30	4.24	5.03	5.03	
5.28	4.70	1.86	4.22	4.13	4.43	4.17	3.99	4.18	3.95	4.32	5.18	4.90	3.84	4.34	3.66	4.04	3.76	3.86	3.90	3.99	4.51	5.20	5.19	3.18	2.92	2.49	2.77	3.49	4.12	4.61	4.87	5.55	7.05	5.48	4.90	4.70	4.10	3.83	3.89	3.50	3.18	3.35	3.52	3.57	3.62	3.64	3.63	3.59	3.51	3.37	3.22	3.00	2.65	2.62	2.99	3.04	7.02	7.94	8.32	9.07	10.07	11.08	4.69	8.93	6.37	8.61	9.82	9.13	9.41	11.80	2.19	4.41	3.04	2.49	3.21	4.74	5.09	3.77	4.27	3.62	3.32	6.03	4.91	4.12	4.99	5.44	4.85	1.86	4.51	4.75	5.03	4.56	4.56	4.40	3.31	4.71	4.35	3.98	3.01	1.62	1.86	1.80	3.96	4.70	4.71	7.41	7.36	8.05	10.53	8.79	8.21	6.15	4.40	6.37	5.90	4.74	4.13	4.28	5.54	5.54	
5.36	5.22	4.15	4.17	4.13	4.43	3.82	3.73	4.46	3.76	4.76	6.88	5.56	3.41	4.30	2.63	1.36	1.68	4.15	3.98	3.88	5.26	5.86	5.64	3.66	2.00	2.53	2.59	2.80	3.65	4.33	4.45	4.80	5.19	5.05	4.85	4.71	4.42	4.36	4.33	3.53	2.99	3.20	3.38	3.44	3.56	3.65	3.66	3.64	3.59	3.51	3.40	3.26	3.03	2.82	2.74	2.66	5.13	5.76	6.44	8.47	10.03	11.22	7.20	7.81	4.42	4.43	5.04	6.94	5.14	5.80	1.97	4.97	3.13	3.33	3.22	3.73	7.59	4.71	4.60	3.62	3.21	4.70	5.48	2.83	3.66	3.95	4.48	4.26	4.26	4.46	7.29	6.90	7.65	8.22	3.96	2.36	1.37	1.73	1.39	2.20	1.94	1.66	2.55	3.58	4.90	4.07	3.60	7.59	10.99	6.62	4.97	8.20	3.78	3.54	4.48	4.76	4.15	5.21	5.63	5.63	
4.56	6.31	2.84	3.84	3.89	1.99	0.18	3.82	5.83	2.19	4.19	7.04	5.38	2.17	2.14	3.44	3.91	3.66	4.10	3.66	4.51	6.34	7.83	6.52	1.20	0.99	1.53	1.61	1.01	3.94	4.48	4.39	4.50	4.46	4.34	4.36	4.56	4.79	5.09	3.36	1.62	3.13	3.30	3.20	3.29	3.51	3.62	3.66	3.66	3.63	3.58	3.52	3.42	3.31	3.10	2.88	2.63	2.61	2.96	5.80	8.15	10.14	8.43	4.68	8.19	9.69	4.65	10.39	9.58	9.71	11.84	5.00	4.85	5.48	4.85	4.07	3.45	3.94	4.67	4.94	3.97	3.35	6.01	5.18	3.61	1.99	3.60	4.03	4.01	3.55	3.49	3.95	4.12	4.49	6.72	5.18	6.91	5.31	5.70	3.69	3.63	2.79	1.78	1.97	4.37	7.29	7.45	7.59	9.32	8.73	5.53	8.07	9.52	4.86	3.82	3.67	4.23	4.64	4.39	4.41	4.41	
3.16	7.75	5.88	2.52	4.89	4.02	3.57	4.13	6.00	3.62	2.95	7.54	2.22	3.80	4.46	4.38	1.46	4.37	4.60	3.46	5.72	3.77	4.16	8.61	5.21	4.54	4.51	4.00	3.91	4.75	4.85	4.29	4.12	3.98	3.85	3.75	4.35	5.67	3.71	1.23	1.97	3.62	3.59	3.01	3.14	3.47	3.56	3.62	3.63	3.63	3.62	3.59	3.53	3.44	3.31	3.15	2.82	2.43	2.41	5.29	7.52	9.49	8.06	4.53	9.16	9.44	10.40	7.19	6.77	8.75	6.25	6.15	3.84	5.32	8.97	3.87	4.29	3.58	3.76	5.02	3.89	3.54	6.23	6.17	4.53	4.53	3.87	4.15	4.47	3.79	3.37	3.62	3.56	4.06	4.70	4.72	4.49	4.30	5.08	5.51	4.43	3.56	2.38	1.45	1.79	6.95	9.03	8.81	8.95	8.97	5.63	4.45	8.26	5.92	4.87	4.39	4.18	5.20	4.87	4.13	4.13	
2.58	4.29	8.54	9.79	2.85	4.01	3.44	4.77	5.11	3.51	3.45	7.36	1.27	2.99	4.13	1.89	3.06	4.28	5.98	3.54	4.18	4.13	6.21	7.62	5.50	4.60	4.57	4.40	4.79	5.97	4.90	3.84	3.47	3.58	3.74	3.64	5.46	3.68	4.39	4.71	4.35	4.23	3.80	2.87	2.95	3.34	3.43	3.52	3.56	3.60	3.62	3.61	3.58	3.52	3.44	3.32	3.07	2.61	2.32	2.56	5.76	8.60	5.81	5.53	8.68	9.32	4.88	4.70	10.00	10.66	7.11	3.96	6.04	3.44	5.91	9.48	5.58	4.23	3.65	3.64	3.24	3.37	6.38	7.55	4.53	4.90	4.28	4.43	3.04	1.69	3.98	4.25	3.65	3.49	4.22	4.58	4.19	3.96	4.43	4.91	3.22	3.87	1.83	1.58	0.99	3.72	7.95	7.85	7.37	9.19	9.26	4.67	6.08	5.22	5.02	5.18	5.14	4.66	6.71	6.54	6.54	
2.68	3.08	4.91	9.04	5.87	4.14	4.16	7.46	5.25	4.48	6.49	6.79	2.41	4.14	3.64	4.14	5.19	6.27	6.35	3.40	3.54	4.02	3.77	6.17	5.40	4.63	4.33	4.26	6.13	6.70	4.54	3.15	3.35	4.16	4.53	3.74	1.27	3.43	4.41	4.83	4.52	4.05	4.01	2.99	2.86	3.07	3.21	3.36	3.45	3.52	3.57	3.59	3.59	3.56	3.51	3.42	3.24	2.91	2.50	2.47	3.34	6.63	6.61	8.34	8.16	5.41	5.19	4.59	6.16	6.57	5.73	3.32	3.52	5.58	3.48	6.83	6.09	3.62	4.25	3.76	2.90	2.95	4.03	7.58	6.30	4.01	3.79	3.39	2.37	4.50	4.58	4.04	1.65	3.59	4.32	4.76	4.40	3.99	4.53	4.88	4.44	3.27	2.53	2.10	0.93	1.54	4.97	6.84	4.70	8.41	10.23	4.77	4.05	4.53	4.77	5.49	7.47	5.17	5.88	8.32	8.32	
3.58	2.94	2.77	5.28	9.56	7.23	8.21	8.97	6.15	6.33	7.02	7.28	6.58	6.71	6.60	6.14	4.53	5.96	8.40	7.70	5.09	4.23	3.96	4.44	4.84	4.86	4.41	3.86	6.85	7.60	3.12	2.66	3.70	5.00	2.42	1.66	2.87	3.57	4.31	5.01	5.28	3.87	3.04	3.45	2.96	2.81	2.86	3.09	3.26	3.40	3.49	3.54	3.57	3.57	3.54	3.48	3.34	3.12	2.75	2.57	3.19	6.39	5.83	4.09	4.91	6.40	5.97	5.36	6.87	8.44	4.73	3.10	3.63	2.55	2.81	6.14	10.04	4.37	3.28	4.27	3.28	2.81	3.40	6.70	7.30	5.81	5.44	6.19	3.06	3.13	4.72	1.78	1.90	4.23	4.71	4.95	4.71	3.79	4.64	5.05	4.29	2.61	1.24	1.64	1.30	1.12	4.46	6.75	5.03	5.60	8.41	5.00	4.34	4.43	5.14	5.10	7.94	6.32	3.93	4.43	4.43	
4.79	3.36	2.38	3.13	5.60	7.43	7.41	9.14	5.47	4.58	4.06	5.57	5.03	5.22	5.41	5.63	5.21	3.38	6.14	6.78	5.82	4.43	4.18	4.32	4.36	4.98	5.00	4.40	7.36	7.93	3.81	3.38	4.03	1.45	2.76	3.20	3.74	3.86	4.64	5.57	5.32	3.99	3.63	3.41	3.33	2.76	2.58	2.73	2.98	3.20	3.36	3.45	3.51	3.55	3.55	3.51	3.41	3.22	2.90	2.61	2.93	5.87	7.65	7.32	7.86	8.96	9.93	9.65	9.10	9.11	2.59	3.60	2.20	2.38	2.11	5.93	9.85	4.70	3.16	3.35	4.10	3.39	3.05	6.02	6.39	6.09	5.64	6.65	7.13	8.54	8.50	5.80	2.39	5.16	4.90	4.11	2.70	4.06	5.40	4.62	1.76	1.30	1.80	1.14	2.48	1.45	2.22	3.15	3.53	8.57	6.43	5.13	4.86	4.65	6.37	6.32	7.03	6.67	5.18	4.09	4.09	
4.84	4.17	2.71	2.72	3.87	4.93	5.17	8.38	6.97	5.30	4.27	4.20	4.43	4.38	4.11	4.03	3.78	3.53	3.71	4.54	5.03	4.28	4.03	4.43	5.19	6.48	5.62	4.86	7.17	8.32	4.39	0.97	3.24	4.33	4.03	3.98	3.94	4.08	6.37	6.82	5.39	4.65	4.80	3.96	2.84	2.17	2.43	2.42	2.65	2.94	3.15	3.29	3.41	3.50	3.53	3.51	3.44	3.29	2.99	2.52	2.50	5.58	7.78	8.27	9.30	10.19	10.50	10.99	11.91	11.51	5.49	3.99	2.85	2.75	1.60	2.54	7.19	10.10	4.28	4.22	4.56	4.68	3.64	3.63	4.40	4.62	4.16	3.75	3.95	4.40	6.71	7.66	8.92	5.88	5.71	3.63	3.13	4.00	5.19	0.95	3.77	4.65	4.27	3.43	2.41	2.40	1.91	2.17	5.11	5.46	4.17	4.42	5.07	6.34	6.93	8.69	10.06	10.54	4.26	4.81	4.81	
2.26	1.74	2.11	3.00	3.44	3.82	3.74	5.76	5.44	5.18	4.70	4.40	4.77	4.61	4.25	4.11	3.62	3.58	3.81	3.93	4.32	4.10	3.29	3.75	6.36	8.27	5.25	5.65	7.63	9.25	3.60	3.90	4.71	4.80	5.00	4.28	3.56	3.69	6.96	8.01	5.95	5.65	5.83	3.86	2.35	1.76	1.48	2.23	2.47	2.79	2.86	3.01	3.26	3.42	3.48	3.49	3.45	3.32	3.08	2.57	2.30	5.15	7.23	7.98	8.17	8.39	9.41	10.77	11.02	11.46	11.55	4.13	2.52	3.63	1.82	1.88	6.56	9.51	5.11	4.06	4.36	5.66	5.00	4.05	4.28	4.45	3.97	3.60	3.41	3.51	3.85	4.16	4.68	8.46	10.43	6.32	4.93	4.40	2.62	3.79	4.32	4.27	2.83	2.66	2.79	1.58	1.96	1.95	3.55	4.31	3.61	3.71	7.12	9.54	7.77	4.62	7.65	8.62	7.80	5.30	5.30	
5.69	5.08	4.31	3.80	3.44	3.42	3.89	4.61	4.84	5.11	5.06	4.72	4.94	4.64	4.57	3.05	3.41	3.73	4.42	4.07	4.23	3.61	2.38	2.92	6.11	8.61	6.36	6.06	8.70	2.64	3.92	4.25	5.10	4.62	4.86	4.40	3.39	3.54	6.29	7.78	6.28	6.01	6.73	3.50	2.17	1.69	1.33	1.47	2.47	2.80	2.67	2.68	3.05	3.30	3.40	3.44	3.44	3.34	3.17	2.73	2.32	2.46	5.53	7.84	7.38	7.74	8.67	10.05	11.25	12.00	10.89	5.80	4.80	2.65	2.61	1.76	3.14	8.00	5.63	3.93	4.04	5.70	6.00	5.33	5.08	5.04	4.40	4.06	3.91	3.18	2.62	2.87	3.80	7.91	9.51	10.18	7.66	2.65	3.28	0.77	0.85	0.85	1.64	4.25	2.83	2.10	2.07	2.21	5.31	3.99	3.44	4.61	8.18	5.10	4.62	4.34	8.72	10.26	6.09	5.09	5.09	
5.84	3.85	4.46	3.06	3.78	3.41	3.92	4.47	4.21	4.89	5.61	4.68	4.37	4.23	4.22	0.57	3.26	3.91	5.24	4.86	4.62	1.89	2.16	2.49	5.38	8.27	8.57	8.81	5.39	4.75	4.06	4.13	3.87	4.33	4.87	4.73	4.52	4.36	5.34	7.76	6.76	5.84	7.90	2.96	1.63	1.30	1.07	1.39	1.52	1.40	2.70	2.59	2.80	3.09	3.26	3.36	3.41	3.37	3.24	2.93	2.54	2.36	2.72	5.57	5.75	7.38	7.89	9.25	10.34	12.21	5.82	5.43	5.47	3.76	3.43	1.88	2.43	7.86	5.27	3.51	3.93	7.85	10.73	7.87	6.25	5.07	3.24	4.67	3.02	3.73	2.43	2.03	3.43	4.39	8.08	7.93	10.02	1.39	5.90	4.05	1.49	1.58	4.27	4.52	0.86	2.64	2.22	2.37	3.61	3.83	3.42	3.51	3.80	5.75	7.43	4.75	4.86	5.42	3.79	4.21	4.21	
5.62	4.54	3.21	2.67	4.14	3.73	3.97	4.55	3.56	5.13	8.36	2.67	3.54	4.02	3.26	3.95	3.27	3.84	5.77	6.93	2.21	1.57	2.14	1.93	5.19	8.73	8.76	6.12	7.88	6.28	5.26	4.27	3.86	4.33	5.16	5.44	5.65	3.67	4.50	7.17	8.10	4.51	8.43	2.56	1.36	1.24	0.94	0.81	0.84	0.58	2.94	2.96	2.73	2.72	3.00	3.23	3.36	3.37	3.28	3.13	2.87	2.58	2.52	2.74	5.54	5.63	7.67	8.96	10.40	12.63	7.18	3.42	2.94	2.22	3.98	2.19	1.76	4.16	5.09	3.95	7.34	9.01	9.78	10.22	10.86	11.85	3.91	3.11	1.23	2.12	1.73	1.97	2.51	4.11	7.43	9.27	10.64	6.36	4.86	0.79	1.30	1.22	0.94	1.64	2.93	3.31	2.75	2.64	3.57	4.09	3.99	3.97	4.46	4.40	4.30	6.41	7.04	5.73	4.37	3.22	3.22	
4.56	4.61	4.01	4.43	4.39	3.94	4.03	5.26	3.45	2.69	8.85	2.35	3.64	0.99	4.62	3.71	3.48	5.10	5.70	7.13	3.25	3.85	2.80	1.89	2.21	7.69	8.51	4.73	5.56	6.14	5.17	4.49	3.75	4.19	6.42	5.99	6.03	2.88	3.26	3.14	9.32	2.80	8.38	2.84	1.59	0.93	0.86	0.26	0.70	1.07	3.39	2.77	2.91	2.47	2.65	3.01	3.26	3.32	3.31	3.26	3.10	2.88	2.62	2.41	2.50	5.09	6.80	8.01	9.15	11.02	12.45	7.14	3.20	3.03	2.00	2.84	1.49	2.80	6.28	3.76	6.86	8.94	9.11	8.83	9.60	10.88	7.33	4.45	4.58	3.26	3.25	2.25	2.49	3.83	7.97	8.23	9.90	10.26	5.20	6.40	6.77	7.39	6.14	5.32	4.93	3.56	3.43	3.10	3.67	5.17	4.95	6.90	8.12	8.28	7.32	7.32	9.25	4.39	4.70	3.70	3.70	
4.70	4.88	4.32	4.36	4.18	2.32	3.96	7.10	4.54	3.54	3.75	5.75	1.92	1.34	3.06	3.44	3.62	5.44	6.98	1.36	2.84	4.28	3.80	2.47	2.00	3.52	8.37	4.97	3.99	4.27	4.65	4.70	3.76	3.24	7.42	7.94	5.62	1.56	2.02	2.55	9.03	0.72	3.52	4.66	6.16	5.71	4.36	3.90	3.89	1.65	4.13	2.87	1.52	2.49	2.41	2.75	3.12	3.25	3.34	3.34	3.23	3.12	2.91	2.54	2.30	2.26	2.48	7.03	8.09	9.16	11.65	11.47	7.93	4.15	3.34	3.86	1.85	2.03	3.56	3.58	2.88	4.96	5.25	7.85	8.76	10.39	6.89	2.60	1.59	1.42	3.53	2.22	2.53	3.97	8.03	7.75	9.72	2.28	3.08	3.69	3.61	4.08	4.74	6.89	6.63	4.43	3.74	3.36	3.77	5.40	5.28	4.98	7.82	8.60	8.57	8.92	4.20	5.16	4.57	4.31	4.31	
4.80	4.69	3.82	4.14	4.80	2.59	3.67	8.17	4.99	4.29	2.88	4.45	2.00	4.05	3.75	3.27	3.60	8.07	1.19	4.69	4.16	4.67	3.14	3.29	2.30	3.16	6.73	5.43	4.38	4.09	4.19	5.76	4.45	4.61	7.07	9.45	5.54	4.52	2.20	2.53	9.41	3.15	3.51	3.53	4.17	5.19	5.49	5.27	4.87	4.40	4.70	1.76	0.85	2.53	2.32	2.55	2.96	3.19	3.33	3.37	3.31	3.26	3.14	2.88	2.50	2.19	2.28	5.41	7.78	8.88	11.02	11.02	10.71	12.13	4.04	2.50	2.87	2.02	2.26	3.56	2.80	3.58	4.90	7.93	9.20	10.40	6.11	2.19	0.98	2.41	2.31	2.39	2.41	4.03	7.73	7.73	10.28	2.77	2.67	2.33	2.26	3.31	5.07	5.00	4.65	4.22	3.67	3.44	4.96	5.44	6.70	5.67	6.96	7.85	8.58	10.54	3.34	4.41	3.84	3.78	3.78	
4.99	4.51	3.58	3.98	4.73	3.98	3.94	5.49	9.41	3.25	3.35	3.96	4.61	4.31	3.67	3.39	4.93	8.14	4.57	2.50	4.07	4.74	2.88	2.11	1.45	3.11	4.67	4.82	4.74	4.65	4.26	6.47	4.46	3.00	6.52	5.92	6.52	4.95	2.74	3.12	5.55	4.22	4.22	3.74	4.01	4.91	5.15	5.13	4.95	5.41	4.15	1.85	1.15	2.38	2.16	2.35	2.80	3.10	3.29	3.37	3.35	3.33	3.27	3.12	2.82	2.35	2.19	5.05	5.54	8.23	10.33	9.90	10.15	11.60	13.03	3.14	4.17	1.93	2.03	2.05	2.68	4.31	7.69	9.05	9.53	10.49	5.80	5.00	5.92	6.32	3.59	2.71	2.42	3.82	7.97	9.26	11.15	4.71	2.09	4.71	3.83	3.47	3.62	1.74	3.17	3.46	3.49	3.47	5.14	5.65	7.63	5.24	6.04	7.51	4.70	8.23	5.50	5.03	3.88	3.47	3.47	
3.53	4.47	3.63	6.24	8.73	9.25	5.30	5.40	8.67	5.82	0.56	5.84	4.85	4.26	3.45	3.43	7.76	3.90	4.98	4.27	3.91	5.48	4.93	4.30	3.95	3.57	4.05	4.36	4.78	5.71	6.10	7.60	4.64	3.07	6.02	5.40	8.46	4.87	4.64	4.18	4.89	2.86	2.66	3.30	4.21	4.87	5.54	5.64	5.49	4.39	2.64	1.54	0.59	0.49	2.02	2.09	2.59	2.98	3.21	3.35	3.36	3.37	3.34	3.24	3.05	2.67	2.29	2.36	5.14	7.38	9.50	8.88	9.60	10.90	12.46	3.20	2.27	1.32	1.83	2.11	2.50	4.30	8.32	9.49	9.80	10.91	4.79	4.62	4.02	6.30	3.77	2.44	2.31	3.76	7.84	9.12	10.90	5.07	4.31	3.67	2.45	4.41	1.64	0.82	3.08	3.14	3.22	3.42	5.06	7.50	8.59	5.69	3.71	6.92	5.01	5.54	5.35	6.52	4.48	3.98	3.98	
6.31	4.91	4.02	7.04	4.57	6.63	8.09	8.29	8.81	3.30	4.27	4.42	4.72	3.94	3.06	3.35	8.56	2.38	3.12	4.70	5.63	4.97	5.23	4.59	4.21	3.96	3.49	3.67	5.98	6.35	7.77	7.86	5.06	3.48	2.37	7.30	8.15	3.01	4.39	2.53	4.89	3.98	2.96	4.10	3.89	4.78	6.02	5.99	5.20	1.06	0.55	1.02	0.71	1.06	2.18	1.92	2.27	2.77	3.08	3.28	3.36	3.38	3.38	3.32	3.21	2.97	2.59	2.27	2.50	5.81	8.42	8.34	8.55	10.47	11.92	9.86	5.10	3.36	2.77	2.51	2.57	4.21	8.14	9.40	9.84	11.28	2.36	1.28	4.00	3.85	2.84	2.06	2.07	3.70	7.82	9.29	10.28	11.29	3.64	5.37	4.96	4.41	3.82	3.23	2.77	2.99	2.91	3.20	5.01	7.52	9.05	8.24	4.76	8.42	4.88	4.45	4.49	4.18	3.96	3.79	3.79	
3.58	3.95	4.03	4.39	5.29	4.68	5.15	4.10	8.91	3.18	4.32	4.11	4.59	3.93	3.16	3.61	9.08	5.80	5.27	4.92	4.75	4.57	4.77	4.49	4.29	4.31	3.32	2.79	6.11	7.93	7.88	7.74	4.34	3.98	2.56	4.18	6.23	4.48	5.42	4.84	5.21	6.00	4.47	4.13	3.85	4.58	6.99	6.87	1.02	0.95	0.60	1.11	1.12	1.03	1.29	2.13	2.10	2.46	2.87	3.16	3.29	3.36	3.38	3.37	3.32	3.17	2.93	2.42	2.39	5.58	6.22	6.22	7.74	10.41	11.15	10.46	5.86	4.08	3.23	2.89	2.88	4.36	8.42	9.53	9.70	10.82	6.49	3.33	4.66	1.42	0.99	2.28	1.85	2.57	4.51	9.12	9.83	11.35	4.89	5.32	6.17	6.63	5.93	4.43	3.20	3.02	2.74	2.92	4.81	7.39	8.98	10.23	5.82	2.28	6.27	7.79	6.53	4.68	4.20	3.69	3.69	
3.21	3.22	3.44	5.94	8.77	5.71	4.25	4.94	5.32	2.76	1.63	4.54	4.42	3.66	3.67	6.90	6.55	5.77	4.47	4.27	4.07	4.38	4.82	4.76	4.55	5.22	3.57	2.42	3.14	3.77	8.75	10.20	4.18	4.03	5.83	7.02	5.24	5.24	5.63	4.85	4.55	4.33	4.59	3.85	3.64	5.40	8.43	0.13	3.35	3.58	3.20	2.67	1.61	0.83	0.74	1.06	2.40	2.36	2.62	2.94	3.14	3.30	3.37	3.39	3.39	3.31	3.16	2.79	2.56	2.84	3.38	5.85	7.49	9.69	10.67	11.13	6.12	4.23	3.52	3.07	3.19	4.72	8.25	8.90	9.20	10.73	1.74	3.33	4.36	4.18	2.95	2.15	1.75	2.14	6.88	8.82	9.69	10.56	1.75	1.07	1.88	3.42	4.07	3.46	3.63	3.01	2.66	2.77	3.15	6.99	8.70	10.63	6.65	5.10	3.20	5.14	7.31	8.08	4.68	4.21	4.21	
3.77	3.06	4.90	5.89	8.67	9.77	5.48	4.58	4.91	5.20	6.75	4.85	4.36	2.98	3.56	4.50	5.09	4.53	4.33	4.23	4.04	4.31	5.01	4.99	4.64	5.90	3.62	2.35	3.23	3.58	5.29	9.07	10.08	7.81	7.19	5.27	0.33	2.43	4.34	4.74	4.02	4.12	4.30	3.89	3.45	5.54	9.79	4.56	4.08	4.07	4.27	3.72	3.72	3.32	2.19	1.80	0.94	2.70	2.54	2.61	2.84	3.13	3.31	3.39	3.42	3.39	3.31	3.14	2.88	2.66	2.77	5.51	5.87	8.72	10.32	11.15	6.13	4.32	3.66	3.25	3.34	5.06	8.56	8.96	9.05	10.93	3.39	3.25	4.04	3.45	3.50	2.27	1.98	2.06	4.09	8.51	10.08	11.81	2.77	2.13	1.81	1.81	2.15	2.66	3.52	2.95	2.55	2.58	3.06	7.26	8.18	9.71	12.28	3.38	4.39	3.54	3.46	7.08	5.32	4.74	4.74	
2.90	3.03	2.93	5.33	8.25	9.37	10.39	3.08	4.33	4.95	6.25	7.21	7.14	6.44	5.93	5.26	4.64	4.85	4.57	4.27	4.21	4.43	6.14	5.71	6.28	3.35	3.43	2.29	3.13	7.64	7.14	7.87	9.03	7.46	6.56	5.68	2.99	1.75	0.61	2.51	3.25	3.96	4.13	4.35	4.79	5.94	5.24	4.98	5.22	3.57	1.47	0.22	0.28	1.45	1.34	2.20	2.39	2.23	2.79	2.47	2.49	2.84	3.16	3.35	3.43	3.44	3.42	3.35	3.17	2.84	2.59	2.77	5.69	7.95	9.46	10.27	7.34	4.70	3.93	3.55	3.52	5.22	8.67	9.00	9.09	10.95	2.94	2.07	0.92	1.34	0.74	2.72	2.37	2.32	3.98	8.08	10.09	10.30	4.43	4.64	3.74	2.81	2.54	2.63	2.31	2.98	2.42	2.22	2.62	7.73	9.21	9.66	10.13	8.77	6.53	5.58	5.48	5.13	5.76	5.12	5.12	
3.16	3.04	2.48	3.77	5.54	8.53	8.69	4.98	5.00	4.67	5.14	4.33	4.69	5.25	5.57	5.33	4.65	4.36	4.20	4.06	4.36	5.65	6.84	7.27	5.96	3.34	3.31	2.56	2.50	3.79	8.09	7.50	8.40	5.24	5.82	4.86	5.86	5.41	4.21	3.11	3.89	3.65	4.02	6.65	5.81	4.54	4.98	5.07	1.57	2.70	5.33	2.67	0.38	0.54	2.35	3.82	3.10	2.09	1.49	2.67	2.40	2.53	2.96	3.29	3.43	3.47	3.48	3.46	3.36	3.12	2.79	2.61	2.91	6.18	8.46	9.22	6.99	4.59	3.77	3.65	5.04	7.62	8.81	9.14	9.37	11.22	6.48	4.80	2.00	1.66	2.60	2.65	2.38	2.53	4.14	8.29	10.03	12.17	1.76	0.95	1.30	1.92	2.47	2.76	2.30	3.33	2.48	1.96	2.09	7.24	8.56	7.91	7.70	8.13	6.89	5.14	4.49	4.40	4.69	5.13	5.13	
3.75	3.14	2.41	5.09	5.37	5.89	6.33	2.75	4.26	4.44	3.93	4.18	4.18	4.38	4.69	4.82	4.53	4.12	3.77	3.60	4.29	6.85	7.26	8.64	2.52	2.86	3.38	3.27	2.30	2.71	5.67	8.33	5.17	5.32	2.74	4.00	4.08	4.36	4.86	4.26	4.02	3.65	5.17	7.64	5.02	4.88	2.81	4.77	4.80	4.90	4.38	0.31	4.87	0.40	4.74	5.20	2.90	0.86	0.76	0.62	2.54	2.38	2.77	3.19	3.40	3.49	3.50	3.52	3.49	3.34	3.11	2.73	2.78	5.97	6.75	8.82	5.46	4.24	3.57	3.53	5.35	7.94	9.68	9.76	9.87	11.22	6.07	8.58	8.18	5.28	3.25	2.49	2.26	2.44	4.28	8.39	9.48	11.48	2.01	1.44	2.22	3.10	3.31	3.17	2.87	2.38	2.83	2.01	2.10	5.15	5.26	5.15	5.38	5.94	5.56	4.53	4.27	4.40	4.64	4.90	4.90	
4.04	3.33	2.51	5.29	5.07	8.61	6.43	1.91	2.73	3.75	3.98	4.26	4.55	4.71	4.70	4.55	4.55	4.01	3.09	3.13	5.67	7.67	7.54	9.52	5.45	3.95	3.60	3.21	2.43	2.19	4.93	9.62	8.60	1.25	1.41	0.87	2.87	3.91	4.26	4.35	4.00	3.86	5.41	7.22	4.85	5.22	5.17	3.99	2.96	1.52	4.41	4.23	4.96	4.29	4.98	5.51	2.22	0.59	0.78	0.38	2.56	2.28	2.59	3.05	3.31	3.45	3.51	3.55	3.57	3.49	3.37	3.04	2.95	3.24	3.94	7.04	5.35	4.15	3.60	3.53	5.66	7.98	9.18	9.84	10.58	8.60	4.93	8.59	9.72	5.12	2.70	2.48	2.35	2.42	4.27	7.98	9.10	11.45	4.98	3.51	3.24	3.34	3.49	3.35	4.52	3.22	3.49	2.50	2.53	3.54	4.09	4.15	4.32	4.74	5.00	4.60	4.28	4.35	4.55	4.67	4.67	
4.66	3.74	2.80	3.89	4.06	4.78	6.36	3.17	3.55	3.82	4.13	4.31	4.74	5.17	4.98	4.58	4.49	2.07	2.52	2.49	5.63	8.90	8.38	7.89	4.96	3.94	4.13	3.31	2.65	2.29	3.48	5.55	9.03	3.15	2.66	3.01	3.67	4.00	4.06	1.59	3.69	4.87	5.42	6.70	4.81	6.09	3.59	1.80	3.36	4.10	4.91	5.08	5.08	4.84	4.98	2.92	1.19	1.14	0.42	0.68	2.52	2.22	2.39	2.87	3.16	3.34	3.47	3.56	3.63	3.59	3.55	3.37	3.27	3.18	3.54	4.56	4.60	3.98	3.64	5.98	6.09	7.62	8.65	9.65	11.00	6.45	4.28	8.56	5.86	3.41	2.88	2.79	2.57	2.64	4.25	7.61	9.27	10.75	9.28	4.99	4.03	3.94	3.44	3.32	4.40	4.32	4.04	3.29	3.18	3.71	4.03	4.15	4.21	4.31	4.45	4.42	4.21	4.17	4.34	4.43	4.43	
5.30	4.09	3.32	4.10	5.12	5.92	4.49	4.22	3.94	4.32	4.25	4.36	4.78	5.74	5.14	4.74	2.22	3.87	2.38	1.99	3.20	8.53	10.44	3.05	5.01	3.93	4.91	3.38	2.90	2.51	4.32	8.17	8.62	3.43	4.26	4.06	4.33	4.24	4.12	3.40	3.38	4.95	5.38	9.32	5.48	4.63	4.21	4.81	4.59	4.47	0.78	4.73	4.80	4.65	1.29	2.37	1.35	1.43	0.74	0.50	0.67	2.29	2.29	2.70	2.90	3.11	3.39	3.54	3.66	3.67	3.66	3.62	3.57	3.44	3.55	3.98	4.01	3.75	3.61	6.15	6.13	7.33	8.51	9.93	10.47	5.05	6.17	4.20	5.65	8.39	4.21	3.32	2.85	2.87	4.44	8.14	9.81	8.70	9.94	7.28	5.42	4.77	3.97	4.01	4.13	4.30	4.23	3.89	3.73	3.90	4.11	4.29	4.21	4.07	4.06	4.12	4.01	3.89	3.85	3.83	3.83	
4.43	4.26	5.40	4.16	5.29	5.89	3.98	3.71	4.03	4.26	4.21	4.16	5.58	7.51	5.41	1.79	3.25	4.02	2.71	1.83	2.64	5.79	9.99	6.78	5.20	4.24	5.14	4.40	3.30	2.61	2.95	8.02	6.22	3.18	4.29	4.52	4.21	4.41	2.18	3.38	3.50	4.69	4.70	8.41	1.23	2.36	3.58	3.45	4.78	1.43	4.69	4.81	4.56	1.30	2.48	1.06	3.57	2.74	1.49	0.54	1.02	0.68	2.50	2.75	2.57	2.76	3.28	3.51	3.67	3.73	3.76	3.77	3.76	3.72	3.74	3.73	3.63	3.44	3.40	3.85	6.20	5.94	8.41	9.68	8.70	5.62	4.74	4.98	9.02	8.65	6.40	4.04	3.17	3.03	4.69	8.98	7.84	6.74	9.11	7.92	6.07	5.84	4.91	4.40	4.39	4.43	4.43	4.28	3.92	3.83	4.26	4.62	4.35	4.05	3.91	3.79	3.90	3.90	3.30	2.90	2.90	
4.81	4.11	3.91	4.09	4.88	6.10	4.67	4.09	3.95	4.30	4.13	3.51	5.78	9.11	2.06	3.43	2.55	4.15	3.10	1.77	2.22	5.54	9.63	9.56	5.45	5.08	3.00	4.45	3.09	2.86	2.30	4.80	9.82	6.19	5.27	3.08	4.41	4.51	4.07	3.47	4.44	5.26	4.11	4.68	7.50	4.98	4.81	5.31	3.80	4.71	4.68	5.47	1.60	2.36	0.76	2.48	5.50	3.33	1.93	0.98	0.43	1.04	1.97	1.60	2.49	2.50	3.12	3.47	3.67	3.76	3.83	3.88	3.87	3.85	3.85	3.76	3.60	3.28	3.12	3.74	6.64	6.23	7.66	8.89	8.03	4.63	4.72	7.21	5.08	5.59	7.21	4.65	3.38	3.09	5.07	9.59	6.17	5.71	7.67	8.04	6.07	4.97	4.54	4.42	4.44	4.52	4.81	4.78	4.01	3.40	4.44	5.17	4.68	4.17	3.30	2.77	3.92	3.80	2.07	2.43	2.43	
4.07	3.99	3.99	4.26	6.83	5.95	5.08	4.00	4.09	4.53	4.30	2.87	5.17	9.86	2.11	1.28	3.01	3.43	1.48	1.81	2.02	5.47	8.95	6.20	9.88	10.37	2.66	2.97	3.01	3.30	4.21	2.62	8.42	9.97	5.80	4.54	4.62	3.99	3.73	3.44	6.82	4.16	3.98	7.14	7.12	5.75	7.64	6.66	5.73	5.45	5.19	0.78	4.81	1.85	3.41	3.99	5.19	0.81	1.65	1.10	0.44	0.45	1.28	1.34	2.91	2.63	3.00	3.43	3.67	3.78	3.86	3.94	3.93	3.90	3.90	3.81	3.68	3.29	3.00	3.62	6.90	6.45	6.13	8.21	6.02	4.63	3.75	4.01	4.07	4.17	4.51	4.09	3.30	3.10	7.69	9.01	5.98	5.44	5.23	7.54	5.38	4.77	4.59	4.59	4.47	4.52	5.44	5.14	3.58	1.67	4.15	7.23	5.92	4.16	0.99	2.06	5.40	4.19	2.41	2.61	2.61	
4.25	4.29	3.95	4.05	5.21	4.15	4.34	4.01	5.05	5.33	3.37	2.56	4.49	9.29	3.43	2.24	3.39	1.28	2.17	2.13	2.22	3.48	8.40	8.73	9.07	9.56	4.80	3.82	4.38	3.91	2.87	2.05	3.10	6.88	6.54	5.31	4.27	4.60	2.42	3.56	7.54	2.30	3.20	7.46	6.79	3.87	6.74	3.66	6.35	9.75	6.34	1.31	2.25	2.47	1.77	1.72	4.91	5.18	2.46	1.36	1.33	2.02	2.84	2.67	3.40	3.03	3.08	3.43	3.70	3.80	3.88	3.94	3.95	3.93	3.92	3.85	3.74	3.37	3.05	3.61	6.95	7.07	6.75	4.42	4.94	4.74	4.19	4.16	4.00	3.84	3.79	3.48	3.10	3.24	8.47	7.25	5.68	4.53	5.32	5.79	5.11	4.77	4.70	4.83	4.69	4.96	6.21	5.49	2.21	2.98	2.77	5.04	7.76	1.09	3.60	3.43	4.45	5.82	1.63	2.49	2.49	
4.50	4.53	4.11	4.10	5.70	3.88	3.66	3.73	5.61	6.30	4.24	2.47	3.19	8.16	1.86	0.98	2.87	4.23	3.04	2.72	2.67	5.68	5.85	5.12	8.52	9.43	3.34	5.20	4.78	3.91	2.01	2.13	1.97	5.36	9.78	6.42	2.81	4.31	4.13	4.14	4.63	5.75	2.71	5.69	7.45	3.20	2.90	2.86	3.65	6.70	10.54	0.76	0.60	4.34	2.72	5.43	7.11	8.44	0.82	1.85	2.49	3.32	3.85	3.17	3.54	3.26	3.28	3.51	3.73	3.85	3.90	3.94	3.98	3.96	3.94	3.88	3.77	3.45	3.12	3.54	6.87	7.27	7.12	4.72	4.79	4.86	4.61	4.44	4.01	3.54	3.31	3.07	2.86	5.21	6.51	4.96	4.39	4.04	4.36	4.85	4.78	4.49	4.45	4.72	4.97	6.24	7.01	4.08	3.83	3.24	2.84	6.55	8.37	4.83	3.97	3.08	3.41	5.03	4.44	3.79	3.79	
3.67	5.20	4.70	4.82	8.48	4.45	3.17	3.19	5.92	3.47	4.03	2.44	3.37	8.05	5.42	5.68	4.99	4.97	4.39	3.31	3.31	4.15	4.09	3.70	3.91	5.49	7.98	8.61	8.97	2.93	2.91	2.84	1.74	2.49	8.19	10.60	10.57	5.80	1.92	3.65	6.01	4.52	5.28	5.28	8.31	3.17	2.78	2.50	3.22	7.87	10.65	7.47	7.78	7.71	4.09	4.62	5.18	8.68	10.64	4.42	3.16	2.55	2.46	2.66	3.43	3.19	3.35	3.60	3.75	3.89	3.92	3.94	3.98	3.97	3.95	3.90	3.80	3.52	3.13	3.32	4.05	7.32	7.49	5.19	5.06	5.00	4.98	4.98	4.14	3.17	2.88	2.78	2.63	3.31	6.38	4.57	4.26	4.22	4.52	4.82	4.73	4.12	3.99	4.91	5.93	7.08	7.84	1.66	3.80	3.28	2.99	4.64	7.60	5.15	3.77	3.04	2.93	4.48	4.07	3.66	3.66	
4.33	3.95	4.12	6.82	9.87	4.56	3.07	2.80	8.63	3.67	3.67	2.72	4.89	5.81	4.52	4.46	4.68	4.64	4.21	3.62	4.00	5.58	4.10	3.69	3.86	4.10	4.12	5.25	7.92	8.27	5.21	4.10	2.20	2.04	5.71	9.14	10.18	10.24	5.22	2.68	3.11	5.97	4.04	3.71	4.42	3.06	2.76	2.18	3.00	6.44	10.61	7.41	6.92	8.61	7.81	3.96	3.37	6.60	8.60	8.39	5.44	3.53	2.70	2.08	3.41	3.10	3.36	3.63	3.75	3.90	3.93	3.95	3.99	3.97	3.96	3.92	3.82	3.61	3.25	3.16	3.53	6.94	7.57	6.53	5.67	5.36	5.40	5.25	3.51	3.06	2.54	2.50	2.42	3.13	5.73	4.56	4.35	4.51	4.60	4.87	5.02	3.95	3.81	6.15	6.53	7.85	6.92	1.76	3.77	3.08	2.91	6.83	8.94	2.56	4.26	3.27	3.13	4.13	3.28	3.05	3.05	
5.48	3.84	4.34	4.64	5.68	3.82	3.62	2.78	5.77	5.54	3.63	3.65	3.43	4.26	4.33	4.78	4.71	4.25	3.90	3.74	4.41	5.09	4.24	3.91	4.26	4.26	3.99	3.58	3.74	5.81	6.48	6.31	3.25	2.10	5.89	8.29	8.89	10.56	9.19	4.49	4.72	4.58	3.84	3.01	4.36	3.51	2.95	2.45	2.71	8.68	9.11	9.30	6.95	7.75	8.94	7.56	5.28	5.12	6.39	8.00	7.69	6.23	4.50	3.03	3.81	3.22	3.38	3.62	3.74	3.88	3.92	3.96	3.99	3.98	3.97	3.94	3.87	3.73	3.51	3.19	3.12	3.75	7.16	9.17	8.75	5.92	6.62	5.70	2.91	2.44	2.66	2.27	2.21	2.90	3.92	4.16	4.41	4.81	4.94	5.39	5.58	3.96	2.85	6.25	7.94	9.27	5.26	2.16	3.99	3.10	2.77	3.91	8.77	3.07	4.60	3.28	3.51	4.14	2.79	2.56	2.56	
3.12	3.59	5.65	7.82	6.05	6.31	3.83	3.80	7.35	5.39	4.32	4.34	4.07	4.05	4.37	5.10	4.85	4.27	3.85	3.84	5.95	3.65	4.55	4.15	4.65	4.79	4.14	3.50	3.31	3.52	3.95	4.48	4.67	2.63	2.92	6.51	8.42	9.77	10.70	6.14	5.62	4.00	2.62	2.60	4.03	4.68	3.41	2.26	2.76	8.19	7.73	8.78	8.04	7.54	8.26	7.71	6.74	4.88	3.84	5.22	5.81	5.71	5.66	4.90	4.16	3.36	3.34	3.57	3.69	3.84	3.90	3.95	3.99	4.00	3.99	3.97	3.92	3.82	3.68	3.35	3.07	3.19	3.65	6.90	10.05	10.12	9.40	6.81	3.00	2.04	2.20	2.62	2.35	2.66	3.35	3.81	4.37	5.56	5.69	7.08	6.34	4.33	2.19	2.46	3.76	8.23	4.40	2.72	4.17	3.31	3.16	3.77	7.67	5.41	2.86	2.62	4.24	3.22	3.51	2.68	2.68	
2.57	3.18	4.14	8.87	9.71	10.75	10.04	4.26	5.59	4.66	4.74	4.82	4.75	4.32	4.55	4.89	3.35	3.86	3.56	4.49	5.18	5.00	4.88	4.40	4.79	1.82	2.21	3.92	3.60	3.58	3.67	3.79	3.74	2.87	2.59	3.08	6.40	8.14	9.20	9.57	9.85	6.53	3.42	4.21	6.40	7.50	4.41	2.66	3.32	6.35	6.14	6.91	7.88	7.27	7.10	6.38	7.01	4.82	3.79	4.17	4.83	4.83	4.73	4.65	4.07	3.32	3.17	3.41	3.62	3.79	3.87	3.93	3.98	4.00	4.00	3.99	3.96	3.87	3.75	3.50	3.24	3.08	3.04	6.02	8.95	10.13	10.63	11.16	2.64	1.95	1.36	2.35	1.60	3.06	3.11	3.47	4.04	5.76	7.59	8.50	7.48	5.18	4.15	3.18	3.06	7.71	5.28	2.89	4.05	3.34	3.74	5.65	6.21	7.20	2.56	2.48	4.76	1.36	4.33	3.34	3.34	
2.40	5.56	8.00	8.43	8.85	6.11	6.32	6.09	4.70	4.02	4.29	4.54	4.59	4.46	6.79	4.73	4.01	5.11	4.01	4.08	5.30	5.71	5.13	4.38	0.98	4.67	4.55	4.55	4.44	4.16	3.98	3.81	3.69	3.21	2.66	2.49	2.79	6.66	7.33	8.40	9.07	8.04	3.45	2.71	3.29	6.01	4.36	3.33	3.21	3.80	3.65	4.28	4.82	4.99	4.98	4.37	4.73	4.98	4.34	4.28	4.63	4.83	4.88	3.76	3.75	3.24	2.94	3.12	3.50	3.72	3.84	3.91	3.97	4.00	4.01	4.01	3.99	3.91	3.80	3.57	3.41	3.23	2.82	2.92	6.32	9.34	10.06	11.75	7.10	4.50	4.24	4.09	3.75	3.92	3.35	3.28	3.65	5.49	7.69	8.63	8.66	6.21	3.47	3.48	2.73	6.72	6.73	2.65	3.91	3.27	3.95	6.16	6.63	4.47	5.10	3.83	4.40	7.59	4.74	4.20	4.20	
2.51	2.88	3.71	6.16	5.57	5.32	9.04	6.65	4.75	4.04	3.78	4.13	4.52	4.84	4.39	4.16	3.97	5.33	5.83	5.00	5.38	6.45	5.67	0.93	3.70	4.29	1.85	4.70	4.25	2.87	4.26	4.23	4.08	3.61	3.15	2.79	2.63	3.11	6.90	7.46	7.89	9.00	5.56	3.13	2.89	3.91	4.18	4.27	4.20	4.02	3.74	3.63	3.97	4.35	4.53	4.38	4.29	4.48	4.51	4.46	4.58	4.92	5.00	3.46	1.96	3.06	2.78	2.85	3.34	3.66	3.80	3.89	3.95	4.00	4.01	4.02	4.01	3.94	3.85	3.62	3.49	3.44	2.90	2.56	5.70	8.54	9.53	11.11	9.09	6.35	5.35	4.56	4.53	4.32	3.71	3.39	3.58	6.54	7.68	8.69	9.86	9.74	4.03	4.73	5.10	4.31	6.66	3.05	3.89	3.11	3.52	6.65	6.82	4.72	3.60	4.40	3.46	6.83	6.92	7.84	7.84	
2.83	3.36	3.99	4.54	7.08	4.62	5.32	10.60	2.63	4.49	3.89	4.20	4.87	4.90	4.27	3.82	3.29	3.56	5.40	6.04	9.45	8.28	2.06	5.22	4.69	2.15	4.46	4.71	3.65	2.98	3.19	3.15	2.35	4.23	3.81	3.47	2.97	2.69	3.25	4.23	6.49	7.37	7.88	6.14	4.48	4.27	4.30	5.10	5.07	4.07	3.15	3.51	3.90	4.04	4.07	4.41	4.34	4.09	4.32	4.45	5.08	5.25	5.17	3.10	1.70	2.75	2.61	2.67	3.18	3.59	3.76	3.86	3.93	4.00	4.02	4.03	4.02	3.96	3.91	3.71	3.56	3.57	3.19	2.62	2.79	6.07	8.88	10.06	9.08	6.98	5.20	4.67	4.63	4.41	3.91	3.59	3.51	7.50	9.15	10.06	10.68	11.18	11.72	4.28	4.63	5.60	2.75	3.06	3.90	3.02	3.12	6.13	9.23	3.56	2.13	3.04	2.89	3.64	4.22	4.66	4.66	
2.56	3.37	5.86	7.84	5.20	4.84	5.54	6.29	3.76	3.97	5.14	4.44	5.65	4.47	4.85	4.31	3.52	3.01	3.19	5.43	6.46	10.42	2.76	1.80	1.60	4.23	4.57	1.27	1.00	0.75	1.94	1.69	2.19	2.97	3.86	3.60	2.24	2.49	2.69	3.56	3.59	3.74	4.86	4.96	4.53	4.54	4.83	6.35	5.89	1.96	2.40	3.85	4.39	3.73	3.21	4.08	4.83	4.02	4.40	4.94	5.36	5.56	4.56	2.29	0.34	0.58	2.47	2.53	3.04	3.50	3.72	3.84	3.92	3.99	4.03	4.05	4.03	3.99	3.95	3.80	3.63	3.60	3.44	2.99	2.71	5.61	7.95	8.79	8.25	6.92	5.20	4.50	4.57	4.32	3.84	3.72	3.63	5.52	8.57	9.68	9.89	9.91	10.52	10.01	6.63	7.19	1.28	4.68	3.91	3.64	3.41	3.75	9.00	3.61	3.10	3.83	3.22	3.17	3.26	4.25	4.25	
2.10	2.66	3.57	6.24	8.64	8.65	9.72	11.19	6.55	4.75	4.55	5.98	4.50	5.86	4.41	4.27	4.47	3.43	2.67	2.66	5.65	10.63	9.35	2.30	2.16	0.48	4.48	4.46	4.51	4.44	7.16	7.17	1.09	4.19	4.72	3.15	1.60	2.56	2.86	3.43	2.03	3.45	4.38	4.63	3.96	4.44	6.30	7.24	2.96	3.85	1.50	5.83	5.48	3.33	2.44	4.63	6.15	4.00	4.51	5.45	5.70	5.26	1.84	0.83	1.23	1.30	2.54	2.48	2.90	3.39	3.67	3.82	3.89	3.97	4.02	4.05	4.04	4.02	3.98	3.89	3.74	3.61	3.55	3.40	3.06	3.17	6.26	6.83	6.54	6.00	4.84	4.35	4.38	4.05	3.55	3.49	5.46	7.58	8.10	8.34	8.38	5.17	8.26	9.13	8.97	3.01	3.68	4.48	3.78	3.72	4.59	5.21	6.54	3.27	3.05	2.25	4.17	3.41	3.29	3.20	3.20	
3.45	3.28	3.56	3.96	4.21	4.27	5.35	8.48	9.68	4.87	4.91	3.35	3.75	5.54	7.45	6.37	4.80	3.10	3.25	2.21	3.46	9.62	8.60	10.36	6.51	3.81	4.32	4.23	3.97	4.07	3.93	4.21	4.64	4.98	6.18	5.83	3.16	1.42	0.43	2.49	3.82	3.99	4.66	4.75	3.55	5.03	7.30	6.72	2.63	3.72	3.32	4.19	6.62	2.94	2.07	3.99	6.75	4.60	4.54	5.82	4.99	0.80	2.32	2.48	2.05	1.77	2.84	2.59	2.84	3.28	3.60	3.80	3.88	3.95	4.01	4.04	4.05	4.04	4.01	3.96	3.86	3.70	3.58	3.59	3.53	3.47	3.79	6.53	4.95	4.98	4.67	4.38	4.33	3.90	3.35	3.06	3.10	7.82	8.83	9.14	9.30	7.57	5.28	8.45	9.20	2.50	4.98	4.39	2.16	3.63	4.97	4.36	6.03	5.18	4.94	4.80	5.00	3.97	3.57	3.23	3.23	
4.21	4.60	4.36	3.95	3.71	3.94	3.91	4.18	6.83	6.90	3.28	4.38	3.49	3.99	7.15	5.02	5.19	5.48	4.22	2.55	3.00	8.63	8.77	9.50	11.09	5.63	4.70	4.83	4.62	4.21	3.85	4.51	3.54	6.53	6.19	5.73	6.94	6.09	5.93	4.48	4.35	4.59	6.23	5.50	3.91	5.32	8.56	1.85	4.82	1.78	4.13	5.23	6.41	2.46	1.97	3.36	6.16	6.24	5.10	8.89	5.33	5.10	4.46	3.18	2.40	2.11	1.55	2.90	2.97	3.22	3.52	3.79	3.88	3.95	4.00	4.03	4.05	4.06	4.04	4.01	3.95	3.84	3.67	3.61	3.79	3.85	3.88	4.28	4.55	4.60	4.43	4.26	4.24	3.92	3.47	3.05	2.68	5.04	5.23	7.63	10.45	11.86	11.08	10.92	12.25	6.33	5.40	1.96	3.80	4.02	4.85	3.54	4.43	4.44	4.29	3.96	3.79	3.65	3.54	3.25	3.25	
4.40	6.30	5.17	3.35	3.33	3.84	4.10	3.53	4.22	7.29	4.63	2.41	2.50	3.72	4.42	4.59	4.25	4.33	3.98	2.80	2.70	6.33	6.82	9.69	10.73	5.88	5.60	5.14	3.82	4.84	4.55	3.59	4.72	7.29	5.64	3.90	5.17	4.33	4.31	4.21	4.12	5.96	6.79	6.40	3.56	6.09	9.16	4.51	4.86	4.12	4.93	5.76	9.33	5.51	0.44	4.00	6.25	7.26	4.63	4.58	5.31	5.22	6.58	5.16	3.27	2.15	2.01	3.10	3.21	3.28	3.47	3.75	3.87	3.94	3.99	4.02	4.04	4.06	4.06	4.04	4.00	3.94	3.81	3.67	3.84	4.08	4.09	4.25	4.38	4.39	4.27	4.10	3.98	3.86	3.69	3.34	2.88	2.56	4.59	5.91	9.59	10.35	9.94	10.27	11.13	7.22	4.52	2.77	2.27	3.89	5.05	1.89	1.31	1.34	1.55	1.76	3.70	3.92	3.70	3.63	3.63	
3.74	4.60	6.79	4.14	3.70	4.00	4.28	3.27	3.45	6.71	5.33	5.25	1.81	3.62	4.17	4.64	4.40	4.49	4.24	3.14	2.53	2.56	6.12	8.88	9.13	10.11	8.72	5.33	6.15	7.68	4.29	4.72	2.53	6.29	7.07	4.95	3.86	3.96	4.01	3.91	4.19	5.96	7.75	9.67	7.06	8.59	9.67	5.92	2.54	3.93	6.28	6.26	5.67	7.94	8.92	9.77	9.61	10.34	4.17	2.92	3.33	3.64	3.98	3.36	3.22	2.52	1.97	3.13	3.36	3.47	3.54	3.74	3.85	3.91	3.96	3.99	4.03	4.06	4.06	4.07	4.04	4.01	3.93	3.78	3.86	4.12	4.23	4.30	4.36	4.37	4.31	4.06	3.73	3.70	3.78	3.53	3.10	2.74	2.37	4.39	9.03	10.60	10.06	9.81	10.14	11.45	4.62	5.10	5.76	5.25	6.52	7.58	2.72	2.44	3.00	3.38	4.05	4.00	3.90	4.20	4.20	
3.29	4.12	5.55	2.90	3.65	4.84	4.58	3.68	4.63	4.93	5.92	1.69	2.90	3.80	4.38	4.96	4.48	4.67	4.39	3.85	2.84	2.03	2.65	6.51	8.01	8.25	8.69	7.77	6.58	7.32	7.45	5.96	4.18	3.55	4.54	4.55	4.08	4.06	4.00	4.10	6.13	7.71	7.24	4.89	3.46	3.81	8.79	9.14	9.73	6.40	4.30	3.66	5.26	6.13	6.78	8.18	7.35	9.29	10.19	6.39	5.54	5.03	2.63	1.68	0.40	0.99	2.02	3.31	3.42	3.61	3.67	3.73	3.78	3.84	3.90	3.95	4.00	4.04	4.06	4.08	4.06	4.05	4.03	3.90	3.87	4.03	4.19	4.35	4.36	4.39	4.47	4.15	3.67	3.63	3.79	3.61	3.24	2.81	2.47	4.63	8.50	9.97	9.82	6.64	6.34	8.52	3.49	4.63	4.51	3.11	3.57	7.43	6.28	4.17	4.11	4.31	4.25	3.92	4.10	4.69	4.69	
4.64	5.36	7.87	6.14	9.08	6.04	3.55	4.61	4.07	5.52	5.04	4.83	4.74	4.09	4.51	5.49	3.60	4.49	4.97	2.97	1.92	2.36	2.09	3.56	6.70	7.47	7.77	7.84	6.51	6.53	6.50	6.15	5.33	3.98	4.10	4.13	4.00	4.07	4.26	5.95	8.26	6.08	4.69	3.79	3.21	3.48	4.24	8.00	8.16	6.89	6.14	4.42	2.86	2.78	3.52	7.36	6.41	7.46	10.66	11.52	4.15	2.10	1.66	1.09	2.49	3.12	3.22	3.71	3.55	3.70	3.82	3.74	3.62	3.68	3.81	3.89	3.95	4.00	4.04	4.07	4.07	4.06	4.08	4.03	3.96	3.95	3.99	4.20	4.29	4.34	4.49	4.19	3.68	3.60	3.77	3.67	3.35	2.90	2.48	4.48	7.31	8.92	10.43	9.98	6.10	5.83	2.56	3.89	3.75	3.56	3.06	4.34	6.97	5.20	4.86	4.23	4.15	3.63	3.82	4.64	4.64	
2.67	3.33	4.29	4.09	3.99	6.24	6.92	5.21	4.67	3.61	4.17	4.58	4.71	4.23	4.17	5.99	4.03	4.69	3.63	1.06	2.29	3.44	2.17	2.80	4.14	4.78	6.22	6.44	6.55	6.86	5.18	4.76	4.44	4.25	3.98	3.72	3.73	4.34	6.61	8.67	6.48	5.02	4.79	4.02	3.17	2.99	3.68	7.37	7.41	5.65	7.00	5.87	4.11	2.67	3.33	4.08	5.82	3.55	8.60	10.60	9.70	7.77	5.39	4.77	5.02	4.66	4.54	4.09	3.84	3.84	3.97	3.89	3.54	3.45	3.64	3.80	3.90	3.97	4.02	4.05	4.07	4.07	4.10	4.10	4.09	4.08	3.97	3.98	4.11	4.27	4.39	4.15	3.73	3.57	3.70	3.71	3.43	3.01	2.52	2.33	6.37	7.83	9.24	11.42	11.90	5.32	4.20	3.61	3.60	3.52	3.08	3.63	4.59	5.10	4.94	4.37	4.13	3.74	3.47	4.10	4.10	
3.19	3.80	4.64	4.31	3.51	3.60	6.60	6.35	4.64	4.87	4.54	4.08	4.48	4.72	4.05	5.75	5.57	3.15	1.15	2.37	3.02	2.33	3.49	2.86	3.60	4.75	4.57	4.28	4.24	4.48	4.94	4.57	4.20	4.14	3.79	3.46	3.43	4.34	4.53	4.76	4.81	4.69	4.78	4.78	3.63	2.69	3.04	4.15	5.02	4.64	4.03	4.63	4.43	3.49	3.09	3.28	2.66	1.96	7.17	9.62	8.24	7.98	7.80	5.40	4.23	4.52	4.60	4.34	4.14	3.99	3.89	3.90	3.62	3.30	3.43	3.68	3.82	3.92	3.99	4.03	4.06	4.06	4.08	4.09	4.12	4.25	4.25	4.05	4.02	4.22	4.38	4.21	3.84	3.61	3.68	3.72	3.53	3.14	2.66	2.38	4.56	6.88	7.95	10.52	13.06	3.04	2.60	2.93	2.92	3.77	3.57	3.38	3.57	4.11	4.51	4.49	4.38	4.20	3.69	3.36	3.36	
3.48	5.27	5.87	4.95	3.49	2.57	4.62	6.45	5.24	4.68	4.59	3.86	4.76	4.91	3.94	5.11	7.49	6.81	5.29	3.49	4.09	4.67	4.51	4.08	4.04	4.41	4.37	4.26	4.34	4.30	4.49	4.33	4.12	3.76	2.97	3.55	3.95	4.43	4.98	4.73	4.72	4.64	4.85	5.14	4.37	3.00	2.89	3.60	4.26	4.36	3.96	4.02	4.48	4.39	3.57	3.38	2.84	1.89	2.73	8.10	7.50	6.68	7.21	5.88	4.87	4.59	4.65	4.57	4.54	4.36	3.73	3.46	3.48	3.22	3.24	3.53	3.72	3.85	3.94	4.01	4.04	4.05	4.07	4.02	4.03	4.25	4.44	4.33	4.17	4.16	4.35	4.36	3.93	3.69	3.70	3.71	3.60	3.26	2.80	2.46	4.44	6.34	7.24	9.73	12.90	2.90	3.86	4.60	2.27	4.16	4.28	3.87	3.50	3.60	4.02	4.63	4.73	3.91	3.82	3.29	3.29	
3.40	3.55	6.27	5.67	4.06	2.35	4.17	6.95	3.74	4.37	4.16	3.22	5.06	7.80	6.67	6.80	6.66	6.87	7.39	6.13	5.83	4.93	4.78	5.20	5.23	4.51	4.18	4.50	4.68	4.30	4.43	4.22	3.80	3.70	3.30	4.01	3.87	5.79	6.00	4.74	4.60	5.29	5.26	3.83	1.76	3.91	3.56	3.90	3.96	3.96	3.89	3.85	4.53	4.87	4.04	3.71	1.73	2.29	2.47	4.48	6.45	5.16	5.52	5.31	4.94	4.63	4.70	4.85	5.07	4.64	2.63	3.06	3.11	2.99	3.03	3.35	3.62	3.76	3.88	3.96	4.02	4.05	4.06	3.98	3.92	4.13	4.36	4.39	4.36	4.15	4.19	4.39	4.04	3.77	3.76	3.72	3.64	3.34	2.95	2.59	2.66	6.05	7.25	9.83	12.58	6.31	5.31	2.18	4.35	4.24	3.10	1.92	4.05	3.81	4.01	4.77	5.16	2.58	3.74	3.28	3.28	
3.82	3.57	4.34	8.87	3.84	2.73	3.85	8.42	5.12	4.39	4.65	4.62	4.94	5.08	4.45	4.51	4.51	4.56	4.70	4.73	4.59	4.47	4.77	5.59	6.33	4.41	3.94	4.72	4.25	3.94	4.35	2.00	3.96	3.73	4.35	5.26	4.93	5.94	6.36	4.92	4.24	5.92	2.73	4.71	4.37	4.05	4.57	4.22	4.30	4.03	4.04	3.92	5.48	4.67	0.65	3.63	3.96	3.05	3.11	3.71	4.27	4.29	4.42	4.49	4.61	4.60	4.77	5.24	5.91	4.38	1.82	1.43	2.90	2.68	2.80	3.18	3.49	3.66	3.79	3.89	3.98	4.03	4.03	3.94	3.84	3.97	4.26	4.32	4.39	4.31	4.14	4.25	4.10	3.86	3.80	3.76	3.71	3.41	3.10	2.75	4.11	5.86	7.15	10.48	6.70	4.01	3.81	5.17	2.74	0.55	4.54	4.59	4.12	3.76	3.96	6.17	6.35	2.48	3.81	3.33	3.33	
4.00	5.48	5.04	8.25	5.06	3.91	4.14	5.82	4.23	4.09	4.24	4.31	4.27	4.16	4.42	4.61	4.54	4.48	4.47	4.19	3.79	3.81	4.56	6.61	7.77	4.58	3.58	5.55	0.21	2.71	4.34	3.80	4.09	3.82	6.17	5.23	5.18	6.14	7.41	5.41	4.04	5.56	1.18	4.53	3.95	3.70	4.66	4.19	2.66	4.15	4.06	3.70	2.39	5.54	5.94	4.46	4.31	4.39	4.08	4.05	3.99	3.86	3.93	3.67	3.98	4.61	4.99	6.46	6.71	3.31	0.97	0.46	0.77	2.52	2.55	2.98	3.32	3.53	3.67	3.79	3.90	3.97	3.99	3.93	3.82	3.83	4.10	4.28	4.32	4.39	4.28	4.16	4.07	3.92	3.78	3.73	3.82	3.54	3.19	2.81	2.91	6.24	7.59	11.22	7.48	6.82	6.19	2.65	2.51	4.33	4.32	4.31	4.10	3.77	3.51	4.12	7.30	3.22	4.00	3.30	3.30	
6.69	7.70	7.53	8.16	8.63	8.13	5.98	5.59	4.81	4.29	4.80	4.63	4.00	4.03	4.60	4.89	4.78	4.71	4.68	3.89	3.52	3.82	5.89	7.84	7.52	5.37	1.80	4.44	3.13	4.61	4.67	4.44	3.93	4.15	5.99	5.24	5.89	5.45	6.86	6.66	4.00	4.62	1.91	4.66	3.98	3.70	5.76	4.55	3.16	3.63	2.11	3.63	4.14	3.86	4.35	4.47	4.32	4.51	4.59	4.08	3.20	3.43	3.11	1.74	3.41	4.93	6.55	7.01	7.27	2.33	0.42	0.31	1.22	2.66	2.48	2.74	3.06	3.36	3.54	3.68	3.78	3.83	3.93	3.92	3.87	3.79	3.90	4.19	4.30	4.32	4.32	4.19	4.07	3.98	3.80	3.66	3.79	3.63	3.23	2.76	2.75	5.96	7.73	11.62	5.02	4.23	7.13	9.48	4.42	2.36	1.78	4.16	4.28	4.27	3.69	3.65	6.66	3.85	4.50	3.63	3.63	
2.99	3.49	4.04	4.27	4.78	4.85	5.59	6.31	4.64	4.19	5.53	2.13	3.70	4.22	5.47	4.96	4.33	4.72	2.66	3.42	3.25	5.48	5.97	7.82	8.52	1.18	2.72	3.56	3.41	2.89	4.61	3.96	3.78	4.28	6.22	5.83	6.71	5.55	6.49	7.02	6.19	6.82	5.53	4.97	1.66	3.74	4.43	6.44	0.60	3.89	5.65	5.50	4.28	3.99	4.41	4.75	4.71	4.85	5.20	2.40	2.15	3.85	1.22	3.16	3.01	4.43	7.48	8.63	6.82	1.12	1.68	1.59	1.20	3.08	2.70	2.62	2.72	3.09	3.36	3.55	3.69	3.73	3.90	3.92	3.91	3.85	3.84	4.11	4.33	4.28	4.24	4.18	4.08	4.01	3.87	3.68	3.68	3.56	3.26	2.73	2.66	5.82	6.91	11.57	5.26	3.42	4.17	7.49	9.35	1.70	2.82	4.41	4.25	4.65	4.52	4.09	4.60	8.10	4.94	4.59	4.59	
3.51	3.69	3.98	4.39	5.15	4.69	4.60	6.05	4.74	3.77	6.24	3.76	3.85	4.41	6.27	5.24	3.93	4.59	2.46	3.08	2.75	5.86	7.52	7.58	6.35	4.77	4.56	4.45	4.73	5.31	4.69	3.91	3.92	4.04	6.88	6.64	8.00	8.36	5.69	4.45	4.07	6.00	7.98	5.42	4.83	3.79	6.39	8.44	6.55	4.56	4.28	4.53	4.34	4.13	4.41	4.76	5.98	6.19	3.01	0.62	2.64	2.61	3.14	3.16	3.07	3.80	4.20	9.24	1.31	2.41	2.73	2.67	1.41	1.27	3.05	2.66	2.48	2.78	3.14	3.43	3.66	3.81	3.90	3.93	3.93	3.89	3.86	4.13	4.42	4.28	4.18	4.17	4.12	4.03	3.90	3.79	3.70	3.48	3.24	2.72	2.46	4.12	6.56	11.71	6.35	3.91	3.46	4.31	7.78	10.05	5.96	4.98	4.07	4.22	4.64	4.54	6.76	5.83	6.87	9.89	9.89	
4.24	3.93	3.74	5.71	6.15	4.95	3.99	5.36	3.82	4.17	4.45	4.32	3.86	4.60	6.27	5.89	4.01	3.15	2.58	3.06	2.66	3.75	8.88	6.34	4.66	4.57	4.44	4.21	4.43	5.22	4.58	3.73	4.35	5.30	3.89	6.63	5.12	4.60	4.52	4.40	3.80	3.64	3.96	7.07	7.15	4.15	5.64	6.13	6.45	6.34	4.76	4.61	4.48	4.29	4.44	4.59	6.57	5.88	0.69	1.30	3.07	1.49	3.59	3.04	3.14	3.97	5.98	8.70	1.80	2.32	1.82	0.14	1.88	2.27	2.09	2.84	2.39	2.60	2.96	3.27	3.60	3.80	3.90	3.95	3.94	3.90	3.79	4.10	4.58	4.35	4.19	4.21	4.17	4.08	3.90	3.86	3.77	3.50	3.26	2.79	2.37	4.00	6.01	10.67	7.38	5.33	3.36	3.18	4.08	7.59	9.10	5.20	4.18	7.45	4.05	7.18	7.42	6.10	4.92	9.94	9.94	
4.09	3.92	3.58	6.85	7.53	4.44	4.39	5.21	4.53	3.70	4.60	3.87	3.69	5.79	8.19	6.08	1.19	2.42	3.19	3.27	2.96	5.58	9.42	4.54	4.84	4.33	4.35	4.34	4.46	5.09	4.47	3.30	4.22	6.84	4.76	8.23	5.27	4.33	4.45	4.69	4.14	3.59	3.01	3.47	6.97	4.72	3.88	3.99	4.54	4.50	4.20	4.36	4.61	4.69	5.31	6.13	7.17	1.44	0.67	2.91	0.93	3.35	3.36	2.48	2.80	3.68	7.98	10.22	1.77	1.47	0.40	2.36	2.82	2.31	1.75	1.40	2.51	2.59	2.93	3.15	3.52	3.77	3.88	3.97	3.95	3.93	3.69	3.91	4.60	4.48	4.28	4.31	4.24	4.16	3.93	3.89	3.80	3.58	3.36	2.94	2.48	4.49	5.74	8.54	12.59	4.40	4.05	2.71	3.14	3.99	7.91	8.21	4.53	3.46	3.56	7.65	4.57	4.71	5.09	5.60	5.60	
4.43	4.17	4.95	6.77	2.65	4.90	5.14	5.85	4.41	4.80	4.16	3.68	3.84	5.85	9.24	5.39	4.71	4.57	4.40	3.46	3.32	6.17	9.79	3.98	3.57	4.16	4.32	4.65	4.60	5.10	4.57	3.19	3.72	4.81	6.31	7.21	5.37	4.25	4.56	4.32	4.63	4.18	3.52	2.96	4.00	4.82	4.35	4.17	4.64	4.20	3.43	4.20	4.65	5.98	5.96	6.59	7.25	0.79	1.33	0.39	4.47	3.64	2.28	3.20	2.97	2.44	3.52	8.82	1.59	1.21	1.30	2.83	2.41	1.38	0.30	1.09	2.84	2.67	2.92	3.12	3.47	3.73	3.85	3.95	3.96	3.95	3.69	3.74	4.42	4.48	4.33	4.32	4.27	4.24	4.01	3.92	3.82	3.64	3.48	3.16	2.74	4.70	4.32	7.24	11.63	4.17	4.78	3.09	2.60	3.08	4.27	8.42	4.90	3.57	3.85	4.19	4.36	4.54	5.08	5.49	5.49	
3.97	5.19	5.31	9.07	5.01	5.18	8.69	9.05	6.01	4.92	4.03	3.65	5.11	5.87	7.92	4.45	4.77	4.54	4.12	3.63	3.79	6.47	4.88	3.82	4.56	3.81	3.90	4.78	4.95	5.28	4.78	3.67	4.02	4.38	6.30	9.50	2.41	2.77	4.77	3.25	2.13	4.77	2.17	3.84	3.10	3.84	4.26	4.90	5.28	2.04	2.98	3.98	6.14	6.00	6.39	6.83	5.26	1.01	1.69	1.08	4.47	1.13	3.23	3.49	4.19	3.79	5.08	8.33	0.98	1.32	1.10	3.58	2.55	0.78	0.75	1.53	1.58	2.85	2.90	3.09	3.44	3.71	3.82	3.92	3.95	3.95	3.77	3.71	4.17	4.39	4.32	4.29	4.25	4.25	4.10	3.99	3.88	3.67	3.54	3.33	3.08	2.86	4.27	6.94	10.29	5.63	4.99	3.64	2.81	2.47	3.61	8.16	5.35	3.87	3.54	3.95	4.92	4.61	5.28	5.46	5.46	
3.56	6.92	5.53	6.01	5.06	3.99	4.32	6.91	6.48	5.56	4.54	3.89	4.04	6.20	6.13	1.74	2.97	4.20	3.90	3.96	5.22	7.93	3.93	2.63	2.70	3.70	3.23	4.38	5.17	6.42	5.01	4.32	4.79	6.04	6.07	4.99	4.99	5.01	5.54	5.74	5.54	5.68	5.73	4.39	4.12	3.74	3.89	6.69	5.53	4.35	2.88	3.42	6.33	7.64	7.10	4.42	8.50	4.57	1.51	1.79	1.10	2.33	3.61	4.09	4.00	3.00	5.77	6.93	6.19	5.18	8.47	6.18	2.30	0.97	1.31	1.73	1.88	3.05	2.97	3.09	3.42	3.69	3.81	3.91	3.95	3.94	3.85	3.74	3.96	4.29	4.34	4.29	4.24	4.20	4.13	4.08	3.98	3.77	3.58	3.41	3.23	3.24	4.44	7.15	9.72	4.69	4.94	4.17	3.13	2.41	2.46	4.34	7.07	4.12	3.75	4.11	4.26	4.65	6.67	6.03	6.03	
4.91	4.94	4.14	4.95	5.19	4.59	4.32	4.71	5.36	5.48	5.13	4.39	4.02	8.15	2.02	4.67	3.98	2.92	4.02	4.60	5.56	8.63	2.43	3.43	3.56	3.82	2.91	3.44	4.65	7.69	5.02	4.62	5.33	5.89	4.91	5.00	3.36	4.02	4.08	4.47	4.64	4.58	4.50	4.39	4.10	4.08	3.78	4.11	5.40	4.55	2.94	3.33	3.84	8.25	5.14	4.35	7.29	9.31	6.65	3.79	1.37	2.52	4.73	5.83	4.90	4.46	7.05	6.19	4.87	6.31	4.12	8.12	5.42	2.98	2.33	2.10	2.23	3.26	3.08	3.06	3.34	3.66	3.81	3.91	3.95	3.96	3.94	3.82	3.84	4.14	4.34	4.35	4.27	4.13	4.06	4.07	4.02	3.85	3.65	3.44	3.13	4.61	5.90	7.99	10.79	2.41	2.58	1.82	4.06	3.06	2.67	3.25	4.55	4.00	3.78	4.23	4.60	4.63	8.01	9.77	9.77	
4.15	4.09	4.27	4.99	5.32	5.17	4.59	4.21	4.68	4.78	5.14	4.73	4.24	5.18	6.53	7.08	7.82	5.23	4.67	5.39	6.39	9.62	3.85	3.25	4.57	4.12	3.27	2.86	3.78	8.62	7.05	4.56	6.77	5.73	5.40	4.20	2.63	4.27	4.10	4.21	4.35	4.70	4.47	3.99	3.92	4.26	4.39	5.05	5.80	4.53	2.93	3.69	5.32	6.52	4.19	2.88	5.42	7.56	8.93	9.34	9.26	7.57	7.70	7.60	4.32	8.01	4.96	5.38	4.95	3.68	3.18	4.10	9.54	7.32	5.34	3.52	2.86	3.56	3.27	3.13	3.27	3.61	3.81	3.90	3.95	3.97	3.98	3.90	3.83	3.97	4.21	4.41	4.34	4.10	3.98	3.99	3.98	3.85	3.73	3.53	3.11	4.37	5.95	8.96	12.29	6.20	4.88	4.57	4.07	3.47	3.01	2.95	3.50	4.28	3.66	4.50	4.68	7.53	10.08	9.67	9.67	
3.68	4.12	4.63	5.81	6.09	5.61	3.68	4.08	5.40	4.60	5.57	4.00	5.25	4.79	4.87	5.08	5.78	6.27	6.34	5.03	6.02	8.58	6.15	4.00	4.83	4.60	4.12	3.09	3.19	4.33	4.34	6.81	9.65	7.54	8.39	4.13	5.53	4.97	4.75	4.58	4.54	4.38	2.93	4.34	3.67	4.10	5.03	4.48	5.16	4.59	3.40	4.07	5.68	7.57	6.15	4.31	4.63	3.20	6.84	7.65	8.54	7.94	4.45	3.89	3.84	3.97	4.87	5.77	4.49	4.31	4.30	3.19	5.24	6.98	6.56	5.34	3.46	2.07	3.54	3.32	3.37	3.61	3.80	3.88	3.94	3.97	3.99	3.95	3.89	3.86	4.04	4.39	4.42	4.13	3.95	3.92	3.92	3.77	3.70	3.55	3.20	4.24	5.73	8.88	12.30	6.48	5.44	4.85	4.32	3.43	3.54	3.16	2.82	2.81	3.18	4.39	7.72	8.59	9.69	5.62	5.62	
3.07	5.74	5.89	6.39	9.46	3.44	4.16	3.80	8.03	4.56	5.10	5.43	3.60	3.21	3.68	3.32	3.98	4.08	4.80	5.92	4.48	5.88	6.47	6.27	5.51	6.02	4.72	3.82	3.31	4.02	3.98	7.03	9.07	6.83	5.08	6.06	4.59	1.37	1.56	1.15	3.47	3.13	2.62	3.90	2.43	4.63	7.22	7.20	5.47	4.99	4.16	4.44	7.32	4.68	4.95	5.35	3.68	2.93	3.81	4.38	8.47	9.02	5.05	4.20	3.72	4.18	5.00	5.37	5.92	4.53	3.61	3.05	4.77	5.96	5.08	5.74	3.97	2.91	4.03	3.50	3.48	3.65	3.77	3.87	3.92	3.95	3.98	3.97	3.95	3.84	3.93	4.37	4.54	4.28	3.97	3.88	3.91	3.74	3.58	3.41	3.06	4.49	6.05	8.69	12.07	3.25	2.88	2.00	4.47	4.01	4.01	3.23	2.77	2.29	2.51	4.12	4.29	8.49	9.83	5.52	5.52	
2.94	3.52	6.17	6.34	10.02	4.32	4.64	5.62	5.74	3.05	4.61	6.88	4.65	4.46	5.40	5.33	4.46	4.12	4.50	4.95	4.94	4.48	4.24	4.56	4.57	4.41	4.59	4.04	3.65	4.11	3.91	7.52	7.45	5.42	4.03	9.70	8.29	7.43	7.71	6.99	8.07	7.40	9.29	6.99	5.79	4.73	3.31	7.39	8.69	7.61	8.59	8.72	7.27	5.09	5.02	4.02	3.97	3.30	2.84	3.64	7.53	8.43	7.28	4.54	4.62	4.60	5.40	5.47	2.12	2.22	3.91	2.98	4.13	6.45	4.94	4.10	4.87	4.99	4.03	3.81	3.47	3.58	3.69	3.82	3.88	3.93	3.97	3.98	3.96	3.80	3.80	4.22	4.56	4.51	4.12	3.85	3.91	3.79	3.55	3.30	2.85	2.61	6.14	8.14	11.38	12.41	3.82	2.85	2.95	4.67	4.23	1.36	2.46	2.35	2.18	2.63	4.09	4.92	9.63	5.63	5.63	
4.01	4.97	3.61	3.95	8.95	9.56	4.54	2.86	2.70	3.30	3.88	4.52	4.83	4.49	4.51	4.89	4.80	4.64	4.65	4.69	5.17	4.92	3.83	3.82	4.09	3.82	3.87	3.74	3.54	4.11	4.02	7.73	6.24	4.07	6.58	6.77	6.41	6.60	6.69	4.81	6.47	4.19	7.78	6.02	4.64	4.97	3.22	3.63	6.83	4.20	7.32	7.20	5.87	5.70	4.44	4.19	4.46	4.07	2.94	2.44	2.90	4.36	6.73	4.57	4.66	4.71	9.82	2.66	2.72	5.13	3.91	3.94	1.55	3.66	5.00	4.38	4.22	4.20	4.43	4.04	3.52	3.38	3.52	3.72	3.84	3.89	3.94	3.96	3.94	3.79	3.67	3.93	4.33	4.52	4.27	3.89	3.89	3.85	3.61	3.33	2.85	2.39	4.48	7.64	10.07	11.91	11.63	6.68	6.72	4.51	2.86	1.32	3.35	2.94	2.34	2.39	2.64	4.74	9.17	5.67	5.67	
4.15	4.59	4.12	6.97	6.07	6.31	6.11	4.54	4.34	4.52	4.12	4.35	4.61	4.55	4.68	4.90	4.68	5.02	5.04	4.25	5.09	4.53	4.11	3.89	4.03	3.46	3.38	4.04	3.56	3.82	3.93	4.64	6.47	4.32	4.07	4.58	4.55	4.29	4.28	4.75	4.72	4.07	7.69	6.03	4.59	4.53	3.84	3.43	4.02	4.08	4.57	6.92	4.98	4.43	4.31	4.55	5.13	4.73	3.01	2.56	2.67	3.23	3.42	3.19	4.26	7.88	8.11	9.14	9.10	6.04	4.67	4.34	3.69	3.40	4.15	4.82	4.54	4.02	3.96	3.91	3.61	3.28	3.30	3.57	3.77	3.84	3.90	3.93	3.92	3.83	3.67	3.76	4.12	4.38	4.24	3.93	3.91	3.91	3.67	3.40	3.00	2.38	4.47	7.13	8.92	10.20	11.59	11.74	12.08	12.05	2.94	2.97	2.57	2.76	2.83	2.50	2.58	3.49	9.56	5.60	5.60	
3.49	5.57	4.62	7.53	7.92	7.61	2.71	4.06	4.53	4.39	4.29	4.40	4.59	4.58	4.82	5.03	4.57	5.78	3.68	4.13	5.75	3.42	2.00	1.80	1.70	3.52	3.44	3.68	3.83	3.76	3.82	4.38	4.87	4.44	4.21	4.46	4.62	4.28	3.69	4.10	4.67	4.16	4.51	5.06	4.63	4.37	4.18	3.91	3.73	3.42	4.18	4.88	4.53	4.25	4.29	4.90	5.38	2.46	3.43	3.24	2.99	2.86	2.71	2.68	3.97	4.07	4.09	6.60	7.50	7.42	6.74	5.27	5.27	4.59	4.35	4.70	4.83	4.30	3.76	3.62	3.59	3.34	3.16	3.39	3.69	3.80	3.86	3.90	3.90	3.86	3.71	3.67	3.99	4.31	4.19	3.93	3.97	3.99	3.76	3.52	3.19	2.57	2.13	4.97	7.41	8.09	9.36	10.35	11.03	12.02	10.47	3.65	2.47	3.19	3.37	2.80	2.74	3.44	8.95	5.37	5.37	
5.14	3.06	5.92	8.76	11.16	4.13	2.63	2.83	4.36	4.18	4.26	4.38	4.62	4.62	4.84	5.10	4.78	6.38	3.89	4.01	7.21	2.59	3.71	4.83	4.47	3.83	3.58	4.12	4.26	3.89	3.86	4.13	4.31	4.27	4.24	4.47	5.07	5.08	3.92	3.70	4.20	4.07	4.12	4.63	4.56	4.25	4.32	4.46	4.11	3.45	4.10	4.62	3.94	4.18	4.81	6.65	5.73	1.97	3.94	3.92	3.40	2.19	2.79	2.98	3.29	3.58	3.62	3.65	4.00	4.32	4.35	4.42	4.52	4.44	4.43	4.80	5.00	3.79	2.16	1.14	3.40	3.40	3.17	3.24	3.58	3.76	3.84	3.87	3.87	3.86	3.76	3.62	3.76	4.14	4.13	3.87	3.96	4.06	3.89	3.68	3.45	2.95	2.42	2.45	5.08	5.30	7.58	8.76	9.74	10.52	12.42	6.75	4.07	4.19	3.20	3.23	3.00	3.46	8.51	6.28	6.28	
2.96	3.04	2.97	3.37	8.76	7.31	3.82	1.75	1.05	4.25	4.34	4.52	4.66	5.01	5.78	6.11	7.67	6.57	3.43	2.88	3.91	3.80	3.60	4.27	4.65	3.62	3.30	4.75	5.14	4.24	3.96	4.08	3.94	4.02	4.19	4.46	4.98	5.48	4.68	4.09	3.99	3.99	4.13	4.81	4.89	4.27	4.33	4.63	4.72	3.91	4.27	4.48	3.68	3.72	4.69	7.87	4.19	2.55	3.44	3.02	0.99	2.62	3.50	3.83	3.48	3.74	4.08	3.67	3.52	3.69	3.83	4.09	4.28	4.24	4.26	5.04	5.66	2.83	0.98	1.01	3.19	3.30	3.19	3.17	3.49	3.73	3.80	3.83	3.84	3.83	3.79	3.68	3.64	3.86	3.94	3.74	3.79	4.03	4.01	3.86	3.70	3.36	2.94	2.70	2.72	5.32	5.52	7.78	8.63	9.30	10.69	11.09	7.08	4.74	4.06	3.82	3.46	3.65	4.21	4.66	4.66	
3.93	3.85	3.31	3.26	4.12	6.82	6.91	5.30	4.93	4.33	5.69	4.65	4.85	4.48	4.26	4.51	5.30	10.15	6.44	0.56	2.24	4.45	4.06	4.38	1.68	3.48	3.88	4.79	6.90	5.32	4.36	4.18	3.81	3.98	4.26	4.12	4.55	5.23	5.11	4.50	3.96	3.84	4.05	5.01	5.11	4.39	4.11	4.41	4.65	4.33	4.09	3.94	3.43	3.26	4.11	9.15	2.21	2.81	4.38	4.23	4.76	3.82	4.11	4.49	3.74	4.17	4.52	3.48	3.29	3.28	3.58	3.96	4.07	4.00	4.24	5.87	5.79	2.41	0.48	0.15	1.02	3.27	3.17	3.16	3.44	3.67	3.74	3.77	3.79	3.80	3.78	3.75	3.72	3.75	3.79	3.65	3.60	3.79	3.90	3.92	3.87	3.66	3.38	3.11	2.95	2.82	5.26	5.37	7.29	8.41	9.17	9.92	8.85	6.78	4.81	4.29	3.86	3.88	4.16	4.41	4.41	
4.37	4.87	3.84	3.72	3.45	4.73	9.60	4.68	4.24	4.10	3.76	4.49	6.91	4.57	3.92	4.26	4.87	7.00	3.01	1.98	3.04	3.00	4.23	4.59	1.77	2.95	2.61	3.84	8.57	5.44	2.50	4.36	4.23	4.21	4.41	4.31	4.53	5.18	5.36	4.71	3.83	3.76	4.17	7.11	4.93	4.04	3.99	4.67	5.02	4.74	4.34	3.59	3.25	3.27	6.59	9.40	3.50	4.24	4.30	4.79	4.72	3.94	4.07	5.11	4.64	5.17	4.46	2.30	0.97	2.29	3.14	3.91	3.84	4.09	5.01	6.29	5.33	1.00	1.12	1.32	1.77	1.79	3.23	3.16	3.41	3.59	3.64	3.67	3.70	3.73	3.75	3.76	3.77	3.77	3.76	3.67	3.56	3.56	3.59	3.70	3.81	3.77	3.68	3.48	3.23	3.05	2.96	2.86	5.41	5.95	8.62	9.24	9.07	6.04	5.06	4.45	4.09	4.06	4.16	4.25	4.25	
3.69	5.69	5.40	4.36	4.01	5.67	6.17	3.71	4.48	3.77	3.29	4.17	5.25	4.81	5.49	4.05	5.76	9.93	7.65	4.91	3.76	3.69	4.44	2.88	1.82	2.82	3.54	3.71	8.34	9.36	3.70	4.32	4.26	4.43	4.60	4.34	4.33	5.23	5.36	4.64	3.63	4.02	4.74	4.99	4.62	3.75	4.02	5.23	5.70	5.30	3.72	3.95	3.21	3.13	6.50	7.78	2.07	4.06	3.92	4.12	3.70	3.87	3.50	4.37	7.17	7.11	1.59	2.42	3.88	2.71	3.59	5.11	4.65	3.93	4.79	6.55	0.39	3.02	2.90	2.82	2.80	2.56	3.51	3.25	3.32	3.38	3.44	3.52	3.59	3.64	3.67	3.70	3.73	3.74	3.73	3.69	3.64	3.58	3.43	3.44	3.52	3.58	3.74	3.77	3.54	3.36	3.28	3.08	2.94	5.84	8.22	9.22	8.63	5.84	5.11	4.60	4.30	4.24	4.19	4.16	4.16	
5.40	8.15	9.57	10.07	9.72	5.55	2.64	4.41	3.45	4.17	3.17	3.59	5.18	5.07	3.48	3.61	6.21	9.35	12.25	3.19	1.90	3.47	4.19	2.90	3.28	2.71	2.06	2.34	8.95	9.11	5.83	4.71	4.43	4.71	4.98	4.43	3.90	7.54	3.91	4.55	3.61	4.37	6.89	2.74	4.05	3.65	3.82	4.90	8.06	5.64	3.66	4.16	3.31	2.99	4.29	5.72	2.37	4.14	3.90	3.96	4.51	4.49	3.18	3.17	4.28	7.92	2.98	4.55	4.11	1.26	4.22	5.83	5.80	3.92	4.16	2.70	5.39	5.86	5.43	4.48	3.90	3.43	4.07	3.66	3.34	3.05	3.08	3.26	3.39	3.48	3.56	3.62	3.67	3.69	3.70	3.69	3.68	3.66	3.52	3.46	3.42	3.35	3.51	3.75	3.76	3.63	3.55	3.37	3.17	5.75	6.29	8.70	8.70	5.19	5.06	4.72	4.45	4.42	4.27	4.12	4.12	
2.06	7.19	8.14	7.80	8.85	9.07	9.21	8.07	5.84	3.89	3.79	3.09	4.95	4.21	3.53	3.54	6.45	8.78	11.07	3.64	1.73	1.87	5.19	5.14	4.38	3.13	2.21	2.18	4.94	5.99	5.47	4.86	4.78	5.01	5.32	4.87	4.08	4.57	4.84	4.45	3.74	4.50	7.68	4.80	3.58	3.49	3.79	4.36	7.75	8.14	3.64	2.88	3.50	2.94	5.97	4.09	2.57	4.08	3.77	4.13	4.87	4.40	3.81	3.06	3.82	7.50	2.98	4.53	1.71	2.70	3.74	4.12	7.09	2.33	2.29	4.43	4.24	4.74	4.39	4.68	4.66	4.70	4.65	4.23	3.43	2.98	2.96	3.04	3.08	3.25	3.41	3.50	3.58	3.63	3.66	3.69	3.71	3.74	3.74	3.69	3.58	3.43	3.39	3.50	3.66	3.80	3.80	3.61	3.46	3.42	6.12	6.86	7.22	5.00	4.91	4.70	4.49	4.50	4.45	4.35	4.35	
1.94	6.54	4.44	4.11	6.44	6.57	6.97	7.87	7.84	9.39	4.66	3.27	4.85	4.33	3.71	4.04	5.10	4.52	5.35	8.51	6.68	6.08	6.05	6.14	5.16	3.87	3.02	3.14	5.55	5.00	4.34	4.33	4.95	4.98	6.94	5.18	4.61	4.41	4.31	4.23	4.11	4.70	4.04	4.50	3.35	3.40	3.95	6.89	7.23	9.96	6.26	3.95	4.02	3.92	4.45	1.45	2.91	4.18	3.75	4.09	5.09	4.59	4.07	3.17	3.60	7.30	2.76	0.34	2.79	3.19	4.00	5.08	6.49	5.22	5.20	5.42	4.96	4.49	4.08	4.30	4.42	4.53	4.92	3.67	1.56	3.32	3.33	3.03	2.71	2.89	3.17	3.33	3.46	3.55	3.61	3.67	3.73	3.78	3.82	3.81	3.73	3.63	3.53	3.44	3.45	3.67	3.93	3.85	3.68	3.68	3.70	6.66	7.26	6.92	4.88	4.74	4.53	4.38	4.44	5.20	5.20	
2.76	3.45	4.35	4.35	4.31	4.22	4.53	4.61	4.68	7.78	4.99	3.96	4.95	5.23	3.82	4.41	6.71	5.48	5.60	3.66	4.32	4.83	3.73	4.58	4.81	4.32	3.89	4.60	4.62	4.72	3.83	3.94	6.76	6.85	6.50	5.18	3.32	4.28	3.98	4.24	4.55	5.16	2.66	3.88	3.29	3.47	4.03	4.21	4.21	7.52	9.78	5.36	4.86	3.43	4.20	4.80	4.18	4.49	0.92	3.96	6.51	4.62	4.54	3.44	3.49	6.38	1.25	4.54	0.98	3.78	4.26	8.80	7.92	6.84	5.91	6.05	4.91	4.97	4.49	4.31	4.28	4.37	5.55	0.61	2.67	4.29	2.94	3.27	2.56	2.51	2.77	3.04	3.27	3.43	3.54	3.64	3.71	3.77	3.81	3.82	3.80	3.74	3.68	3.58	3.43	3.44	3.73	3.95	3.87	3.77	3.77	6.51	7.10	6.95	7.38	4.96	4.71	4.40	4.36	5.64	5.64	
4.00	4.34	4.71	4.84	4.45	3.84	3.75	3.81	4.00	4.75	4.51	4.12	7.48	4.90	3.93	4.32	7.54	6.51	1.11	2.27	3.27	3.13	3.08	3.52	4.33	4.34	4.45	6.36	4.89	5.55	4.29	3.46	7.56	8.30	5.67	5.18	4.65	4.00	4.25	4.62	6.27	5.48	2.60	3.52	3.35	3.69	6.60	6.81	6.52	6.50	8.52	9.59	4.12	4.12	3.40	4.48	4.49	4.40	4.28	4.12	4.61	5.54	4.81	3.91	4.55	6.92	3.32	4.83	5.54	6.83	7.59	6.78	6.77	6.55	4.64	4.29	4.33	4.38	4.20	4.22	4.42	5.38	2.50	3.65	4.61	5.60	3.82	2.42	2.74	2.38	2.39	2.61	2.96	3.25	3.43	3.56	3.66	3.72	3.77	3.80	3.79	3.77	3.74	3.70	3.59	3.46	3.47	3.79	4.03	3.87	3.74	4.03	7.01	6.51	6.88	7.82	5.03	4.79	4.61	4.59	4.59	
4.41	6.01	5.84	5.16	3.96	3.82	3.61	3.64	3.88	4.12	3.91	3.94	4.40	4.13	6.85	7.99	10.03	7.62	3.22	2.53	2.74	2.95	3.12	3.57	4.22	4.44	6.40	7.00	6.36	7.14	3.73	4.13	3.73	4.74	5.80	5.19	4.42	3.90	4.49	6.28	6.36	3.06	4.53	3.41	3.48	4.16	4.39	3.87	6.87	9.07	7.40	7.43	4.43	1.05	2.74	4.11	3.98	4.12	4.48	4.64	5.24	4.91	3.26	4.33	5.33	1.89	3.78	4.49	5.29	5.59	5.89	4.21	4.59	4.90	4.65	4.46	4.53	4.39	3.84	3.83	5.37	5.07	2.13	3.82	4.15	6.09	5.02	2.66	1.86	2.53	2.24	2.20	2.53	2.98	3.25	3.43	3.56	3.64	3.69	3.74	3.76	3.76	3.76	3.74	3.70	3.62	3.47	3.61	4.07	4.10	3.76	3.97	7.02	4.20	6.45	8.73	9.18	9.01	9.52	4.96	4.96	
3.58	6.64	7.52	4.76	2.88	2.91	4.03	3.59	4.34	4.39	3.90	4.28	3.99	3.21	3.52	4.33	9.68	7.77	2.81	2.30	2.95	3.28	3.36	3.93	4.78	4.66	6.90	6.89	5.46	6.38	5.27	4.05	4.37	4.39	5.13	4.88	4.16	3.94	4.42	6.93	1.47	3.40	4.28	3.50	3.57	4.45	5.86	4.26	5.78	3.92	6.12	6.13	5.96	4.26	3.48	4.38	3.93	3.90	4.48	5.79	7.26	3.29	2.71	3.45	4.11	3.05	3.53	4.56	5.61	4.00	3.91	4.13	4.32	4.52	4.37	4.34	4.70	4.50	3.67	3.39	6.28	1.55	3.97	4.11	4.01	5.64	7.17	3.35	1.85	1.61	0.96	2.18	2.21	2.58	2.97	3.25	3.42	3.51	3.57	3.63	3.68	3.72	3.73	3.74	3.73	3.71	3.56	3.50	3.90	4.20	3.89	3.88	6.89	6.55	6.39	6.87	8.95	8.76	4.83	5.12	5.12	
2.56	6.11	9.99	4.02	1.30	2.32	1.18	3.81	5.96	3.97	4.19	4.89	2.97	3.09	3.10	4.12	9.72	7.69	3.20	2.68	3.05	2.92	3.25	4.44	6.96	7.20	7.54	7.27	5.83	5.73	5.69	3.85	4.37	4.39	4.85	4.21	3.82	4.21	4.58	7.69	3.66	3.56	3.99	3.61	3.60	4.05	8.52	5.00	4.31	5.19	3.98	4.96	5.98	5.99	6.06	4.68	4.05	3.57	3.87	8.87	8.55	8.75	8.10	8.73	8.78	5.36	4.28	4.38	3.84	3.99	4.18	4.41	4.19	4.19	4.19	4.07	5.15	5.15	4.09	3.93	0.56	4.48	4.35	4.20	4.18	4.96	8.04	3.29	1.42	0.76	0.73	0.98	2.33	2.41	2.71	3.00	3.18	3.30	3.40	3.48	3.55	3.62	3.67	3.71	3.73	3.72	3.62	3.43	3.60	4.05	3.99	3.86	4.10	4.12	6.39	6.65	8.70	4.59	6.69	6.62	6.62	
2.35	5.26	7.41	4.61	3.80	4.51	4.51	3.98	4.73	3.70	5.08	3.97	4.54	3.61	2.95	3.93	7.97	5.78	3.79	2.95	2.98	2.74	2.88	4.35	8.00	8.99	9.68	10.10	8.30	6.99	4.41	2.70	1.92	4.66	4.85	3.85	3.55	4.40	5.08	4.76	3.45	4.31	3.77	3.79	4.09	3.92	7.12	9.23	7.58	4.46	6.52	4.88	3.17	4.09	5.63	5.94	5.19	3.55	6.60	6.41	6.43	6.79	6.74	6.98	8.06	7.23	5.37	4.17	3.98	4.26	4.73	5.04	4.45	3.81	3.93	3.98	5.64	6.16	3.59	3.43	4.95	4.42	4.21	4.04	4.52	6.32	6.59	1.97	1.30	0.72	0.95	0.66	1.10	2.91	2.80	2.80	2.85	2.94	3.08	3.23	3.35	3.47	3.56	3.64	3.69	3.71	3.69	3.53	3.49	3.84	4.00	3.93	3.97	4.01	6.24	6.56	8.59	4.92	4.69	8.72	8.72	
2.71	5.40	6.51	9.06	5.38	5.25	2.21	4.92	5.20	4.68	6.38	2.68	4.66	4.23	3.06	3.91	7.78	4.04	3.91	3.12	2.90	2.68	2.74	4.18	7.58	9.24	9.60	10.14	10.68	8.49	4.65	3.06	2.69	4.77	4.86	3.76	3.37	4.34	7.42	3.46	3.32	4.02	3.64	3.79	4.39	6.06	5.92	6.56	8.22	5.18	4.64	3.64	3.61	3.62	3.75	3.96	4.06	3.84	3.88	4.03	3.99	4.18	6.76	6.73	6.69	6.73	5.03	4.43	4.24	4.54	5.23	5.90	4.77	3.95	4.16	4.64	5.31	8.48	5.86	5.29	4.56	4.53	4.30	4.15	4.51	6.75	4.78	1.12	0.57	0.53	2.60	3.42	2.43	2.34	3.36	2.90	2.73	2.61	2.68	2.84	3.01	3.20	3.39	3.53	3.62	3.68	3.70	3.63	3.53	3.72	3.93	3.96	3.92	3.94	6.33	6.63	8.94	5.16	6.94	4.89	4.89	
3.25	5.90	4.72	4.74	8.78	5.94	5.32	5.43	3.80	4.61	4.32	4.93	4.84	3.01	3.38	4.00	9.50	4.66	4.29	3.64	2.93	2.53	2.73	4.35	7.93	8.78	8.94	9.15	10.49	11.95	3.39	3.80	4.76	4.92	4.73	3.58	3.42	4.45	7.49	3.36	4.57	3.77	3.57	3.67	4.04	7.30	8.62	7.53	8.20	8.75	2.31	3.66	3.86	4.01	3.85	3.68	3.75	3.78	3.87	3.93	3.86	3.92	4.19	4.45	4.48	4.46	4.35	4.12	4.14	4.88	5.24	7.12	6.60	4.82	4.25	4.30	2.24	5.13	5.46	4.42	4.33	4.33	4.24	5.38	6.25	7.28	1.73	0.58	2.27	4.13	4.54	4.75	2.78	4.33	3.21	2.36	2.15	2.58	2.42	2.55	2.63	2.81	3.14	3.39	3.54	3.63	3.69	3.68	3.57	3.62	3.84	3.95	3.86	3.77	6.40	6.72	7.33	7.23	5.16	5.31	5.31	
3.78	6.15	4.84	3.68	4.47	5.28	7.10	5.92	5.37	6.28	5.92	4.70	4.91	5.01	3.67	3.89	9.63	3.65	2.55	2.48	2.37	2.23	2.44	4.62	8.32	8.23	8.25	8.78	10.65	9.37	6.75	4.49	5.49	5.51	4.84	3.51	3.48	6.53	5.52	3.91	4.39	3.71	3.63	4.21	4.26	3.72	3.96	4.57	6.58	8.21	4.67	3.71	4.13	4.04	4.04	3.91	3.88	3.82	3.78	3.86	3.87	3.86	4.05	4.20	4.13	3.95	3.82	3.77	3.78	4.65	7.36	6.92	7.46	6.60	3.46	3.67	4.30	3.94	4.24	4.17	4.07	4.11	5.21	5.60	7.07	9.29	4.25	5.05	4.95	4.77	4.72	2.73	4.85	5.06	3.24	2.03	2.33	1.73	2.41	2.41	2.38	2.51	2.81	3.16	3.43	3.58	3.66	3.70	3.63	3.59	3.73	3.92	3.92	3.75	3.66	6.41	7.18	7.46	8.79	9.20	9.20	
4.28	5.16	3.91	3.80	3.54	4.09	7.06	9.80	5.55	5.05	6.74	5.87	3.88	3.81	2.83	3.42	8.38	2.63	2.12	1.20	2.08	2.09	2.13	4.55	8.44	7.93	7.67	8.66	10.76	6.34	7.28	7.70	11.12	5.09	5.08	3.74	3.72	4.80	4.72	4.97	4.11	3.75	3.81	4.49	6.07	4.28	3.52	3.97	5.00	5.91	5.09	4.28	4.23	4.09	4.30	4.44	4.29	4.05	4.00	4.06	4.00	3.96	4.08	4.18	3.15	3.50	3.57	3.70	3.64	4.22	7.32	7.46	7.64	8.09	3.47	3.44	3.46	3.80	4.23	4.13	3.86	4.07	5.03	5.32	6.80	6.64	4.96	5.58	5.26	5.17	4.66	4.74	5.24	5.51	2.89	1.92	2.68	1.81	1.70	1.01	2.40	2.52	2.72	2.93	3.29	3.53	3.63	3.70	3.68	3.59	3.60	3.79	3.94	3.83	3.64	3.68	6.85	6.80	7.41	10.33	10.33	
5.12	5.17	5.10	4.24	3.25	3.44	4.04	7.78	6.25	4.72	4.89	5.97	4.42	3.37	3.21	2.97	4.81	10.61	3.75	2.69	2.45	2.17	2.01	4.31	8.26	7.79	7.84	9.01	9.52	5.07	4.54	9.64	8.55	6.03	5.05	4.14	4.36	4.73	4.85	3.79	3.77	3.59	4.05	4.64	6.60	5.02	4.08	5.69	8.98	3.39	4.02	4.41	4.08	4.09	4.41	4.83	4.52	4.22	4.50	4.46	4.26	4.16	4.29	4.25	3.31	3.15	3.44	3.80	4.06	3.96	7.24	8.33	9.50	5.58	3.07	2.90	3.35	3.97	4.78	4.50	3.87	5.02	5.62	5.75	1.15	3.90	4.83	4.61	4.73	5.03	4.62	4.52	5.71	5.73	1.57	2.28	2.85	1.24	0.51	0.96	1.35	2.84	2.88	2.88	3.19	3.47	3.58	3.67	3.69	3.65	3.58	3.66	3.89	3.88	3.63	3.52	3.82	4.19	7.50	10.33	10.33	
3.97	5.25	4.99	4.76	3.35	2.96	3.35	4.81	9.07	4.78	6.25	6.29	3.40	2.56	2.86	2.76	3.89	9.59	5.33	2.95	2.42	2.24	1.99	2.95	5.16	5.00	8.25	9.00	7.50	4.91	4.52	4.82	5.67	5.05	5.33	4.74	5.04	3.03	5.07	4.47	3.55	3.30	3.92	6.96	8.70	8.84	5.12	4.45	3.22	3.86	4.15	4.17	4.10	4.20	4.51	0.86	4.27	4.32	4.89	4.88	4.55	4.48	4.65	1.28	3.22	3.14	3.48	3.96	4.26	6.15	6.84	7.66	9.34	3.25	2.50	3.83	3.39	4.23	6.31	4.93	3.03	5.08	7.02	1.37	3.42	3.88	4.12	4.30	4.39	4.76	4.64	4.49	6.38	4.84	1.43	2.63	0.03	3.74	4.72	4.25	2.67	3.04	2.87	2.88	3.14	3.39	3.53	3.64	3.68	3.70	3.66	3.70	3.95	4.06	3.84	3.62	3.51	3.83	7.57	7.66	7.66	
3.87	5.27	5.39	4.28	3.79	2.60	2.81	4.49	8.90	4.51	6.72	7.63	2.96	2.62	3.11	2.33	3.33	6.45	3.37	2.07	2.14	2.23	1.89	4.15	5.05	5.38	8.36	8.28	5.22	4.58	4.47	7.21	10.34	10.02	5.99	4.96	4.53	4.31	3.11	4.67	3.48	3.09	3.50	4.41	7.33	8.95	8.62	2.18	3.83	3.67	4.02	4.09	4.42	4.72	4.08	4.23	4.08	4.46	5.01	4.97	4.08	3.81	1.36	2.86	3.65	3.42	3.63	4.48	6.14	5.83	6.12	6.85	8.59	6.96	3.78	4.08	3.34	3.81	7.05	6.88	3.03	5.43	7.22	1.59	2.85	3.83	4.23	4.52	4.16	4.91	5.17	4.85	6.03	3.12	0.81	3.32	5.13	4.44	4.75	2.92	1.40	1.32	2.53	2.69	3.02	3.29	3.47	3.61	3.66	3.70	3.68	3.72	3.98	4.18	4.11	3.94	3.58	3.59	7.45	8.22	8.22	
5.32	4.88	5.52	2.45	4.57	2.79	2.52	4.25	7.55	4.09	6.62	10.63	5.90	3.88	3.48	2.41	2.94	5.81	3.81	2.51	2.69	2.41	1.77	2.40	3.27	8.16	7.71	7.34	8.53	4.50	8.26	9.80	6.26	8.87	10.30	6.33	5.51	5.67	5.67	4.87	3.60	3.08	3.40	6.57	6.99	8.78	9.78	2.29	2.59	3.96	3.63	4.01	4.89	5.69	4.54	3.88	4.11	4.47	5.82	6.18	3.18	1.75	4.52	4.86	4.20	3.69	3.74	4.60	6.30	6.10	5.74	6.26	8.13	5.30	4.31	4.38	3.47	3.50	6.69	8.47	4.55	5.63	5.40	3.29	4.04	4.05	4.67	4.87	3.81	4.05	5.81	6.52	5.11	6.37	5.62	5.87	5.08	4.68	0.66	2.50	1.19	0.73	2.14	2.34	2.78	3.15	3.38	3.56	3.64	3.69	3.64	3.65	3.91	4.12	4.13	4.10	3.85	3.59	7.10	8.14	8.14	
4.83	4.27	4.81	8.14	5.56	3.41	2.51	4.07	7.57	4.17	6.81	7.54	6.06	4.61	3.13	2.82	2.66	5.18	8.48	3.32	3.61	3.13	2.00	1.88	2.65	5.51	4.48	5.60	4.62	5.08	8.46	5.57	3.86	4.29	9.59	5.37	5.31	6.15	6.05	4.84	3.65	3.16	3.27	3.94	4.37	7.15	10.54	2.53	2.38	3.96	3.45	3.89	6.80	3.08	4.31	3.67	4.03	4.40	5.78	6.57	3.14	3.82	4.53	4.19	4.02	3.64	3.74	6.36	6.58	6.14	5.99	6.60	1.16	3.51	4.63	4.26	3.53	3.60	5.98	7.93	6.53	6.14	1.43	3.47	4.12	4.37	4.81	5.43	3.99	3.61	5.45	3.73	4.27	4.04	4.40	5.22	5.13	0.54	4.44	3.26	1.11	1.06	2.02	2.05	2.53	3.01	3.28	3.48	3.60	3.65	3.61	3.59	3.85	4.12	4.19	4.17	4.10	3.76	4.29	7.74	7.74	
4.91	4.18	4.06	7.63	5.01	4.48	2.73	3.65	8.00	4.73	6.95	8.77	4.57	5.02	3.74	2.86	2.57	4.85	9.38	4.88	2.43	3.42	2.82	1.76	2.35	5.37	5.32	5.34	5.18	5.47	5.82	4.26	3.82	4.53	7.65	4.76	4.75	6.30	6.60	5.00	3.59	3.37	3.60	3.90	4.04	6.91	7.24	4.52	3.85	4.08	3.48	3.93	7.24	5.50	4.25	3.52	3.88	5.48	5.81	7.92	5.60	4.70	4.23	4.20	4.12	3.59	3.42	7.36	8.03	6.42	5.72	4.13	2.83	3.56	3.81	3.96	3.65	3.31	7.22	8.46	7.21	4.13	2.54	3.48	3.93	4.20	5.59	6.59	3.83	3.62	3.29	2.56	3.89	4.09	4.31	1.39	4.92	4.75	4.19	2.81	1.38	0.78	1.11	2.13	2.33	2.82	3.17	3.40	3.54	3.61	3.59	3.53	3.68	4.01	4.22	4.24	4.22	3.94	4.17	7.26	7.26	
3.98	4.50	3.83	4.59	5.68	5.18	3.17	3.46	7.83	5.12	4.47	6.29	3.16	2.15	4.22	2.93	2.36	4.55	5.87	6.74	5.54	3.14	2.81	2.09	2.25	5.08	3.66	5.13	8.58	10.18	5.33	4.16	4.34	9.02	5.00	4.12	4.26	8.22	7.61	5.67	3.61	3.38	3.93	4.15	5.81	6.59	5.70	3.83	3.45	3.90	3.58	4.33	7.16	5.33	4.34	3.51	3.66	4.46	6.03	5.82	4.91	4.14	4.02	4.28	4.57	4.26	2.94	6.22	6.56	9.13	6.42	2.81	3.37	3.62	3.36	3.93	5.15	3.96	5.38	8.03	9.46	1.71	3.40	3.86	3.79	3.77	5.34	7.90	4.42	2.35	2.48	3.94	4.02	1.85	4.36	4.68	4.96	4.39	2.83	0.50	2.32	2.45	2.13	2.52	2.30	2.67	3.07	3.35	3.50	3.57	3.58	3.52	3.52	3.74	4.04	4.19	4.20	4.04	4.14	4.46	4.46	
5.85	5.01	4.28	4.29	4.67	4.88	3.50	3.27	7.22	5.23	4.86	6.27	3.81	2.99	2.91	2.74	2.43	3.22	5.12	5.19	5.57	6.70	3.74	2.72	2.17	3.01	3.28	5.05	9.44	7.66	6.15	4.29	4.83	5.32	4.60	3.75	4.17	9.40	8.79	4.10	4.36	3.51	3.97	4.16	6.46	9.02	5.32	4.93	4.86	3.79	3.49	6.31	8.03	2.78	4.40	1.67	3.68	5.08	4.70	5.03	4.08	3.80	3.82	4.31	6.33	5.56	3.45	2.32	3.29	6.54	6.91	3.45	2.85	3.27	3.15	3.97	6.68	4.06	3.89	4.17	8.97	4.19	3.64	3.82	3.90	4.38	4.48	8.01	6.94	3.10	3.50	4.01	1.65	4.24	4.46	4.48	4.44	2.09	4.85	5.31	4.49	3.62	2.38	2.76	2.39	2.60	2.98	3.30	3.47	3.55	3.59	3.57	3.53	3.61	3.83	4.07	4.13	4.09	4.15	4.34	4.34	
5.41	5.51	5.47	5.06	4.59	4.36	3.59	2.91	3.87	4.93	5.39	6.53	3.23	1.94	3.73	3.13	3.02	3.14	3.80	4.03	4.10	6.45	4.70	4.08	2.46	2.34	2.81	5.20	9.40	4.94	4.78	4.58	4.22	4.80	4.65	3.77	4.05	7.46	9.69	5.93	5.42	4.50	4.50	5.65	6.44	5.21	4.75	4.76	4.68	3.80	3.53	4.28	9.01	3.83	4.65	3.77	4.39	4.65	4.42	4.13	4.14	3.63	3.71	4.41	6.59	6.70	2.32	2.38	2.62	6.26	2.79	1.83	2.39	3.15	2.94	3.65	7.98	4.27	3.83	6.46	5.22	3.96	3.97	3.87	4.10	4.34	5.00	7.17	5.48	4.08	2.61	4.27	4.15	4.27	3.99	3.91	3.30	3.17	2.10	0.28	0.42	0.03	0.90	1.71	2.53	2.59	2.92	3.25	3.46	3.55	3.61	3.62	3.64	3.72	3.83	4.02	4.17	4.12	4.13	4.25	4.25	
4.27	4.96	6.07	5.45	4.04	4.49	3.86	2.89	3.21	4.74	5.81	8.22	2.31	1.84	1.84	3.87	3.05	3.77	3.65	3.37	3.27	4.23	6.75	4.20	3.64	2.04	2.25	5.48	5.77	4.80	4.49	4.96	4.83	5.01	5.16	4.19	3.78	8.25	8.08	4.83	5.24	5.04	4.82	6.46	7.07	4.34	4.66	4.48	4.19	3.44	3.70	4.17	9.16	3.19	2.38	3.78	4.06	4.46	4.92	4.92	3.76	3.43	3.53	4.21	7.74	7.38	3.04	2.80	2.53	5.87	6.02	1.81	2.63	3.17	2.74	3.14	7.89	7.53	4.58	6.39	6.79	4.21	3.91	3.84	4.79	6.25	3.84	6.88	4.75	1.82	2.84	1.82	2.15	4.43	4.49	3.63	1.27	2.29	0.91	4.31	1.76	1.33	1.80	2.33	2.83	2.68	2.88	3.20	3.42	3.54	3.62	3.63	3.69	3.88	4.03	4.11	4.18	4.13	4.11	4.16	4.16	
3.56	4.04	5.40	6.61	2.09	3.02	4.31	3.43	3.10	4.35	8.31	6.93	2.40	3.71	4.16	2.23	4.02	3.90	3.30	3.49	2.96	3.46	4.74	5.65	3.33	2.48	2.12	5.42	5.12	4.73	4.34	5.22	6.19	6.27	5.60	4.89	4.03	6.53	4.11	4.11	4.67	4.90	4.68	7.74	5.97	3.54	4.79	4.69	3.93	3.17	3.62	6.50	7.29	8.08	5.06	4.50	4.30	4.35	4.77	4.84	3.76	3.05	3.20	3.88	8.30	9.21	4.34	3.41	2.59	5.30	5.76	2.56	2.94	3.31	2.72	3.05	7.42	8.78	5.16	4.25	4.45	4.42	3.89	3.58	4.64	7.47	4.12	5.96	2.10	4.74	3.88	7.00	5.81	6.06	5.65	0.98	3.90	5.50	8.63	10.17	5.32	4.32	3.97	3.34	2.62	3.06	2.96	3.15	3.37	3.52	3.62	3.65	3.70	3.93	4.19	4.29	4.26	4.19	4.15	4.16	4.16	
3.30	3.82	5.24	7.65	4.14	4.65	4.43	3.98	3.48	4.02	8.45	8.38	2.76	0.86	2.71	5.01	5.80	5.62	3.50	3.32	3.30	3.52	4.60	5.40	3.63	3.22	2.44	3.62	4.85	4.92	4.67	6.33	7.99	10.07	11.11	4.39	4.97	3.80	3.55	3.86	4.40	4.83	6.79	7.83	9.72	3.42	5.17	2.64	3.94	3.20	3.58	6.83	9.48	5.00	4.81	4.44	4.61	4.71	4.35	4.34	3.72	2.55	2.40	5.80	8.31	10.93	3.26	4.44	4.13	3.92	6.39	3.42	3.21	3.38	2.67	2.96	5.62	9.62	4.14	4.16	3.76	4.06	4.06	4.08	3.80	6.84	5.90	2.13	7.18	6.68	3.83	4.88	2.87	5.26	9.02	9.08	6.99	6.44	6.74	7.88	8.46	7.69	6.71	5.11	3.60	3.30	2.99	3.09	3.30	3.49	3.61	3.67	3.69	3.83	4.14	4.38	4.37	4.25	4.19	4.19	4.19	
2.87	3.65	7.69	5.79	4.36	4.48	4.36	4.62	4.64	4.55	7.93	10.48	1.95	2.55	4.35	2.33	3.58	4.24	4.82	4.31	3.48	3.61	5.82	5.62	3.59	3.51	2.73	3.34	5.33	7.17	8.00	9.19	9.76	9.24	10.27	11.82	4.01	3.83	3.12	3.92	4.40	8.69	9.36	10.06	10.23	10.38	4.04	3.36	3.67	3.22	3.67	7.37	4.07	4.92	4.35	4.25	4.89	5.39	1.43	3.83	4.13	2.62	1.53	1.88	6.10	9.03	11.69	4.96	3.58	4.72	2.89	4.03	3.51	3.31	2.49	2.71	6.99	10.09	1.90	3.63	3.95	3.85	4.30	5.37	4.14	6.51	4.59	5.45	5.99	7.46	5.46	3.78	4.31	5.46	7.32	7.80	6.76	6.13	5.60	3.72	5.75	5.01	5.30	5.00	4.18	3.10	2.66	2.87	3.18	3.42	3.57	3.67	3.71	3.77	4.00	4.29	4.38	4.27	4.19	4.17	4.17	
2.56	3.62	9.77	5.88	5.00	4.29	4.19	4.71	4.93	7.16	8.43	6.41	3.94	4.18	4.30	3.24	2.85	3.78	4.16	3.93	3.32	3.36	6.18	6.63	3.80	3.42	2.72	2.88	7.67	8.93	8.78	9.01	8.25	8.90	9.69	11.61	4.78	3.80	3.83	4.00	8.63	8.24	8.80	7.65	9.49	10.30	4.20	3.14	3.12	3.43	3.98	7.63	6.21	5.10	4.32	4.21	4.98	4.84	2.03	4.08	4.68	3.51	1.72	1.32	2.33	6.23	10.41	6.55	6.14	1.98	3.03	3.30	3.95	3.08	2.39	2.58	5.42	9.48	3.35	3.92	3.66	3.49	4.55	6.57	3.64	6.36	6.22	4.34	4.63	6.25	7.10	4.77	3.83	2.81	5.79	6.20	6.25	4.90	5.46	3.81	4.08	4.34	4.35	4.42	2.82	3.00	2.21	2.45	2.98	3.36	3.56	3.69	3.75	3.82	4.02	4.18	4.32	4.34	4.20	4.14	4.14	
2.50	3.90	7.23	6.44	5.26	4.33	4.07	4.58	4.44	7.41	9.91	1.99	2.15	1.58	1.70	3.10	3.90	3.84	3.76	3.32	3.01	3.26	6.17	4.88	3.49	3.12	2.53	2.52	5.18	5.83	8.47	8.30	8.11	8.95	9.62	11.47	4.75	3.76	3.46	4.05	8.14	8.46	8.61	8.49	8.18	10.45	5.89	5.00	2.87	3.26	6.73	8.03	6.93	4.38	4.63	4.49	5.16	2.03	4.58	4.05	4.79	1.91	2.78	1.58	1.73	2.70	6.66	10.72	11.39	5.45	3.15	2.15	1.28	3.06	2.41	2.69	5.23	8.83	5.93	4.70	3.45	3.08	4.04	7.77	7.21	6.76	6.56	4.48	3.72	4.11	3.82	5.24	4.95	3.39	3.36	3.77	4.02	4.38	4.67	4.43	0.35	4.46	4.50	3.97	3.11	1.79	2.31	2.28	2.80	3.28	3.54	3.70	3.75	3.86	4.12	4.15	4.26	4.41	4.26	4.16	4.16	
3.01	7.50	5.40	5.27	5.01	4.66	4.44	4.41	7.03	8.20	11.80	2.83	1.57	3.07	4.99	4.26	4.30	3.88	2.88	2.98	2.66	3.23	6.31	2.76	3.46	2.99	2.58	2.66	3.33	5.78	8.28	5.56	8.15	8.38	10.16	9.08	4.88	3.91	3.19	4.40	7.70	8.31	8.15	8.20	7.83	9.87	8.68	3.69	3.46	2.62	3.81	9.74	6.11	4.49	4.36	4.50	5.43	4.16	4.69	4.10	4.92	2.72	3.75	2.43	1.37	1.75	5.58	9.14	11.57	2.13	1.77	4.43	1.00	3.34	2.54	2.70	5.24	9.61	2.58	4.82	3.64	3.12	3.74	4.06	7.41	5.99	7.08	6.92	5.62	5.60	4.93	4.05	3.91	3.81	3.64	3.55	3.61	3.75	4.26	4.47	4.16	4.45	4.43	3.42	1.82	0.98	1.89	2.66	2.80	3.21	3.53	3.74	3.74	3.85	4.19	4.14	4.12	4.34	4.30	4.22	4.22	
4.16	4.36	4.95	4.66	4.69	4.90	4.60	4.25	7.32	8.58	8.34	5.10	5.29	6.42	3.46	2.42	1.41	1.98	1.74	3.40	2.68	3.15	6.59	4.47	3.58	3.01	2.78	2.86	3.12	5.62	5.93	5.90	5.72	8.40	10.55	6.86	4.97	4.22	3.65	3.34	3.92	4.61	4.73	4.46	7.54	9.42	8.81	5.73	4.38	2.98	3.43	8.86	4.16	3.53	3.64	4.34	5.44	3.73	2.75	4.47	2.81	4.24	3.85	1.73	1.58	1.22	2.36	7.77	10.87	6.98	3.46	0.69	3.02	3.52	2.72	2.56	5.03	8.88	9.32	5.32	4.14	3.47	3.40	7.17	7.14	4.59	4.21	5.02	5.28	4.42	4.28	3.94	3.87	4.28	4.31	4.00	3.72	3.69	4.06	3.82	3.57	4.51	4.09	0.30	2.26	2.92	2.73	3.01	2.97	3.23	3.55	3.77	3.73	3.81	4.25	4.28	4.10	4.20	4.27	4.29	4.29	
3.60	4.34	5.04	4.94	4.84	4.69	4.76	4.46	7.07	9.77	6.76	6.00	5.15	4.67	7.32	5.33	5.32	8.01	5.17	4.17	3.00	3.15	6.60	5.97	3.69	2.99	2.78	2.99	3.15	3.80	5.69	5.98	5.71	8.22	10.71	5.84	4.72	4.17	3.80	3.47	3.80	5.16	8.62	7.82	4.84	4.78	6.62	6.06	4.33	3.53	4.21	9.54	4.95	3.06	3.31	4.15	7.69	6.91	4.99	1.99	4.63	4.36	4.58	1.48	2.27	1.22	1.96	5.81	9.58	11.02	6.18	4.59	3.53	3.60	2.82	2.79	3.02	5.64	10.04	5.76	4.57	4.42	2.99	5.94	6.87	6.38	5.75	4.28	4.54	4.43	4.37	4.22	4.20	4.15	3.60	3.31	3.24	2.88	3.16	3.96	4.08	4.37	1.77	1.47	1.97	2.33	2.51	3.18	3.14	3.37	3.66	3.85	3.79	3.79	4.21	4.41	4.22	4.13	4.19	4.24	4.24	
3.90	4.67	4.98	7.89	5.31	4.90	4.96	5.72	4.76	5.52	5.45	5.43	4.98	4.03	4.56	4.91	4.51	5.01	5.44	4.39	3.17	3.02	6.12	8.45	4.69	3.39	2.82	3.16	3.52	3.76	3.76	5.76	5.78	8.67	9.42	6.14	4.59	4.17	3.80	3.48	4.83	5.15	8.14	9.28	5.37	5.20	4.16	3.55	3.46	3.44	6.97	9.40	4.93	3.03	2.96	3.57	7.37	9.69	9.67	1.64	2.42	4.60	4.85	2.54	3.04	1.71	1.66	5.36	8.23	10.72	5.86	4.95	3.77	3.65	2.87	3.09	4.91	5.29	7.70	9.00	4.56	5.84	4.35	3.83	4.62	4.17	4.38	4.37	4.66	4.62	3.95	3.53	3.87	3.01	6.38	5.90	1.65	5.32	7.90	9.69	10.36	10.33	7.63	7.14	5.84	3.90	3.34	3.24	3.86	3.72	3.86	3.95	3.85	3.79	4.14	4.42	4.29	4.12	4.12	4.17	4.17	
4.09	6.57	4.73	4.44	4.85	7.07	6.66	5.54	5.16	3.29	1.93	4.48	2.01	4.40	4.25	4.98	5.21	4.66	4.70	4.54	3.27	2.57	3.88	7.71	3.48	3.06	2.95	3.04	3.65	3.75	3.51	3.69	5.87	8.50	5.81	5.68	4.59	4.25	3.89	3.64	3.69	5.09	5.13	5.42	5.55	4.62	3.78	3.20	3.08	3.86	7.69	8.21	3.59	3.75	3.04	3.14	4.10	8.98	6.95	5.68	5.40	4.85	2.47	3.24	3.83	2.38	1.64	2.24	5.80	10.14	2.91	2.97	2.69	3.80	2.82	3.05	5.61	4.65	6.99	4.64	4.64	4.77	5.63	4.50	3.95	4.01	4.14	4.29	4.70	4.51	0.45	4.17	5.98	5.91	6.35	7.12	7.05	6.68	6.84	7.32	7.33	7.38	7.23	7.14	8.66	8.62	6.97	5.37	4.56	4.09	4.07	4.07	3.92	3.82	4.12	4.52	4.53	4.28	4.12	4.10	4.10	
3.86	7.06	5.50	4.74	5.21	7.64	8.64	6.36	5.39	5.73	3.01	5.20	5.42	5.32	5.30	5.38	5.64	1.96	4.96	4.33	4.24	3.15	3.37	6.49	6.71	4.37	4.19	3.65	3.93	3.99	3.66	3.64	5.69	4.70	4.69	5.34	4.91	4.33	4.00	3.81	3.85	5.12	5.04	8.07	5.64	4.60	4.24	3.31	2.77	6.61	8.33	5.20	5.75	4.25	3.61	3.67	7.09	4.17	4.24	4.28	8.30	4.97	3.40	4.18	4.83	3.70	2.55	2.40	3.08	6.29	9.83	1.86	3.66	4.65	3.37	2.77	5.26	6.94	7.68	4.25	4.39	4.60	4.48	4.53	4.45	4.33	4.33	4.39	7.19	6.75	4.45	5.15	5.56	5.65	3.62	6.30	4.05	5.99	3.62	3.61	6.36	6.09	6.40	6.32	4.81	5.77	5.57	5.54	4.96	4.50	4.34	4.20	4.01	3.73	3.70	4.04	4.30	4.28	4.16	4.08	4.08	
3.79	7.44	7.19	4.11	3.29	7.33	4.71	7.30	4.44	2.24	2.63	3.40	3.09	6.46	5.72	5.68	3.55	5.24	4.52	3.36	4.12	4.05	3.52	4.46	5.88	3.15	4.33	4.71	4.26	4.16	3.87	3.83	4.30	4.52	4.39	4.57	4.68	4.37	4.06	3.89	3.88	5.25	3.73	7.75	4.90	4.47	4.58	3.49	2.76	7.16	4.27	4.66	4.76	4.16	3.48	3.14	3.72	3.99	3.91	3.65	7.77	4.12	4.21	5.44	1.86	4.81	3.52	2.80	3.33	3.69	4.42	5.23	5.48	5.39	3.99	2.73	4.98	7.67	4.06	4.10	4.26	4.46	4.58	4.77	4.79	4.54	4.57	4.15	3.90	4.34	4.40	3.87	3.76	3.70	3.38	3.44	3.61	3.55	3.22	3.00	3.35	3.48	3.72	3.70	3.50	3.98	4.81	3.47	5.29	4.78	4.47	4.25	4.00	3.63	3.38	3.53	3.90	4.15	4.18	4.13	4.13	
