ncols	121
nrows	160
xllcorner	1648855.938895
yllcorner	466851.943984
cellsize	500.000000
NODATA_value	nan
4.16	4.54	5.21	1.84	3.83	2.56	3.65	8.63	9.76	4.99	4.35	4.51	4.61	4.38	3.25	2.45	3.31	3.34	4.53	5.29	5.30	4.88	4.81	2.20	3.83	3.55	3.95	4.23	4.35	4.45	4.53	4.56	4.68	5.35	8.13	9.77	5.74	5.83	5.87	5.46	5.61	5.57	5.09	4.90	4.29	7.78	6.11	5.02	3.56	4.69	3.93	3.33	5.55	5.45	5.13	5.08	3.26	3.41	3.40	5.11	5.39	4.67	4.65	4.10	4.61	8.83	4.96	4.08	3.54	4.80	9.44	4.87	0.60	0.82	2.92	3.30	3.42	3.89	6.52	9.57	10.73	5.90	5.19	4.50	4.20	4.55	3.56	3.83	6.91	8.06	5.56	5.27	10.28	9.62	9.93	10.63	5.45	3.62	2.42	1.52	3.48	5.37	8.11	11.22	7.22	6.53	11.52	2.75	4.11	2.71	3.45	4.88	5.79	5.14	4.35	3.74	3.66	6.97	10.38	11.05	11.05	
4.16	4.54	5.21	1.84	3.83	2.56	3.65	8.63	9.76	4.99	4.35	4.51	4.61	4.38	3.25	2.45	3.31	3.34	4.53	5.29	5.30	4.88	4.81	2.20	3.83	3.55	3.95	4.23	4.35	4.45	4.53	4.56	4.68	5.35	8.13	9.77	5.74	5.83	5.87	5.46	5.61	5.57	5.09	4.90	4.29	7.78	6.11	5.02	3.56	4.69	3.93	3.33	5.55	5.45	5.13	5.08	3.26	3.41	3.40	5.11	5.39	4.67	4.65	4.10	4.61	8.83	4.96	4.08	3.54	4.80	9.44	4.87	0.60	0.82	2.92	3.30	3.42	3.89	6.52	9.57	10.73	5.90	5.19	4.50	4.20	4.55	3.56	3.83	6.91	8.06	5.56	5.27	10.28	9.62	9.93	10.63	5.45	3.62	2.42	1.52	3.48	5.37	8.11	11.22	7.22	6.53	11.52	2.75	4.11	2.71	3.45	4.88	5.79	5.14	4.35	3.74	3.66	6.97	10.38	11.05	11.05	
4.25	4.58	5.66	3.08	2.83	2.18	2.35	4.47	8.13	9.42	4.33	4.72	1.33	1.75	2.72	3.43	3.51	3.60	6.37	5.39	2.57	2.30	2.12	1.02	3.23	3.25	3.79	4.10	4.25	4.35	4.41	4.38	4.11	3.95	7.20	7.13	5.67	5.77	6.68	6.25	6.45	6.30	5.64	5.24	3.94	4.36	8.77	5.39	3.56	5.07	4.45	3.08	3.81	8.18	5.84	1.61	3.06	2.96	2.67	4.51	6.37	5.03	5.12	3.96	3.04	4.75	6.16	5.17	3.67	4.26	9.45	4.76	4.38	3.33	4.01	3.62	3.16	3.34	4.39	8.74	10.06	3.04	3.76	2.43	3.27	3.80	3.22	2.87	6.50	5.16	4.27	8.06	6.43	8.92	6.48	10.81	5.73	4.64	3.47	3.31	3.03	4.27	7.55	8.12	10.03	9.84	10.73	2.51	3.99	3.81	3.23	4.57	7.53	3.38	3.88	3.37	2.77	3.07	7.29	10.93	10.93	
2.56	4.70	6.07	2.61	2.04	1.60	1.84	2.49	4.32	4.83	5.69	4.35	4.58	3.36	3.70	3.61	4.05	5.20	7.21	1.09	1.15	0.85	0.68	2.54	2.64	2.95	3.52	3.84	4.04	4.16	4.18	4.08	3.58	3.08	3.97	4.99	5.21	6.99	6.96	7.15	8.29	10.02	11.46	9.00	10.08	10.57	6.61	6.70	4.46	5.25	5.16	3.18	2.88	5.36	8.63	2.96	3.50	2.97	1.67	2.93	8.93	8.46	6.73	5.00	2.48	3.14	5.39	8.00	4.66	5.59	1.54	3.72	1.21	4.31	2.52	2.02	3.36	3.06	4.96	8.19	9.15	10.34	2.71	2.47	2.02	3.69	3.48	2.30	3.94	6.41	4.42	3.50	5.75	4.44	8.62	10.21	6.84	6.46	4.56	3.77	2.65	3.28	4.37	7.79	7.08	9.09	11.74	3.39	4.66	3.87	3.00	4.09	9.15	2.76	2.46	3.43	2.46	2.04	4.10	8.17	8.17	
2.36	2.65	5.33	10.79	5.45	1.97	2.30	3.75	3.38	4.11	5.76	3.91	3.29	3.33	3.68	3.88	4.50	5.93	2.43	2.03	1.83	0.81	0.75	2.46	2.40	2.74	3.29	3.62	3.85	3.98	3.98	3.90	3.58	3.31	3.82	4.23	6.77	8.14	9.54	10.50	9.25	9.44	8.64	8.15	8.40	9.20	10.67	11.94	6.34	5.97	5.32	3.91	2.84	4.27	6.52	4.16	3.19	2.44	1.49	1.64	5.35	9.61	10.34	3.41	3.63	3.24	4.06	4.49	6.28	10.58	6.13	2.43	4.97	1.60	3.55	4.01	3.69	3.68	4.91	7.51	8.90	5.37	7.66	5.77	4.13	4.75	3.72	3.11	3.07	4.44	6.83	3.50	3.62	3.68	6.14	8.75	7.22	8.52	5.70	4.48	2.84	3.35	4.26	8.43	8.30	8.06	10.83	4.48	4.92	3.97	2.75	3.83	9.79	2.98	3.17	3.13	3.40	2.19	3.63	7.82	7.82	
2.64	2.74	3.84	9.57	6.11	2.95	2.54	3.18	7.01	7.66	9.34	2.49	2.35	3.57	3.53	4.37	5.89	5.57	1.17	2.22	1.69	0.50	1.35	2.55	2.44	2.55	2.92	3.36	3.66	3.82	3.85	3.78	3.53	3.24	3.44	5.45	7.31	9.82	8.66	6.74	6.79	7.39	6.43	6.52	6.62	6.67	8.16	9.50	10.80	12.07	6.74	4.61	3.40	3.62	5.84	6.66	2.27	1.57	2.03	1.37	2.56	8.33	10.67	6.58	5.33	4.17	4.73	4.00	4.23	6.06	6.28	2.67	2.68	4.35	4.00	3.99	3.89	4.57	4.83	8.25	1.69	4.63	4.85	5.94	5.32	4.93	5.08	4.30	3.20	3.11	4.24	6.89	4.27	3.46	4.08	6.62	6.10	5.14	8.69	5.01	3.08	3.42	3.98	8.67	9.21	9.55	10.55	3.95	5.73	3.78	3.09	4.06	10.20	3.67	4.71	1.43	2.89	3.17	3.65	4.60	4.60	
2.84	3.07	4.48	8.60	10.73	3.59	3.99	3.44	6.26	6.92	5.72	1.87	3.87	2.94	3.16	5.38	8.18	2.11	1.52	0.84	2.41	2.15	1.16	1.24	2.63	2.45	2.52	3.07	3.50	3.69	3.75	3.69	3.44	3.11	3.19	5.60	8.35	9.00	5.29	4.75	5.03	5.20	4.37	3.88	3.66	3.96	7.02	6.31	5.97	9.33	11.19	6.54	5.00	3.89	5.46	5.08	4.28	3.53	2.98	1.68	2.14	7.24	8.51	10.95	6.21	5.19	5.26	4.83	7.80	4.82	9.34	5.23	4.85	4.33	3.66	3.69	3.99	4.66	5.05	5.90	4.37	4.41	4.52	5.04	5.06	5.06	5.53	4.43	3.47	2.80	3.21	4.53	4.66	3.98	3.68	4.52	4.33	4.65	8.53	5.25	3.09	3.26	3.82	7.26	9.61	10.14	11.72	8.98	7.00	3.40	3.84	5.65	7.13	2.03	4.39	4.18	4.72	4.45	4.01	3.63	3.63	
2.77	4.35	4.02	4.92	5.37	5.55	4.27	5.89	4.93	6.94	2.34	2.31	1.60	2.55	2.65	5.29	9.85	1.95	1.50	2.59	4.53	2.95	1.18	1.47	1.36	2.38	2.19	2.81	3.36	3.59	3.66	3.62	3.33	2.97	3.02	5.99	8.25	7.95	5.07	4.68	4.85	4.80	4.43	4.15	3.64	7.96	5.05	4.77	3.99	3.88	8.34	9.66	5.87	5.23	5.97	4.35	5.12	4.93	3.86	2.73	2.48	2.86	4.13	8.02	10.24	10.41	10.86	3.75	3.49	3.91	6.13	5.83	5.22	4.84	3.62	3.27	4.29	3.66	4.94	9.36	6.84	2.40	3.63	4.74	4.68	5.22	5.70	2.07	4.09	3.84	3.90	3.83	4.79	4.52	3.65	3.73	3.76	4.17	5.86	5.48	3.21	3.08	3.85	7.44	8.96	9.21	8.33	8.74	8.95	6.58	6.24	11.30	3.46	2.71	2.45	4.38	4.63	5.20	3.32	3.11	3.11	
2.45	4.51	6.91	4.40	4.43	7.53	4.62	5.08	4.84	4.71	6.25	2.83	3.77	2.52	2.54	4.01	10.82	2.33	0.93	5.03	4.42	2.06	0.51	0.90	0.68	2.44	2.00	2.63	3.25	3.52	3.61	3.58	3.29	2.95	3.15	3.63	4.38	7.23	5.40	5.31	5.34	4.86	4.83	4.80	3.73	3.43	6.30	5.36	3.98	3.26	3.89	4.92	4.97	5.98	7.26	5.36	4.95	5.10	4.44	4.02	3.14	2.61	2.76	2.88	7.83	8.10	10.02	7.75	1.81	3.83	4.74	4.75	4.90	5.53	4.26	3.23	3.26	3.09	4.73	5.64	10.27	3.63	5.38	5.26	4.89	6.42	4.10	5.22	4.70	5.09	4.45	3.75	4.30	4.54	3.47	3.39	3.58	3.59	5.17	5.34	3.33	3.13	4.13	8.43	4.79	4.93	5.05	5.15	5.32	5.20	4.56	4.96	7.40	7.04	4.03	4.00	4.87	6.00	3.77	3.09	3.09	
2.38	3.26	8.39	4.66	3.64	3.61	4.69	8.79	4.84	4.73	6.03	3.11	3.93	2.65	3.09	5.13	10.46	5.75	4.74	6.73	3.34	1.55	0.51	1.21	1.29	1.22	2.12	2.60	3.22	3.46	3.58	3.56	3.33	2.98	3.15	5.83	6.02	8.13	6.17	6.37	6.70	5.69	6.14	5.87	3.66	5.12	7.98	5.73	3.91	2.84	3.60	4.62	4.79	6.52	5.86	4.73	4.91	5.46	4.73	5.20	1.54	2.79	3.18	2.59	3.11	4.83	8.44	11.49	2.94	2.31	3.69	3.76	4.27	5.95	5.20	3.64	3.24	3.05	3.09	5.07	8.79	11.28	6.77	6.39	4.93	5.29	5.10	4.78	4.47	5.37	4.34	4.44	3.90	3.20	3.32	3.32	3.65	3.24	3.94	4.77	3.35	3.19	4.30	4.99	5.21	5.20	5.18	5.05	4.99	4.98	4.70	4.59	9.92	3.71	4.78	3.42	4.61	8.17	2.64	3.57	3.57	
3.02	3.57	4.81	4.53	3.63	3.01	7.45	5.01	4.57	4.14	9.87	5.54	4.49	2.70	3.56	5.49	4.41	5.09	3.80	6.49	2.48	2.04	1.24	1.38	1.73	1.76	2.23	2.65	3.18	3.41	3.55	3.55	3.40	3.02	2.92	3.15	5.97	8.36	9.44	10.43	11.24	8.44	7.91	6.50	3.16	4.51	8.94	6.52	3.13	2.84	5.95	5.27	5.50	5.51	4.84	3.96	4.53	7.39	5.55	2.21	3.59	3.46	4.33	2.72	2.12	4.31	8.14	10.48	6.84	4.31	4.14	3.58	4.06	7.44	2.29	3.22	3.86	3.64	2.19	2.53	5.35	9.05	10.81	11.52	5.83	6.00	5.61	4.98	3.29	4.81	6.49	2.30	0.90	1.85	4.18	3.91	4.02	3.33	3.56	3.79	3.07	3.23	4.05	4.95	5.61	5.77	5.72	5.34	5.18	5.29	5.31	5.29	5.91	3.66	4.69	3.03	3.72	9.51	5.77	4.15	4.15	
4.10	4.42	4.78	4.93	3.02	2.69	3.56	4.62	4.31	5.29	5.31	6.92	4.52	2.70	3.48	8.27	6.24	4.61	3.85	6.16	4.43	3.03	1.96	1.18	1.00	2.30	2.13	2.69	3.14	3.37	3.53	3.56	3.48	3.17	2.85	2.76	2.88	5.86	8.03	8.71	10.40	11.58	11.92	8.66	2.91	4.47	5.48	8.54	4.60	2.37	3.72	8.32	6.51	5.55	4.14	3.30	3.30	5.06	9.65	5.61	4.06	5.50	4.98	3.89	2.28	2.81	4.49	8.29	8.62	6.46	4.44	4.09	5.43	1.54	3.56	2.75	2.82	2.85	3.16	2.39	2.54	5.47	8.12	9.95	10.55	7.10	5.52	3.78	3.14	5.22	4.70	4.83	3.93	5.07	4.30	3.97	2.22	3.86	4.14	3.80	2.57	2.80	3.57	7.44	7.79	8.84	8.05	7.26	7.68	7.32	7.25	6.36	3.60	5.66	4.22	2.91	4.20	5.79	5.46	4.53	4.53	
4.41	4.71	1.50	4.68	3.43	2.75	3.40	4.67	4.52	4.26	5.51	6.58	4.90	2.81	3.22	5.68	3.42	4.62	4.66	5.82	4.38	3.43	2.82	2.81	1.86	2.37	1.98	2.57	3.05	3.31	3.50	3.56	3.53	3.34	3.01	2.71	2.71	5.58	6.12	8.10	9.13	9.94	10.75	13.42	6.17	3.99	4.28	10.73	4.76	2.08	2.54	5.29	10.71	5.40	4.30	3.31	2.85	3.49	8.65	3.49	1.18	4.14	5.04	4.36	3.57	2.48	3.45	5.53	10.11	5.72	4.04	4.66	1.07	2.07	4.12	1.25	2.20	3.26	3.72	3.00	2.66	2.92	3.46	6.27	9.57	9.72	10.43	11.36	7.50	7.10	3.94	5.11	4.21	4.43	5.48	1.65	4.25	4.17	5.06	4.39	2.34	2.11	3.06	4.08	8.80	9.90	8.58	8.74	10.08	10.75	10.17	10.13	7.72	4.80	4.16	3.58	4.29	7.02	3.92	4.28	4.28	
4.68	6.74	4.77	5.14	3.55	2.72	3.27	5.43	8.92	8.81	9.08	6.37	5.65	3.41	3.80	7.40	5.80	5.29	5.77	1.93	1.86	1.22	0.64	0.29	1.37	2.51	2.02	2.34	2.85	3.23	3.47	3.56	3.55	3.44	3.17	2.74	2.58	2.90	5.86	7.74	9.33	9.83	10.47	12.90	5.82	5.03	4.55	6.26	2.40	2.70	2.34	4.66	8.36	3.43	5.74	5.09	3.56	3.06	5.13	4.24	4.32	3.97	4.92	5.75	3.82	2.76	2.64	4.79	7.43	9.68	7.04	5.59	6.00	5.67	3.49	3.71	4.04	4.63	4.59	3.94	3.23	2.97	2.99	3.43	6.15	6.70	9.39	10.14	11.07	5.72	3.18	2.18	4.22	4.38	3.99	5.12	4.09	4.52	5.19	2.36	2.67	1.70	2.69	4.14	9.00	7.12	5.72	6.79	9.21	9.51	8.20	8.57	10.84	11.09	4.28	4.61	6.16	3.28	4.02	3.60	3.60	
4.87	4.52	4.63	5.27	4.22	2.38	2.77	4.21	4.41	4.52	9.28	10.22	3.42	4.32	3.89	4.95	5.39	0.74	6.63	5.86	3.84	2.40	2.06	1.77	0.68	0.74	2.36	2.27	2.53	3.09	3.43	3.56	3.57	3.50	3.30	2.87	2.47	2.57	5.47	7.41	8.85	9.81	10.45	12.32	6.78	6.94	7.62	6.37	4.59	3.14	4.50	4.21	5.16	8.57	6.36	4.81	3.49	3.74	6.32	3.27	3.84	3.85	4.83	7.71	4.62	3.61	2.58	4.47	7.38	4.91	5.50	5.49	4.65	5.11	5.60	5.00	4.78	5.00	5.29	4.11	3.26	3.45	2.83	2.81	3.01	3.71	8.52	9.98	11.09	11.83	4.40	3.43	2.22	1.36	5.34	1.69	2.49	5.18	4.90	2.67	3.09	1.70	2.31	7.38	9.15	4.49	3.76	7.03	6.63	6.24	5.01	4.56	6.12	6.45	9.55	9.00	4.98	4.28	3.44	3.18	3.18	
5.00	4.50	4.78	5.76	3.79	2.20	2.03	5.48	5.16	4.73	5.25	5.40	5.65	4.24	3.52	4.55	7.19	7.17	6.24	8.61	3.74	2.45	1.13	0.66	0.55	0.78	0.71	2.48	2.39	2.95	3.41	3.55	3.58	3.54	3.38	3.04	2.46	2.31	5.11	6.96	8.56	9.80	10.81	12.38	12.87	10.60	11.23	3.13	3.12	4.76	4.21	4.44	4.55	10.24	11.62	11.61	3.51	4.48	1.82	3.51	3.56	3.68	4.29	5.68	4.27	4.74	3.52	4.51	5.20	3.26	5.41	5.11	3.57	4.42	4.76	4.79	4.87	5.31	5.33	1.94	2.91	2.87	3.32	2.78	2.39	2.31	5.55	8.45	10.81	8.21	11.53	7.33	6.00	4.84	5.22	3.15	1.75	5.27	5.27	1.93	3.34	2.12	2.35	7.76	5.51	4.47	3.86	4.31	4.63	4.76	4.45	8.50	5.18	6.01	10.13	9.45	3.41	3.90	3.32	2.74	2.74	
4.71	5.23	4.35	6.47	2.74	2.77	1.43	2.93	8.28	8.84	9.27	2.94	3.55	2.93	3.13	3.45	4.56	4.62	5.15	11.34	4.83	2.95	1.87	1.38	0.69	0.49	1.08	2.67	2.50	2.92	3.38	3.54	3.59	3.57	3.45	3.19	2.56	2.18	4.84	6.80	8.53	9.99	10.11	10.63	11.87	11.39	10.45	10.00	8.52	8.16	8.21	8.58	8.33	7.59	7.90	8.70	9.96	9.94	7.18	5.32	3.51	3.63	4.83	8.00	10.44	3.52	4.20	6.42	6.45	5.21	6.20	6.61	5.36	1.65	3.78	4.37	5.48	6.76	1.86	0.97	3.51	3.45	2.76	3.66	2.70	1.71	1.98	6.06	9.98	5.47	9.34	7.65	7.84	1.07	4.82	2.80	4.00	4.38	2.86	2.97	3.14	2.80	3.02	4.95	5.15	4.68	4.86	4.84	4.39	4.38	4.15	7.91	8.86	8.96	9.44	7.05	3.04	4.39	3.63	2.98	2.98	
4.44	3.92	3.79	6.32	3.05	3.62	1.87	1.59	5.20	9.67	9.91	9.56	3.08	4.19	4.00	3.47	3.44	3.29	3.51	8.93	9.67	6.56	3.76	2.15	1.68	1.45	1.54	2.44	2.57	2.97	3.35	3.53	3.60	3.60	3.51	3.30	2.75	2.23	2.24	5.19	7.77	8.33	8.67	9.96	11.00	9.15	9.31	8.67	6.87	6.73	7.24	6.78	6.53	5.35	5.31	5.55	5.72	8.10	9.19	6.59	3.95	3.34	8.19	9.92	8.86	4.67	3.90	4.01	4.50	6.12	5.97	6.96	4.91	3.85	3.10	3.95	8.23	2.57	1.44	1.57	3.88	1.99	3.72	3.88	2.10	1.58	1.33	5.54	8.75	8.36	7.14	10.79	7.92	3.39	4.65	2.98	4.45	4.56	4.86	4.10	3.63	3.34	3.97	4.93	5.92	4.96	6.66	5.50	4.43	4.27	4.56	3.86	7.76	9.09	5.59	9.16	6.57	5.30	4.63	4.54	4.54	
4.53	3.81	3.39	5.80	8.73	5.00	2.44	1.79	2.59	8.78	10.16	11.28	2.92	4.51	4.52	3.96	3.58	3.49	3.62	4.84	7.02	7.14	6.67	4.73	2.28	0.92	2.34	2.08	2.46	2.99	3.32	3.51	3.61	3.63	3.57	3.41	2.99	2.44	2.26	5.29	6.15	8.27	8.57	10.63	10.72	8.78	10.45	7.63	5.59	6.13	6.57	4.74	4.72	4.33	3.82	4.24	4.93	5.18	5.61	5.64	4.14	3.42	5.39	5.82	8.59	5.17	4.20	3.72	3.41	4.16	5.46	9.94	3.74	4.42	2.63	3.10	9.09	1.67	0.61	1.93	1.71	1.20	5.37	4.29	1.82	2.17	1.25	2.07	6.74	7.73	8.54	6.46	9.43	4.44	2.61	2.95	4.10	5.45	4.57	3.83	3.52	3.82	4.97	6.54	6.15	6.76	9.18	8.30	5.17	4.41	4.82	4.42	6.10	8.83	8.91	9.17	6.03	4.61	8.43	6.34	6.34	
5.25	4.13	3.30	5.40	5.72	5.92	5.11	2.58	2.22	6.30	9.80	10.87	3.68	2.60	4.13	4.55	4.39	4.26	3.91	4.50	5.41	6.17	5.09	3.45	2.46	0.60	0.57	1.85	2.21	2.92	3.27	3.49	3.62	3.66	3.62	3.51	3.20	2.73	2.39	2.72	6.06	8.11	8.74	11.50	7.64	6.97	8.11	7.04	6.54	4.61	4.54	4.68	4.62	4.47	4.26	4.45	5.12	5.29	4.96	4.95	4.16	4.01	4.96	8.56	8.48	2.73	4.48	3.80	3.24	3.90	5.33	9.92	3.65	5.00	2.81	2.83	9.70	5.82	4.37	4.18	4.48	4.91	5.38	4.82	2.62	1.70	1.76	1.41	2.52	6.78	10.02	10.46	11.74	8.33	6.63	5.91	6.90	6.35	4.91	4.70	3.63	3.95	5.21	7.67	5.47	5.14	3.99	6.28	9.97	5.42	5.07	6.53	6.34	7.16	8.16	8.96	5.75	4.17	4.26	7.11	7.11	
4.60	3.26	1.98	3.82	4.25	4.76	4.20	2.92	2.04	5.50	8.75	9.74	11.10	5.50	4.35	4.57	4.75	2.66	3.41	4.71	0.50	5.13	7.17	5.53	3.01	1.12	0.90	1.92	2.04	2.77	3.22	3.47	3.62	3.68	3.67	3.59	3.36	3.00	2.51	2.44	5.55	7.78	9.32	11.72	5.57	4.15	4.90	5.09	5.03	4.98	4.64	4.69	4.66	4.73	5.76	4.98	5.65	5.83	4.54	4.72	4.42	5.91	5.45	4.47	7.29	5.35	4.23	3.82	3.52	4.14	4.30	8.84	9.13	5.79	3.54	3.65	8.07	5.78	1.07	4.18	3.80	4.12	5.26	8.05	2.97	1.68	2.68	1.39	1.69	2.97	8.63	11.81	7.02	5.86	5.22	5.92	6.96	6.60	5.55	4.60	3.80	3.94	4.88	8.61	6.36	4.53	4.80	7.92	6.12	9.42	5.52	5.96	5.76	6.11	8.06	8.85	5.26	4.08	4.49	7.58	7.58	
4.84	4.27	4.20	4.25	4.31	4.77	4.52	3.19	2.23	2.71	5.92	7.64	9.58	11.25	5.80	4.03	4.64	4.97	4.68	5.03	5.04	4.79	6.68	3.16	2.76	1.62	1.23	2.30	2.04	2.58	3.14	3.42	3.61	3.69	3.70	3.65	3.48	3.23	2.68	2.34	3.00	5.95	8.90	11.35	5.60	4.45	4.54	9.14	5.02	5.48	5.16	5.09	5.61	6.01	7.65	4.43	7.25	7.53	5.39	5.86	5.04	3.93	4.95	4.59	4.83	4.75	4.41	3.95	3.89	5.56	5.11	8.17	6.17	5.82	4.09	4.79	4.69	1.37	2.95	4.63	4.04	3.62	4.07	7.10	3.23	2.40	1.67	1.66	1.41	2.56	6.60	11.98	6.06	3.40	2.55	2.50	4.28	5.31	5.46	4.49	4.22	4.59	6.49	8.92	8.85	5.38	5.12	4.23	8.81	11.20	4.60	3.80	4.22	5.58	8.13	8.40	5.22	4.00	5.02	8.17	8.17	
5.42	4.95	4.36	4.66	4.68	5.07	5.11	3.90	2.41	2.44	3.06	6.05	7.63	9.79	10.41	8.33	5.40	4.37	4.53	4.82	5.14	5.10	8.57	3.19	3.13	2.60	1.80	2.76	2.08	2.36	3.02	3.37	3.58	3.67	3.71	3.69	3.56	3.37	2.90	2.49	2.98	6.12	8.77	9.42	5.92	5.13	5.06	5.10	5.41	5.28	6.67	6.77	5.96	6.61	8.09	5.52	6.54	8.21	7.61	5.35	1.76	2.63	4.45	6.30	5.01	4.21	4.28	4.14	3.82	7.86	7.37	4.93	5.41	4.59	8.18	5.91	5.62	6.84	6.74	5.00	5.55	4.08	3.38	6.54	8.47	2.99	2.04	2.15	1.44	2.44	6.56	11.74	7.53	5.70	4.18	4.91	1.59	3.60	3.46	3.63	4.31	6.85	7.91	8.65	9.70	7.07	5.36	5.76	8.51	9.83	7.61	3.98	3.92	3.23	6.32	8.36	4.94	4.00	7.65	10.90	10.90	
5.50	4.83	4.43	4.99	5.38	5.82	5.71	3.12	2.85	2.30	2.28	2.52	6.24	7.11	9.73	9.39	5.87	4.65	4.37	4.49	5.14	6.10	8.00	2.88	1.99	0.92	1.11	1.59	2.26	2.17	2.81	3.27	3.52	3.64	3.70	3.71	3.62	3.48	3.10	2.73	2.92	6.34	8.95	5.46	5.24	5.32	5.94	5.79	7.04	6.80	7.53	8.35	7.10	6.70	7.59	6.52	4.65	9.54	6.80	5.47	4.70	3.84	3.76	4.36	4.14	3.95	4.16	4.51	4.88	5.24	10.31	5.58	5.53	5.52	4.62	4.71	4.74	4.46	4.57	4.36	4.48	4.60	3.32	6.04	10.13	3.94	2.27	2.75	1.73	2.16	6.68	10.66	13.06	4.12	3.85	3.65	2.52	3.90	2.99	2.93	4.13	7.43	9.05	8.85	8.91	11.18	6.10	5.78	6.59	8.75	9.69	7.02	5.17	3.46	3.78	7.19	4.55	4.11	5.84	10.64	10.64	
4.70	4.61	4.36	6.26	5.55	5.59	6.17	2.53	1.88	2.31	2.13	2.14	2.45	6.89	7.73	9.78	6.20	4.93	4.39	4.45	5.07	8.03	5.99	2.91	1.52	0.81	0.26	0.51	2.68	2.23	2.55	3.04	3.39	3.57	3.68	3.73	3.68	3.58	3.27	2.90	2.96	6.54	6.66	4.82	4.88	5.98	7.56	7.83	8.31	7.23	7.78	9.33	10.62	10.39	10.59	8.26	5.07	4.58	5.35	5.42	5.42	3.63	3.77	4.00	3.98	3.46	4.14	5.96	4.80	7.03	4.72	5.97	7.28	2.32	1.86	3.74	4.94	4.84	4.41	4.03	4.26	4.17	3.53	3.49	7.27	8.08	3.82	3.35	2.08	2.27	6.54	10.41	12.63	4.17	3.19	3.11	2.91	2.81	2.87	2.60	6.43	7.56	9.56	10.77	11.03	7.09	6.34	5.96	5.68	8.18	9.67	7.31	6.72	4.74	4.28	6.83	4.25	4.23	8.75	9.23	9.23	
4.27	4.44	5.21	5.74	6.45	5.69	5.04	2.25	2.02	1.87	2.46	2.31	2.40	2.79	7.03	9.35	6.27	4.58	4.46	4.53	6.83	10.90	3.57	3.23	1.69	0.80	0.91	1.89	1.15	2.56	2.51	2.76	3.15	3.46	3.65	3.73	3.73	3.65	3.42	3.03	3.10	3.95	4.37	6.46	5.75	5.95	7.81	8.02	8.25	6.53	5.47	7.62	9.15	10.37	11.07	9.66	4.41	5.24	1.27	1.60	3.01	2.81	3.58	3.77	3.53	2.94	4.02	7.93	5.40	4.23	7.16	5.26	7.19	6.45	6.15	4.28	4.83	3.66	1.74	2.69	4.45	4.47	4.04	3.73	4.53	6.47	5.66	3.64	2.27	2.32	6.59	10.95	10.30	4.94	4.63	4.26	3.35	3.78	2.77	2.46	3.66	7.70	9.61	8.70	9.42	7.55	6.35	7.07	6.26	6.87	9.24	6.69	5.83	5.69	4.57	5.05	4.27	3.78	5.89	6.88	6.88	
4.22	5.04	6.30	6.67	7.66	6.04	4.81	5.59	4.90	1.82	1.88	3.55	2.92	2.30	2.62	8.40	6.64	3.92	3.50	7.25	9.35	11.05	8.37	3.96	2.10	2.35	2.63	1.68	1.34	1.19	2.78	2.65	2.86	3.32	3.61	3.72	3.77	3.70	3.57	3.19	3.20	3.64	3.61	5.91	7.72	8.85	9.37	9.10	9.31	7.06	5.76	7.51	8.12	4.47	10.94	10.08	6.99	5.56	7.20	4.32	3.30	3.66	2.95	2.64	3.09	2.27	3.15	9.44	8.29	5.90	5.43	5.16	5.34	6.32	4.04	5.54	3.99	6.30	5.11	4.65	4.77	5.00	4.70	4.66	4.88	1.82	4.30	2.78	2.08	2.31	6.71	11.03	7.95	4.28	3.59	4.12	3.73	3.44	2.43	2.28	6.51	9.78	7.35	7.84	8.39	7.24	6.33	5.25	5.71	4.19	7.76	5.88	5.48	5.42	4.47	4.77	4.66	3.58	4.50	9.22	9.22	
4.90	6.22	7.11	2.34	4.59	6.08	5.45	5.22	6.16	6.76	6.76	5.27	1.40	2.63	2.13	4.62	6.57	3.45	3.26	7.58	8.57	10.63	10.68	4.30	3.42	3.24	2.55	1.23	0.16	0.71	0.78	2.75	2.75	3.18	3.55	3.71	3.79	3.75	3.70	3.34	3.23	3.34	3.00	5.55	7.52	8.97	10.98	11.88	12.20	11.60	11.74	10.70	7.40	8.48	9.29	10.21	9.04	7.52	9.90	6.61	5.59	5.39	4.56	3.10	3.13	2.05	2.30	9.06	8.29	7.82	5.54	4.96	4.77	9.82	6.83	2.33	1.26	3.18	4.83	3.37	4.28	4.28	5.35	5.21	4.78	4.89	1.79	2.14	1.85	2.24	6.95	10.88	12.22	6.23	2.72	1.60	1.35	3.16	2.26	2.03	7.28	7.61	7.11	7.15	6.95	5.62	5.52	5.47	5.12	4.13	5.08	5.16	5.24	5.56	4.93	4.82	5.31	4.00	3.34	4.46	4.46	
4.29	6.67	7.78	3.84	4.20	4.50	4.92	4.07	4.17	4.46	4.57	4.95	5.00	3.11	2.55	3.38	4.16	2.86	3.45	8.79	10.39	9.12	7.39	5.63	3.37	2.50	1.73	1.13	0.22	0.72	0.94	2.80	2.81	3.10	3.48	3.71	3.81	3.80	3.78	3.46	3.28	3.19	2.67	2.60	5.42	7.93	10.03	11.81	11.37	10.81	11.09	8.86	6.33	7.01	8.42	9.85	9.18	8.35	9.90	11.36	7.20	5.17	3.70	3.32	3.66	2.60	2.87	6.67	5.27	5.20	5.27	4.84	4.38	9.09	11.26	3.54	1.53	1.04	4.88	4.62	5.15	5.12	5.67	5.91	3.40	1.49	2.10	2.45	1.83	2.00	6.74	10.21	12.61	3.40	2.71	2.17	2.40	3.43	2.38	2.14	4.57	4.85	4.92	5.17	5.08	5.11	4.91	5.29	5.31	4.54	4.38	4.20	5.23	6.32	5.96	5.51	5.57	3.21	2.99	2.82	2.82	
2.93	6.12	6.19	4.60	3.93	3.95	4.28	4.32	4.36	4.58	4.70	4.74	4.81	4.22	3.31	3.14	2.95	2.31	2.21	6.92	8.99	10.76	12.07	4.33	3.21	2.16	1.80	1.28	0.59	0.47	0.79	2.70	2.81	3.06	3.42	3.72	3.83	3.86	3.82	3.61	3.43	3.15	2.59	2.38	5.08	7.27	10.08	11.54	10.74	11.34	10.58	9.10	6.70	6.03	8.30	9.51	8.62	8.12	8.94	9.63	8.19	7.93	7.43	5.83	4.26	3.34	3.90	5.31	5.20	4.63	4.97	5.11	4.61	4.66	9.20	3.30	3.54	5.22	5.19	4.12	4.37	4.50	6.51	9.05	6.22	4.23	3.17	2.70	2.01	2.03	3.77	9.44	12.08	6.74	4.41	3.80	3.12	3.35	2.67	2.72	4.33	4.97	4.94	4.98	5.06	5.00	4.31	5.28	5.88	5.32	4.39	3.08	4.11	8.07	8.27	6.33	4.08	2.97	3.36	2.66	2.66	
5.14	5.60	5.93	4.31	3.89	3.80	4.49	4.84	4.82	5.15	5.11	4.73	4.87	4.45	3.72	3.15	2.47	2.33	2.19	3.16	7.14	9.18	10.99	11.29	8.03	2.67	1.85	1.48	0.92	0.44	0.83	2.62	2.74	3.01	3.40	3.73	3.85	3.90	3.86	3.76	3.60	3.24	2.66	2.32	2.38	6.72	9.69	9.92	9.76	11.55	9.56	8.47	7.54	6.75	8.26	8.78	7.89	8.01	9.06	9.06	7.20	5.79	6.20	5.48	4.57	3.71	4.11	7.99	5.43	4.37	5.11	5.36	5.02	6.80	6.60	3.07	2.93	4.07	5.53	5.85	4.61	4.12	6.26	7.26	7.18	5.41	3.18	2.64	2.19	2.30	6.44	9.62	11.86	3.04	2.62	2.59	2.07	2.27	2.92	3.21	5.47	6.08	5.92	5.49	5.45	4.05	3.60	6.41	6.56	5.51	3.17	3.14	2.78	4.39	8.22	8.13	2.69	3.21	3.40	2.53	2.53	
5.63	3.60	3.73	3.26	3.78	3.98	5.17	5.78	5.28	5.75	4.92	4.70	4.76	4.10	3.45	2.10	2.43	2.72	2.58	1.94	2.97	7.59	10.55	11.16	12.52	3.03	2.03	1.69	1.21	0.64	1.53	2.71	2.69	3.03	3.40	3.74	3.87	3.94	3.91	3.86	3.72	3.44	2.89	2.41	2.31	5.23	8.91	9.05	9.27	10.93	8.46	7.61	7.71	7.16	7.30	7.06	6.80	7.06	7.16	7.08	6.65	5.36	5.25	5.16	4.72	4.10	3.70	8.94	7.76	5.05	4.70	5.04	4.97	7.85	7.17	5.46	4.45	4.41	4.65	4.95	5.04	4.27	6.96	4.82	8.10	6.24	3.35	2.55	2.08	2.33	6.99	9.83	11.89	4.39	3.38	2.81	2.86	3.79	3.09	3.22	5.42	8.59	7.97	6.32	5.23	3.24	3.13	7.02	9.26	3.74	3.22	3.50	2.77	3.70	7.58	10.22	2.97	3.36	3.93	2.70	2.70	
6.21	3.74	1.31	4.38	3.71	4.08	7.00	6.46	4.91	7.35	5.64	4.94	3.60	0.91	1.42	1.53	3.11	3.48	3.14	1.85	1.51	6.61	9.48	10.60	12.29	3.07	2.98	2.86	2.98	3.07	2.16	2.90	2.65	3.04	3.42	3.74	3.88	3.97	3.96	3.93	3.82	3.61	3.19	2.67	2.48	3.08	6.66	9.22	10.05	7.91	6.89	5.52	5.20	5.02	4.83	4.87	4.55	4.38	4.81	5.10	5.26	5.16	4.99	4.90	5.01	5.96	5.45	7.61	5.71	7.13	6.08	5.27	4.99	6.15	6.67	6.30	5.75	4.88	4.79	4.51	5.10	5.27	4.72	4.53	5.32	7.96	3.42	2.63	1.82	1.99	6.97	9.99	11.58	9.84	4.28	2.92	2.86	3.62	3.22	3.29	4.84	8.85	10.25	7.48	4.08	2.93	2.04	3.51	7.19	2.82	5.46	4.16	3.19	3.48	6.77	8.29	5.49	5.47	2.55	3.50	3.50	
5.47	4.87	4.34	4.44	3.71	3.82	7.20	7.78	3.83	7.19	6.92	0.88	3.93	4.74	5.00	4.26	3.58	5.27	2.81	1.95	1.09	2.61	8.02	9.93	12.52	7.63	4.18	2.85	2.31	2.51	2.26	2.92	2.54	2.94	3.39	3.73	3.89	3.99	4.01	3.98	3.90	3.75	3.46	3.02	2.65	2.94	6.45	9.84	5.94	5.22	5.24	5.36	5.62	5.36	4.97	5.14	4.92	4.54	4.52	4.50	4.55	4.97	4.93	4.42	7.42	8.32	4.82	5.85	4.63	5.26	5.04	7.14	5.42	4.87	5.70	5.77	5.15	5.35	5.00	4.79	4.36	4.81	4.43	4.33	5.18	6.68	3.14	3.26	1.75	1.72	6.93	9.34	10.73	12.09	4.02	2.96	3.17	3.44	3.22	3.40	7.09	8.76	10.37	11.90	4.88	3.20	4.58	4.89	6.81	4.73	5.49	3.38	4.06	3.75	4.51	6.63	5.59	5.12	3.85	4.28	4.28	
6.07	6.09	5.24	4.22	3.67	3.67	7.89	9.42	3.67	8.42	5.79	4.72	4.88	4.93	5.23	4.92	4.60	5.16	2.46	1.86	1.26	1.79	6.10	7.12	10.51	12.68	3.98	2.36	1.59	1.70	1.98	2.98	2.59	2.77	3.26	3.68	3.89	4.00	4.04	4.02	3.96	3.86	3.65	3.33	2.81	2.67	6.54	6.64	5.31	7.83	5.38	5.33	7.05	5.91	5.81	6.07	5.60	4.91	4.45	4.08	4.01	5.58	5.70	5.07	7.51	4.99	9.77	5.11	4.79	4.62	4.43	5.15	6.81	4.76	3.84	4.12	4.78	5.56	5.71	5.13	5.47	5.14	4.32	4.03	5.10	6.41	3.15	2.46	2.08	1.76	4.25	8.67	10.09	11.75	6.22	5.00	4.19	3.51	3.14	3.30	7.64	9.07	9.53	11.98	13.32	6.41	5.07	5.03	6.33	4.92	3.62	4.58	3.94	4.96	6.03	8.34	2.77	3.88	4.87	3.65	3.65	
5.02	4.84	4.46	3.78	3.65	5.81	7.89	11.09	1.25	3.70	4.71	4.73	4.65	4.96	5.69	5.26	3.92	3.41	1.74	2.83	1.99	1.99	1.95	3.21	7.88	13.48	4.35	3.59	2.66	1.83	1.27	1.58	3.01	2.83	3.10	3.60	3.89	4.01	4.05	4.04	4.01	3.95	3.79	3.54	3.04	2.78	3.90	4.92	5.15	5.69	6.04	6.56	7.26	7.19	6.71	6.68	5.75	4.79	3.66	3.84	4.18	7.38	6.23	7.42	5.67	7.06	4.94	8.61	5.45	4.64	4.43	4.09	4.44	5.87	3.95	4.96	4.44	4.40	4.59	4.93	5.66	5.47	4.48	3.71	4.97	7.06	4.88	3.85	2.45	1.82	4.13	8.79	10.41	9.41	7.36	5.71	4.40	3.71	3.07	3.30	7.96	9.06	8.74	10.55	11.35	5.30	4.98	9.04	8.17	6.46	5.85	7.14	5.99	6.38	6.23	8.83	4.46	4.87	4.77	4.02	4.02	
5.30	4.51	4.04	3.57	3.32	6.01	8.70	10.45	2.87	3.92	4.17	4.32	4.05	5.42	6.08	2.44	0.60	0.82	1.13	1.61	1.73	1.79	1.53	1.76	6.80	10.95	11.75	6.48	5.32	4.16	2.99	2.76	1.84	3.41	3.15	3.51	3.87	3.99	4.04	4.05	4.05	4.01	3.87	3.68	3.32	3.15	3.73	4.12	5.86	7.56	7.88	7.82	7.99	8.66	9.38	8.76	6.20	3.94	3.31	3.87	4.01	2.91	3.78	6.36	9.34	5.38	6.88	9.68	6.22	5.38	4.73	4.21	3.80	4.36	5.76	3.93	4.84	4.47	4.37	4.65	5.58	5.65	4.61	3.75	4.84	6.45	5.01	4.10	2.43	1.57	3.85	9.17	8.45	8.27	7.70	7.28	5.26	3.86	3.27	4.29	7.80	8.49	8.57	10.27	5.86	4.30	3.59	3.65	7.87	8.29	6.63	9.74	9.91	6.63	6.80	10.19	10.83	4.20	3.81	3.32	3.32	
5.17	4.66	4.35	3.63	2.86	5.73	9.63	10.59	3.03	3.95	4.14	3.86	3.85	5.32	7.25	1.96	3.65	3.91	4.03	3.43	1.38	2.43	1.74	1.81	5.52	8.34	9.56	7.92	7.55	7.75	6.03	4.61	4.00	4.15	3.48	3.47	3.80	3.93	4.02	4.05	4.06	4.03	3.91	3.75	3.42	3.30	3.65	5.19	6.84	8.85	10.40	11.26	11.48	11.03	11.41	12.16	12.57	3.23	2.60	4.20	4.54	3.12	3.26	4.40	5.05	9.42	9.82	8.65	5.98	6.19	4.28	4.43	4.42	3.98	4.54	5.12	5.10	4.80	4.46	4.56	5.39	5.56	5.02	4.37	5.08	5.25	4.85	3.70	2.33	1.53	3.94	7.67	6.85	7.11	5.56	5.96	5.45	3.62	3.05	4.51	8.52	9.15	10.20	10.97	7.15	4.87	3.88	3.81	8.40	6.28	4.50	7.49	7.11	5.28	5.02	9.40	11.44	4.53	4.44	3.23	3.23	
4.71	4.72	4.82	4.18	3.05	5.47	8.84	10.41	6.52	5.00	3.39	4.34	4.05	5.55	5.41	3.19	3.84	4.81	5.02	2.26	3.05	2.30	2.40	1.91	2.71	7.06	7.47	6.34	5.44	6.24	5.98	5.04	4.88	4.64	3.62	3.34	3.65	3.83	3.95	4.01	4.04	4.03	3.93	3.77	3.39	3.06	3.31	5.72	8.35	9.47	10.50	11.45	11.28	10.20	10.38	11.05	12.18	12.91	5.00	3.92	3.76	3.69	3.27	4.34	5.64	5.42	6.02	6.73	3.89	4.55	5.29	5.79	2.99	2.69	2.02	4.75	4.93	4.91	4.69	4.78	5.11	5.39	5.11	4.84	5.72	6.05	5.05	3.82	2.48	2.08	3.24	4.53	4.52	4.71	4.90	5.14	4.88	2.92	1.85	3.97	8.58	10.17	10.92	7.56	6.84	5.37	3.63	4.21	8.26	6.27	4.51	4.73	5.14	5.12	5.23	4.75	9.25	11.97	5.05	3.85	3.85	
3.99	4.61	5.71	4.79	4.55	7.04	8.52	6.69	5.97	4.82	4.30	4.01	4.54	4.80	5.27	4.98	5.13	4.54	4.90	5.82	5.31	3.09	2.58	2.13	2.80	4.28	5.51	5.40	5.18	5.49	5.51	4.90	5.20	5.14	3.58	2.99	3.35	3.62	3.83	3.94	4.01	4.01	3.93	3.75	3.36	2.81	2.85	6.01	8.62	9.24	9.76	10.80	11.23	10.04	10.34	10.82	11.64	12.75	5.37	4.77	5.24	3.92	3.35	5.46	4.79	4.52	5.94	6.61	4.39	3.56	4.21	4.81	5.80	4.74	4.94	4.85	4.84	4.82	4.83	5.21	5.27	5.55	5.31	4.46	5.47	6.31	3.12	1.67	3.08	2.95	3.62	4.32	4.12	4.10	4.73	5.31	4.66	2.78	1.04	1.69	7.67	9.82	10.88	5.61	5.26	4.77	3.77	4.60	5.44	4.73	4.19	4.70	5.19	5.11	6.35	5.20	8.46	11.75	6.07	4.86	4.86	
3.46	5.64	7.03	5.14	4.66	6.39	7.59	8.40	4.80	4.67	4.25	4.71	1.53	4.98	5.00	5.08	1.35	4.42	4.56	6.18	4.99	2.72	1.76	2.15	2.87	3.57	4.48	5.07	5.45	5.27	5.02	4.98	5.76	4.97	3.71	2.85	2.88	3.21	3.64	3.83	3.96	3.99	3.94	3.75	3.39	2.70	2.64	6.06	8.53	9.07	9.26	9.88	10.74	10.39	10.54	10.51	11.09	12.84	5.77	5.21	5.46	4.17	3.62	4.22	4.59	4.58	5.21	6.39	4.85	3.58	2.31	4.30	4.77	5.02	4.92	4.93	4.89	4.75	4.86	5.28	5.29	5.72	5.20	4.13	4.48	8.11	2.41	1.89	3.59	4.05	4.04	3.71	3.85	4.17	4.97	6.15	4.12	2.05	0.89	1.24	4.03	8.96	10.61	6.00	5.56	4.78	4.64	4.70	4.90	4.34	4.26	7.56	8.94	9.72	9.86	9.79	9.00	6.80	7.40	5.86	5.86	
3.15	6.91	7.61	5.85	4.72	6.50	6.43	5.01	5.16	3.66	5.31	4.56	5.03	5.31	4.18	4.91	4.82	3.84	4.49	7.38	2.05	2.06	1.98	1.58	1.79	3.54	3.94	4.98	5.45	4.76	4.68	5.45	6.23	4.43	3.11	2.15	2.55	2.69	3.30	3.67	3.88	3.97	3.96	3.78	3.50	2.78	2.59	5.97	6.63	8.92	8.92	9.25	10.05	10.33	10.57	10.31	10.58	12.47	13.19	5.66	5.63	4.67	4.29	4.24	4.36	4.48	4.97	6.17	2.50	5.58	3.65	2.02	4.47	4.65	4.54	4.73	4.86	4.80	4.74	5.12	5.05	6.61	5.98	4.43	5.60	5.87	5.86	1.40	4.60	4.67	1.51	3.41	4.74	5.46	6.36	6.30	3.55	2.50	1.13	1.01	3.56	5.21	9.59	5.78	4.58	4.85	5.62	5.79	5.44	4.53	3.31	2.88	3.91	4.79	7.10	6.16	5.12	7.37	6.07	5.34	5.34	
2.77	7.33	8.37	6.26	5.80	8.79	3.97	4.33	6.11	7.14	7.87	7.08	4.80	5.07	1.87	5.27	5.20	2.82	5.01	1.86	3.89	3.30	2.35	1.64	1.05	2.99	4.26	5.84	5.39	4.86	5.56	6.22	5.38	1.84	0.76	0.68	2.74	2.42	2.83	3.42	3.79	3.93	3.96	3.85	3.66	3.07	2.74	3.11	6.16	8.64	8.89	9.20	9.89	10.13	10.26	10.42	10.72	12.07	13.18	6.65	5.73	4.99	4.83	4.56	4.37	4.43	4.69	5.66	6.35	2.09	5.64	2.86	4.56	1.94	4.13	4.45	4.96	4.91	4.54	4.96	5.55	6.78	7.01	0.86	5.19	5.53	2.16	3.54	5.22	5.23	5.04	3.13	5.62	7.00	8.46	6.23	2.92	1.27	1.71	0.99	1.79	5.02	8.58	5.24	4.54	5.08	7.67	7.72	6.63	4.82	3.87	2.58	3.13	7.16	4.99	4.82	7.64	6.05	5.55	7.95	7.95	
2.15	3.14	9.27	7.55	5.10	4.95	6.04	4.55	4.32	4.61	4.88	5.44	8.36	7.73	7.91	9.51	8.62	6.41	8.76	6.23	3.26	3.83	5.49	4.76	0.80	5.38	5.88	6.60	5.64	5.59	6.33	4.70	1.42	1.05	0.75	2.19	1.68	2.47	2.40	3.14	3.71	3.89	3.95	3.90	3.80	3.46	3.11	2.91	3.17	6.43	8.17	8.90	9.64	9.71	9.88	10.35	10.58	11.36	11.81	5.91	5.66	4.84	5.17	4.88	4.39	4.46	4.73	10.82	5.79	6.30	2.52	2.93	4.87	2.41	3.59	4.07	5.08	4.04	4.55	5.90	5.08	6.37	4.33	3.29	4.96	5.90	1.70	0.70	5.02	5.06	2.51	5.54	5.15	5.80	7.08	6.88	3.07	2.49	2.10	1.30	1.34	4.39	5.77	4.99	4.24	5.28	8.63	9.73	9.53	5.08	4.70	3.13	3.10	4.19	4.57	4.58	7.94	5.76	5.95	4.78	4.78	
2.17	2.81	5.99	6.29	5.84	4.96	4.56	4.44	4.33	4.17	3.94	3.76	5.91	6.04	5.99	6.53	8.28	6.94	6.71	9.04	5.68	4.37	5.54	4.58	3.86	4.60	6.97	8.08	7.25	6.90	5.56	3.14	2.58	2.14	2.05	2.00	0.96	0.85	2.30	3.00	3.66	3.86	3.94	3.94	3.91	3.76	3.51	3.07	3.00	3.60	6.03	6.45	9.18	9.29	9.41	10.25	10.94	11.83	12.90	12.45	6.50	6.08	5.58	5.19	4.42	4.57	5.10	5.27	5.40	6.40	2.88	5.07	4.65	3.01	3.13	3.62	5.07	4.98	4.65	6.79	5.57	6.88	4.75	5.12	5.31	4.36	3.47	5.13	1.22	5.15	4.76	4.62	6.07	2.17	7.35	8.76	8.37	3.46	2.06	2.35	1.39	2.32	4.05	4.75	4.24	4.76	8.56	9.85	11.18	5.03	5.41	3.75	3.37	4.30	4.39	4.64	6.60	3.53	3.96	3.71	3.71	
2.69	3.26	5.71	8.58	6.36	4.57	4.57	4.56	4.52	4.27	4.06	3.85	3.95	4.38	4.16	4.34	6.87	6.38	6.92	8.75	6.36	5.72	5.70	4.86	3.49	3.53	4.38	7.78	10.00	10.52	4.92	3.03	2.36	2.26	1.49	0.72	1.43	1.75	2.53	3.09	3.67	3.88	3.98	4.00	4.00	3.92	3.78	3.43	3.17	3.37	3.23	5.67	8.07	8.57	8.86	9.99	10.85	11.49	11.53	12.26	13.24	13.10	6.63	5.17	4.71	4.83	5.31	5.33	5.22	6.59	4.87	3.95	3.01	3.64	3.22	3.36	6.22	4.63	4.37	7.14	4.40	6.37	4.84	3.05	3.42	4.85	5.49	1.59	5.35	5.34	3.81	4.00	5.98	5.86	5.41	4.59	6.11	8.02	3.41	1.60	2.06	1.97	3.27	5.38	5.11	4.80	7.68	8.48	10.45	6.33	4.11	4.10	3.81	5.66	4.89	5.95	4.41	3.96	3.78	3.37	3.37	
2.97	3.60	8.17	9.63	2.26	1.90	4.02	1.93	1.52	3.23	4.02	4.43	4.22	4.14	4.17	4.29	4.80	4.90	4.79	6.82	6.73	5.52	5.36	4.96	3.57	3.24	3.54	7.18	8.90	11.51	7.62	2.29	1.58	1.99	2.73	2.84	2.68	3.29	2.87	3.31	3.75	3.92	4.03	4.06	4.07	4.02	3.94	3.73	3.49	3.44	3.11	2.90	5.59	5.79	7.82	9.04	9.89	10.02	10.24	11.16	12.56	11.88	8.72	6.07	5.27	5.45	5.60	5.39	5.14	8.23	2.69	2.86	3.68	4.07	3.61	3.38	6.13	2.41	5.09	8.38	1.45	4.84	8.17	4.93	3.74	4.33	4.53	4.86	6.76	6.54	5.34	4.84	4.59	5.18	4.83	3.96	4.99	6.22	6.75	3.04	3.24	2.26	2.76	5.20	7.76	7.53	8.25	8.29	10.36	8.59	5.25	4.57	4.41	5.86	7.46	5.83	4.75	4.45	4.10	3.66	3.66	
3.36	5.11	4.65	5.50	6.87	6.23	6.15	5.99	5.29	4.94	4.86	4.91	4.74	4.39	4.25	4.24	4.47	4.61	4.51	4.75	5.24	5.24	5.11	4.96	3.74	2.62	3.07	6.72	8.21	9.22	9.89	9.56	8.05	5.96	5.02	4.81	3.87	3.74	3.25	3.55	3.83	3.95	4.05	4.10	4.11	4.09	4.04	3.93	3.77	3.64	3.29	3.00	3.09	5.08	5.38	8.01	8.38	8.78	9.87	10.74	11.30	11.05	10.34	8.49	10.97	6.23	12.23	12.33	11.95	12.29	6.97	5.91	4.72	4.13	3.78	3.49	5.96	4.19	5.01	5.99	4.96	5.33	6.52	5.82	3.92	4.62	4.12	4.01	4.30	4.97	5.42	5.23	4.81	5.10	4.77	3.99	4.25	4.78	5.63	5.79	3.47	2.52	2.42	4.71	8.59	9.34	10.13	9.73	11.16	13.47	6.47	4.01	3.71	4.74	6.17	6.42	5.77	4.89	4.36	4.39	4.39	
4.57	5.49	4.69	4.84	5.01	5.05	4.93	4.66	4.71	4.77	5.02	5.21	5.18	4.68	4.58	4.53	4.51	4.28	4.19	4.37	4.71	5.12	5.51	5.56	4.42	2.96	2.60	3.45	6.51	7.17	7.41	7.88	8.86	8.13	6.08	5.53	4.71	4.27	3.78	3.90	3.87	3.87	4.00	4.08	4.11	4.12	4.10	4.05	3.96	3.84	3.59	3.33	3.17	2.86	2.98	5.75	7.08	7.75	9.45	9.97	9.48	10.35	11.27	10.75	6.90	9.60	9.23	10.22	9.62	9.61	6.94	6.16	4.47	4.81	3.80	3.60	5.62	5.30	7.39	6.13	4.18	5.60	6.87	3.19	5.66	4.31	5.10	4.47	4.19	4.62	5.07	5.36	5.45	5.53	5.47	4.62	4.34	4.44	4.41	4.48	3.61	2.37	2.16	4.40	8.42	8.27	4.58	4.62	9.63	12.17	10.20	2.59	2.96	5.32	5.78	5.00	4.99	4.75	4.67	5.58	5.58	
5.84	5.21	2.42	4.69	4.60	4.92	4.64	4.43	4.64	4.38	4.80	5.71	5.44	4.24	4.83	4.15	4.52	4.20	4.32	4.36	4.46	5.05	5.83	5.85	3.80	3.36	2.85	3.18	3.95	4.64	5.19	5.47	6.22	7.66	6.14	5.45	5.28	4.60	4.32	4.40	3.97	3.62	3.81	3.99	4.05	4.10	4.13	4.12	4.07	3.98	3.84	3.67	3.43	3.05	3.03	3.44	3.47	7.52	8.49	8.85	9.67	10.90	11.88	5.34	9.41	6.83	9.13	10.50	9.78	10.07	12.58	3.14	5.14	3.67	2.97	3.60	5.35	5.67	4.42	4.86	4.09	3.73	6.73	5.41	4.37	5.45	5.97	5.45	2.45	5.06	5.34	5.65	5.23	5.25	5.15	4.05	5.30	4.95	4.50	3.56	2.08	2.03	1.94	4.33	5.16	5.19	7.85	7.86	8.77	11.47	9.26	8.59	6.42	4.54	6.56	6.22	5.29	4.55	4.73	6.17	6.17	
5.96	5.77	4.66	4.63	4.58	4.91	4.23	4.14	4.92	4.17	5.17	7.42	6.05	3.83	4.67	3.05	1.95	2.11	4.62	4.44	4.33	5.76	6.50	6.30	4.42	2.57	2.95	2.96	3.19	4.15	4.91	5.04	5.44	5.87	5.70	5.46	5.29	4.97	4.93	4.90	4.01	3.40	3.63	3.84	3.91	4.05	4.13	4.15	4.13	4.08	3.99	3.87	3.71	3.47	3.23	3.15	3.05	5.53	6.24	6.99	9.19	10.99	11.93	7.60	8.24	5.00	5.00	5.73	7.68	5.86	6.59	2.85	5.70	3.74	3.89	3.64	4.26	8.12	5.07	5.19	4.06	3.60	5.36	6.28	3.13	4.18	4.51	5.07	4.80	4.80	5.01	7.86	7.43	8.25	8.72	4.21	2.66	2.04	2.51	2.21	2.66	2.11	1.80	2.85	4.03	5.42	4.59	4.06	8.33	11.78	6.91	5.59	8.67	4.08	3.93	4.95	5.30	4.61	5.71	6.28	6.28	
5.06	6.80	3.47	4.34	4.38	2.35	0.67	4.21	6.28	2.42	4.54	7.64	5.87	2.55	2.43	4.01	4.33	4.03	4.54	4.05	4.92	6.81	8.45	7.15	2.18	1.50	1.26	1.35	1.40	4.45	5.07	4.96	5.09	5.06	4.90	4.92	5.14	5.40	5.71	3.90	2.19	3.54	3.73	3.63	3.75	3.99	4.11	4.15	4.16	4.13	4.07	4.00	3.89	3.77	3.53	3.30	3.02	2.98	3.37	6.33	8.84	11.02	8.99	5.24	8.67	10.30	5.28	11.15	10.31	10.51	12.66	5.70	5.47	6.18	5.53	4.61	3.96	4.53	5.32	5.51	4.45	3.75	6.72	6.07	4.40	2.53	4.10	4.59	4.58	4.07	4.00	4.51	4.69	5.12	7.31	5.86	7.37	5.96	6.40	4.11	4.16	3.06	1.95	2.18	4.76	7.91	8.08	8.17	10.01	9.22	5.78	8.45	10.11	5.36	4.27	4.09	4.72	5.19	4.96	4.99	4.99	
3.52	8.27	6.49	3.11	5.41	4.45	3.94	4.58	6.46	4.01	3.27	8.15	2.79	4.30	4.58	4.87	1.98	4.80	5.00	3.89	6.09	4.24	4.69	9.12	5.59	4.93	4.80	4.44	4.37	5.36	5.48	4.85	4.66	4.51	4.35	4.24	4.90	6.30	4.24	1.72	2.39	4.06	4.06	3.42	3.57	3.93	4.04	4.12	4.13	4.13	4.11	4.08	4.01	3.92	3.77	3.59	3.21	2.77	2.75	5.74	8.14	10.26	8.62	5.12	9.70	10.14	11.13	7.81	7.43	9.52	7.11	6.47	4.37	5.91	9.53	4.28	4.88	4.11	4.32	5.50	4.37	3.97	6.93	7.04	5.31	5.11	4.37	4.71	5.10	4.34	3.87	4.16	4.09	4.66	5.37	5.37	5.09	4.89	5.72	6.20	4.71	3.96	2.66	1.61	1.98	7.50	9.62	9.30	9.44	9.50	5.99	4.96	8.73	6.39	5.41	4.88	4.66	5.80	5.51	4.74	4.74	
2.87	4.72	9.04	10.40	3.63	4.41	3.79	5.29	5.58	3.95	3.80	7.91	1.99	3.52	4.60	2.40	3.30	4.75	6.44	3.93	4.68	4.19	6.48	8.07	5.94	5.15	5.10	4.90	5.36	6.68	5.53	4.39	3.97	4.07	4.24	4.13	5.94	3.90	4.71	5.29	4.89	4.77	4.31	3.28	3.35	3.79	3.92	4.02	4.06	4.10	4.11	4.11	4.07	4.01	3.92	3.77	3.49	2.97	2.65	2.93	6.31	9.25	6.45	6.08	9.25	10.01	5.58	5.36	10.76	11.55	7.98	4.64	6.06	3.94	6.51	10.14	6.34	4.82	4.18	4.16	3.66	3.80	7.03	8.36	5.41	5.52	4.82	5.02	3.75	2.35	4.50	4.85	4.19	4.01	4.83	5.24	4.79	4.52	5.05	5.58	3.87	4.37	2.31	1.79	1.11	4.08	8.53	8.27	7.76	9.80	9.84	4.97	6.38	5.80	5.58	5.76	5.76	5.22	7.32	7.20	7.20	
2.97	3.41	5.34	9.66	6.29	4.64	4.58	7.98	5.81	4.93	6.86	7.35	2.90	4.66	4.15	4.59	5.29	6.67	6.92	3.66	3.70	4.11	4.23	6.62	6.06	5.17	4.84	4.76	6.87	7.48	5.19	3.61	3.71	4.63	5.04	4.05	1.14	3.89	4.97	5.43	5.14	4.69	4.55	3.41	3.25	3.51	3.68	3.84	3.93	4.02	4.07	4.09	4.09	4.06	3.99	3.88	3.68	3.31	2.85	2.81	3.83	7.24	7.18	8.93	8.82	6.09	5.89	5.25	6.91	7.47	6.62	4.05	4.04	5.65	3.94	7.58	6.94	4.34	4.81	4.28	3.28	3.34	4.58	8.37	7.15	4.75	4.43	4.08	3.07	5.05	5.15	4.74	2.41	4.06	4.91	5.43	5.01	4.53	5.14	5.54	5.08	3.78	3.08	2.38	1.05	1.76	5.50	7.22	5.08	9.05	10.91	5.41	4.51	5.03	5.31	6.10	8.19	5.74	6.40	8.94	8.94	
3.98	3.26	3.09	5.77	10.16	7.53	8.64	9.42	6.44	6.54	7.28	7.60	6.90	6.98	6.88	6.37	4.74	6.29	8.90	8.13	5.44	4.52	4.43	4.97	5.42	5.43	4.93	4.31	7.62	8.32	3.70	2.99	4.07	5.48	2.70	1.86	3.32	3.99	4.85	5.65	6.00	4.49	3.71	3.91	3.37	3.23	3.30	3.54	3.74	3.89	3.99	4.04	4.07	4.07	4.03	3.96	3.79	3.54	3.11	2.91	3.61	7.01	6.44	4.63	5.55	7.18	6.73	6.05	7.66	9.37	5.62	3.82	4.15	2.88	3.14	6.80	10.78	5.08	3.82	4.83	3.71	3.17	3.86	7.41	8.09	6.15	5.69	6.51	3.80	3.76	5.34	2.65	2.23	4.75	5.34	5.63	5.34	4.34	5.26	5.73	4.86	3.25	1.93	2.10	1.46	1.30	4.90	7.10	5.43	6.21	9.00	5.63	4.81	4.91	5.72	5.69	8.68	6.95	4.46	4.88	4.88	
5.31	3.73	2.66	3.50	6.13	7.77	7.75	9.67	5.80	4.72	4.45	5.85	5.45	5.62	5.79	6.01	5.49	3.78	6.55	7.31	6.30	4.94	4.67	4.82	4.87	5.57	5.53	4.79	8.07	8.64	4.34	3.74	4.35	1.28	3.02	3.44	4.18	4.30	5.22	6.30	6.00	4.62	4.24	4.02	3.79	3.17	2.98	3.14	3.43	3.68	3.84	3.94	4.01	4.05	4.04	4.00	3.87	3.65	3.28	2.93	3.29	6.45	8.31	7.98	8.65	9.79	10.70	10.41	9.98	10.02	3.42	4.35	2.86	2.68	2.34	6.46	10.62	5.50	3.80	3.82	4.62	3.84	3.49	6.61	7.05	6.71	6.12	7.13	7.72	8.99	8.95	6.53	2.86	5.78	5.57	4.80	3.37	4.60	6.02	5.29	2.29	1.68	2.05	1.54	2.73	1.65	2.56	3.56	3.97	9.23	6.87	5.71	5.39	5.16	7.03	6.96	7.73	7.37	5.77	4.54	4.54	
5.47	4.62	3.01	3.04	4.32	5.37	5.53	8.89	7.41	5.61	4.75	4.67	4.94	4.89	4.58	4.50	4.23	3.96	4.16	5.09	5.63	4.77	4.49	4.93	5.70	7.13	6.08	5.16	7.82	9.05	4.89	1.50	3.18	4.52	4.39	4.48	4.38	4.55	7.04	7.58	6.08	5.32	5.48	4.63	3.36	2.63	2.80	2.80	3.08	3.40	3.61	3.77	3.90	4.00	4.03	4.00	3.92	3.73	3.38	2.83	2.81	6.08	8.38	8.93	10.01	10.83	11.20	11.86	12.78	12.21	6.04	4.83	3.57	3.10	1.78	2.89	7.91	10.80	4.97	4.75	5.13	5.31	4.17	4.21	5.10	5.32	4.77	4.31	4.53	5.02	7.24	8.17	9.60	6.60	6.46	4.38	3.85	4.58	5.85	1.10	4.05	5.26	4.83	3.59	2.86	2.69	2.16	2.43	5.62	6.05	4.67	4.89	5.63	7.00	7.56	9.31	10.75	11.32	4.99	5.33	5.33	
2.89	2.27	2.56	3.34	3.83	4.26	4.17	6.25	6.06	5.76	5.21	4.89	5.33	5.15	4.75	4.59	4.06	4.01	4.27	4.41	4.83	4.59	3.67	4.17	6.91	8.98	5.66	6.04	8.31	9.96	3.82	4.03	4.86	5.19	5.35	4.78	3.97	4.12	7.66	8.80	6.65	6.32	6.61	4.66	2.94	2.18	1.85	2.58	2.87	3.24	3.30	3.47	3.74	3.91	3.98	3.99	3.93	3.77	3.49	2.90	2.58	5.60	7.81	8.58	8.66	8.91	10.14	11.62	11.81	12.30	12.30	4.68	3.06	4.10	2.02	2.12	7.17	10.27	5.78	4.54	4.89	6.43	5.70	4.65	4.94	5.13	4.58	4.17	3.98	4.08	4.42	4.68	5.28	9.17	11.16	7.12	5.62	5.02	2.93	4.31	4.92	4.84	2.98	3.21	3.35	2.06	2.15	2.14	4.03	4.81	4.00	4.10	7.82	10.23	8.21	5.16	8.24	9.37	8.30	5.88	5.88	
6.32	5.63	4.77	4.21	3.82	3.81	4.34	5.14	5.38	5.67	5.61	5.25	5.47	5.17	5.09	3.54	3.80	4.16	4.94	4.56	4.73	4.01	2.68	3.24	6.66	9.33	6.86	6.53	9.39	2.98	4.15	4.42	5.28	5.17	5.44	4.92	3.78	3.95	6.90	8.58	6.96	6.67	7.53	4.50	2.88	2.29	1.62	1.78	2.86	3.24	3.09	3.10	3.50	3.78	3.89	3.94	3.93	3.80	3.60	3.09	2.63	2.81	6.02	8.35	7.78	8.22	9.32	10.85	12.20	13.04	11.62	6.61	5.17	3.21	2.91	1.96	3.62	8.71	6.20	4.41	4.54	6.49	6.81	6.02	5.77	5.75	5.03	4.67	4.53	3.72	3.04	3.26	4.31	8.49	10.19	10.99	8.51	3.05	3.98	1.56	1.47	1.45	2.08	4.78	3.35	2.58	2.21	2.40	5.76	4.47	3.80	5.05	8.75	5.69	5.19	4.90	9.37	11.06	6.69	5.66	5.66	
6.47	4.46	4.94	3.56	4.18	3.78	4.36	4.97	4.67	5.42	6.22	5.23	4.75	4.64	4.64	1.29	3.61	4.34	5.75	5.39	5.13	2.43	2.38	2.74	5.89	8.98	9.18	9.33	6.09	5.12	4.32	4.40	4.33	4.85	5.45	5.29	5.01	4.76	5.78	8.59	7.44	6.37	8.71	4.12	2.52	2.00	1.55	1.51	1.93	1.84	3.11	2.99	3.23	3.55	3.75	3.86	3.91	3.84	3.69	3.33	2.89	2.71	3.15	6.04	6.21	7.86	8.53	10.09	11.39	13.33	6.34	5.81	5.79	4.21	3.92	2.17	2.79	8.54	5.71	3.94	4.42	8.60	11.41	8.62	7.04	5.93	4.04	5.29	3.73	4.24	2.76	2.30	3.84	4.92	8.77	8.75	10.90	2.38	6.64	4.84	2.21	2.11	4.79	5.08	1.70	3.09	2.38	2.57	4.04	4.28	3.82	3.96	4.32	6.30	8.01	5.34	5.51	6.19	4.29	4.68	4.68	
6.23	5.13	3.76	3.20	4.57	4.12	4.40	5.05	3.94	5.60	9.00	3.20	3.92	4.41	3.88	4.36	3.61	4.27	6.30	7.49	2.80	2.11	2.36	2.13	5.62	9.44	9.24	6.34	8.28	6.73	5.61	4.78	4.30	4.84	5.78	6.05	6.24	3.81	4.73	7.94	8.87	4.79	9.18	3.67	2.51	2.10	1.69	1.02	0.78	1.14	3.35	3.40	3.17	3.16	3.47	3.72	3.86	3.86	3.75	3.58	3.28	2.98	2.93	3.17	5.99	6.11	8.32	9.76	11.34	13.69	8.15	4.18	3.77	2.96	4.61	2.57	2.00	4.76	5.38	4.27	7.92	9.58	10.32	10.88	11.65	12.69	4.79	3.86	1.80	2.59	1.71	2.16	2.79	4.59	8.12	10.06	11.50	7.20	5.64	1.70	1.86	1.83	1.57	1.84	3.20	3.80	2.97	2.86	3.96	4.56	4.45	4.45	5.01	4.96	4.84	7.06	7.80	6.50	4.90	3.54	3.54	
5.15	5.17	4.53	4.88	4.84	4.34	4.45	5.79	3.83	3.00	9.49	2.97	4.07	1.49	5.13	4.09	3.84	5.59	6.26	7.63	3.88	4.28	3.12	2.13	2.50	8.32	9.03	4.96	5.86	6.58	5.78	5.02	4.17	4.67	7.14	6.66	6.60	3.48	3.19	3.54	10.18	2.99	8.99	3.24	2.23	2.01	1.93	1.16	0.85	1.53	3.85	3.30	3.37	2.88	3.07	3.47	3.75	3.82	3.82	3.76	3.61	3.37	3.05	2.81	2.90	5.50	7.30	8.64	9.89	11.98	13.41	8.15	4.05	3.99	2.91	3.24	1.49	3.25	6.52	4.04	7.32	9.42	9.61	9.50	10.41	11.79	7.95	4.74	4.81	3.61	3.68	2.43	2.72	4.28	8.65	8.97	10.75	10.84	5.77	6.72	7.04	7.71	6.30	5.50	5.18	3.85	3.72	3.35	4.03	5.68	5.46	7.42	8.75	8.89	7.93	8.01	10.00	5.06	5.21	4.04	4.04	
5.29	5.42	4.78	4.81	4.65	2.74	4.37	7.66	5.04	3.84	4.19	6.41	2.58	2.01	3.54	3.78	3.99	6.02	7.52	2.00	3.36	4.76	4.24	2.79	2.28	4.01	8.97	5.37	4.48	4.78	5.20	5.25	4.20	3.61	8.19	8.71	6.18	2.23	2.20	2.86	9.92	0.38	3.59	5.03	6.51	6.06	4.73	4.32	4.46	2.24	4.58	3.36	2.07	2.88	2.78	3.18	3.60	3.75	3.85	3.84	3.76	3.63	3.37	2.95	2.68	2.65	2.89	7.60	8.74	9.98	12.68	12.30	8.73	4.85	4.35	4.43	2.10	2.38	3.96	3.87	3.27	5.48	5.84	8.58	9.58	11.28	7.70	3.22	2.34	2.19	3.96	2.38	2.75	4.42	8.71	8.50	10.61	2.86	3.25	3.94	4.11	4.64	5.35	7.15	6.93	4.94	4.08	3.65	4.16	5.93	5.81	5.47	8.38	9.20	9.29	9.70	4.71	5.53	5.06	4.73	4.73	
5.45	5.19	4.21	4.56	5.30	3.04	4.04	8.79	5.51	4.75	3.22	4.98	2.75	4.63	4.14	3.60	3.98	8.75	2.02	5.23	4.62	5.20	3.73	3.68	2.60	3.59	7.30	6.08	4.88	4.57	4.68	6.38	4.84	4.91	7.68	10.26	6.04	5.14	2.43	2.89	10.27	3.57	3.72	3.76	4.69	5.74	6.02	5.95	5.48	4.89	5.29	2.36	1.48	2.91	2.66	2.94	3.41	3.67	3.84	3.87	3.79	3.73	3.60	3.32	2.90	2.54	2.65	5.91	8.41	9.68	12.01	11.81	11.40	12.98	4.91	3.48	3.23	2.33	2.61	3.78	3.15	4.03	5.51	8.71	9.99	11.25	6.99	2.69	1.71	3.08	2.58	2.56	2.60	4.47	8.41	8.50	11.20	3.40	3.03	2.24	2.06	3.82	5.29	5.18	5.06	4.66	4.01	3.74	5.41	5.99	7.28	6.16	7.47	8.44	9.34	11.35	4.00	4.94	4.27	4.17	4.17	
5.63	4.99	3.94	4.38	5.22	4.44	4.33	6.01	10.06	3.89	3.71	4.43	5.09	4.84	4.04	3.74	5.45	8.79	5.23	3.05	4.53	5.32	3.51	2.64	1.52	3.50	5.26	5.40	5.28	5.20	4.76	7.14	4.87	3.18	6.99	6.63	7.36	5.62	3.07	3.59	6.39	4.64	4.47	4.33	4.44	5.59	5.86	5.81	5.61	6.09	4.85	2.63	1.79	2.74	2.48	2.71	3.22	3.57	3.78	3.86	3.82	3.79	3.73	3.57	3.24	2.71	2.54	5.47	6.06	8.96	11.21	10.55	10.81	12.53	13.99	4.29	4.77	2.36	2.28	2.26	2.97	4.76	8.43	9.85	10.30	11.33	6.66	5.69	6.39	6.62	3.83	2.93	2.61	4.24	8.64	10.05	12.05	5.27	2.75	5.36	4.41	3.96	4.15	2.28	3.57	3.77	3.81	3.78	5.60	6.22	8.33	5.77	6.47	8.08	5.36	8.77	5.80	5.59	4.33	3.81	3.81	
3.97	4.93	3.99	6.60	9.16	9.71	5.77	5.91	9.32	6.44	1.00	6.20	5.43	4.72	3.79	3.79	8.47	4.42	5.54	4.74	4.41	5.70	5.16	4.66	4.39	3.98	4.53	4.87	5.33	6.30	6.66	8.28	5.11	3.44	6.41	6.09	9.18	5.56	4.77	4.75	5.23	3.34	3.01	3.79	4.77	5.51	6.25	6.37	6.25	5.00	3.36	2.58	1.34	1.00	2.33	2.42	2.98	3.43	3.68	3.83	3.84	3.84	3.81	3.70	3.49	3.06	2.65	2.73	5.59	8.04	10.26	9.40	10.27	11.87	13.47	4.13	3.22	1.90	2.08	2.27	2.73	4.74	9.07	10.27	10.59	11.76	5.57	5.28	4.62	6.62	4.28	2.66	2.50	4.15	8.50	9.90	11.81	6.08	5.20	4.46	3.24	4.96	2.38	1.01	3.40	3.45	3.50	3.73	5.51	8.12	9.39	6.33	4.20	7.52	5.72	5.83	5.63	6.78	4.95	4.36	4.36	
6.58	5.28	4.41	7.42	5.05	7.08	8.57	8.88	9.45	3.90	4.73	4.91	5.24	4.36	3.37	3.73	9.24	2.73	3.26	4.80	5.82	5.39	5.63	5.12	4.70	4.42	3.89	4.09	6.54	6.96	8.39	8.51	5.53	3.90	2.65	8.07	8.86	3.73	4.94	2.56	5.14	4.31	3.46	4.63	4.38	5.38	6.75	6.78	5.85	1.81	1.42	2.16	1.67	1.66	2.49	2.22	2.62	3.19	3.53	3.75	3.83	3.85	3.85	3.79	3.66	3.40	2.98	2.61	2.89	6.40	9.04	8.82	9.24	11.47	12.85	10.50	5.63	3.73	3.07	2.71	2.80	4.63	8.90	10.17	10.67	12.17	3.23	2.14	4.58	4.50	3.36	2.25	2.23	4.05	8.48	10.05	11.17	12.19	3.94	5.48	5.02	4.48	3.97	3.32	3.05	3.26	3.15	3.49	5.43	8.12	9.89	9.00	5.36	8.98	5.54	4.81	5.06	4.68	4.40	4.17	4.17	
3.96	4.35	4.43	4.82	5.83	5.18	5.53	4.57	9.57	3.94	4.77	4.56	5.09	4.35	3.50	4.05	9.60	6.14	5.49	5.12	5.07	5.09	5.31	5.01	4.79	4.81	3.71	3.11	6.63	8.54	8.56	8.38	4.93	4.44	2.88	4.80	6.98	4.66	5.65	5.05	5.48	6.40	4.86	4.64	4.31	5.14	7.79	7.63	1.74	1.37	1.17	2.03	2.14	1.86	1.86	2.43	2.42	2.84	3.30	3.62	3.76	3.84	3.86	3.84	3.79	3.62	3.34	2.79	2.77	6.09	6.76	6.71	8.42	11.35	11.98	11.18	6.40	4.46	3.55	3.14	3.16	4.80	9.17	10.27	10.53	11.77	7.39	4.15	5.29	2.16	1.53	2.48	1.98	2.83	5.03	9.87	10.72	12.19	5.19	5.45	6.31	6.83	6.13	4.60	3.50	3.29	2.96	3.18	5.20	7.99	9.80	11.12	6.59	2.46	6.38	8.04	6.79	5.25	4.64	4.04	4.04	
3.51	3.54	3.78	6.44	9.40	6.30	4.70	5.35	5.93	3.54	2.26	5.02	4.89	4.13	4.07	7.19	6.89	6.10	4.93	4.74	4.52	4.87	5.38	5.30	5.08	5.74	3.99	2.70	3.52	4.24	9.45	10.94	4.80	4.49	6.28	7.69	5.60	5.50	5.88	5.11	4.79	4.87	5.17	4.31	4.06	6.02	9.29	0.95	3.43	3.62	3.31	2.96	2.13	1.79	1.63	1.63	2.72	2.71	3.01	3.38	3.60	3.77	3.84	3.86	3.86	3.77	3.61	3.20	2.96	3.27	3.87	6.33	8.12	10.50	11.50	11.93	6.69	4.60	3.89	3.35	3.51	5.22	8.97	9.62	10.02	11.69	2.78	3.62	4.48	4.39	3.13	2.42	1.87	2.32	7.46	9.60	10.62	11.50	2.60	1.53	1.77	3.41	4.18	3.86	4.03	3.29	2.87	3.00	3.45	7.59	9.45	11.55	7.54	5.76	3.68	5.16	7.58	8.40	5.14	4.60	4.60	
4.10	3.34	5.27	6.35	9.23	10.38	6.00	5.06	5.45	5.47	7.00	5.38	4.59	3.11	3.63	4.67	5.33	4.98	4.72	4.70	4.48	4.80	5.59	5.56	5.19	6.39	4.04	2.60	3.61	4.03	5.79	9.76	10.74	8.37	7.73	5.95	1.09	2.51	4.56	4.99	4.51	4.56	4.82	4.36	3.87	6.15	10.61	5.18	4.47	4.61	4.77	4.17	3.86	3.52	2.49	2.37	1.50	3.09	2.93	3.02	3.27	3.58	3.77	3.86	3.89	3.87	3.78	3.59	3.29	3.05	3.18	5.96	6.42	9.46	11.17	11.98	6.70	4.93	4.04	3.56	3.70	5.60	9.29	9.68	9.86	11.90	4.06	3.60	4.19	3.71	4.06	2.63	2.11	2.21	4.52	9.26	11.05	12.66	3.31	2.52	2.03	1.77	2.17	3.05	3.91	3.23	2.75	2.77	3.34	7.92	8.87	10.56	13.11	4.22	4.94	3.95	3.70	7.38	5.77	5.21	5.21	
3.24	3.30	3.21	5.76	8.76	10.00	11.00	3.31	4.55	5.13	6.49	7.55	7.46	6.70	6.18	5.52	5.04	5.23	5.07	4.73	4.67	4.92	6.74	6.30	6.81	3.82	3.82	2.53	3.47	8.13	7.63	8.46	9.67	8.13	7.15	6.00	3.26	2.06	1.18	3.10	3.65	4.44	4.63	4.88	5.32	6.54	6.02	5.73	5.91	4.11	1.67	1.17	0.83	1.60	1.71	2.90	2.95	2.70	3.20	2.85	2.87	3.25	3.61	3.82	3.91	3.92	3.90	3.82	3.61	3.25	2.98	3.17	6.19	8.61	10.22	11.04	7.89	5.29	4.35	3.91	3.91	5.79	9.39	9.70	9.89	11.91	3.69	2.78	1.73	2.05	1.37	3.09	2.53	2.49	4.40	8.82	11.05	11.02	4.83	4.84	3.87	2.85	2.57	3.01	2.67	3.28	2.63	2.37	2.84	8.41	9.89	10.31	10.74	9.22	6.81	5.71	5.57	5.49	6.20	5.65	5.65	
3.64	3.32	2.72	4.16	5.99	9.13	9.30	5.31	5.22	4.88	5.32	4.73	5.08	5.66	6.00	5.77	5.16	4.84	4.66	4.50	4.83	6.19	7.45	7.89	6.49	3.96	3.68	2.84	2.78	4.23	8.68	8.02	9.01	5.94	6.28	5.49	6.24	5.72	4.50	3.45	4.35	4.07	4.50	7.31	6.35	5.17	5.69	5.79	1.51	2.96	6.06	3.23	1.27	0.94	2.81	4.37	3.63	2.49	2.01	3.04	2.74	2.89	3.38	3.74	3.91	3.95	3.96	3.94	3.83	3.57	3.19	2.99	3.35	6.78	9.15	9.94	7.54	5.16	4.18	4.04	5.52	8.29	9.55	9.87	10.17	12.12	7.21	5.16	2.52	2.31	2.86	2.95	2.55	2.73	4.58	9.01	10.96	13.15	2.84	1.67	1.50	1.96	2.51	3.12	2.72	3.69	2.70	2.09	2.28	7.86	9.09	8.35	8.17	8.68	7.34	5.60	4.99	4.90	5.22	5.68	5.68	
4.29	3.44	2.64	5.50	5.81	6.46	7.03	3.12	4.44	4.64	4.32	4.54	4.64	4.87	5.21	5.35	5.03	4.58	4.18	3.98	4.76	7.43	7.83	9.31	3.30	3.41	3.75	3.64	2.56	3.01	6.28	8.96	5.83	6.00	3.08	4.56	4.60	4.85	5.39	4.78	4.48	4.06	5.71	8.31	5.71	5.53	2.94	5.42	5.43	5.55	5.14	1.36	5.47	0.72	5.38	5.84	3.56	1.31	1.31	1.01	2.88	2.70	3.16	3.64	3.88	3.97	3.99	4.01	3.97	3.81	3.55	3.13	3.20	6.51	7.40	9.51	6.12	4.76	3.97	3.93	5.84	8.59	10.42	10.50	10.70	11.99	6.65	8.98	8.59	5.65	3.57	2.78	2.42	2.63	4.70	9.08	10.37	12.52	3.22	2.17	2.32	3.11	3.34	3.47	3.25	2.81	3.10	2.17	2.36	5.67	5.82	5.70	5.94	6.58	6.18	5.08	4.78	4.93	5.18	5.46	5.46	
4.60	3.64	2.75	5.70	5.50	9.19	7.12	2.46	2.89	4.17	4.33	4.72	5.04	5.23	5.22	5.05	5.06	4.45	3.42	3.45	6.22	8.27	8.10	10.19	6.15	4.37	3.99	3.66	2.70	2.43	5.45	10.37	9.21	2.01	1.82	1.31	3.45	4.41	4.80	4.87	4.46	4.30	6.00	7.86	5.50	5.72	5.85	4.65	3.03	1.19	5.07	4.91	5.59	4.87	5.65	6.16	3.15	1.53	1.35	0.82	2.91	2.59	2.95	3.48	3.78	3.93	3.99	4.04	4.06	3.97	3.84	3.48	3.39	3.74	4.54	7.71	5.93	4.66	4.02	3.96	6.15	8.58	9.91	10.63	11.45	9.13	5.61	9.04	10.33	5.60	3.23	2.78	2.51	2.61	4.68	8.68	9.98	12.44	5.53	3.98	3.38	3.40	3.55	3.62	4.84	3.64	3.85	2.75	2.87	4.09	4.71	4.77	4.93	5.40	5.68	5.18	4.81	4.89	5.09	5.22	5.22	
5.23	4.10	3.07	4.29	4.50	5.32	7.04	3.58	3.99	4.20	4.56	4.76	5.25	5.74	5.52	5.06	4.98	2.56	2.77	2.74	6.14	9.56	8.99	8.46	5.60	4.37	4.59	3.85	2.94	2.54	3.91	6.21	9.73	3.68	3.03	3.34	4.23	4.48	4.55	1.99	4.12	5.36	6.05	7.35	5.44	6.59	4.20	2.18	3.92	4.59	5.55	5.75	5.75	5.47	5.62	3.43	2.33	2.25	1.08	1.17	2.87	2.52	2.73	3.28	3.62	3.81	3.96	4.05	4.13	4.09	4.04	3.85	3.75	3.67	4.09	5.23	5.23	4.48	4.08	6.48	6.59	8.20	9.39	10.49	11.84	6.78	4.83	9.08	6.65	4.00	3.47	3.11	2.76	2.86	4.68	8.33	10.12	11.52	9.86	5.47	4.29	4.07	3.84	3.61	4.71	4.83	4.49	3.66	3.60	4.24	4.62	4.76	4.81	4.92	5.08	5.00	4.76	4.71	4.87	4.97	4.97	
5.83	4.49	3.64	4.52	5.59	6.49	4.91	4.75	4.32	4.77	4.69	4.81	5.30	6.32	5.71	5.16	2.66	4.27	2.61	2.20	3.56	9.17	11.18	3.91	5.56	4.37	5.46	3.93	3.21	2.78	4.76	8.88	9.24	3.97	4.84	4.60	4.86	4.75	4.61	3.79	3.77	5.43	5.96	10.06	6.20	5.25	4.82	5.43	5.19	5.05	0.33	5.35	5.44	5.19	1.39	2.53	2.15	2.57	1.70	0.73	1.16	2.60	2.62	3.10	3.32	3.56	3.87	4.03	4.17	4.18	4.17	4.13	4.08	3.95	4.08	4.56	4.56	4.24	4.06	6.68	6.66	7.90	9.25	10.78	11.18	5.78	6.33	4.74	6.42	8.89	4.69	3.68	3.08	3.13	4.89	8.93	10.52	9.18	10.58	7.78	5.74	5.00	4.41	4.35	4.61	4.82	4.74	4.36	4.22	4.44	4.70	4.90	4.81	4.66	4.65	4.68	4.56	4.42	4.36	4.33	4.33	
4.94	4.69	5.73	4.58	5.82	6.53	4.44	4.14	4.45	4.70	4.64	4.60	6.11	8.08	5.85	2.26	3.78	4.44	2.98	2.02	2.94	6.33	10.74	7.55	5.77	4.71	5.49	4.90	3.66	2.89	3.28	8.70	6.99	3.81	4.90	5.06	4.71	4.95	2.47	3.76	3.92	5.18	5.22	9.13	1.33	2.88	4.20	4.11	5.38	1.28	5.28	5.47	4.88	0.70	2.42	1.09	4.13	3.69	2.54	1.17	1.56	1.09	2.85	3.17	2.95	3.15	3.73	3.99	4.18	4.25	4.28	4.30	4.29	4.25	4.26	4.25	4.13	3.89	3.82	4.37	6.78	6.48	9.06	10.45	9.37	5.88	5.09	5.54	9.61	9.17	6.82	4.48	3.45	3.32	5.20	9.81	8.24	7.00	9.68	8.45	6.44	6.12	5.34	4.91	4.92	4.98	4.98	4.83	4.44	4.35	4.84	5.26	4.96	4.63	4.47	4.32	4.44	4.45	3.77	3.30	3.30	
5.19	4.52	4.31	4.52	5.41	6.76	5.26	4.51	4.36	4.74	4.56	3.88	6.29	9.73	2.70	3.99	3.08	4.60	3.42	1.95	2.46	6.04	10.34	10.19	6.11	5.69	3.52	4.94	3.54	3.19	2.58	5.30	10.47	6.93	5.88	3.67	4.93	5.09	4.55	3.86	4.96	5.68	4.60	5.33	7.77	5.60	5.39	5.96	4.52	5.28	5.27	6.07	1.18	2.11	0.14	2.67	6.26	4.16	3.09	1.92	1.07	1.52	2.38	2.10	2.82	2.83	3.54	3.94	4.17	4.28	4.36	4.42	4.41	4.38	4.38	4.27	4.08	3.69	3.51	4.25	7.26	6.76	8.21	9.60	8.68	5.21	5.10	7.69	5.68	6.20	7.67	5.11	3.71	3.41	5.67	10.40	6.48	5.85	8.09	8.57	6.50	5.47	5.09	4.96	5.00	5.10	5.43	5.43	4.56	3.85	4.98	5.86	5.36	4.79	3.89	3.25	4.46	4.43	2.58	2.69	2.69	
4.47	4.39	4.40	4.71	7.36	6.57	5.60	4.40	4.50	5.00	4.60	3.16	5.62	10.53	2.86	1.82	3.32	3.76	2.00	1.99	2.23	5.94	9.58	6.82	10.50	10.97	3.17	3.22	3.44	3.69	4.12	2.95	9.03	10.64	6.48	5.06	5.18	4.60	4.16	3.84	7.43	4.69	4.42	7.59	7.35	6.02	7.84	7.22	6.44	6.13	5.88	0.57	5.45	1.71	3.66	4.33	5.91	1.85	2.64	2.11	1.29	0.86	1.56	1.93	3.24	2.94	3.39	3.89	4.18	4.30	4.40	4.49	4.48	4.44	4.43	4.33	4.16	3.70	3.38	4.13	7.55	7.00	6.67	8.85	6.78	5.31	4.31	4.65	4.70	4.79	5.14	4.61	3.65	3.45	8.45	9.64	6.30	5.62	5.68	8.05	6.01	5.37	5.16	5.16	5.03	5.09	6.14	5.87	4.21	2.11	4.54	7.99	6.67	4.80	1.64	2.48	5.93	4.80	2.93	2.84	2.84	
4.66	4.72	4.36	4.48	5.77	4.78	4.78	4.41	5.53	5.85	3.87	2.82	4.89	9.99	4.04	2.66	3.68	1.83	2.66	2.33	2.45	3.89	8.98	9.27	9.69	10.17	5.45	4.40	4.88	4.36	3.21	2.30	3.48	7.57	7.31	5.93	4.76	5.15	2.85	3.99	8.14	2.61	3.61	7.69	7.01	4.29	6.85	4.12	6.97	10.53	7.10	1.90	2.51	2.61	1.61	1.11	5.60	5.41	3.07	2.29	1.62	1.79	2.69	3.01	3.79	3.37	3.47	3.89	4.21	4.33	4.42	4.50	4.51	4.49	4.47	4.38	4.22	3.79	3.43	4.11	7.63	7.72	7.36	5.12	5.71	5.46	4.83	4.82	4.62	4.43	4.35	3.95	3.47	3.67	9.21	7.72	6.00	4.94	5.77	6.38	5.78	5.38	5.28	5.43	5.27	5.58	7.00	6.19	2.79	3.26	3.00	5.66	8.58	1.99	4.08	3.74	4.92	6.45	2.15	2.84	2.84	
4.94	4.99	4.52	4.52	6.27	4.48	4.01	4.10	6.15	6.76	4.67	2.71	3.53	8.85	2.58	1.43	3.09	4.76	3.49	2.98	2.94	6.14	6.35	5.61	9.07	10.01	3.82	5.82	5.39	4.48	2.50	2.36	2.20	5.86	10.56	7.19	3.58	4.90	4.60	4.65	5.18	5.86	2.88	5.74	7.70	3.66	3.23	3.21	4.11	7.42	11.42	1.20	0.39	5.04	2.43	5.42	7.34	8.85	1.83	2.71	2.70	3.19	3.84	3.46	3.97	3.65	3.70	3.98	4.24	4.39	4.45	4.50	4.54	4.52	4.49	4.42	4.27	3.89	3.52	4.03	7.54	7.97	7.83	5.43	5.52	5.60	5.31	5.13	4.64	4.09	3.81	3.49	3.24	5.76	7.22	5.58	4.87	4.57	4.96	5.50	5.40	5.06	5.01	5.30	5.57	6.99	7.86	4.76	4.40	3.53	3.04	7.28	9.18	5.53	4.43	3.38	3.77	5.66	5.00	4.17	4.17	
4.14	5.47	5.12	5.32	9.01	5.02	3.48	3.51	6.48	4.07	4.42	2.67	3.74	8.65	5.79	5.98	5.47	5.45	4.85	3.65	3.66	4.63	4.57	4.14	4.38	6.04	8.46	9.12	9.44	3.43	3.47	3.13	1.92	2.79	8.83	11.32	11.15	6.48	2.36	3.84	6.09	5.10	5.33	5.25	8.67	3.66	3.09	2.77	3.60	8.59	11.48	7.78	8.08	8.01	4.78	5.22	5.16	9.10	11.34	4.95	3.63	2.63	2.77	2.95	3.86	3.60	3.80	4.09	4.27	4.44	4.47	4.51	4.55	4.54	4.52	4.46	4.32	4.00	3.59	3.79	4.65	8.04	8.26	5.94	5.79	5.73	5.72	5.75	4.80	3.67	3.32	3.18	2.97	3.80	7.03	5.13	4.81	4.77	5.11	5.46	5.35	4.65	4.49	5.50	6.55	7.89	8.68	2.59	4.31	3.56	3.20	5.21	8.39	5.85	4.27	3.35	3.26	5.07	4.60	4.05	4.05	
4.70	4.34	4.53	7.30	10.48	5.18	3.36	3.09	9.26	4.32	4.03	2.99	5.36	6.18	4.99	4.93	5.18	5.14	4.65	4.00	4.44	6.08	4.58	4.12	4.31	4.59	4.61	5.70	8.42	8.71	5.52	4.55	2.42	2.28	6.23	9.73	10.82	10.84	5.50	3.09	3.60	6.11	4.47	4.16	4.98	3.63	3.07	2.37	3.35	7.08	11.32	7.79	7.12	9.02	8.16	4.06	3.17	6.69	9.09	8.95	5.95	3.89	3.20	2.56	3.84	3.50	3.81	4.14	4.29	4.46	4.49	4.52	4.56	4.54	4.53	4.49	4.37	4.13	3.75	3.59	4.02	7.61	8.34	7.32	6.46	6.10	6.17	6.14	4.30	3.53	2.94	2.87	2.75	3.59	6.27	5.17	4.90	5.08	5.19	5.51	5.68	4.45	4.25	6.76	7.20	8.71	7.69	2.66	4.25	3.35	3.12	7.51	9.79	3.49	4.78	3.62	3.51	4.73	3.76	3.38	3.38	
5.75	4.22	4.77	5.11	6.26	4.43	3.96	3.06	6.32	6.16	3.99	4.03	3.74	4.71	4.79	5.29	5.21	4.70	4.31	4.14	4.90	5.65	4.71	4.35	4.75	4.76	4.47	4.02	4.20	6.25	6.98	6.62	3.61	2.33	6.34	8.79	9.45	11.27	9.72	5.21	5.29	5.16	4.33	3.36	4.90	4.14	3.28	2.52	3.04	9.29	9.68	9.83	7.23	8.08	9.44	7.94	5.45	5.12	6.63	8.55	8.29	6.66	4.86	3.63	4.32	3.64	3.85	4.13	4.27	4.44	4.48	4.52	4.56	4.56	4.54	4.51	4.42	4.25	3.98	3.60	3.54	4.27	7.85	9.99	9.59	6.73	7.45	6.60	3.84	3.09	3.06	2.62	2.54	3.33	4.48	4.68	4.95	5.40	5.55	6.09	6.27	4.47	3.24	6.75	8.67	10.15	5.99	3.03	4.44	3.37	3.01	4.38	9.61	4.01	5.17	3.70	3.97	4.73	3.23	2.81	2.81	
3.40	3.94	6.11	8.30	6.61	6.95	4.24	4.17	7.81	5.95	4.76	4.82	4.58	4.47	4.83	5.63	5.35	4.71	4.25	4.26	6.45	4.26	5.05	4.62	5.18	5.33	4.62	3.92	3.71	3.95	4.43	5.01	4.92	2.91	3.28	6.96	8.94	10.44	11.38	6.49	6.30	4.73	3.13	2.89	4.53	4.92	3.83	2.28	3.06	8.71	8.16	9.36	8.50	7.89	8.70	8.15	7.15	5.08	4.21	5.80	6.53	6.38	6.28	5.63	4.75	3.81	3.80	4.08	4.22	4.39	4.46	4.52	4.56	4.57	4.56	4.53	4.47	4.33	4.16	3.77	3.46	3.61	4.14	7.58	10.90	10.96	10.30	7.74	4.04	2.91	2.80	2.95	2.67	3.03	3.77	4.26	4.86	6.18	6.36	7.87	7.05	4.90	2.39	2.72	4.23	9.09	5.12	3.49	4.61	3.59	3.47	4.24	8.44	6.07	3.60	2.99	4.70	3.70	3.90	2.89	2.89	
2.80	3.48	4.55	9.34	10.24	11.35	10.54	4.58	5.93	5.14	5.21	5.30	5.23	4.77	5.03	5.41	3.89	4.35	3.97	4.88	5.66	5.55	5.42	4.89	5.30	2.41	2.84	4.35	4.02	4.01	4.12	4.25	4.19	3.22	2.91	3.46	6.85	8.70	9.81	10.15	10.41	6.93	3.58	4.15	6.82	7.90	4.59	2.81	3.60	6.83	6.53	7.41	8.41	7.71	7.54	6.84	7.54	5.45	4.32	4.79	5.56	5.55	5.44	5.32	4.65	3.79	3.61	3.90	4.14	4.32	4.42	4.49	4.54	4.56	4.57	4.55	4.50	4.39	4.24	3.94	3.66	3.49	3.43	6.55	9.72	10.96	11.56	12.15	3.75	2.93	2.15	2.85	2.05	3.38	3.44	3.83	4.46	6.36	8.34	9.33	8.25	5.82	4.69	3.32	3.43	8.53	5.97	3.62	4.48	3.63	4.11	6.25	6.90	7.88	3.25	3.04	5.29	2.10	4.76	3.61	3.61	
2.61	5.86	8.40	8.89	9.32	6.62	6.94	6.71	5.15	4.44	4.73	4.99	5.05	4.92	7.21	5.22	4.47	5.63	4.38	4.53	5.66	6.12	5.71	4.94	1.43	5.19	5.06	5.05	4.94	4.64	4.45	4.26	4.13	3.61	3.00	2.81	3.16	7.15	7.88	8.93	9.68	8.59	3.88	2.55	3.61	6.42	4.88	3.76	3.66	4.36	4.19	4.80	5.42	5.60	5.62	5.01	5.41	5.70	4.96	4.91	5.32	5.55	5.61	4.38	4.29	3.70	3.36	3.56	3.99	4.24	4.38	4.46	4.52	4.56	4.57	4.56	4.53	4.44	4.30	4.03	3.84	3.66	3.19	3.29	6.93	10.10	10.91	12.72	7.67	4.93	4.51	4.50	4.09	4.32	3.68	3.59	4.02	6.08	8.42	9.44	9.48	6.91	4.20	3.86	3.04	7.48	7.45	3.45	4.33	3.55	4.33	6.84	7.25	5.13	5.12	4.25	4.90	7.86	5.22	4.60	4.60	
2.72	3.14	4.06	6.61	6.02	5.80	9.59	7.13	5.33	4.43	4.16	4.54	4.98	5.31	4.85	4.58	4.39	5.84	6.38	5.38	5.78	6.90	6.29	1.73	4.26	4.77	2.40	5.22	4.79	3.42	4.75	4.72	4.56	4.08	3.54	3.15	2.99	3.53	7.38	7.97	8.46	9.57	6.06	3.37	3.26	4.43	4.74	4.84	4.76	4.56	4.27	4.17	4.55	4.98	5.20	5.01	4.91	5.13	5.16	5.10	5.24	5.62	5.77	4.17	2.51	3.49	3.16	3.24	3.80	4.16	4.33	4.42	4.50	4.55	4.56	4.57	4.55	4.47	4.36	4.09	3.94	3.89	3.28	2.88	6.21	9.23	10.33	12.01	9.71	6.78	5.64	4.97	5.03	4.78	4.07	3.70	3.92	7.20	8.40	9.47	10.67	10.50	4.79	5.26	5.42	4.93	7.34	3.78	4.28	3.38	3.86	7.35	7.50	5.39	4.09	4.34	3.89	7.14	7.17	8.16	8.16	
3.07	3.66	4.37	4.98	7.51	5.06	5.84	11.16	3.34	4.91	4.26	4.62	5.36	5.40	4.70	4.21	3.63	3.93	5.87	6.59	10.02	8.84	2.80	5.84	5.20	2.67	4.95	5.23	4.09	3.58	3.70	3.68	2.88	4.72	4.28	3.92	3.35	3.06	3.69	4.76	6.92	7.87	8.45	6.58	5.04	4.82	4.87	5.77	5.76	4.66	3.65	4.00	4.46	4.62	4.66	5.04	4.95	4.67	4.92	5.08	5.71	5.94	5.86	3.78	2.31	3.14	2.95	3.02	3.61	4.07	4.28	4.39	4.47	4.54	4.57	4.58	4.56	4.49	4.42	4.19	4.02	4.05	3.61	2.97	3.18	6.65	9.59	10.84	9.71	7.45	5.76	5.21	5.15	4.89	4.29	3.92	3.84	8.14	9.84	10.75	11.34	11.90	12.51	5.04	5.03	6.29	3.49	3.70	4.30	3.32	3.45	6.78	10.06	4.34	2.64	3.40	3.26	4.07	4.64	5.13	5.13	
2.79	3.68	6.26	8.28	5.69	5.30	6.08	6.91	4.35	4.43	5.47	4.73	5.92	5.03	5.33	4.73	3.88	3.31	3.51	5.86	7.03	11.07	3.57	2.62	2.17	4.69	5.09	1.66	1.24	1.39	2.41	2.24	2.84	3.44	4.35	4.13	2.70	2.81	3.06	4.05	4.07	4.24	5.49	5.58	5.10	5.12	5.44	7.10	6.56	2.50	2.87	4.38	4.94	4.28	3.67	4.65	5.43	4.53	4.90	5.52	6.03	6.30	5.28	3.08	1.15	1.00	2.78	2.85	3.44	3.97	4.23	4.36	4.45	4.53	4.57	4.59	4.57	4.52	4.47	4.30	4.10	4.08	3.90	3.39	3.10	6.12	8.59	9.48	8.88	7.41	5.72	5.04	5.11	4.80	4.22	4.06	3.99	6.03	9.16	10.34	10.56	10.62	11.30	10.78	7.25	7.84	2.15	5.25	4.31	4.00	3.81	4.29	9.78	3.82	3.24	4.25	3.61	3.57	3.63	4.60	4.60	
2.27	2.89	3.88	6.65	9.11	9.09	10.24	11.76	7.16	5.24	4.94	6.24	4.96	6.37	4.97	4.79	4.90	3.76	2.93	2.94	6.15	11.27	9.85	3.03	2.81	0.71	4.99	4.96	5.01	4.96	7.46	7.50	1.69	4.71	5.19	3.73	2.40	2.94	3.21	3.88	2.51	3.88	4.93	5.21	4.45	4.98	7.06	8.02	3.55	4.36	1.54	6.39	6.11	3.84	2.57	5.04	6.81	4.51	4.96	6.06	6.36	5.91	2.60	1.75	1.58	1.62	2.84	2.77	3.27	3.84	4.16	4.33	4.42	4.50	4.57	4.59	4.58	4.55	4.51	4.40	4.24	4.08	4.02	3.86	3.49	3.66	6.84	7.50	7.22	6.60	5.46	4.89	4.91	4.52	3.91	3.82	5.90	8.14	8.71	9.06	9.15	5.85	8.93	9.94	9.78	3.73	4.34	5.00	4.18	4.11	5.12	5.84	7.19	3.47	3.20	2.55	4.62	3.83	3.62	3.50	3.50	
3.73	3.55	3.87	4.30	4.58	4.62	5.71	8.98	10.25	5.31	5.37	3.49	4.13	6.01	7.84	6.69	5.04	3.57	3.57	2.44	3.85	10.19	9.07	10.98	7.22	4.37	4.80	4.38	4.05	4.55	4.40	4.69	5.19	5.59	6.46	6.10	3.50	1.96	1.00	2.71	4.26	4.46	5.23	5.34	3.98	5.57	8.13	7.38	3.49	4.21	3.54	4.72	7.26	3.57	2.27	4.30	7.37	5.11	5.01	6.45	5.58	1.34	2.63	2.90	2.32	2.16	3.17	2.89	3.19	3.71	4.08	4.31	4.40	4.48	4.55	4.58	4.59	4.58	4.54	4.48	4.38	4.19	4.05	4.07	4.03	3.98	4.38	7.13	5.67	5.66	5.28	4.93	4.86	4.36	3.72	3.37	3.43	8.29	9.42	9.94	10.22	8.30	5.90	9.22	10.09	3.46	5.57	4.90	2.60	4.04	5.56	4.98	6.20	5.35	5.06	4.99	5.15	4.41	3.91	3.51	3.51	
4.53	4.94	4.73	4.28	4.04	4.29	4.25	4.56	7.36	7.53	3.71	4.79	3.84	4.40	7.52	5.45	5.58	5.87	4.51	2.81	3.32	9.15	9.26	10.13	11.72	6.24	5.20	5.36	5.13	4.69	4.30	4.58	3.97	7.08	6.52	6.04	7.28	6.42	6.22	4.99	4.84	5.12	6.95	6.10	4.20	5.83	9.36	2.84	5.40	2.05	4.60	5.72	6.99	3.08	2.43	3.60	6.69	6.81	5.54	9.49	5.42	5.24	4.72	3.61	2.76	2.57	1.86	3.23	3.33	3.63	3.98	4.29	4.40	4.47	4.54	4.57	4.59	4.60	4.58	4.53	4.47	4.34	4.16	4.09	4.32	4.40	4.45	4.93	5.21	5.24	5.02	4.80	4.76	4.39	3.86	3.40	3.00	5.36	5.61	8.30	11.43	12.62	11.69	11.64	13.10	7.23	6.03	2.45	4.09	4.45	5.49	3.58	4.55	4.72	4.51	4.45	4.25	4.09	3.90	3.56	3.56	
4.61	6.67	5.54	3.74	3.62	4.20	4.48	3.86	4.63	7.88	5.13	2.76	2.84	4.10	4.88	5.05	4.68	4.77	4.39	3.08	2.98	6.76	7.37	10.32	11.37	6.59	6.20	5.69	4.41	5.37	5.06	3.99	4.76	7.73	5.95	4.12	5.40	4.81	4.81	4.69	4.58	6.57	7.52	6.97	3.85	6.56	9.83	5.29	5.42	4.59	5.45	6.20	9.87	6.17	1.08	4.33	6.76	7.84	4.56	5.21	5.92	5.94	6.92	5.48	3.57	2.38	2.32	3.45	3.59	3.69	3.92	4.25	4.39	4.46	4.52	4.55	4.58	4.60	4.59	4.57	4.53	4.46	4.31	4.16	4.37	4.65	4.68	4.85	4.99	5.00	4.84	4.64	4.48	4.33	4.13	3.73	3.22	2.85	4.88	6.43	10.46	11.01	10.56	10.96	11.95	8.11	5.28	3.17	2.78	4.14	5.65	2.31	1.66	1.79	1.87	1.90	4.19	4.34	4.08	4.01	4.01	
4.10	5.04	7.19	4.66	4.03	4.38	4.73	3.58	3.78	7.27	5.95	5.74	2.32	3.98	4.59	5.11	4.85	4.95	4.67	3.47	2.79	2.84	6.59	9.45	9.66	10.69	9.17	5.60	6.37	8.01	4.51	5.23	2.43	6.56	7.44	5.25	4.28	4.42	4.47	4.35	4.66	6.59	8.40	10.20	7.34	9.11	10.26	6.64	2.89	4.45	6.47	6.41	6.05	8.33	9.41	10.30	10.16	10.96	4.45	2.96	3.44	3.79	4.21	3.61	3.37	2.65	2.33	3.49	3.76	3.90	4.00	4.23	4.36	4.43	4.49	4.53	4.56	4.59	4.60	4.60	4.58	4.54	4.45	4.29	4.38	4.69	4.81	4.90	4.96	4.97	4.89	4.60	4.19	4.15	4.24	3.96	3.47	3.04	2.59	4.81	9.84	11.40	10.88	10.59	10.97	12.33	5.36	5.16	5.76	5.48	7.03	7.97	3.09	2.63	3.27	3.55	4.52	4.41	4.30	4.70	4.70	
3.61	4.52	6.08	3.45	4.14	5.25	5.08	4.02	4.93	5.42	6.50	2.43	3.41	4.18	4.82	5.46	4.93	5.15	4.86	4.24	3.13	2.25	2.95	7.01	8.47	8.71	9.20	8.18	6.85	7.68	7.85	6.29	4.34	3.95	5.06	5.08	4.54	4.53	4.45	4.56	6.78	8.32	7.62	5.24	3.89	4.30	9.36	9.71	10.30	6.71	4.45	3.71	5.42	6.39	7.21	8.66	7.71	9.95	10.85	7.22	6.27	5.70	3.12	2.32	1.25	1.40	2.46	3.68	3.82	4.06	4.14	4.22	4.29	4.36	4.43	4.48	4.53	4.57	4.59	4.62	4.60	4.58	4.56	4.42	4.39	4.58	4.76	4.93	4.95	4.98	5.06	4.69	4.12	4.07	4.26	4.06	3.63	3.11	2.70	5.03	9.25	10.83	10.77	7.45	7.10	9.41	4.24	4.69	4.55	3.48	4.02	8.06	6.65	4.54	4.32	4.80	4.71	4.30	4.53	5.26	5.26	
4.85	5.69	8.28	6.64	9.56	6.61	4.11	5.04	4.42	5.95	5.56	5.35	5.20	4.49	4.97	6.02	4.04	4.95	5.39	3.49	2.28	2.60	2.32	3.95	7.15	7.85	8.20	8.26	6.84	6.90	6.93	6.57	5.66	4.42	4.57	4.61	4.45	4.53	4.72	6.50	8.88	6.60	5.10	4.25	3.59	3.92	4.78	8.63	8.68	7.27	6.49	4.98	3.23	3.07	3.92	7.86	6.62	7.93	11.51	12.29	5.12	2.91	2.44	1.73	2.68	3.27	3.64	4.13	3.99	4.18	4.32	4.25	4.12	4.19	4.32	4.41	4.48	4.53	4.57	4.61	4.61	4.60	4.63	4.56	4.49	4.49	4.53	4.78	4.88	4.93	5.09	4.73	4.14	4.04	4.24	4.14	3.75	3.21	2.72	4.82	7.92	9.69	11.45	10.92	6.92	6.70	2.96	3.86	3.78	3.57	3.44	4.94	7.52	5.62	5.42	4.71	4.61	4.02	4.26	5.23	5.23	
2.91	3.64	4.70	4.47	4.38	6.75	7.53	5.77	5.11	3.95	4.64	5.04	5.18	4.65	4.59	6.53	4.55	5.11	3.99	1.71	2.84	3.77	2.39	3.10	4.59	5.30	6.60	6.84	6.93	7.27	5.77	5.30	4.95	4.74	4.43	4.14	4.15	4.80	7.13	9.23	6.97	5.64	5.37	4.51	3.57	3.38	4.13	7.98	7.87	6.01	7.44	6.31	4.29	3.00	3.71	4.59	6.05	3.88	9.33	11.41	10.29	8.20	5.75	5.07	5.24	5.13	5.09	4.58	4.32	4.34	4.51	4.43	4.04	3.92	4.13	4.32	4.42	4.50	4.55	4.59	4.60	4.61	4.64	4.65	4.63	4.63	4.52	4.53	4.68	4.86	4.99	4.70	4.19	4.00	4.17	4.18	3.84	3.35	2.78	2.57	6.87	8.50	10.15	12.55	12.89	5.78	4.80	3.99	3.84	3.94	3.49	4.15	5.22	5.75	5.54	4.88	4.61	4.20	3.92	4.63	4.63	
3.47	4.15	5.07	4.71	3.84	3.94	7.16	6.97	5.14	5.34	4.99	4.49	4.93	5.15	4.45	6.23	5.95	3.46	1.75	2.62	3.22	2.86	3.84	3.15	3.99	5.25	5.07	4.75	4.71	4.99	5.50	5.08	4.67	4.61	4.22	3.85	3.82	4.80	5.05	5.33	5.39	5.26	5.36	5.37	4.08	3.04	3.44	4.69	5.67	5.23	4.56	5.22	4.99	3.95	3.52	3.74	3.05	2.24	7.77	10.36	8.76	8.48	8.34	5.87	4.73	5.09	5.18	4.89	4.68	4.53	4.44	4.45	4.13	3.76	3.90	4.18	4.33	4.45	4.52	4.56	4.59	4.60	4.63	4.63	4.66	4.82	4.83	4.61	4.58	4.80	4.96	4.76	4.32	4.05	4.13	4.18	3.95	3.51	2.95	2.62	4.94	7.46	8.72	11.64	14.12	3.70	2.85	3.05	3.16	4.25	4.07	3.89	4.10	4.67	5.07	5.02	4.91	4.75	4.15	3.76	3.76	
3.80	5.64	6.35	5.42	3.80	2.81	5.07	7.08	5.74	5.14	5.04	4.24	5.17	5.39	4.19	5.54	7.83	7.16	5.64	3.86	4.51	5.04	4.98	4.50	4.46	4.89	4.85	4.72	4.82	4.79	4.99	4.81	4.58	4.23	3.38	3.95	4.35	4.89	5.52	5.29	5.29	5.20	5.44	5.77	4.90	3.37	3.27	4.08	4.83	4.92	4.47	4.53	5.07	4.97	4.04	3.86	3.26	2.20	3.15	8.74	8.00	7.12	7.75	6.42	5.48	5.17	5.24	5.17	5.15	4.99	4.28	3.97	3.99	3.67	3.68	4.00	4.23	4.37	4.47	4.53	4.58	4.59	4.61	4.56	4.56	4.82	5.03	4.90	4.73	4.71	4.93	4.93	4.42	4.14	4.15	4.16	4.04	3.65	3.12	2.71	4.79	6.92	8.03	10.88	14.07	3.60	4.50	5.18	2.64	4.68	4.84	4.38	3.96	4.05	4.49	5.18	5.32	4.50	4.28	3.63	3.63	
3.71	3.88	6.75	6.10	4.42	2.57	4.58	7.56	4.30	4.79	4.62	3.59	5.47	8.14	6.96	7.11	6.98	7.24	7.80	6.61	6.24	5.45	5.28	5.74	5.78	4.98	4.63	5.00	5.20	4.79	4.92	4.69	4.25	4.15	3.71	4.45	4.30	6.21	6.46	5.30	5.14	5.83	5.83	4.42	2.47	4.35	3.99	4.39	4.48	4.47	4.39	4.34	5.12	5.51	4.60	4.25	2.12	2.62	2.86	5.03	6.96	5.78	6.17	6.01	5.58	5.22	5.31	5.50	5.77	5.29	3.26	3.54	3.58	3.42	3.45	3.81	4.11	4.27	4.39	4.49	4.55	4.59	4.60	4.51	4.45	4.69	4.96	4.97	4.94	4.70	4.75	4.96	4.55	4.24	4.22	4.17	4.09	3.75	3.29	2.85	2.93	6.63	8.11	11.00	13.57	7.20	5.99	2.82	4.89	4.75	3.77	2.41	4.49	4.20	4.43	5.33	5.84	3.26	4.18	3.63	3.63	
4.18	3.91	4.75	9.33	4.36	2.98	4.23	8.92	5.59	4.59	5.05	4.97	5.29	5.46	4.89	4.95	4.96	5.02	5.18	5.22	5.08	4.94	5.28	6.19	6.90	4.93	4.32	5.18	4.66	4.35	4.74	2.40	4.39	4.14	4.83	5.66	5.26	6.34	6.86	5.45	4.75	6.48	3.18	5.28	4.88	4.51	5.11	4.74	4.84	4.55	4.55	4.41	5.99	5.14	1.38	3.78	4.16	3.51	3.54	4.25	4.89	4.90	5.04	5.09	5.21	5.18	5.39	5.94	6.67	5.09	2.49	1.98	3.34	3.06	3.18	3.62	3.97	4.16	4.29	4.41	4.50	4.56	4.57	4.48	4.37	4.51	4.84	4.91	4.97	4.89	4.69	4.81	4.63	4.35	4.26	4.23	4.18	3.81	3.43	3.00	4.46	6.46	8.02	11.64	7.59	4.59	4.64	5.81	3.41	0.69	5.09	5.13	4.56	4.14	4.35	6.79	7.04	3.23	4.25	3.67	3.67	
4.38	5.75	5.45	8.69	5.63	4.27	4.53	6.37	4.72	4.47	4.65	4.72	4.68	4.57	4.85	5.07	5.00	4.92	4.91	4.61	4.18	4.20	5.05	7.19	8.33	5.00	3.85	5.84	0.87	3.19	4.81	4.26	4.52	4.23	6.68	5.62	5.53	6.50	7.93	5.87	4.49	6.11	1.96	5.06	4.40	4.13	5.22	4.75	3.12	4.58	4.52	4.10	2.42	5.84	6.29	5.02	4.86	4.96	4.63	4.62	4.56	4.41	4.49	4.16	4.49	5.19	5.64	7.21	7.52	4.13	1.79	0.96	1.38	2.87	2.90	3.39	3.79	4.02	4.18	4.31	4.42	4.51	4.54	4.48	4.35	4.35	4.65	4.86	4.91	4.99	4.86	4.71	4.61	4.43	4.25	4.21	4.29	3.94	3.52	3.03	3.14	6.82	8.49	12.31	7.77	7.47	6.96	3.48	2.90	4.84	4.87	4.82	4.54	4.16	3.86	4.58	8.01	3.99	4.45	3.63	3.63	
6.91	8.01	7.88	8.59	9.11	8.55	6.49	6.17	5.26	4.70	5.25	5.07	4.38	4.42	5.05	5.37	5.26	5.17	5.13	4.27	3.88	4.21	6.37	8.38	8.05	5.77	2.07	4.92	3.60	5.10	5.17	4.91	4.35	4.60	6.51	5.59	6.27	5.75	7.36	7.09	4.39	5.03	2.59	5.19	4.43	4.13	6.32	5.16	3.65	3.94	2.39	3.80	4.38	4.36	4.93	5.06	4.88	5.10	5.22	4.70	3.75	3.97	3.68	2.21	3.80	5.51	7.24	7.81	8.13	3.33	1.40	0.87	1.81	3.01	2.82	3.14	3.50	3.84	4.04	4.19	4.31	4.40	4.49	4.47	4.40	4.30	4.42	4.76	4.89	4.92	4.91	4.74	4.61	4.49	4.28	4.11	4.24	4.04	3.56	2.97	2.96	6.45	8.59	12.65	5.55	4.74	7.81	10.03	5.12	3.04	2.45	4.61	4.71	4.71	4.06	4.05	7.33	4.50	5.00	4.00	4.00	
3.25	3.81	4.42	4.68	5.23	5.30	6.12	6.92	5.08	4.61	6.04	2.71	4.05	4.64	5.94	5.42	4.74	5.12	2.99	3.76	3.58	5.92	6.42	8.33	9.02	1.61	3.11	3.85	3.89	3.45	5.10	4.38	4.18	4.75	6.76	6.21	7.14	5.90	6.86	7.35	6.48	7.21	6.18	5.53	2.17	4.16	4.96	7.00	1.26	4.02	5.97	5.88	4.84	4.50	4.98	5.36	5.33	5.49	5.84	2.92	2.48	4.28	1.52	3.51	3.33	4.91	8.21	9.57	7.67	2.29	1.93	1.72	1.46	3.48	3.08	3.00	3.12	3.54	3.85	4.07	4.22	4.31	4.44	4.45	4.44	4.36	4.34	4.67	4.93	4.87	4.82	4.74	4.62	4.53	4.35	4.12	4.12	3.96	3.59	2.95	2.86	6.26	7.70	12.70	6.03	3.85	4.74	8.18	9.78	2.55	3.53	4.84	4.63	5.10	4.94	4.48	5.15	8.48	5.47	5.06	5.06	
3.80	4.01	4.33	4.80	5.62	5.11	5.03	6.63	5.20	4.15	6.76	4.30	4.24	4.84	6.80	5.64	4.35	4.87	3.03	3.38	3.04	6.33	8.02	8.02	6.72	5.15	5.02	4.93	5.24	5.81	5.19	4.33	4.34	4.48	7.38	7.18	8.50	8.78	6.04	4.93	4.56	6.51	8.46	6.06	5.38	4.22	6.83	8.93	6.93	4.94	4.81	5.10	4.89	4.65	4.98	5.37	6.63	6.85	3.51	1.27	2.95	2.90	3.66	3.51	3.41	4.25	4.80	10.26	2.56	3.03	2.82	2.72	1.65	1.90	3.49	3.05	2.86	3.19	3.59	3.92	4.17	4.32	4.41	4.44	4.45	4.40	4.35	4.68	5.03	4.86	4.74	4.72	4.65	4.55	4.39	4.25	4.14	3.88	3.58	2.96	2.65	4.43	7.28	12.87	7.26	4.42	3.94	4.88	8.39	10.65	6.63	5.48	4.44	4.64	5.09	4.98	7.33	6.23	7.26	10.39	10.39	
4.61	4.27	4.08	6.13	6.66	5.38	4.35	5.86	4.32	4.56	4.93	4.75	4.25	5.06	6.81	6.31	4.35	3.47	3.13	3.37	2.94	4.14	9.46	6.74	5.02	5.04	4.91	4.66	4.90	5.77	5.06	4.12	4.81	5.72	4.31	7.16	5.70	5.11	5.05	4.91	4.25	4.07	4.44	7.63	7.57	4.42	5.93	6.55	6.92	6.77	5.34	5.17	5.04	4.83	5.00	5.19	7.25	6.48	1.57	1.25	3.36	1.83	4.04	3.40	3.52	4.49	6.69	9.67	2.85	2.98	1.93	0.81	2.37	2.76	2.68	3.26	2.73	2.96	3.38	3.72	4.08	4.29	4.40	4.45	4.44	4.40	4.26	4.63	5.20	4.93	4.73	4.76	4.70	4.59	4.38	4.33	4.21	3.90	3.62	3.07	2.57	4.26	6.57	11.74	8.44	6.05	3.82	3.62	4.62	8.17	9.58	5.60	4.62	7.59	4.48	7.62	7.85	6.48	5.47	10.51	10.51	
4.48	4.24	3.90	7.26	7.96	4.93	4.79	5.69	5.02	4.18	5.03	4.25	4.06	6.27	8.70	6.44	1.82	2.91	3.68	3.61	3.27	6.04	9.95	5.12	5.33	4.77	4.81	4.80	4.92	5.63	4.93	3.64	4.67	7.27	5.14	8.73	5.84	4.82	4.97	5.24	4.62	4.02	3.38	3.90	7.51	5.14	4.36	4.49	5.11	5.06	4.71	4.91	5.23	5.29	5.84	6.71	7.85	1.83	1.41	3.16	1.57	3.85	3.78	2.55	3.15	4.13	8.72	11.14	2.87	2.44	1.27	2.79	3.32	2.82	2.31	2.05	2.81	2.91	3.31	3.56	3.98	4.25	4.38	4.47	4.45	4.42	4.15	4.40	5.22	5.06	4.82	4.85	4.77	4.68	4.40	4.36	4.25	3.99	3.74	3.25	2.71	4.75	6.20	9.44	13.71	5.34	4.60	3.06	3.58	4.53	8.49	8.60	5.05	3.79	3.95	8.02	5.14	5.27	5.69	6.27	6.27	
4.80	4.52	5.20	7.13	3.05	5.36	5.64	6.40	4.95	5.25	4.56	4.04	4.21	6.29	9.74	5.93	5.20	5.05	4.82	3.81	3.64	6.64	10.27	4.57	4.08	4.60	4.78	5.14	5.08	5.63	5.03	3.51	4.11	5.33	6.83	7.71	5.93	4.72	5.09	4.90	5.15	4.66	3.92	3.32	4.49	5.40	4.88	4.69	5.23	4.73	3.85	4.72	5.26	6.55	6.48	7.17	7.86	1.71	1.33	1.06	5.05	4.10	2.72	3.61	3.37	2.78	4.05	9.74	2.73	2.29	2.07	3.32	2.93	1.89	1.03	1.21	3.16	2.98	3.28	3.51	3.90	4.21	4.34	4.45	4.46	4.45	4.14	4.21	5.01	5.06	4.88	4.88	4.81	4.77	4.49	4.39	4.27	4.05	3.87	3.50	3.01	4.98	4.72	8.05	12.81	5.21	5.43	3.51	2.97	3.48	4.82	9.01	5.49	3.93	4.19	4.69	4.89	5.09	5.72	6.21	6.21	
4.33	5.57	5.72	9.45	5.46	5.56	9.18	9.58	6.58	5.38	4.41	4.00	5.49	6.34	8.33	4.97	5.21	4.96	4.51	3.98	4.14	6.94	5.31	4.34	5.02	4.20	4.31	5.27	5.46	5.83	5.26	4.05	4.44	4.85	6.81	10.09	2.84	3.37	5.34	3.63	2.58	5.31	2.80	4.28	3.53	4.30	4.77	5.50	5.94	2.54	3.33	4.46	6.71	6.56	6.91	7.38	5.75	1.85	1.93	1.84	5.04	1.67	3.69	3.95	4.55	4.02	5.61	9.15	1.92	1.96	1.90	4.19	3.25	1.50	1.00	1.71	1.88	3.18	3.24	3.46	3.86	4.17	4.30	4.41	4.45	4.45	4.23	4.18	4.72	4.96	4.88	4.84	4.79	4.78	4.59	4.47	4.34	4.09	3.93	3.69	3.38	3.13	4.70	7.79	11.47	6.68	5.68	4.12	3.18	2.78	4.02	8.73	5.66	4.28	3.91	4.42	5.41	5.15	5.96	6.22	6.22	
3.85	7.16	5.88	6.44	5.50	4.34	4.70	7.44	7.08	6.10	4.96	4.25	4.41	6.69	6.69	2.39	3.48	4.58	4.27	4.33	5.60	8.34	4.51	3.19	3.22	4.07	3.56	4.84	5.71	6.95	5.51	4.76	5.28	6.40	6.53	5.54	5.52	5.47	6.02	6.25	6.02	6.13	6.18	4.79	4.60	4.17	4.35	7.31	6.09	4.86	3.22	3.85	6.91	8.25	7.61	5.00	8.93	5.28	2.33	2.58	1.87	2.67	4.09	4.60	4.38	3.47	6.28	7.62	6.41	5.83	8.86	6.97	3.25	1.92	1.58	1.80	2.21	3.40	3.31	3.45	3.83	4.15	4.29	4.40	4.44	4.44	4.33	4.21	4.47	4.84	4.90	4.84	4.78	4.72	4.63	4.57	4.45	4.19	3.97	3.76	3.52	3.51	4.91	8.09	10.87	5.74	5.60	4.69	3.56	2.70	2.78	4.89	7.32	4.58	4.13	4.55	4.74	5.17	7.43	6.87	6.87	
5.16	5.18	4.49	5.36	5.62	4.96	4.66	5.10	5.86	5.99	5.59	4.77	4.37	8.62	2.70	5.23	4.54	3.40	4.39	4.95	5.99	9.06	3.06	3.93	3.96	4.18	3.20	3.80	5.15	8.23	5.54	5.10	5.89	6.29	5.44	5.55	3.88	4.47	4.54	4.97	5.16	5.10	5.02	4.89	4.56	4.55	4.23	4.62	6.07	5.08	3.31	3.74	4.32	8.91	5.79	4.44	7.59	9.86	7.32	4.56	2.15	2.85	5.25	6.39	5.35	4.98	7.65	6.45	4.95	6.43	4.64	8.86	5.82	3.61	2.78	2.38	2.62	3.63	3.42	3.41	3.74	4.11	4.28	4.39	4.45	4.45	4.43	4.29	4.32	4.67	4.89	4.91	4.81	4.64	4.56	4.56	4.50	4.29	4.05	3.79	3.39	4.95	6.52	8.96	11.90	3.51	3.28	2.35	4.55	3.41	2.83	3.70	5.07	4.45	4.15	4.67	5.09	5.13	8.79	10.61	10.61	
4.48	4.42	4.63	5.41	5.76	5.57	4.93	4.54	5.06	5.18	5.57	5.11	4.60	5.63	6.85	7.43	8.23	5.73	5.11	5.75	6.80	10.11	4.38	3.78	5.01	4.50	3.57	3.13	4.17	9.08	7.46	5.04	7.37	6.34	5.98	4.83	3.29	4.74	4.55	4.66	4.83	5.23	4.97	4.44	4.35	4.74	4.81	5.45	6.33	5.07	3.13	4.12	5.80	7.13	4.49	3.21	5.53	7.96	9.46	9.88	9.76	7.92	7.98	7.94	4.86	8.38	5.62	5.67	5.59	4.16	3.56	4.68	10.15	7.77	5.70	3.89	3.35	3.96	3.64	3.48	3.66	4.05	4.28	4.38	4.44	4.47	4.48	4.38	4.31	4.46	4.74	4.97	4.89	4.61	4.47	4.47	4.44	4.28	4.14	3.89	3.37	4.67	6.53	9.94	13.29	6.96	5.35	4.86	4.20	3.90	3.37	3.36	3.97	4.57	4.01	4.93	5.13	8.15	10.73	10.10	10.10	
3.99	4.47	5.03	6.24	6.56	6.02	4.03	4.42	5.70	4.94	5.93	4.29	5.48	5.17	5.25	5.43	6.15	6.70	6.79	5.42	6.39	9.06	6.57	4.57	5.31	5.05	4.51	3.38	3.50	4.77	4.80	7.31	10.22	7.95	8.86	4.83	6.14	5.51	5.27	5.07	5.04	4.91	3.50	4.81	4.05	4.57	5.50	4.96	5.76	5.11	3.68	4.54	6.21	7.92	6.44	4.51	4.63	3.56	7.26	8.14	9.16	8.41	5.01	4.39	4.32	4.46	5.53	6.54	4.62	4.86	4.13	3.65	5.96	7.44	6.95	5.69	4.07	2.59	3.94	3.68	3.75	4.04	4.27	4.37	4.43	4.46	4.49	4.44	4.37	4.33	4.54	4.95	4.99	4.64	4.43	4.39	4.38	4.20	4.09	3.90	3.45	4.52	6.26	9.82	13.29	7.39	6.14	5.47	4.87	3.90	3.99	3.60	3.20	3.10	3.47	4.76	8.17	9.22	10.18	6.29	6.29	
3.35	6.12	6.27	6.81	9.98	3.96	4.49	4.13	8.33	4.91	5.46	5.76	4.04	3.61	4.08	3.72	4.34	4.46	5.25	6.34	4.90	6.28	6.94	6.75	5.92	6.41	5.18	4.19	3.63	4.42	4.39	7.54	9.54	7.16	5.65	6.74	5.26	2.09	2.15	1.85	4.02	3.78	3.25	4.38	2.97	4.87	7.65	7.77	6.10	5.56	4.63	4.96	7.67	4.89	5.27	5.66	4.10	3.28	4.22	4.86	9.11	9.67	5.67	4.71	4.15	4.70	5.69	6.11	6.19	4.63	3.45	3.47	5.35	6.32	5.36	6.06	4.31	3.50	4.48	3.88	3.87	4.09	4.24	4.35	4.41	4.45	4.48	4.47	4.43	4.30	4.41	4.91	5.11	4.81	4.45	4.33	4.37	4.16	3.96	3.75	3.30	4.77	6.55	9.56	13.10	4.12	3.71	2.80	5.06	4.50	4.51	3.77	3.11	2.51	2.75	4.43	4.65	9.13	10.31	6.16	6.16	
3.21	3.82	6.52	6.74	10.57	4.88	5.01	5.85	5.96	3.31	4.95	7.22	5.09	4.83	5.77	5.72	4.87	4.50	4.91	5.41	5.39	4.89	4.64	5.01	5.02	4.85	5.05	4.45	4.01	4.52	4.32	8.02	7.85	5.72	4.48	10.29	8.74	7.84	8.10	7.47	8.48	7.90	9.80	7.36	6.07	4.97	3.70	7.89	9.18	8.00	9.07	9.21	7.65	5.53	5.27	4.50	4.45	3.71	3.21	4.04	8.05	9.03	7.65	5.07	5.07	5.18	6.13	6.20	2.79	2.20	4.43	2.79	4.54	6.80	5.27	4.57	5.32	5.45	4.43	4.25	3.89	4.02	4.15	4.30	4.37	4.42	4.47	4.47	4.44	4.25	4.26	4.74	5.13	5.06	4.60	4.30	4.37	4.22	3.94	3.64	3.10	2.78	6.58	8.87	12.30	13.14	4.48	3.66	3.74	5.24	4.79	2.10	2.85	2.56	2.37	2.89	4.40	5.45	10.10	6.26	6.26	
4.22	5.20	3.91	4.29	9.46	10.03	4.88	3.14	3.04	3.72	4.22	4.91	5.26	4.89	4.91	5.33	5.24	5.06	5.07	5.12	5.65	5.38	4.19	4.18	4.47	4.18	4.25	4.11	3.89	4.52	4.43	8.20	6.68	4.48	6.94	7.22	6.87	7.04	7.12	5.35	6.87	4.68	8.32	6.47	5.16	5.26	3.58	4.05	7.27	4.69	7.80	7.74	6.32	6.08	4.96	4.69	5.00	4.58	3.32	2.78	3.31	4.90	7.13	5.03	5.14	5.30	10.50	3.50	3.59	5.78	4.51	4.45	1.29	4.02	5.52	4.92	4.77	4.74	5.00	4.55	3.96	3.81	3.96	4.18	4.32	4.38	4.43	4.46	4.43	4.25	4.12	4.43	4.89	5.10	4.77	4.34	4.34	4.30	4.01	3.69	3.13	2.56	4.79	8.27	10.83	12.70	12.22	7.41	7.42	5.31	3.64	2.02	3.76	3.19	2.54	2.62	2.91	5.22	9.67	6.31	6.31	
4.53	4.78	4.39	7.28	6.50	6.81	6.50	5.00	4.78	4.91	4.48	4.74	5.02	4.96	5.10	5.33	5.10	5.48	5.50	4.65	5.57	5.04	4.49	4.25	4.39	3.78	3.72	4.38	3.92	4.20	4.32	5.12	6.88	4.76	4.49	5.06	5.03	4.75	4.75	5.27	5.24	4.51	8.19	6.49	5.10	5.03	4.26	3.83	4.49	4.52	5.08	7.43	5.58	4.96	4.83	5.09	5.75	5.34	3.50	2.90	3.05	3.68	3.87	3.59	4.73	8.38	8.61	9.71	9.60	6.38	4.92	4.54	3.89	3.83	4.70	5.46	5.14	4.56	4.50	4.43	4.08	3.70	3.71	4.01	4.24	4.33	4.39	4.43	4.41	4.31	4.12	4.22	4.65	4.95	4.75	4.38	4.37	4.37	4.09	3.78	3.32	2.60	4.75	7.66	9.50	10.85	12.23	12.29	12.80	12.83	3.63	3.43	2.70	3.07	3.07	2.71	2.84	3.94	10.01	6.24	6.24	
3.82	5.93	5.06	7.97	8.32	7.98	3.24	4.47	4.92	4.78	4.67	4.80	5.00	5.00	5.26	5.44	4.99	6.22	4.04	4.52	6.19	3.87	2.55	2.29	2.23	3.90	3.78	4.04	4.21	4.13	4.20	4.83	5.37	4.89	4.65	4.93	5.10	4.74	4.09	4.54	5.17	4.61	4.99	5.62	5.15	4.86	4.65	4.36	4.16	3.83	4.69	5.47	5.07	4.75	4.80	5.48	6.05	3.13	3.95	3.64	3.39	3.26	3.08	3.05	4.41	4.55	4.57	7.06	8.03	7.91	7.16	5.82	5.81	5.18	4.92	5.33	5.49	4.89	4.28	4.11	4.06	3.76	3.55	3.81	4.15	4.28	4.35	4.39	4.39	4.35	4.17	4.12	4.50	4.87	4.70	4.38	4.43	4.46	4.20	3.93	3.57	2.86	2.38	5.35	7.82	8.56	9.89	10.92	11.69	12.75	11.03	4.31	2.84	3.58	3.68	3.03	2.99	3.86	9.36	5.99	5.99	
5.34	3.33	6.28	9.28	11.75	4.73	3.33	3.35	4.72	4.55	4.66	4.79	5.04	5.04	5.29	5.56	5.20	6.76	4.38	4.35	7.55	2.98	3.91	5.09	4.91	4.20	3.93	4.53	4.68	4.27	4.23	4.54	4.75	4.70	4.68	4.94	5.60	5.61	4.32	4.09	4.65	4.52	4.58	5.14	5.07	4.73	4.80	4.97	4.60	3.84	4.59	5.16	4.39	4.66	5.36	7.30	6.35	2.69	4.47	4.44	3.90	2.62	3.14	3.39	3.75	4.08	4.13	4.18	4.58	4.93	4.94	5.01	5.12	5.01	5.01	5.44	5.70	4.47	2.77	1.73	3.84	3.82	3.54	3.63	4.03	4.24	4.32	4.36	4.36	4.35	4.24	4.08	4.24	4.68	4.64	4.32	4.42	4.55	4.35	4.12	3.86	3.31	2.75	2.84	5.44	5.71	8.02	9.30	10.32	11.18	13.22	7.22	4.51	4.65	3.57	3.50	3.28	3.87	8.89	6.80	6.80	
3.19	3.28	3.20	3.66	9.28	7.93	4.51	2.48	1.67	4.64	4.75	4.95	5.10	5.38	6.19	6.58	8.12	7.01	3.82	3.07	4.37	4.27	3.86	4.69	5.09	3.97	3.64	5.23	5.66	4.65	4.34	4.48	4.34	4.43	4.62	4.91	5.51	6.06	5.18	4.52	4.42	4.43	4.59	5.34	5.43	4.76	4.81	5.15	5.25	4.38	4.77	5.01	4.09	4.15	5.24	8.58	4.80	3.18	3.94	3.56	1.60	3.03	3.90	4.31	3.94	4.25	4.65	4.20	4.03	4.21	4.35	4.65	4.84	4.78	4.81	5.70	6.37	3.49	1.56	1.60	3.60	3.70	3.56	3.54	3.92	4.19	4.28	4.32	4.33	4.32	4.28	4.15	4.11	4.37	4.44	4.18	4.24	4.52	4.48	4.32	4.15	3.78	3.33	3.09	3.14	5.68	5.92	8.24	9.13	9.88	11.41	11.69	7.48	5.04	4.50	4.16	3.78	4.05	4.70	5.19	5.19	
4.28	4.16	3.56	3.50	4.47	7.34	7.51	5.84	5.37	4.73	6.05	5.09	5.30	4.88	4.66	4.95	5.81	10.73	7.01	1.24	2.41	4.87	4.47	4.81	2.25	3.81	4.16	5.27	7.44	5.84	4.79	4.60	4.21	4.39	4.69	4.55	5.04	5.79	5.64	4.96	4.38	4.26	4.50	5.56	5.58	4.87	4.56	4.90	5.18	4.83	4.57	4.39	3.81	3.63	4.60	9.87	2.74	3.08	4.78	4.69	5.32	4.24	4.58	5.08	4.27	4.73	5.17	4.05	3.73	3.72	4.05	4.48	4.59	4.51	4.78	6.54	6.52	3.19	1.31	0.67	1.55	3.66	3.53	3.52	3.85	4.13	4.22	4.27	4.28	4.29	4.28	4.24	4.20	4.24	4.28	4.10	4.03	4.25	4.36	4.39	4.36	4.13	3.82	3.53	3.36	3.23	5.60	5.74	7.72	8.94	9.77	10.56	9.36	7.11	5.29	4.70	4.24	4.31	4.62	4.90	4.90	
4.78	5.16	4.17	4.01	3.72	5.13	10.03	5.18	4.64	4.47	4.12	4.91	7.35	4.98	4.29	4.67	5.34	7.61	3.73	2.65	3.48	3.32	4.65	5.03	2.26	3.28	2.89	4.25	9.20	6.00	3.05	4.79	4.65	4.63	4.86	4.76	5.00	5.72	5.92	5.20	4.24	4.16	4.62	7.64	5.47	4.48	4.42	5.18	5.58	5.29	4.85	4.01	3.62	3.63	7.15	10.06	4.06	4.75	4.84	5.38	5.28	4.39	4.53	5.71	5.18	5.75	5.08	2.98	1.52	2.77	3.61	4.45	4.37	4.50	5.52	7.00	6.03	2.04	1.58	1.39	2.20	2.12	3.58	3.52	3.83	4.05	4.12	4.17	4.20	4.23	4.24	4.25	4.26	4.25	4.24	4.13	4.01	4.01	4.03	4.17	4.30	4.25	4.16	3.94	3.66	3.47	3.39	3.28	5.79	6.46	9.21	9.85	9.57	6.64	5.57	4.92	4.53	4.52	4.62	4.71	4.71	
4.03	6.08	5.89	4.82	4.35	6.05	6.67	4.24	4.85	4.08	3.59	4.57	5.73	5.23	5.79	4.44	6.22	10.52	8.14	5.51	4.09	4.05	4.87	3.34	2.28	3.11	3.79	4.09	8.98	9.90	4.25	4.76	4.69	4.88	5.06	4.78	4.78	5.77	5.88	5.11	4.01	4.45	5.25	5.45	5.12	4.15	4.45	5.79	6.34	5.89	4.21	4.37	3.57	3.47	7.06	8.36	2.80	4.54	4.41	4.62	4.25	4.36	3.92	4.86	7.80	7.74	2.27	2.93	4.37	3.16	4.04	5.62	5.17	4.38	5.28	7.21	1.06	3.23	3.12	2.90	3.19	2.92	3.89	3.64	3.74	3.83	3.92	4.01	4.08	4.13	4.17	4.20	4.23	4.23	4.21	4.17	4.11	4.04	3.87	3.89	4.00	4.05	4.22	4.26	4.00	3.80	3.72	3.50	3.35	6.31	8.81	9.83	9.10	6.42	5.71	5.11	4.78	4.73	4.67	4.63	4.63	
5.60	8.46	10.01	10.50	10.11	6.04	3.28	4.99	3.97	4.52	3.45	3.93	5.65	5.51	3.79	3.95	6.64	9.90	12.91	4.12	2.42	3.79	4.57	3.18	3.58	3.03	2.29	2.61	9.54	9.65	6.32	5.18	4.87	5.19	5.48	4.87	4.30	8.05	4.48	5.01	3.98	4.83	7.42	3.31	4.49	4.04	4.22	5.43	8.69	6.19	4.21	4.61	3.67	3.33	4.81	6.43	3.08	4.62	4.36	4.42	5.05	5.04	3.61	3.54	4.82	8.63	3.73	5.10	4.59	1.48	4.55	6.40	6.43	4.43	4.58	2.31	5.50	6.07	5.65	4.70	4.34	3.83	4.54	4.14	3.81	3.51	3.54	3.73	3.87	3.97	4.05	4.11	4.16	4.18	4.19	4.18	4.16	4.14	3.99	3.92	3.88	3.80	3.97	4.24	4.23	4.10	4.01	3.80	3.59	6.17	6.80	9.28	9.18	5.84	5.66	5.25	4.95	4.93	4.78	4.62	4.62	
2.25	7.50	8.47	8.15	9.29	9.49	9.65	8.46	6.32	4.40	4.12	3.37	5.39	4.69	3.85	3.85	6.84	9.24	11.73	4.24	2.38	1.95	5.41	5.43	4.66	3.47	2.44	2.40	5.37	6.56	6.02	5.34	5.26	5.50	5.85	5.35	4.48	5.04	5.26	4.91	4.14	4.99	8.23	5.31	3.96	3.86	4.19	4.84	8.38	8.77	4.23	3.44	3.86	3.27	6.55	4.84	3.25	4.55	4.20	4.60	5.45	4.93	4.26	3.42	4.31	8.22	3.81	5.06	1.97	2.99	4.04	4.62	7.79	2.74	1.89	4.42	4.36	4.88	4.88	5.15	5.22	5.27	5.25	4.83	3.96	3.41	3.39	3.49	3.53	3.71	3.88	3.98	4.06	4.12	4.15	4.17	4.20	4.22	4.21	4.15	4.03	3.87	3.83	3.95	4.12	4.27	4.28	4.06	3.89	3.86	6.57	7.42	7.79	5.62	5.50	5.24	5.00	5.01	4.97	4.89	4.89	
2.08	6.81	4.78	4.41	6.78	6.94	7.38	8.27	8.28	9.84	5.08	3.57	5.27	4.82	4.04	4.40	5.53	4.91	5.80	8.90	6.95	6.31	6.31	6.47	5.48	4.25	3.31	3.43	5.96	5.47	4.76	4.75	5.42	5.47	7.41	5.68	5.05	4.85	4.75	4.67	4.54	5.20	4.58	4.98	3.70	3.76	4.37	7.35	7.75	10.62	6.81	4.63	4.43	4.14	4.99	2.23	3.58	4.66	4.17	4.55	5.69	5.07	4.54	3.53	4.05	7.99	3.59	0.49	3.09	3.51	4.34	5.60	7.16	5.33	5.29	5.57	5.15	4.73	4.54	4.86	4.98	5.10	5.59	4.34	2.27	3.74	3.79	3.49	3.13	3.32	3.62	3.79	3.93	4.03	4.09	4.16	4.22	4.26	4.29	4.27	4.19	4.07	3.97	3.87	3.87	4.12	4.41	4.31	4.12	4.13	4.16	7.19	7.83	7.39	5.45	5.29	5.04	4.87	4.96	5.83	5.83	
2.94	3.70	4.67	4.66	4.63	4.53	4.88	5.00	5.09	8.25	5.44	4.33	5.39	5.68	4.17	4.81	7.20	5.94	6.04	3.92	4.49	4.98	4.08	4.98	5.30	4.75	4.27	5.00	5.05	5.16	4.19	4.29	7.19	7.30	6.95	5.68	3.78	4.71	4.38	4.68	5.04	5.70	3.28	4.31	3.64	3.83	4.45	4.66	4.67	8.05	10.39	6.04	5.36	3.67	4.71	5.40	4.73	4.99	1.23	4.41	7.12	5.07	5.07	3.83	3.93	7.02	2.09	5.05	0.90	4.26	4.76	9.20	8.29	7.16	6.17	6.31	5.46	5.50	5.06	4.86	4.83	4.94	6.28	1.58	3.18	4.79	3.54	3.76	2.97	2.90	3.19	3.48	3.73	3.90	4.01	4.11	4.19	4.25	4.28	4.29	4.25	4.19	4.13	4.02	3.85	3.86	4.18	4.43	4.34	4.23	4.22	7.01	7.63	7.39	7.91	5.52	5.24	4.89	4.88	6.24	6.24	
4.32	4.68	5.06	5.19	4.76	4.10	4.02	4.10	4.31	5.14	4.89	4.47	7.90	5.33	4.29	4.71	8.08	7.07	1.83	2.55	3.40	3.47	3.36	3.87	4.75	4.77	4.88	6.77	5.34	5.93	4.69	3.77	7.96	8.76	6.10	5.67	5.09	4.41	4.68	5.10	6.75	6.04	3.17	3.89	3.70	4.07	7.02	7.22	6.99	7.00	9.02	10.15	4.75	4.56	3.84	5.02	5.02	4.90	4.75	4.59	5.17	6.06	5.37	4.34	4.99	7.47	3.33	4.86	5.73	7.11	7.88	7.03	7.13	6.97	5.23	4.84	4.89	4.94	4.74	4.76	5.00	6.06	2.95	4.15	5.09	6.19	4.52	3.07	3.15	2.75	2.77	3.01	3.38	3.70	3.89	4.03	4.13	4.19	4.23	4.26	4.25	4.23	4.19	4.14	4.02	3.87	3.89	4.24	4.52	4.34	4.17	4.51	7.52	6.87	7.39	8.43	5.57	5.30	5.22	5.12	5.12	
4.80	6.45	6.24	5.47	4.21	4.07	3.86	3.90	4.17	4.44	4.21	4.25	4.76	4.48	7.20	8.43	10.58	8.22	3.75	2.83	2.91	3.30	3.43	3.92	4.63	4.83	6.85	7.39	6.68	7.49	4.08	4.31	4.08	5.20	6.26	5.68	4.84	4.29	4.94	6.76	6.81	3.52	4.99	3.76	3.84	4.58	4.84	4.28	7.32	9.60	7.87	7.95	4.81	1.71	3.26	4.60	4.44	4.57	4.97	5.16	5.81	5.41	3.89	4.80	5.76	1.68	3.82	4.63	5.43	5.75	6.12	4.71	5.14	5.51	5.25	5.03	5.11	4.95	4.32	4.31	6.04	5.68	2.56	4.22	4.58	6.81	5.84	3.45	2.46	2.91	2.60	2.56	2.90	3.39	3.69	3.88	4.02	4.10	4.15	4.20	4.21	4.21	4.20	4.18	4.13	4.04	3.86	4.01	4.54	4.57	4.17	4.42	7.52	4.64	6.91	9.32	9.71	9.54	10.01	5.51	5.51	
3.93	7.14	7.97	5.15	3.21	3.12	4.32	3.87	4.68	4.72	4.20	4.62	4.29	3.46	3.82	4.71	10.21	8.37	3.52	2.59	3.09	3.60	3.69	4.32	5.23	5.09	7.34	7.27	5.78	6.68	5.62	4.34	4.58	4.79	5.61	5.34	4.56	4.32	4.86	7.43	2.15	3.92	4.71	3.85	3.92	4.91	6.34	4.71	6.11	4.36	6.65	6.73	6.29	4.83	4.04	4.89	4.35	4.31	4.96	6.34	7.79	3.79	3.13	4.02	4.75	3.22	3.61	4.64	5.78	4.46	4.39	4.65	4.89	5.11	4.93	4.88	5.29	5.10	4.17	3.84	6.97	1.97	4.48	4.52	4.43	6.32	8.00	4.32	2.66	2.19	1.45	2.50	2.54	2.95	3.38	3.69	3.87	3.96	4.03	4.09	4.13	4.16	4.18	4.18	4.16	4.13	3.95	3.87	4.34	4.69	4.31	4.30	7.33	6.89	6.82	7.42	9.48	9.19	5.40	5.71	5.71	
2.82	6.55	10.58	4.59	1.88	2.58	1.51	4.12	6.28	4.30	4.53	5.17	3.26	3.32	3.35	4.47	10.24	8.13	3.83	3.04	3.38	3.21	3.58	4.84	7.41	7.60	7.99	7.67	6.17	6.05	5.98	4.27	4.75	4.79	5.30	4.60	4.18	4.61	5.02	8.18	4.14	4.00	4.39	3.96	3.96	4.46	9.06	5.53	4.76	5.52	4.44	5.54	6.30	6.26	6.36	5.20	4.48	3.94	4.30	9.32	8.94	9.17	8.44	9.15	9.19	5.67	4.46	4.52	4.26	4.46	4.69	4.97	4.73	4.72	4.71	4.57	5.73	5.78	4.63	4.39	0.27	4.75	4.82	4.64	4.64	5.59	8.89	4.17	2.45	1.61	1.38	1.49	2.63	2.74	3.09	3.42	3.62	3.75	3.85	3.93	4.00	4.06	4.11	4.15	4.16	4.14	4.03	3.80	4.00	4.53	4.44	4.29	4.56	4.56	6.84	7.21	9.30	5.15	7.16	7.11	7.11	
2.58	5.60	7.92	5.25	4.36	4.85	4.86	4.30	5.09	4.01	5.30	4.29	4.90	3.89	3.18	4.25	8.46	6.19	4.29	3.31	3.32	3.01	3.17	4.70	8.44	9.44	10.16	10.59	8.72	7.33	4.71	3.22	2.43	5.09	5.29	4.21	3.89	4.83	5.58	5.28	4.00	4.73	4.14	4.16	4.48	4.31	7.56	9.74	8.01	4.93	6.88	5.43	3.38	4.37	5.97	6.32	5.48	3.94	6.97	6.78	6.81	7.22	7.17	7.42	8.51	7.61	5.74	4.65	4.44	4.75	5.29	5.66	5.00	4.30	4.42	4.47	6.20	6.79	4.07	3.36	5.15	4.93	4.67	4.47	5.04	7.05	7.34	2.73	1.97	1.55	1.77	1.27	1.51	3.25	3.19	3.22	3.29	3.37	3.52	3.67	3.78	3.90	3.99	4.06	4.12	4.13	4.10	3.91	3.87	4.28	4.45	4.36	4.40	4.43	6.70	7.11	9.22	5.49	5.23	9.12	9.12	
2.95	5.71	6.90	9.52	5.96	5.66	2.57	5.17	5.42	4.88	6.53	3.15	5.02	4.54	3.29	4.21	8.25	4.46	4.31	3.52	3.24	2.94	3.01	4.47	7.95	9.62	10.00	10.65	11.22	8.88	5.20	3.59	3.15	5.21	5.30	4.11	3.70	4.77	7.94	3.92	3.81	4.42	4.00	4.16	4.82	6.47	6.32	7.00	8.75	5.74	5.15	3.82	3.80	3.88	4.18	4.41	4.51	4.26	4.32	4.50	4.46	4.69	7.16	7.13	7.11	7.13	5.62	4.94	4.71	5.04	5.83	6.53	5.36	4.42	4.59	5.10	5.79	9.02	6.02	5.53	5.07	5.03	4.76	4.61	5.03	7.53	5.41	1.89	1.52	1.15	2.68	3.49	2.79	2.85	3.82	3.34	3.17	3.03	3.10	3.26	3.42	3.61	3.80	3.94	4.04	4.09	4.11	4.03	3.91	4.12	4.37	4.39	4.34	4.32	6.78	7.15	9.53	5.74	7.40	5.47	5.47	
3.52	6.20	5.04	5.09	9.20	6.43	5.76	5.79	3.98	4.87	4.49	5.29	5.18	3.34	3.61	4.29	9.92	5.05	4.59	3.93	3.26	2.78	3.00	4.67	8.27	9.13	9.32	9.62	11.05	12.42	4.00	4.35	5.19	5.36	5.16	3.92	3.76	4.90	8.00	3.82	5.02	4.16	3.93	4.03	4.44	7.74	9.09	7.94	8.71	9.24	2.65	3.88	4.18	4.45	4.28	4.08	4.17	4.21	4.31	4.38	4.31	4.40	4.70	4.98	5.01	5.00	4.86	4.58	4.58	5.40	5.84	7.73	7.21	5.36	4.72	4.70	1.95	5.34	5.73	4.93	4.82	4.80	4.71	5.90	6.90	8.05	2.33	1.16	2.30	4.27	5.04	5.25	3.29	4.84	3.82	2.87	2.64	3.00	2.82	2.95	3.01	3.18	3.51	3.79	3.94	4.04	4.09	4.08	3.95	4.01	4.26	4.37	4.27	4.15	6.78	7.18	7.87	7.71	5.73	5.95	5.95	
4.09	6.48	5.16	3.93	4.82	5.71	7.54	6.38	5.76	6.64	6.33	4.92	5.07	5.31	3.90	4.18	10.06	4.20	2.99	2.76	2.65	2.45	2.68	4.96	8.67	8.55	8.64	9.27	11.16	9.81	7.31	5.12	5.99	6.00	5.27	3.83	3.81	7.01	5.90	4.42	4.83	4.09	4.00	4.62	4.67	4.08	4.37	5.05	7.12	8.65	4.99	3.96	4.58	4.48	4.48	4.34	4.32	4.26	4.21	4.30	4.32	4.34	4.55	4.71	4.64	4.42	4.26	4.18	4.18	5.14	7.97	7.51	8.11	7.21	3.87	3.57	4.41	4.40	4.74	4.65	4.52	4.58	5.69	6.10	7.71	9.99	4.44	5.23	5.31	5.32	5.23	3.15	5.39	5.70	3.90	2.50	2.76	2.29	2.78	2.79	2.72	2.83	3.15	3.52	3.81	3.97	4.06	4.10	4.02	3.96	4.12	4.34	4.34	4.14	4.03	6.83	7.68	7.95	9.42	9.94	9.94	
4.60	5.54	4.34	4.07	3.80	4.40	7.45	10.22	5.95	5.41	7.17	6.33	4.14	4.21	3.12	3.71	8.87	3.43	2.92	1.78	2.39	2.29	2.34	4.88	8.80	8.24	8.02	9.14	11.22	6.76	7.74	8.25	11.63	5.68	5.54	4.09	4.07	5.27	5.20	5.45	4.52	4.12	4.20	4.93	6.50	4.69	3.87	4.40	5.55	6.25	5.38	4.68	4.68	4.52	4.76	4.92	4.76	4.49	4.44	4.52	4.47	4.44	4.58	4.69	3.65	3.90	3.95	4.10	4.03	4.66	7.91	8.06	8.30	8.72	3.64	3.70	3.86	4.22	4.72	4.60	4.31	4.53	5.54	5.83	7.40	6.91	5.36	5.91	5.87	5.75	5.16	5.25	5.87	6.25	3.69	2.48	3.21	2.46	2.24	1.57	2.65	2.79	3.02	3.24	3.64	3.91	4.03	4.09	4.07	3.97	3.98	4.19	4.38	4.24	4.01	4.07	7.29	7.27	8.03	11.09	11.09	
5.47	5.53	5.45	4.54	3.48	3.68	4.35	8.20	6.68	5.07	5.28	6.44	4.85	3.77	3.43	3.21	5.23	11.10	4.36	3.10	2.77	2.38	2.21	4.61	8.63	8.10	8.19	9.45	9.92	5.51	4.94	10.09	9.14	6.64	5.50	4.53	4.77	5.18	5.28	4.19	4.14	3.95	4.45	5.10	7.10	5.52	4.49	6.07	9.45	3.68	4.41	4.87	4.51	4.52	4.88	5.36	5.00	4.67	4.99	4.96	4.75	4.66	4.80	4.78	3.77	3.48	3.78	4.20	4.47	4.37	7.76	8.94	10.21	5.96	3.50	3.13	3.69	4.38	5.30	4.99	4.29	5.50	6.18	6.29	0.49	4.19	5.09	5.16	5.28	5.59	5.16	5.01	6.38	6.44	2.42	2.86	3.49	2.10	1.23	1.11	1.50	3.08	3.15	3.15	3.51	3.83	3.97	4.07	4.08	4.04	3.95	4.04	4.33	4.32	4.03	3.91	4.21	4.62	8.13	10.98	10.98	
4.45	5.62	5.35	5.08	3.56	3.15	3.61	5.19	9.43	5.16	6.63	6.78	3.99	3.08	3.08	2.98	4.23	10.11	5.86	3.33	2.73	2.45	2.18	3.21	5.51	5.35	8.61	9.39	7.89	5.33	4.91	5.25	6.19	5.68	5.80	5.18	5.51	3.47	5.55	4.90	3.90	3.62	4.29	7.43	9.21	9.34	5.63	4.90	3.46	4.30	4.45	4.60	4.52	4.63	5.00	1.44	4.71	4.77	5.42	5.41	5.04	4.98	5.17	1.94	3.62	3.44	3.82	4.38	4.71	6.58	7.30	8.19	10.04	3.77	3.11	4.22	3.69	4.63	6.93	5.46	3.42	5.54	7.64	0.70	3.77	4.10	4.60	4.81	4.89	5.30	5.18	4.99	7.07	5.48	2.20	3.18	0.93	3.53	4.54	4.11	2.78	3.31	3.13	3.12	3.44	3.74	3.91	4.03	4.07	4.09	4.04	4.07	4.37	4.51	4.24	4.01	3.86	4.22	8.19	8.26	8.26	
4.38	5.68	5.81	4.68	4.03	2.78	3.03	4.85	9.25	4.88	7.13	8.13	3.67	3.18	3.36	2.54	3.62	6.97	4.15	2.65	2.47	2.43	2.07	4.41	5.39	5.75	8.71	8.61	5.66	4.98	4.87	7.67	10.78	10.47	6.54	5.43	5.00	4.75	3.64	5.11	3.82	3.38	3.84	4.84	7.80	9.48	9.10	2.56	4.07	4.01	4.43	4.51	4.87	5.21	4.51	4.67	4.49	4.92	5.55	5.49	4.56	4.26	1.78	3.25	4.04	3.73	3.98	4.93	6.62	6.28	6.53	7.32	9.24	7.38	4.43	4.47	3.62	4.15	7.69	7.48	3.39	5.88	7.84	1.96	3.17	4.25	4.69	5.03	4.63	5.41	5.69	5.38	6.69	3.60	0.77	3.08	5.03	4.62	4.75	3.28	1.82	1.39	2.75	2.91	3.30	3.63	3.84	3.99	4.05	4.09	4.05	4.09	4.39	4.63	4.52	4.34	3.92	3.94	8.03	8.82	8.82	
5.72	5.27	5.97	3.03	4.88	3.00	2.72	4.58	7.92	4.42	7.00	11.10	6.31	4.41	3.79	2.63	3.21	6.29	4.48	3.17	3.07	2.61	1.93	2.61	3.56	8.56	8.02	7.63	8.89	4.89	8.70	10.19	6.56	9.28	10.79	6.81	6.02	6.20	6.20	5.32	3.94	3.37	3.72	7.02	7.46	9.31	10.33	2.95	3.10	4.36	3.99	4.41	5.39	6.21	5.01	4.27	4.52	4.93	6.34	6.70	3.64	1.82	4.74	5.10	4.60	4.03	4.10	5.07	6.82	6.56	6.16	6.72	8.70	5.55	4.78	4.80	3.75	3.81	7.28	9.14	5.01	6.13	5.92	3.89	4.45	4.44	5.14	5.42	4.30	4.49	6.31	7.11	5.55	6.53	6.03	6.32	5.50	5.21	1.12	2.98	1.75	1.12	2.33	2.54	3.03	3.47	3.73	3.93	4.02	4.07	4.01	4.00	4.32	4.57	4.56	4.52	4.23	3.93	7.62	8.74	8.74	
5.18	4.61	5.20	8.55	5.97	3.67	2.72	4.39	7.95	4.50	7.15	8.02	6.58	4.96	3.44	3.08	2.91	5.61	8.94	3.95	4.04	3.38	2.15	2.03	2.87	5.88	4.87	5.95	5.03	5.49	8.87	5.85	4.19	4.66	10.04	5.86	5.80	6.72	6.61	5.28	3.99	3.45	3.58	4.32	4.80	7.67	11.12	3.17	2.85	4.34	3.77	4.26	7.38	3.75	4.75	4.03	4.43	4.86	6.26	7.11	3.39	3.95	4.71	4.61	4.42	3.99	4.10	6.93	7.11	6.60	6.42	7.09	1.57	3.87	4.87	4.66	3.84	3.93	6.55	8.60	7.09	6.66	1.74	3.92	4.49	4.76	5.29	6.04	4.48	3.97	5.93	4.26	4.65	4.58	4.99	5.90	5.76	1.23	5.04	3.84	1.89	1.63	2.18	2.18	2.73	3.29	3.61	3.84	3.98	4.03	3.97	3.94	4.25	4.56	4.63	4.60	4.50	4.13	4.77	8.31	8.31	
5.26	4.49	4.38	8.07	5.53	4.82	2.95	3.95	8.41	5.10	7.25	9.23	5.05	5.41	4.08	3.11	2.79	5.22	9.84	5.35	3.00	3.87	3.04	1.90	2.54	5.70	5.67	5.72	5.60	5.92	6.18	4.63	4.10	4.92	8.04	5.19	5.19	6.89	7.21	5.45	3.91	3.68	3.93	4.27	4.43	7.41	7.83	4.95	4.31	4.46	3.80	4.31	7.83	6.08	4.68	3.86	4.27	5.95	6.25	8.30	5.84	4.98	4.65	4.61	4.53	3.95	3.74	7.93	8.60	6.94	6.20	4.74	2.91	3.78	4.18	4.34	4.00	3.63	7.77	9.15	7.88	4.50	2.78	3.78	4.27	4.56	6.14	7.26	4.37	4.06	3.40	2.86	4.39	4.62	4.88	1.44	5.53	5.35	4.89	3.54	2.34	1.56	1.28	2.20	2.48	3.08	3.48	3.76	3.92	3.99	3.96	3.89	4.06	4.44	4.67	4.68	4.65	4.34	4.64	7.77	7.77	
4.39	4.82	4.10	4.93	6.11	5.58	3.43	3.73	8.22	5.52	4.83	6.78	3.85	2.75	4.54	3.15	2.55	4.87	6.32	7.12	6.03	3.58	3.22	2.26	2.44	5.36	3.99	5.51	9.06	10.62	5.70	4.51	4.62	9.41	5.44	4.49	4.65	8.81	8.20	6.18	3.93	3.69	4.30	4.54	6.23	7.08	6.28	4.41	3.89	4.26	3.90	4.76	7.74	5.88	4.76	3.85	4.03	4.94	6.20	6.17	5.26	4.57	4.41	4.70	5.03	4.71	3.25	6.60	7.10	9.79	6.93	2.96	3.53	3.98	3.66	4.29	5.64	4.32	5.75	8.71	10.26	2.35	3.57	4.19	4.11	4.10	5.85	8.64	5.06	2.50	2.41	4.37	4.47	1.38	4.91	5.25	5.53	5.06	3.44	1.11	2.37	2.55	2.06	2.62	2.42	2.88	3.35	3.69	3.86	3.94	3.96	3.88	3.89	4.16	4.49	4.64	4.62	4.47	4.61	4.99	4.99	
6.27	5.37	4.58	4.58	5.00	5.23	3.76	3.51	7.55	5.64	5.26	6.74	4.35	3.38	3.13	3.05	2.61	3.46	5.48	5.59	5.98	7.07	4.22	2.92	2.34	3.26	3.57	5.43	9.90	8.00	6.47	4.65	5.14	5.75	4.99	4.06	4.53	9.92	9.35	4.77	4.73	3.81	4.33	4.54	6.91	9.49	5.63	5.40	5.31	4.14	3.80	6.83	8.58	3.29	4.83	1.97	4.06	5.42	4.95	5.32	4.36	4.17	4.17	4.72	6.88	6.09	3.82	2.56	3.66	7.19	7.30	3.73	3.24	3.57	3.39	4.31	7.29	4.51	4.18	4.64	9.75	4.60	3.98	4.15	4.24	4.80	4.91	8.72	7.59	3.32	3.92	4.47	0.97	4.71	4.98	4.98	5.06	2.41	4.59	5.16	4.38	3.51	2.27	2.93	2.50	2.78	3.25	3.62	3.83	3.92	3.97	3.94	3.90	4.02	4.28	4.52	4.53	4.53	4.63	4.85	4.85	
5.82	5.93	5.88	5.42	4.90	4.65	3.83	3.11	4.17	5.33	5.82	7.01	3.87	2.58	4.08	3.47	3.25	3.36	4.08	4.35	4.46	6.89	5.23	4.39	2.65	2.54	3.05	5.58	9.80	5.37	5.18	4.97	4.57	5.21	5.04	4.08	4.39	7.89	10.14	6.47	5.90	4.90	4.89	6.04	6.88	5.69	5.20	5.21	5.11	4.14	3.84	4.70	9.62	4.39	5.10	4.14	4.65	4.94	4.72	4.43	4.57	3.96	4.04	4.82	7.21	7.26	2.89	2.59	2.89	6.90	3.33	2.36	2.84	3.40	3.14	3.95	8.65	4.87	4.09	6.99	5.95	4.34	4.33	4.19	4.47	4.83	5.40	7.79	6.24	4.66	3.07	4.74	4.57	4.70	4.53	4.49	3.88	2.76	1.84	1.16	1.35	0.93	0.95	1.79	2.64	2.74	3.16	3.56	3.81	3.92	3.98	3.99	4.02	4.13	4.26	4.46	4.61	4.57	4.61	4.75	4.75	
4.60	5.35	6.55	5.91	4.45	4.80	4.13	3.11	3.46	5.12	6.27	8.67	2.96	2.50	2.36	4.23	3.39	4.05	3.90	3.61	3.53	4.59	7.20	4.70	3.92	2.21	2.43	5.85	6.22	5.20	4.87	5.37	5.23	5.41	5.59	4.53	4.11	8.59	8.33	5.28	5.71	5.50	5.25	6.92	7.54	4.83	5.09	4.90	4.57	3.76	4.03	4.57	9.76	3.81	2.66	3.83	4.46	4.91	5.43	5.42	4.15	3.74	3.84	4.58	8.43	7.97	3.65	3.05	2.76	6.45	6.74	2.35	3.07	3.41	2.91	3.38	8.55	8.12	4.99	6.87	7.10	4.75	4.26	4.16	5.23	6.82	4.19	7.46	5.28	2.30	3.28	2.36	2.69	4.92	5.04	4.26	0.57	1.93	1.39	5.07	2.79	2.09	1.91	2.49	2.97	2.84	3.10	3.49	3.76	3.91	3.99	4.00	4.06	4.28	4.45	4.53	4.61	4.58	4.59	4.66	4.66	
3.83	4.36	5.83	7.11	2.69	3.42	4.64	3.71	3.35	4.69	8.80	7.44	2.91	3.95	4.37	2.59	4.42	4.29	3.66	3.75	3.20	3.75	5.13	6.10	3.77	2.67	2.28	5.74	5.55	5.12	4.70	5.63	6.63	6.71	6.02	5.29	4.35	6.69	4.48	4.49	5.08	5.34	5.10	8.21	6.52	4.06	5.23	5.11	4.27	3.43	3.93	6.96	7.82	8.45	5.51	4.93	4.72	4.78	5.27	5.33	4.11	3.31	3.46	4.21	8.97	9.85	4.99	3.72	2.82	5.82	6.44	2.91	3.34	3.55	2.88	3.27	8.06	9.47	5.63	4.37	4.97	4.87	4.24	3.89	5.06	8.10	4.59	6.51	2.81	5.26	4.23	6.94	6.08	6.48	6.18	0.50	3.60	5.22	8.70	10.56	5.37	4.45	4.08	3.38	2.70	3.24	3.18	3.43	3.70	3.88	3.99	4.01	4.06	4.32	4.61	4.73	4.70	4.63	4.61	4.64	4.64	
3.56	4.12	5.64	8.07	4.61	5.00	4.79	4.30	3.75	4.32	8.92	8.85	3.34	1.46	2.86	5.16	6.06	5.88	3.80	3.69	3.58	3.81	4.96	5.81	4.07	3.47	2.63	3.92	5.26	5.33	5.04	6.72	8.41	10.49	11.52	4.90	5.35	4.10	3.85	4.19	4.79	5.26	7.19	8.29	10.16	4.05	5.62	3.16	4.27	3.47	3.89	7.33	9.87	5.45	5.27	4.87	5.05	5.17	4.81	4.79	4.07	2.77	2.58	6.17	8.87	11.62	4.05	4.85	4.28	4.39	6.77	3.64	3.56	3.63	2.83	3.17	6.16	10.34	4.47	4.67	4.21	4.45	4.43	4.50	4.20	7.46	6.52	1.42	7.15	6.69	4.22	4.63	3.09	5.56	9.46	9.39	7.09	6.42	6.79	8.13	8.73	7.94	6.85	5.24	3.77	3.55	3.23	3.37	3.61	3.83	3.97	4.03	4.04	4.20	4.55	4.83	4.82	4.69	4.64	4.65	4.65	
3.11	3.94	8.12	6.14	4.75	4.83	4.71	4.99	4.99	4.88	8.33	10.92	2.66	3.10	4.67	2.44	3.86	4.57	5.18	4.65	3.77	3.91	6.21	6.05	4.02	3.78	2.97	3.64	5.74	7.57	8.35	9.56	10.11	9.56	10.71	12.30	4.55	4.13	3.38	4.26	4.79	9.04	9.72	10.45	10.67	10.89	4.64	3.73	3.98	3.49	3.98	7.90	4.66	5.39	4.76	4.65	5.36	5.92	2.05	4.24	4.53	2.86	1.64	2.05	6.49	9.65	12.33	5.57	4.00	5.25	3.02	4.16	3.79	3.59	2.64	2.89	7.58	10.81	2.69	4.17	4.35	4.17	4.69	5.90	4.55	7.07	5.18	5.33	5.95	7.61	5.45	4.14	4.17	5.66	7.69	8.15	7.01	6.28	5.59	4.19	6.06	5.58	5.81	5.55	4.64	3.43	2.90	3.13	3.48	3.75	3.92	4.03	4.06	4.12	4.41	4.75	4.84	4.73	4.64	4.62	4.62	
2.78	3.89	10.15	6.30	5.32	4.62	4.52	5.07	5.30	7.54	8.82	6.86	4.38	4.50	4.56	3.38	3.12	4.06	4.45	4.22	3.59	3.64	6.57	7.06	4.22	3.69	2.97	3.15	8.09	9.31	9.13	9.34	8.53	9.20	10.15	12.12	5.29	4.09	4.04	4.32	8.95	8.53	9.13	8.02	9.92	10.88	4.74	3.52	3.37	3.71	4.33	8.16	6.79	5.57	4.70	4.58	5.44	5.41	2.53	4.44	5.11	3.85	1.85	1.43	2.56	6.69	11.08	7.22	6.63	2.48	3.16	3.66	4.36	3.35	2.51	2.74	5.91	10.19	3.83	4.44	4.00	3.77	4.95	7.18	4.08	6.87	6.29	4.29	4.48	6.33	7.25	4.74	3.57	3.11	6.09	6.58	6.60	5.50	5.67	4.29	4.62	4.92	4.91	5.00	3.43	3.40	2.42	2.65	3.24	3.66	3.89	4.04	4.09	4.17	4.42	4.62	4.79	4.81	4.64	4.58	4.58	
2.68	4.17	7.56	6.77	5.66	4.65	4.37	4.89	4.77	7.83	10.34	2.73	2.64	1.92	1.98	3.48	4.19	4.10	4.00	3.55	3.24	3.52	6.55	5.35	3.89	3.36	2.76	2.74	5.49	6.19	8.80	8.58	8.37	9.29	10.10	11.93	5.21	4.09	3.66	4.34	8.44	8.76	8.93	8.80	8.59	11.03	6.36	5.39	3.09	3.52	7.15	8.56	7.30	4.83	5.03	4.87	5.64	2.71	4.98	4.41	5.25	2.46	3.02	1.69	1.89	2.98	7.19	11.45	12.00	6.07	3.35	2.69	1.79	3.30	2.52	2.85	5.71	9.53	6.64	5.20	3.76	3.32	4.42	8.36	7.31	6.78	6.64	4.52	3.53	4.00	4.25	5.49	5.10	3.78	3.84	4.32	4.59	4.94	5.29	4.99	0.97	5.02	5.08	4.58	3.75	2.46	2.46	2.40	3.00	3.56	3.86	4.05	4.08	4.20	4.54	4.57	4.71	4.89	4.71	4.59	4.59	
3.19	7.75	5.76	5.63	5.38	4.99	4.72	4.71	7.30	8.62	12.27	3.46	2.27	3.63	5.35	4.62	4.66	4.22	3.20	3.18	2.87	3.49	6.70	3.29	3.87	3.21	2.79	2.87	3.59	6.11	8.60	5.88	8.42	8.76	10.65	9.45	5.24	4.25	3.44	4.65	7.98	8.61	8.45	8.48	8.19	10.37	9.08	4.23	3.72	2.81	4.14	10.31	6.45	4.89	4.73	4.88	5.93	4.80	5.10	4.48	5.34	3.05	4.08	2.65	1.50	1.91	5.97	9.81	12.25	3.01	2.33	4.88	1.36	3.58	2.67	2.85	5.69	10.35	3.42	5.31	3.97	3.40	4.13	4.56	7.60	6.07	7.21	7.09	5.71	5.65	5.14	4.52	4.38	4.29	4.16	4.08	4.14	4.27	4.82	5.03	4.64	5.00	5.09	4.12	2.60	1.60	2.01	2.75	2.96	3.46	3.84	4.08	4.06	4.19	4.62	4.58	4.56	4.81	4.75	4.66	4.66	
4.35	4.64	5.28	4.96	5.02	5.22	4.89	4.52	7.58	8.95	8.77	5.52	5.60	6.76	3.88	2.86	2.01	2.58	2.34	3.64	2.89	3.39	6.99	4.92	3.98	3.23	2.98	3.07	3.36	5.91	6.24	6.19	6.01	8.79	11.02	7.21	5.38	4.54	3.92	3.59	4.21	4.95	5.09	4.77	7.84	9.82	9.17	6.10	4.73	3.22	3.73	9.44	4.62	3.84	3.95	4.71	5.95	4.26	3.26	4.89	3.30	4.63	4.16	2.13	1.70	1.29	2.59	8.35	11.60	7.70	4.13	1.40	3.44	3.79	2.87	2.71	5.41	9.52	9.90	5.85	4.52	3.88	3.81	7.40	7.31	4.63	4.47	5.35	5.62	4.92	4.78	4.42	4.35	4.82	4.87	4.51	4.22	4.17	4.55	4.37	4.08	5.10	4.76	1.17	2.14	2.82	2.85	3.15	3.12	3.45	3.84	4.11	4.05	4.14	4.68	4.74	4.53	4.65	4.72	4.73	4.73	
3.83	4.64	5.37	5.25	5.15	4.97	5.05	4.73	7.30	10.06	7.11	6.32	5.45	5.04	7.68	5.74	5.69	8.35	5.51	4.47	3.23	3.39	7.00	6.45	4.11	3.18	2.96	3.19	3.37	4.06	5.96	6.27	6.00	8.60	11.16	6.20	5.11	4.48	4.09	3.74	4.09	5.52	9.00	8.13	5.21	5.16	6.87	6.30	4.68	3.82	4.58	10.11	5.41	3.32	3.58	4.51	8.22	7.46	5.52	2.45	5.06	4.77	5.02	1.92	2.43	1.26	2.12	6.26	10.22	11.69	6.50	4.82	3.73	3.88	2.99	2.99	3.33	6.11	10.71	6.36	5.04	4.87	2.75	5.95	7.06	6.53	5.87	4.76	5.06	4.94	4.88	4.69	4.63	4.71	4.21	3.91	3.80	3.42	3.67	4.49	4.63	4.99	2.50	1.77	2.24	2.54	2.78	3.36	3.29	3.59	3.95	4.19	4.12	4.12	4.63	4.89	4.66	4.57	4.62	4.67	4.67	
4.16	4.94	5.28	8.16	5.66	5.21	5.27	5.90	5.03	5.81	5.72	5.73	5.28	4.30	4.87	5.24	4.80	5.32	5.79	4.68	3.40	3.25	6.50	8.82	5.16	3.59	2.99	3.36	3.69	3.95	4.00	6.03	6.07	9.05	9.80	6.48	4.97	4.49	4.09	3.75	5.09	5.45	8.51	9.70	5.83	5.47	4.53	3.86	3.75	3.72	7.52	9.94	5.37	3.28	3.20	3.87	7.84	10.21	10.17	2.34	2.94	5.02	5.37	3.12	3.28	1.80	1.77	5.72	8.81	11.34	6.50	5.43	4.20	3.96	3.05	3.31	5.33	5.69	8.29	9.60	4.59	5.88	4.32	4.04	4.87	4.65	4.86	4.85	5.19	5.13	4.45	4.00	4.35	3.49	6.34	5.81	1.43	5.72	7.96	10.03	10.77	10.65	7.66	7.14	5.95	4.32	3.64	3.47	4.07	3.96	4.17	4.30	4.18	4.13	4.56	4.91	4.75	4.55	4.54	4.59	4.59	
4.37	6.81	4.98	4.68	5.15	7.31	6.93	5.76	5.44	3.66	2.33	4.72	2.30	4.65	4.51	5.27	5.50	4.92	4.99	4.83	3.48	2.75	4.16	8.17	4.13	3.44	3.12	3.22	3.85	3.96	3.74	3.94	6.17	8.83	6.20	6.10	4.99	4.58	4.19	3.91	3.98	5.38	5.47	5.84	6.03	4.93	4.14	3.48	3.35	4.17	8.20	8.73	4.11	4.06	3.30	3.42	4.49	9.44	7.41	6.20	5.90	5.32	2.72	3.49	4.17	2.56	1.77	2.46	6.25	10.77	3.53	3.59	3.25	4.14	3.00	3.25	6.07	5.09	7.52	5.21	5.12	5.23	5.78	4.78	4.39	4.46	4.59	4.74	5.23	5.06	0.47	4.51	6.26	6.15	6.58	7.44	7.35	6.87	6.97	7.58	7.69	7.74	7.58	7.40	8.99	8.94	7.21	5.70	4.89	4.39	4.42	4.44	4.28	4.15	4.51	4.99	5.00	4.71	4.53	4.50	4.50	
4.11	7.35	5.69	4.86	5.32	7.86	8.94	6.56	5.70	6.05	3.50	5.46	5.68	5.59	5.49	5.69	6.00	2.49	5.32	4.71	4.53	3.37	3.59	6.84	7.15	4.84	4.44	3.88	4.19	4.26	3.90	3.87	5.98	5.03	5.04	5.71	5.28	4.67	4.31	4.11	4.15	5.41	5.35	8.45	6.08	5.06	4.61	3.60	3.01	7.03	8.74	5.69	6.06	4.63	3.90	3.95	7.47	4.59	4.66	4.70	8.79	5.37	3.65	4.60	5.27	4.02	2.77	2.67	3.47	6.82	10.37	2.35	4.19	5.07	3.61	2.97	5.71	7.42	8.14	4.76	4.84	5.02	4.98	5.01	4.91	4.76	4.73	4.84	7.69	6.97	4.77	5.32	5.84	5.89	4.07	6.59	4.59	6.20	4.01	3.98	6.68	6.40	6.72	6.55	5.25	6.31	6.24	6.14	5.43	4.90	4.75	4.60	4.39	4.08	4.09	4.49	4.78	4.73	4.57	4.48	4.48	
3.95	7.69	7.32	4.37	3.45	7.44	5.01	7.49	4.84	2.80	3.21	3.89	3.56	6.77	6.06	6.05	3.93	5.75	4.98	3.72	4.58	4.34	3.75	4.75	6.27	3.66	4.79	5.03	4.55	4.45	4.13	4.07	4.58	4.83	4.72	4.92	5.04	4.71	4.38	4.20	4.19	5.54	4.04	8.09	5.33	4.94	4.98	3.80	3.02	7.56	4.67	5.10	5.20	4.55	3.81	3.45	4.10	4.40	4.31	4.01	8.23	4.40	4.69	5.96	2.53	5.23	3.82	3.11	3.75	4.16	4.93	5.78	6.02	5.89	4.30	2.96	5.41	8.13	4.53	4.58	4.77	4.98	5.10	5.27	5.25	4.98	5.00	4.56	4.34	4.88	4.94	4.35	4.25	4.20	3.84	3.93	4.13	4.04	3.68	3.45	3.86	4.01	4.27	4.26	4.04	4.58	5.46	4.12	5.84	5.24	4.91	4.67	4.41	4.02	3.80	4.01	4.39	4.60	4.61	4.53	4.53	
