ncols	121
nrows	160
xllcorner	1648855.938895
yllcorner	466851.943984
cellsize	500.000000
NODATA_value	nan
3.20	3.49	4.01	0.98	2.99	1.96	2.75	7.15	8.40	3.81	3.34	3.47	3.54	3.35	3.16	2.68	2.55	2.56	3.46	4.03	4.03	3.63	3.70	1.38	2.95	2.71	3.03	3.26	3.34	3.42	3.49	3.52	3.62	4.14	6.58	8.45	4.44	4.49	4.51	4.19	4.30	4.26	3.89	3.77	3.31	6.56	4.76	3.85	2.73	3.59	2.80	2.57	4.45	4.18	3.94	3.90	2.09	2.59	2.62	3.93	4.12	3.57	3.54	3.14	3.56	7.36	3.76	3.11	2.71	3.67	7.87	4.03	1.45	1.53	1.92	2.12	2.61	3.02	5.19	7.92	9.21	4.57	3.97	3.40	3.18	3.43	2.69	2.96	5.66	7.12	4.54	4.11	8.87	8.55	8.60	9.23	5.11	3.58	2.54	1.02	2.73	4.20	6.58	9.67	5.77	5.06	9.96	2.12	2.99	1.71	2.68	3.77	4.41	3.88	3.27	2.82	2.83	5.76	8.81	9.52	9.52	
3.20	3.49	4.01	0.98	2.99	1.96	2.75	7.15	8.40	3.81	3.34	3.47	3.54	3.35	3.16	2.68	2.55	2.56	3.46	4.03	4.03	3.63	3.70	1.38	2.95	2.71	3.03	3.26	3.34	3.42	3.49	3.52	3.62	4.14	6.58	8.45	4.44	4.49	4.51	4.19	4.30	4.26	3.89	3.77	3.31	6.56	4.76	3.85	2.73	3.59	2.80	2.57	4.45	4.18	3.94	3.90	2.09	2.59	2.62	3.93	4.12	3.57	3.54	3.14	3.56	7.36	3.76	3.11	2.71	3.67	7.87	4.03	1.45	1.53	1.92	2.12	2.61	3.02	5.19	7.92	9.21	4.57	3.97	3.40	3.18	3.43	2.69	2.96	5.66	7.12	4.54	4.11	8.87	8.55	8.60	9.23	5.11	3.58	2.54	1.02	2.73	4.20	6.58	9.67	5.77	5.06	9.96	2.12	2.99	1.71	2.68	3.77	4.41	3.88	3.27	2.82	2.83	5.76	8.81	9.52	9.52	
3.43	3.59	4.36	2.00	1.91	1.68	1.77	3.56	6.82	8.19	3.31	3.64	1.66	1.86	1.95	2.64	2.71	2.76	5.13	4.39	2.44	2.43	1.34	0.26	2.47	2.48	2.90	3.15	3.26	3.35	3.40	3.38	3.18	3.07	5.92	5.85	4.38	4.45	5.25	4.88	4.97	4.93	4.50	4.05	2.96	3.36	7.28	4.10	2.75	3.92	3.22	2.39	2.93	6.78	4.47	0.67	1.90	2.26	2.07	3.49	5.18	3.81	3.90	3.03	2.33	3.64	4.73	3.99	2.84	3.26	7.91	3.47	3.39	2.55	3.04	2.48	2.45	2.61	3.40	7.24	8.51	2.51	2.22	1.41	2.29	2.72	2.45	2.23	5.29	3.97	3.31	7.08	5.25	7.93	5.32	9.29	5.21	4.32	2.50	2.61	2.41	3.36	6.25	6.78	8.64	8.26	9.01	0.82	2.83	2.94	2.55	3.55	6.09	2.18	2.95	2.55	2.13	2.38	5.93	9.20	9.20	
1.96	3.88	4.77	1.01	0.53	0.96	1.39	1.90	3.42	3.68	4.35	3.71	4.07	2.94	2.86	2.78	3.12	4.18	5.88	1.17	1.44	1.86	0.40	1.94	2.00	2.25	2.70	2.95	3.09	3.20	3.22	3.15	2.77	2.39	3.04	3.83	4.02	5.47	5.50	5.74	6.81	8.50	10.11	8.06	9.02	9.25	5.09	5.18	3.46	4.07	3.89	2.47	2.22	4.15	7.19	1.94	2.26	2.28	1.32	2.28	7.48	7.03	5.35	3.86	1.89	2.37	4.12	6.72	3.59	4.32	1.19	3.34	0.24	3.32	2.07	1.82	2.66	2.41	3.98	6.88	7.66	8.79	1.50	0.90	1.30	2.56	2.70	1.80	3.01	5.25	3.40	2.69	4.83	3.44	7.33	8.75	6.11	5.74	3.30	2.99	2.13	2.59	3.40	6.46	5.83	7.61	9.82	1.75	3.42	3.03	2.39	3.17	7.43	0.92	1.29	2.65	1.87	1.52	3.10	6.57	6.57	
1.82	2.04	4.19	9.17	4.04	1.39	1.78	3.17	2.56	3.12	4.38	3.19	2.65	2.38	2.84	2.99	3.44	4.65	2.34	1.92	1.98	1.62	0.24	1.86	1.81	2.08	2.51	2.77	2.95	3.07	3.07	3.01	2.77	2.57	2.95	3.27	5.41	6.49	7.97	9.19	8.05	8.23	7.64	7.22	7.40	7.96	9.07	10.34	4.87	4.58	4.01	3.03	2.20	3.24	4.95	2.72	2.10	1.40	1.18	1.30	4.34	7.99	8.66	2.00	2.84	2.49	3.06	3.43	5.01	8.99	4.70	1.30	3.81	1.87	3.27	3.15	2.91	2.88	3.86	6.26	7.48	4.05	6.43	5.02	3.65	4.33	2.96	2.41	2.31	3.37	6.04	3.01	2.76	2.82	4.99	7.58	6.41	7.47	4.76	3.54	2.29	2.66	3.34	7.00	6.97	6.65	9.01	2.90	3.61	3.11	2.18	2.94	8.02	1.67	2.00	2.00	2.66	1.71	2.76	6.40	6.40	
2.04	2.12	2.93	7.96	5.03	1.76	1.77	2.61	6.07	6.56	8.07	1.52	1.63	2.76	2.74	3.36	4.56	4.38	1.14	2.37	2.05	1.12	0.52	1.92	1.83	1.94	2.22	2.55	2.80	2.94	2.96	2.91	2.74	2.53	2.67	4.44	5.91	8.20	7.55	5.92	5.82	6.34	5.54	5.68	5.73	5.65	6.87	8.03	9.17	10.40	5.19	3.44	2.64	2.76	4.43	5.09	0.72	0.69	1.64	1.12	1.98	6.88	8.96	5.33	4.17	3.23	3.71	3.04	3.19	4.59	4.71	1.78	2.78	3.34	3.12	3.13	3.05	3.63	3.75	6.86	1.54	3.49	3.69	4.55	4.11	3.81	3.92	3.29	2.39	2.33	3.23	5.78	3.25	2.59	3.07	5.52	5.25	3.96	7.51	3.93	2.48	2.72	3.13	7.24	7.75	7.96	8.82	2.12	4.32	2.66	2.47	3.11	8.61	2.83	3.67	0.19	1.90	2.51	2.80	3.48	3.48	
2.20	2.37	3.57	7.17	9.20	2.24	3.11	2.67	5.35	5.81	4.39	0.66	2.72	2.29	2.46	4.19	6.72	1.30	0.93	1.70	2.22	1.66	1.37	0.89	2.00	1.86	1.91	2.34	2.69	2.84	2.88	2.84	2.66	2.42	2.48	4.60	6.99	7.81	4.16	3.81	3.99	4.06	3.34	2.98	2.80	3.06	5.88	5.17	4.85	7.79	9.53	5.05	3.89	2.99	4.15	3.97	3.47	3.11	2.35	1.33	1.62	6.06	7.13	9.27	5.07	4.05	4.07	3.72	6.80	3.64	8.05	4.50	4.55	3.35	2.85	2.89	3.10	3.73	3.98	4.50	3.21	3.22	3.43	3.84	3.88	3.89	4.24	3.16	2.66	2.12	2.42	3.42	3.77	3.02	2.77	3.44	3.32	3.56	7.16	4.09	2.47	2.59	2.99	6.01	8.16	8.61	10.09	7.75	5.48	1.99	2.84	4.41	5.47	0.41	3.38	3.21	3.71	3.48	3.09	2.77	2.77	
2.15	3.48	3.07	3.90	4.09	4.28	3.21	5.03	4.08	5.80	1.83	0.77	0.81	1.99	2.06	4.10	8.18	0.43	0.76	1.86	3.39	2.08	1.33	0.86	0.91	1.82	1.66	2.15	2.58	2.76	2.81	2.79	2.58	2.31	2.34	5.03	7.09	6.85	3.88	3.60	3.71	3.66	3.38	3.18	2.77	6.89	3.93	3.60	3.00	2.91	6.96	8.16	4.52	4.02	4.53	3.55	3.90	3.81	2.99	2.09	1.84	2.11	3.28	6.72	8.67	8.99	9.36	3.09	2.89	2.91	4.84	4.71	4.04	3.74	2.80	2.52	3.40	2.83	3.90	7.96	5.26	1.04	2.37	3.63	3.60	3.99	4.31	1.27	3.23	2.97	2.94	2.86	3.62	3.43	2.75	2.83	2.86	3.17	4.48	4.24	2.55	2.44	2.99	6.21	7.71	8.02	7.12	7.46	7.66	5.23	5.07	9.61	1.99	1.10	1.95	3.42	3.63	4.03	2.29	2.39	2.39	
1.90	3.58	5.82	3.36	3.39	6.66	3.54	3.89	3.71	3.60	4.80	1.11	2.73	1.97	1.97	3.01	9.05	1.89	1.24	3.81	3.34	1.25	1.29	1.66	1.20	1.89	1.53	2.01	2.50	2.69	2.77	2.76	2.55	2.29	2.43	2.78	3.35	5.93	4.15	4.08	4.10	3.72	3.72	3.68	2.86	2.63	4.95	4.04	2.99	2.45	2.93	3.71	3.77	4.65	5.91	4.12	3.82	3.94	3.43	3.06	2.37	1.93	2.03	2.13	6.54	6.75	8.46	6.45	0.16	2.82	3.56	3.63	3.78	4.26	3.27	2.44	2.46	2.36	3.78	4.47	8.75	2.05	4.00	4.02	3.73	5.25	3.36	4.06	3.69	3.96	3.15	2.84	3.23	3.42	2.62	2.57	2.72	2.71	4.00	4.11	2.62	2.47	3.19	7.31	3.64	3.75	3.85	3.93	4.07	3.99	3.50	3.78	5.67	5.35	2.90	3.18	3.83	4.64	2.63	2.41	2.41	
1.85	2.50	7.10	4.05	2.80	2.76	3.64	7.63	3.72	3.70	4.61	1.36	2.92	2.07	2.39	4.01	8.81	4.33	3.68	5.17	1.83	0.50	1.74	2.24	2.06	1.05	1.64	2.00	2.48	2.65	2.75	2.74	2.57	2.31	2.44	4.91	4.95	6.76	4.85	4.94	5.31	4.52	4.92	4.70	3.09	4.31	6.36	4.33	2.98	2.15	2.72	3.49	3.61	5.14	4.41	3.64	3.79	4.18	3.60	4.29	0.97	2.14	2.37	1.92	2.35	3.67	6.95	9.67	1.04	0.84	2.70	2.88	3.28	4.56	3.92	2.79	2.45	2.30	2.33	4.21	7.50	9.69	5.25	4.95	3.80	3.95	3.93	3.70	3.47	4.15	3.11	3.46	2.90	2.04	2.54	2.53	2.76	2.43	2.98	3.65	2.62	2.49	3.32	3.86	3.99	3.98	3.95	3.86	3.82	3.81	3.59	3.48	8.22	1.84	3.77	2.75	3.63	6.64	1.41	2.80	2.80	
2.35	2.74	3.67	3.39	2.80	2.30	6.43	3.86	3.52	3.16	8.28	4.33	3.50	2.10	2.74	4.23	3.82	3.91	2.87	4.95	0.34	1.02	1.91	2.17	1.30	1.68	1.72	2.04	2.44	2.61	2.73	2.73	2.62	2.34	2.26	2.43	5.03	7.08	7.97	8.68	9.45	6.97	6.37	5.21	2.33	3.88	7.29	5.34	2.00	2.23	4.92	4.06	4.17	4.15	3.68	3.05	3.50	6.00	4.52	0.94	2.62	2.69	3.57	2.06	1.59	3.35	6.72	8.73	5.12	2.85	3.21	2.76	3.09	6.08	1.74	2.26	2.97	2.77	2.15	1.91	4.49	7.67	9.16	9.80	4.31	4.49	4.38	3.88	2.87	3.70	5.25	1.17	0.61	1.30	3.27	3.01	3.07	2.51	2.68	2.84	2.38	2.51	3.15	3.85	4.34	4.47	4.44	4.15	4.02	4.08	4.09	4.06	4.54	2.24	3.70	2.44	2.90	7.89	4.47	3.25	3.25	
3.15	3.44	3.67	3.79	2.08	2.06	2.71	3.55	3.31	4.31	4.05	5.31	3.36	2.10	2.65	6.83	4.81	3.55	2.89	4.65	3.71	2.49	2.28	1.92	1.57	1.78	1.63	2.07	2.41	2.58	2.71	2.73	2.67	2.44	2.20	2.13	2.21	4.90	6.83	7.35	8.71	9.70	9.81	7.18	1.80	4.07	4.29	7.18	3.53	1.88	2.89	6.84	5.14	4.24	3.17	2.52	2.53	3.85	8.16	4.31	3.16	4.74	3.83	3.01	1.73	2.11	3.39	6.72	7.19	4.97	3.45	3.16	4.33	1.68	3.27	2.71	2.80	2.24	2.43	1.82	1.91	4.56	6.87	8.45	9.08	5.51	4.10	2.55	2.27	4.04	3.67	3.54	2.97	3.96	3.26	2.95	1.22	2.96	3.17	2.90	1.98	2.18	2.80	6.20	6.36	7.35	6.75	6.09	6.40	6.04	5.97	5.10	2.35	4.22	3.31	2.31	3.31	4.50	4.22	3.54	3.54	
3.36	3.61	0.87	3.50	2.45	2.13	2.62	3.59	3.47	3.26	4.25	5.05	3.70	2.18	2.44	4.35	3.52	3.52	3.49	4.58	3.76	3.15	3.03	3.11	2.19	1.82	1.51	1.96	2.33	2.53	2.69	2.73	2.71	2.57	2.32	2.09	2.10	4.70	5.10	6.80	7.53	8.22	8.73	11.39	4.76	3.63	3.25	9.13	3.51	1.64	1.96	4.04	9.17	4.09	3.21	2.39	2.16	2.61	7.06	1.91	0.01	3.19	3.88	3.18	2.72	1.85	2.60	4.18	8.46	4.17	2.86	3.78	0.89	1.67	2.92	0.10	2.21	2.58	2.87	2.29	1.99	2.16	2.58	5.10	8.19	8.41	9.02	9.81	6.06	5.82	2.74	3.93	3.24	3.42	4.26	1.26	3.33	3.20	3.92	3.39	1.83	1.67	2.41	3.16	7.35	8.49	7.59	7.67	8.69	9.27	8.87	8.76	6.03	3.06	3.07	2.85	3.30	5.89	3.42	3.37	3.37	
3.65	6.06	3.65	3.96	2.62	2.11	2.52	4.33	7.74	7.61	7.70	4.89	4.36	2.65	2.95	6.20	4.49	4.07	4.35	0.99	0.47	1.10	1.41	1.13	0.33	1.92	1.53	1.78	2.17	2.47	2.66	2.73	2.73	2.65	2.45	2.12	2.00	2.25	4.87	6.41	7.66	8.16	8.50	10.86	4.26	4.47	3.46	4.73	0.91	2.12	1.80	3.60	6.87	2.17	4.44	3.92	2.73	2.29	3.84	2.89	3.34	3.07	3.79	4.43	2.77	2.09	1.99	3.60	6.00	8.46	6.15	4.75	5.19	5.02	3.02	3.12	3.14	3.59	3.53	3.00	2.42	2.20	2.20	2.55	5.12	5.53	8.02	8.49	9.29	4.29	1.25	0.96	3.28	3.36	2.79	3.98	3.20	3.50	4.10	1.14	2.12	1.39	2.14	3.19	7.58	6.30	4.92	5.78	7.85	8.14	7.16	7.40	9.14	9.45	2.71	3.60	5.14	2.49	3.81	2.86	2.86	
3.75	3.47	3.54	4.05	3.26	1.83	2.13	3.23	3.37	3.46	7.93	8.73	2.02	3.36	2.99	3.76	4.15	2.05	5.06	3.99	2.12	1.24	1.44	1.40	1.13	0.18	1.80	1.73	1.92	2.36	2.63	2.72	2.74	2.69	2.54	2.22	1.92	2.00	4.55	6.14	7.26	8.10	8.53	10.33	5.20	5.96	6.34	5.17	3.38	2.31	3.98	3.27	3.94	7.23	4.92	3.67	2.35	2.87	5.11	2.11	2.97	3.00	3.74	6.22	3.16	2.80	1.97	3.35	6.47	3.69	4.16	4.18	3.56	3.97	4.34	3.86	3.70	3.86	4.05	3.04	2.40	2.59	2.09	2.08	2.26	2.84	7.17	8.21	9.36	10.25	2.96	1.69	1.64	1.16	4.14	0.51	1.83	4.12	3.63	1.34	2.44	1.42	1.87	6.07	7.95	3.45	2.92	5.94	5.46	5.05	3.85	3.48	4.89	5.02	7.96	7.63	4.21	3.77	2.77	2.55	2.55	
3.84	3.47	3.68	4.43	2.60	1.70	1.57	4.46	4.08	3.63	4.01	4.11	4.65	3.81	2.69	3.51	6.27	6.30	4.84	6.72	1.50	0.67	0.88	1.23	1.37	0.27	0.39	1.91	1.83	2.26	2.62	2.71	2.75	2.72	2.60	2.36	1.92	1.81	4.25	5.72	6.93	8.05	9.01	10.47	11.08	9.14	9.65	1.76	1.69	3.73	3.27	3.45	3.50	8.95	10.08	10.21	2.29	3.18	0.87	2.72	2.78	2.86	3.30	4.32	3.02	3.70	2.73	3.42	3.95	2.70	4.12	3.73	2.43	3.34	3.62	3.68	3.76	4.07	4.02	1.25	1.81	1.83	2.51	2.07	1.76	1.73	4.62	6.93	9.26	7.18	9.90	5.74	4.54	3.78	4.05	2.33	1.01	4.19	4.12	0.40	2.67	1.76	1.89	6.50	4.20	3.45	2.96	3.26	3.50	3.62	3.39	7.17	3.95	4.74	8.47	7.84	2.35	2.81	2.61	2.19	2.19	
3.61	4.80	3.34	5.05	1.15	2.18	1.11	2.26	6.98	7.42	7.95	2.01	2.84	2.64	2.35	2.60	3.58	3.75	4.06	9.40	3.86	1.61	1.00	0.49	0.91	1.55	1.07	2.05	1.92	2.24	2.60	2.70	2.75	2.74	2.66	2.46	1.99	1.70	4.07	5.65	7.04	8.46	8.70	9.02	10.10	9.96	9.15	8.79	7.69	7.43	7.46	7.70	7.53	6.82	6.89	7.48	8.51	8.64	6.14	4.07	2.74	2.83	3.73	6.48	8.90	2.41	3.78	5.78	5.62	4.01	4.85	5.06	3.94	1.14	2.91	3.39	4.23	5.44	1.04	0.64	2.49	2.24	1.76	2.78	1.99	1.22	1.47	4.87	8.54	4.31	8.02	5.83	6.05	0.44	3.73	2.05	3.15	3.38	2.00	2.44	2.89	2.28	2.39	3.85	3.94	3.61	3.72	3.68	3.32	3.33	3.15	6.68	7.43	7.56	7.82	5.40	1.58	3.22	2.88	2.39	2.39	
3.51	3.02	2.90	5.02	1.94	2.45	1.48	1.24	4.24	8.26	8.55	8.39	2.07	3.01	3.06	2.63	2.60	2.49	2.63	7.39	8.09	5.69	3.17	1.53	1.54	2.06	1.55	1.86	1.96	2.28	2.57	2.70	2.76	2.76	2.70	2.55	2.13	1.73	1.73	4.30	6.56	7.16	7.42	8.29	9.36	7.97	8.08	7.58	6.18	6.04	6.44	5.95	5.69	4.54	4.50	4.55	4.52	6.71	7.72	5.61	3.06	2.59	6.80	8.35	7.67	4.06	2.97	3.19	3.62	5.07	4.66	5.33	3.20	2.72	2.46	3.09	6.60	1.56	1.04	1.09	3.18	1.31	2.67	2.97	1.13	1.13	0.94	4.57	7.44	7.36	5.91	9.01	6.07	2.22	3.53	1.77	3.49	3.49	4.38	3.60	2.90	2.68	3.11	3.82	4.89	3.84	5.33	4.19	3.38	3.27	3.50	2.92	6.48	7.68	4.23	8.13	5.11	4.13	3.69	3.62	3.62	
3.49	2.93	2.58	4.72	7.58	4.39	1.72	1.42	1.99	7.45	8.63	9.65	1.37	3.23	3.48	3.04	2.72	2.64	2.73	3.65	5.47	5.52	5.13	3.94	1.78	1.35	1.78	1.58	1.88	2.29	2.54	2.68	2.77	2.79	2.74	2.63	2.31	1.90	1.75	4.44	5.10	7.07	7.14	8.69	9.32	7.74	9.17	6.73	4.80	5.42	5.71	3.62	3.60	3.30	2.90	3.20	3.71	3.90	4.23	4.28	3.17	2.60	4.27	4.41	7.43	3.86	3.22	2.85	2.63	3.19	4.26	8.20	2.04	3.24	2.11	2.43	7.38	0.20	0.81	1.43	1.27	0.47	4.46	3.32	0.27	1.66	0.87	1.51	5.64	6.37	7.11	4.99	7.62	3.11	1.29	2.89	4.02	5.04	3.97	3.21	2.81	3.05	3.89	5.37	5.09	5.61	7.73	6.91	4.05	3.34	3.73	3.36	5.00	7.61	8.01	8.12	5.14	3.68	7.56	5.14	5.14	
4.05	3.18	2.52	4.58	4.73	4.89	4.74	2.01	1.71	5.16	8.21	9.23	2.12	1.21	2.95	3.50	3.37	3.25	2.96	3.42	4.12	4.69	4.21	1.53	0.71	0.93	0.66	1.40	1.68	2.23	2.50	2.67	2.78	2.81	2.78	2.70	2.47	2.11	1.86	2.10	5.04	6.80	7.15	9.56	6.65	6.17	7.03	5.99	5.66	3.53	3.46	3.57	3.52	3.40	3.23	3.36	3.86	3.99	3.75	3.75	3.15	3.02	3.80	7.13	7.33	1.68	3.45	2.94	2.52	3.00	4.22	8.21	1.82	3.74	2.24	2.18	8.01	4.40	3.30	3.14	3.49	3.80	4.14	3.66	0.97	0.68	1.33	1.06	1.94	5.56	8.34	8.71	10.03	7.46	6.10	5.56	6.38	5.69	3.96	3.69	2.89	3.14	4.07	6.28	4.30	4.22	3.05	4.98	8.44	4.27	4.10	5.50	5.92	6.67	7.40	7.95	4.97	3.30	3.36	5.73	5.73	
3.21	2.06	1.53	2.93	3.26	3.66	3.25	2.26	1.56	4.56	7.39	8.34	9.56	4.49	3.06	3.42	3.58	1.82	2.27	3.61	1.92	3.92	5.49	4.04	0.79	0.60	0.33	1.46	1.56	2.12	2.46	2.66	2.78	2.82	2.81	2.76	2.59	2.32	1.95	1.88	4.61	6.51	7.69	9.89	4.65	3.24	3.83	3.87	3.85	3.80	3.54	3.58	3.55	3.59	4.51	3.98	4.41	4.64	3.44	3.58	3.35	4.76	4.34	4.09	6.47	4.71	3.18	2.98	2.74	3.17	3.25	7.27	7.45	4.46	2.78	2.78	6.57	4.40	0.71	3.18	2.91	3.18	4.04	6.64	1.39	0.13	2.12	1.14	1.35	2.29	7.07	9.83	5.29	4.43	4.00	5.48	6.38	5.91	4.30	3.60	3.02	3.11	3.79	7.00	5.10	3.49	3.94	6.72	4.77	7.96	4.28	5.72	5.48	5.71	7.19	7.85	4.14	3.25	3.53	6.05	6.05	
4.06	3.39	3.25	3.28	3.32	3.67	3.48	2.46	1.71	2.08	4.97	6.56	8.12	9.67	4.38	3.08	4.05	4.47	3.73	4.02	3.91	3.68	5.08	1.33	1.12	1.55	1.74	1.77	1.57	1.97	2.40	2.63	2.77	2.82	2.83	2.80	2.68	2.49	2.07	1.81	2.29	4.91	7.34	9.62	4.68	3.44	3.48	7.94	3.84	4.23	3.95	3.89	4.54	4.79	6.28	3.47	6.02	6.26	4.33	4.68	4.05	2.96	4.62	4.20	4.36	3.66	3.45	3.08	3.02	4.34	3.87	6.87	4.65	4.47	3.12	3.64	3.86	0.72	1.56	3.60	3.12	2.79	3.12	5.56	1.93	1.73	1.42	1.36	1.18	2.03	5.27	9.88	4.99	2.81	2.09	2.12	3.96	4.74	4.93	3.55	3.36	3.61	5.24	7.34	7.42	4.18	4.23	3.25	7.44	9.79	3.99	3.32	4.03	5.42	7.27	7.39	4.06	3.18	3.92	6.54	6.54	
4.61	3.83	3.37	3.60	3.61	3.91	4.01	3.01	1.85	1.86	2.37	5.21	6.47	8.29	8.95	7.37	4.67	3.37	3.79	3.70	3.97	3.89	6.79	1.66	2.38	2.61	1.15	2.10	1.59	1.80	2.31	2.58	2.74	2.81	2.84	2.83	2.74	2.59	2.23	1.92	2.28	5.05	7.28	8.09	4.62	3.97	3.89	3.91	4.20	4.06	5.36	5.46	4.92	5.44	6.68	4.62	5.56	6.86	6.31	4.39	0.41	2.56	4.23	5.74	4.47	3.34	3.31	3.22	2.96	6.38	5.94	3.71	4.10	3.73	7.10	4.88	4.86	5.97	5.89	3.98	5.03	3.14	2.60	5.19	7.36	2.04	1.24	1.74	1.23	1.97	5.29	9.62	5.53	4.03	2.76	3.76	0.59	2.71	2.69	2.89	3.42	5.53	6.54	7.17	8.16	5.90	4.32	5.54	7.72	8.63	6.78	3.32	2.86	2.89	5.59	7.37	3.87	3.18	6.24	9.36	9.36	
4.26	3.74	3.42	3.85	4.34	4.71	4.68	1.95	2.21	1.76	1.74	1.92	5.32	5.90	8.28	8.20	5.10	3.71	3.37	3.47	3.97	4.66	6.12	1.10	1.47	1.10	1.12	0.60	1.73	1.65	2.15	2.50	2.69	2.78	2.83	2.85	2.78	2.67	2.38	2.11	2.23	5.20	7.64	4.17	4.04	4.11	4.64	4.49	5.67	5.58	6.25	6.92	5.88	5.55	6.23	5.42	3.98	8.27	5.42	4.72	4.34	3.71	3.52	3.48	3.22	3.06	3.23	3.48	3.91	4.18	8.57	4.13	4.21	4.19	3.48	3.54	3.57	3.35	3.44	3.30	3.41	3.79	2.54	4.94	8.50	2.94	1.67	2.21	1.46	1.75	5.42	8.62	11.02	3.33	3.48	3.43	2.45	3.02	2.38	2.37	3.28	6.08	7.50	7.32	7.46	9.84	5.67	5.54	6.12	7.64	8.45	6.27	4.67	2.85	2.95	6.22	3.55	3.24	4.52	9.10	9.10	
3.64	3.57	3.37	5.08	4.43	4.52	5.16	1.31	1.03	1.68	1.62	1.64	1.87	5.84	6.42	8.44	5.35	3.80	3.39	3.44	3.90	6.29	4.54	0.61	0.45	1.02	1.34	1.10	2.06	1.69	1.93	2.32	2.59	2.73	2.81	2.85	2.82	2.74	2.51	2.24	2.26	5.43	5.57	3.70	3.77	4.71	6.07	6.32	6.79	6.10	6.70	7.91	9.07	8.96	9.03	7.05	3.90	3.45	4.01	4.11	4.11	3.30	2.91	2.98	3.06	2.71	3.23	4.69	3.68	5.99	3.51	4.49	6.00	1.84	1.29	2.59	3.74	3.67	3.32	3.04	3.21	3.15	2.65	2.60	5.86	7.09	2.72	2.67	1.73	1.86	5.26	8.35	10.65	3.31	2.64	2.24	2.45	2.62	2.32	2.13	5.24	6.17	7.99	9.21	9.63	6.39	5.81	5.52	5.36	7.21	8.37	6.40	5.95	4.11	3.39	5.91	3.32	3.33	7.36	7.73	7.73	
3.32	3.44	4.23	4.63	5.44	4.78	4.22	1.38	0.99	1.16	1.81	1.75	1.81	2.12	5.96	7.97	5.18	3.54	3.55	3.49	5.46	8.97	2.19	1.59	1.27	1.08	0.84	0.74	0.42	1.95	1.90	2.10	2.40	2.64	2.79	2.85	2.85	2.79	2.62	2.33	2.37	3.01	3.36	5.37	4.57	4.64	6.20	6.47	6.69	5.38	4.65	6.43	7.81	9.07	9.45	8.24	3.44	4.01	0.27	1.26	2.54	2.57	2.68	2.84	2.73	2.34	3.14	6.36	4.08	3.18	5.97	3.94	6.03	4.93	4.72	3.08	3.69	2.61	0.26	1.59	3.40	3.39	3.04	2.77	3.34	5.15	5.10	2.85	1.86	1.90	5.30	8.85	8.67	4.23	4.23	3.93	3.07	2.90	2.25	2.03	2.88	6.23	8.40	7.60	8.14	6.64	5.67	6.33	5.78	6.10	7.98	5.53	4.50	4.98	3.60	3.88	3.29	2.91	4.57	5.26	5.26	
3.28	4.07	5.32	5.72	6.65	5.45	4.45	5.08	4.55	1.57	0.78	2.70	2.23	1.75	1.99	7.07	5.69	3.04	2.72	5.92	7.84	9.36	6.40	2.55	0.16	1.52	1.98	1.38	0.58	0.74	2.12	2.02	2.18	2.53	2.76	2.85	2.88	2.83	2.73	2.45	2.45	2.79	2.79	4.89	6.32	7.10	7.57	7.44	7.67	5.88	4.87	6.37	7.07	3.47	9.43	8.48	6.28	4.27	6.45	3.72	2.72	2.52	1.73	1.50	2.39	1.84	2.48	7.67	6.96	4.92	4.57	3.92	4.08	4.87	2.42	4.23	2.93	5.71	3.89	3.57	3.66	3.83	3.59	3.51	3.62	1.14	3.17	2.08	1.71	1.89	5.40	8.96	5.95	3.34	3.14	3.62	3.30	2.60	1.98	1.89	5.24	8.34	6.59	6.89	7.27	6.07	5.38	4.02	4.99	3.26	6.57	4.48	4.21	4.17	3.42	3.63	3.54	2.70	3.41	7.56	7.56	
4.31	5.33	6.06	2.18	4.31	5.53	4.89	4.48	5.29	5.81	5.82	4.51	0.80	2.03	1.63	3.63	5.75	2.68	2.54	6.16	7.09	9.02	8.88	2.91	2.16	2.27	1.61	0.85	1.27	0.28	0.13	2.10	2.10	2.43	2.71	2.84	2.90	2.87	2.83	2.56	2.48	2.57	2.32	4.67	6.26	7.36	9.06	9.95	10.50	10.24	10.31	9.59	6.84	7.74	8.18	8.81	7.95	6.74	8.71	5.05	4.16	4.14	3.26	1.91	2.45	1.67	1.78	7.58	7.04	6.68	4.27	3.78	3.63	8.27	5.16	0.56	0.18	2.00	3.67	2.24	3.17	3.03	4.13	3.87	3.33	3.71	1.00	1.56	1.55	1.84	5.64	8.85	10.18	4.33	1.35	0.66	0.65	2.34	1.85	1.68	6.10	6.51	6.16	6.13	5.94	4.27	4.22	4.20	3.91	3.14	3.88	3.93	4.02	4.26	3.77	3.67	4.01	2.99	2.48	3.35	3.35	
3.81	5.80	6.72	3.54	4.02	3.86	4.30	3.14	3.20	3.42	3.50	3.79	3.85	2.26	1.95	2.57	3.26	2.21	2.74	7.31	8.79	7.55	5.62	4.38	2.22	1.48	0.57	0.72	1.20	0.30	0.76	2.15	2.15	2.38	2.66	2.84	2.91	2.91	2.89	2.65	2.52	2.44	2.06	2.02	4.49	6.49	8.16	9.90	9.91	9.50	9.69	7.85	5.82	6.50	7.44	8.52	8.05	7.46	8.66	9.81	6.31	4.55	3.10	2.77	2.88	2.08	2.19	5.40	3.92	3.91	3.98	3.67	3.32	7.59	9.48	1.93	1.03	0.74	3.76	3.57	4.32	3.95	4.36	4.44	1.96	0.73	1.40	1.90	1.55	1.65	5.52	8.29	10.47	1.86	1.67	1.77	1.93	2.60	1.93	1.70	3.65	3.65	3.71	3.90	3.84	3.85	3.72	4.02	4.03	3.44	3.30	3.20	4.04	4.89	4.60	4.24	4.23	1.96	2.29	2.17	2.17	
2.86	5.53	5.52	4.07	3.39	3.04	3.29	3.33	3.35	3.51	3.60	3.63	3.68	3.24	2.53	2.38	2.25	1.77	1.68	5.82	7.55	8.96	10.15	3.33	1.94	0.40	0.59	0.90	1.29	1.48	0.68	2.06	2.16	2.34	2.61	2.84	2.93	2.95	2.92	2.76	2.63	2.41	2.00	1.85	4.23	5.90	8.16	9.86	9.40	9.85	9.26	8.04	6.08	5.59	7.35	8.24	7.58	7.23	7.76	8.27	7.12	6.96	6.43	5.10	3.32	2.62	2.99	3.98	3.88	3.48	3.75	3.87	3.49	3.48	7.52	2.10	3.33	4.92	4.79	3.25	3.66	3.47	5.16	7.96	5.62	3.66	2.67	2.11	1.68	1.67	2.95	7.57	9.98	5.65	3.67	3.42	2.84	2.49	2.13	2.16	3.31	3.76	3.73	3.75	3.81	3.76	3.27	4.02	4.47	4.03	3.31	2.31	3.23	6.54	6.69	5.00	2.90	1.62	2.69	2.18	2.18	
3.90	4.97	5.21	3.41	2.98	2.94	3.47	3.73	3.71	3.95	3.91	3.61	3.72	3.37	2.78	2.40	1.87	1.77	1.64	2.51	5.97	7.58	9.28	9.59	6.56	0.94	0.44	0.84	1.30	1.12	0.26	2.01	2.10	2.31	2.60	2.85	2.94	2.98	2.95	2.87	2.76	2.48	2.05	1.79	1.83	5.49	7.97	8.63	8.47	9.79	8.36	7.52	6.75	6.14	7.29	7.63	6.90	7.01	7.80	7.80	6.21	4.70	5.09	4.20	3.52	2.87	3.14	6.40	4.03	3.30	3.96	4.08	3.80	5.50	5.09	2.06	2.69	3.86	5.17	5.38	3.97	3.14	5.05	6.38	5.82	4.54	2.52	2.06	1.82	1.90	5.17	7.74	9.81	1.08	1.44	1.71	1.79	2.11	2.35	2.58	4.28	4.66	4.51	4.16	4.12	3.03	2.77	5.08	5.06	4.23	1.96	2.48	2.21	3.39	6.55	6.63	1.22	2.01	2.71	2.08	2.08	
4.74	2.58	2.93	2.51	2.93	3.09	4.00	4.61	4.27	4.57	3.79	3.69	3.69	3.19	2.66	1.71	1.87	2.06	1.93	1.45	2.31	6.25	8.90	9.35	10.52	0.90	0.28	1.10	1.41	1.05	0.55	2.10	2.08	2.32	2.60	2.86	2.95	3.01	2.99	2.95	2.85	2.64	2.22	1.84	1.76	4.28	7.47	7.82	7.87	9.26	7.36	6.62	6.70	6.21	6.31	6.01	5.78	6.00	5.95	5.83	5.45	4.06	4.00	3.94	3.61	3.12	2.79	7.32	6.39	3.87	3.55	3.78	3.73	6.69	6.45	4.98	4.14	4.10	4.32	4.29	4.38	3.21	6.15	3.65	6.77	5.27	2.41	1.95	1.73	1.92	5.66	8.02	9.89	3.22	2.38	2.42	2.55	2.88	2.50	2.60	4.28	6.93	6.31	4.87	4.03	2.07	2.42	5.77	7.65	2.50	1.91	2.79	2.21	2.86	6.03	8.50	1.47	2.05	3.11	2.21	2.21	
4.75	2.36	0.15	3.40	2.88	3.18	5.51	5.32	4.23	6.19	4.61	4.12	3.05	1.04	1.26	0.90	2.41	2.67	2.28	1.36	1.11	5.49	7.86	8.76	10.22	0.87	2.05	2.72	3.14	3.21	2.32	2.25	2.05	2.33	2.62	2.86	2.96	3.03	3.03	3.00	2.92	2.77	2.44	2.04	1.89	2.32	5.44	7.72	8.55	6.73	5.82	4.30	3.93	3.79	3.63	3.65	3.40	3.26	3.57	3.81	3.95	3.90	3.79	3.74	3.83	4.75	4.55	6.39	4.32	5.88	4.90	4.05	4.77	5.62	5.94	5.63	5.20	3.92	4.38	3.89	4.41	4.53	3.56	3.44	4.01	6.80	2.19	1.93	1.54	1.66	5.68	8.27	9.74	8.43	3.22	2.36	2.46	2.78	2.61	2.66	3.82	7.20	8.28	5.93	2.81	1.78	1.49	2.71	5.70	1.34	4.27	3.29	2.52	2.69	5.42	6.55	3.89	4.31	1.45	2.80	2.80	
4.77	4.23	3.37	3.47	2.89	2.98	5.68	6.52	3.34	6.09	5.90	0.88	2.88	3.66	3.87	3.18	3.08	4.46	2.34	1.45	0.76	2.04	6.65	8.35	10.47	6.22	3.04	2.56	2.56	2.63	1.52	2.24	1.95	2.25	2.59	2.84	2.97	3.05	3.06	3.04	2.98	2.87	2.64	2.31	2.04	2.25	5.20	8.26	4.68	3.94	3.98	4.07	4.25	4.04	3.75	3.86	3.68	3.38	3.36	3.37	3.42	3.76	3.74	3.36	6.07	6.85	3.53	4.99	3.41	3.92	3.78	6.13	4.90	4.49	5.11	5.16	4.29	4.49	3.82	4.07	3.81	3.63	3.36	3.30	3.91	5.04	1.53	2.41	1.49	1.45	5.73	7.84	8.99	10.27	2.87	2.28	2.64	2.69	2.62	2.74	5.81	7.26	8.46	9.91	3.39	2.05	3.67	4.09	5.41	3.22	4.33	2.36	3.21	2.90	3.42	5.09	4.03	4.00	3.28	3.34	3.34	
5.05	5.07	4.06	3.28	2.86	2.85	6.31	7.86	3.12	7.40	4.93	3.59	3.77	3.81	4.04	3.94	3.85	4.35	1.55	1.19	0.90	1.29	5.21	6.07	8.68	10.69	1.61	0.30	0.92	1.40	0.79	2.28	1.98	2.11	2.49	2.81	2.97	3.05	3.08	3.06	3.02	2.95	2.79	2.55	2.15	2.04	5.35	5.38	4.04	6.53	4.09	4.05	5.50	4.47	4.51	4.73	4.35	3.68	3.33	3.06	3.03	4.43	4.46	3.94	6.35	3.75	8.33	3.83	3.52	3.39	3.27	3.94	5.90	4.27	3.48	3.35	4.03	4.71	4.85	3.91	4.16	3.91	3.29	3.09	3.86	4.81	2.29	2.14	1.74	1.48	3.35	7.18	8.31	9.95	5.30	4.32	3.65	2.80	2.56	2.66	6.30	7.68	7.96	9.93	11.50	5.02	4.07	4.01	4.93	3.41	2.37	3.72	3.07	4.08	4.98	6.92	1.44	2.80	4.12	2.60	2.60	
3.87	3.73	3.45	2.94	2.84	4.75	6.37	9.31	0.43	2.61	3.60	3.64	3.59	3.83	4.42	4.19	3.28	2.75	0.75	2.04	1.49	1.45	1.42	2.57	6.39	11.09	2.01	1.36	0.80	0.40	0.38	0.55	2.32	2.17	2.37	2.75	2.97	3.05	3.09	3.08	3.06	3.01	2.90	2.72	2.33	2.11	2.94	3.74	3.94	4.34	4.62	5.11	5.70	5.76	5.38	5.34	4.54	3.74	2.61	3.00	3.34	6.38	4.99	6.20	4.67	6.00	3.70	7.18	4.08	3.46	3.27	3.01	3.31	4.72	3.42	3.76	3.36	3.33	3.48	3.74	4.29	4.16	3.43	2.86	3.75	5.76	4.20	3.55	1.98	1.51	3.27	7.18	8.75	8.12	6.43	4.88	3.80	2.97	2.50	2.64	6.55	7.66	7.27	8.66	9.80	4.11	4.36	8.08	6.70	5.07	4.86	5.87	4.69	5.28	4.98	7.36	3.21	3.90	3.70	3.15	3.15	
4.10	3.49	3.13	2.77	2.58	4.86	7.09	8.80	1.17	2.67	3.21	3.32	3.13	4.30	4.72	2.01	1.08	0.75	0.50	0.61	1.64	1.14	1.11	1.29	5.52	8.96	9.98	5.57	4.70	3.54	2.46	1.79	0.95	2.63	2.41	2.68	2.95	3.03	3.08	3.08	3.08	3.06	2.96	2.81	2.54	2.42	2.85	3.16	4.61	5.86	6.22	6.28	6.57	7.28	7.88	7.31	4.96	2.78	2.08	2.92	3.03	2.19	2.85	5.05	7.92	4.10	5.70	8.13	4.72	4.04	3.42	3.15	2.81	3.25	4.69	2.96	3.69	3.40	3.32	3.52	4.21	4.29	3.50	2.85	3.61	4.84	3.70	3.12	1.88	1.29	3.04	7.62	7.29	7.19	6.60	6.32	4.03	3.09	2.66	3.43	6.38	7.04	7.01	8.46	4.96	3.21	2.84	2.88	6.45	7.32	5.80	8.46	8.66	5.54	5.64	8.66	9.07	2.73	2.72	2.64	2.64	
4.01	3.63	3.38	2.82	2.21	4.63	7.95	9.00	1.30	2.72	3.22	2.92	2.97	4.19	6.11	2.13	2.61	2.87	3.89	3.29	0.94	1.55	1.28	1.31	4.62	6.85	8.00	6.66	6.47	6.69	5.15	3.69	3.27	3.20	2.67	2.64	2.89	2.98	3.05	3.08	3.09	3.08	2.99	2.87	2.63	2.56	2.84	4.17	5.40	7.13	8.60	9.51	9.96	9.66	9.87	10.55	10.91	1.83	1.44	3.41	3.46	2.38	2.47	3.29	3.80	7.94	8.41	7.31	5.11	5.55	3.88	3.12	3.36	2.99	3.40	3.86	3.87	3.65	3.39	3.45	4.05	4.21	3.81	3.29	3.78	3.71	3.41	2.54	1.77	1.18	3.11	6.50	5.85	6.10	4.27	4.64	4.25	2.87	2.47	3.61	7.01	7.55	8.48	9.51	6.29	3.98	3.10	3.01	6.99	5.26	3.52	6.40	5.93	4.07	3.87	7.98	9.56	2.74	3.22	2.60	2.60	
3.68	3.68	3.75	3.52	2.36	4.46	7.36	8.73	5.00	3.89	2.42	3.35	3.11	4.41	4.07	2.48	2.78	3.68	3.86	1.77	2.09	1.45	1.81	1.39	2.00	5.84	6.14	5.24	4.27	4.93	4.70	3.86	3.73	3.54	2.75	2.53	2.76	2.90	3.00	3.05	3.07	3.07	3.00	2.88	2.61	2.39	2.58	4.61	6.89	7.95	8.88	9.77	9.83	9.05	9.12	9.60	10.40	11.22	3.52	3.07	2.50	2.84	2.52	3.26	4.42	4.21	4.54	5.51	3.37	3.44	4.16	4.52	2.49	1.53	1.27	3.57	3.72	3.73	3.57	3.62	3.84	4.06	3.87	3.66	4.30	4.54	3.69	2.63	1.91	1.55	2.35	3.32	3.33	3.51	3.66	3.86	3.67	2.23	1.50	3.22	7.07	8.47	9.29	6.64	6.03	4.75	2.88	3.31	7.01	5.39	3.54	3.62	3.93	3.92	4.01	3.63	7.59	10.15	3.73	3.07	3.07	
3.13	3.60	4.60	4.09	3.84	6.07	7.20	5.18	4.59	3.73	3.24	3.03	3.51	3.66	4.02	3.81	3.95	3.48	3.76	4.46	4.20	1.97	1.69	1.58	2.07	3.20	4.15	4.09	3.94	4.17	4.19	3.74	3.96	3.90	2.69	2.24	2.52	2.73	2.89	2.99	3.04	3.05	3.00	2.87	2.59	2.19	2.21	4.89	7.25	7.88	8.34	9.19	9.74	8.93	9.14	9.38	9.79	10.85	3.76	3.36	3.98	3.00	2.57	4.31	3.58	3.38	4.54	4.93	3.66	3.24	3.13	3.58	4.58	3.74	3.76	3.68	3.67	3.67	3.68	3.95	3.99	4.19	4.00	3.38	4.14	4.73	1.66	0.16	2.40	2.22	2.67	3.19	3.04	3.05	3.54	3.96	3.38	2.05	0.81	1.30	6.32	8.15	9.26	4.90	4.02	3.69	2.94	3.61	4.15	3.61	3.22	3.61	3.99	3.93	4.99	4.00	6.98	10.06	4.70	3.79	3.79	
2.72	4.57	5.88	4.43	4.16	5.52	6.42	7.17	3.52	3.56	3.45	3.65	1.09	3.83	3.83	3.90	0.90	3.41	3.50	4.78	3.84	1.46	0.76	1.38	2.15	2.68	3.39	3.85	4.14	4.01	3.82	3.79	4.41	3.61	2.80	2.13	2.13	2.40	2.75	2.90	3.00	3.04	3.00	2.86	2.60	2.10	2.04	4.96	7.21	7.76	7.99	8.47	9.28	9.14	9.27	9.07	9.25	10.76	4.46	3.70	4.15	3.18	2.74	3.14	3.42	3.42	3.87	4.76	3.84	2.40	1.35	3.19	3.55	3.78	3.72	3.75	3.72	3.62	3.70	4.01	4.03	4.34	3.83	3.13	3.37	6.58	1.26	0.99	2.60	3.03	2.96	2.67	2.80	3.16	3.73	4.75	2.96	1.12	0.67	0.93	3.18	7.39	9.04	5.03	4.97	3.71	3.57	3.56	3.69	3.28	3.33	6.32	7.51	8.26	8.34	8.56	7.83	5.29	6.51	4.75	4.75	
2.47	5.73	6.41	5.07	4.09	5.44	5.52	3.86	4.01	2.99	4.08	3.38	3.91	4.11	2.94	3.79	3.62	2.81	3.47	6.06	1.08	0.27	0.54	0.77	1.33	2.71	3.01	3.81	4.12	3.57	3.56	4.24	4.86	3.20	1.98	1.45	1.88	2.00	2.49	2.77	2.94	3.02	3.01	2.88	2.67	2.14	1.99	4.95	5.50	7.64	7.73	7.98	8.68	9.01	9.18	8.82	8.82	10.36	11.34	4.07	4.31	3.56	3.25	3.17	3.25	3.33	3.70	4.62	1.24	4.23	2.32	0.74	3.34	3.49	3.42	3.58	3.70	3.66	3.61	3.89	3.86	5.20	4.62	3.39	4.56	4.34	4.46	0.48	3.56	3.67	0.61	2.45	3.87	4.32	4.96	4.85	2.23	1.54	0.86	0.75	2.85	4.00	8.18	4.89	3.56	3.76	4.32	4.42	4.12	3.39	2.43	2.12	2.94	3.60	5.83	5.06	3.88	5.89	4.67	4.17	4.17	
2.17	6.08	7.03	5.34	5.12	7.53	3.77	3.96	5.45	6.29	6.94	6.33	4.28	3.80	0.69	4.07	3.93	2.15	3.90	1.60	3.03	2.47	1.69	1.99	0.36	2.27	3.23	4.63	4.30	3.90	4.42	5.01	4.42	0.92	0.86	0.91	2.07	1.80	2.12	2.58	2.87	2.99	3.01	2.90	2.79	2.34	2.08	2.35	5.14	7.36	7.71	7.93	8.53	8.79	8.78	8.83	8.98	10.03	11.26	5.03	4.38	3.79	3.66	3.44	3.28	3.32	3.49	4.22	4.81	0.53	4.27	1.53	3.43	0.70	3.13	3.40	3.79	3.74	3.45	3.75	4.44	5.40	5.65	1.39	4.19	4.28	0.75	2.81	4.28	4.00	3.92	2.49	4.70	5.76	6.90	4.72	0.98	0.25	1.33	0.74	1.32	3.96	7.38	4.02	3.55	3.95	6.12	6.09	5.08	3.49	2.89	1.88	2.30	5.96	3.74	3.64	6.23	4.55	4.43	7.18	7.18	
1.69	2.43	7.77	6.27	3.93	3.82	5.18	3.54	3.44	3.73	3.95	4.45	7.28	6.81	6.98	8.27	7.56	5.77	7.67	5.37	2.28	2.62	4.23	3.71	1.09	4.47	4.77	5.29	4.44	4.45	5.10	3.94	1.05	0.94	0.79	1.02	0.76	1.88	1.82	2.38	2.82	2.95	2.99	2.95	2.89	2.63	2.35	2.19	2.38	5.34	7.07	7.64	8.29	8.38	8.40	8.66	8.81	9.40	9.96	4.58	4.20	3.54	3.93	3.70	3.33	3.39	3.55	9.57	4.33	4.76	1.17	1.59	3.66	1.14	2.76	3.14	3.88	2.88	3.49	4.67	3.95	5.04	3.06	2.01	3.90	4.71	0.90	1.04	3.82	3.86	1.97	4.59	4.18	4.78	5.68	5.21	1.38	0.89	1.34	1.01	0.97	3.58	4.59	3.84	3.31	4.16	7.02	7.94	7.74	3.39	3.60	2.39	2.36	3.10	3.43	3.45	6.37	5.15	5.52	3.78	3.78	
1.71	2.18	4.78	4.84	4.51	3.83	3.52	3.42	3.34	3.21	3.04	2.89	4.98	5.06	5.11	5.44	7.16	6.11	5.60	7.78	5.08	3.23	4.27	3.56	3.03	3.60	5.67	6.62	5.91	5.54	4.39	2.14	1.80	1.45	1.63	1.61	0.83	0.53	1.78	2.29	2.79	2.93	2.99	2.99	2.97	2.85	2.66	2.31	2.23	2.68	5.08	5.35	7.87	8.03	7.95	8.51	9.11	9.91	11.03	10.78	5.21	4.59	4.19	3.98	3.38	3.51	3.89	3.96	4.05	4.80	1.44	3.86	3.33	1.72	2.44	2.80	3.84	3.80	3.57	5.50	4.52	5.65	3.26	3.90	4.35	3.46	2.14	3.95	0.91	3.96	3.68	3.57	5.07	1.99	6.63	7.63	7.37	2.05	0.88	1.89	1.08	1.75	3.09	3.66	3.29	3.74	7.02	8.10	9.18	3.33	4.17	2.93	2.63	3.26	3.30	3.46	5.04	2.52	3.10	2.97	2.97	
2.12	2.55	4.53	7.19	4.94	3.34	3.54	3.52	3.49	3.30	3.14	2.98	3.05	3.38	3.20	3.32	5.72	5.40	5.86	7.54	5.16	4.70	5.15	3.77	2.72	2.75	3.38	6.43	8.29	8.69	3.54	1.74	1.46	1.27	0.99	0.95	1.65	1.49	1.99	2.38	2.81	2.94	3.02	3.03	3.04	2.98	2.87	2.59	2.37	2.51	2.42	4.75	6.90	7.41	7.51	8.37	9.16	9.85	10.03	10.59	11.42	11.51	5.09	3.91	3.65	3.72	4.04	4.04	3.96	4.99	3.41	2.86	2.00	2.39	2.55	2.63	4.91	3.55	3.36	5.70	3.48	5.28	3.39	2.58	2.26	3.84	4.21	0.99	4.16	4.13	3.10	4.00	5.12	4.98	4.77	3.46	4.62	6.98	2.22	0.98	1.69	1.62	2.59	4.26	3.97	3.72	6.22	6.93	8.52	4.69	2.55	3.23	3.00	4.49	3.71	4.59	3.99	3.23	3.01	2.75	2.75	
2.33	2.81	6.85	8.20	1.59	0.94	2.87	1.07	1.14	2.97	3.32	3.44	3.27	3.19	3.24	3.30	3.68	3.76	3.67	5.74	5.61	4.24	4.13	3.82	2.77	2.57	2.71	6.02	7.40	9.57	6.57	1.22	1.02	1.94	2.70	2.77	2.50	2.60	2.25	2.55	2.86	2.97	3.06	3.08	3.08	3.05	2.98	2.82	2.63	2.58	2.31	2.15	4.68	4.86	6.65	7.63	8.46	8.68	8.90	9.47	10.67	10.41	7.57	4.69	4.10	4.21	4.26	4.04	3.90	6.62	1.29	2.00	3.04	2.87	2.85	2.66	4.83	1.93	4.01	6.79	1.07	3.70	6.82	3.48	2.64	3.24	3.42	3.72	5.63	5.42	4.33	3.68	3.45	3.88	3.63	2.97	3.77	4.70	5.81	2.22	2.64	1.90	2.25	4.13	6.39	6.16	6.74	6.88	8.55	6.89	3.57	3.61	3.59	4.63	6.22	5.44	4.18	3.90	3.27	2.96	2.96	
2.62	4.17	3.59	4.26	5.90	5.45	5.46	5.30	4.36	3.84	3.78	3.81	3.67	3.38	3.26	3.25	3.42	3.52	3.45	3.63	4.01	4.02	3.91	3.79	2.84	1.97	2.35	5.69	6.94	7.86	8.45	8.31	7.13	5.25	4.53	4.38	3.40	2.93	2.52	2.72	2.92	2.99	3.07	3.10	3.11	3.09	3.05	2.97	2.84	2.74	2.45	2.21	2.28	4.31	4.46	6.77	7.27	7.62	8.44	9.05	9.71	9.60	8.99	7.43	9.51	4.86	10.73	10.81	10.52	10.77	5.28	4.42	3.46	2.96	2.95	2.72	4.65	3.10	3.88	4.50	3.76	4.45	5.07	4.29	2.61	3.48	3.06	2.96	3.18	3.70	4.08	3.95	3.61	3.80	3.55	2.94	3.12	3.52	4.29	5.11	2.71	2.09	2.01	3.75	7.17	7.96	8.76	8.44	9.49	11.38	4.58	2.67	2.72	3.59	5.76	5.81	4.99	3.82	3.46	3.48	3.48	
3.62	4.45	3.64	3.74	3.87	3.91	3.81	3.60	3.65	3.70	3.89	4.03	4.00	3.66	3.51	3.47	3.45	3.28	3.21	3.34	3.61	3.92	4.22	4.24	3.31	2.20	1.90	2.59	5.50	6.16	6.32	6.68	7.49	6.92	5.25	4.80	3.71	3.32	2.91	2.97	2.93	2.92	3.02	3.08	3.11	3.11	3.10	3.06	2.99	2.89	2.69	2.48	2.34	2.09	2.18	4.73	6.14	6.61	7.95	8.53	8.19	8.81	9.74	9.48	5.61	8.45	8.05	8.77	8.28	8.20	5.20	4.52	3.12	3.67	2.94	2.79	4.31	4.29	6.16	5.42	3.18	4.78	5.40	2.16	4.33	2.97	3.89	3.38	3.14	3.45	3.81	4.05	4.12	4.16	4.10	3.44	3.19	3.25	3.25	3.35	2.77	1.94	1.81	3.54	7.19	7.26	3.50	3.52	8.06	10.02	8.86	1.74	3.02	5.14	5.32	4.40	3.82	3.74	3.70	4.37	4.37	
4.51	4.03	1.27	3.64	3.55	3.81	3.59	3.43	3.60	3.40	3.71	4.51	4.24	3.43	3.72	3.13	3.48	3.25	3.33	3.35	3.44	3.88	4.46	4.47	2.62	2.44	2.10	2.33	3.00	3.55	3.98	4.21	4.81	6.35	4.75	4.30	4.05	3.54	3.29	3.33	2.98	2.71	2.86	3.01	3.05	3.09	3.12	3.11	3.07	3.00	2.89	2.75	2.55	2.24	2.21	2.53	2.60	6.38	7.23	7.64	8.29	9.05	10.09	4.01	8.27	5.83	7.93	8.98	8.33	8.60	10.82	1.32	3.66	2.42	2.01	2.79	4.09	4.53	3.12	3.65	3.13	2.88	5.28	4.45	3.89	4.48	4.86	4.20	1.32	3.91	4.11	4.35	3.86	3.84	3.62	2.56	4.06	3.70	3.40	2.41	1.15	1.65	1.61	3.52	4.15	4.15	6.80	6.68	7.13	9.34	8.15	7.68	5.82	4.24	6.06	5.48	4.10	3.61	3.74	4.79	4.79	
4.54	4.47	3.51	3.60	3.56	3.83	3.30	3.22	3.89	3.24	4.22	6.17	4.98	3.02	3.89	2.31	0.76	1.30	3.58	3.44	3.35	4.65	5.12	4.93	2.90	1.55	2.07	2.19	2.38	3.12	3.70	3.80	4.11	4.45	4.33	4.17	4.05	3.80	3.74	3.69	3.00	2.54	2.73	2.88	2.94	3.05	3.12	3.13	3.12	3.07	3.00	2.91	2.78	2.58	2.39	2.32	2.25	4.63	5.19	5.79	7.59	8.89	10.32	6.68	7.24	3.81	3.82	4.32	6.14	4.40	4.97	1.17	4.22	2.58	2.76	2.78	3.18	6.95	4.35	3.96	3.13	2.80	4.02	4.66	2.69	3.11	3.36	3.84	3.67	3.68	3.85	6.60	6.27	6.92	7.60	3.80	2.27	1.03	1.02	0.66	1.72	1.71	1.48	2.21	3.08	4.29	3.49	3.08	6.68	9.95	6.24	4.26	7.58	3.56	3.09	3.91	4.11	3.59	4.58	4.86	4.86	
3.89	5.67	2.21	3.22	3.28	1.75	0.59	3.30	5.25	2.04	3.73	6.28	4.84	1.93	2.00	2.78	3.38	3.23	3.61	3.23	4.03	5.74	7.04	5.81	0.31	1.04	2.03	1.96	0.69	3.37	3.82	3.75	3.84	3.82	3.71	3.74	3.92	4.12	4.45	2.89	1.09	2.69	2.82	2.73	2.81	3.00	3.10	3.13	3.13	3.10	3.06	3.01	2.92	2.82	2.64	2.45	2.22	2.22	2.54	5.17	7.28	9.07	7.75	4.07	7.56	8.90	4.01	9.45	8.69	8.76	10.83	4.28	4.20	4.73	4.14	3.50	2.92	3.34	4.00	4.34	3.45	2.93	5.25	4.28	2.84	1.55	3.07	3.43	3.40	3.00	2.95	3.35	3.50	3.81	6.05	4.43	6.34	4.59	4.92	3.36	3.05	2.44	1.56	1.72	3.88	6.50	6.67	6.85	8.42	8.07	5.23	7.49	8.73	4.37	3.30	3.17	3.65	3.98	3.73	3.72	3.72	
2.68	6.97	5.05	1.97	4.21	3.47	3.09	3.56	5.42	3.12	2.53	6.72	1.71	3.19	4.27	3.78	0.94	3.85	4.15	2.98	5.24	3.24	3.55	7.91	4.79	4.10	4.16	3.46	3.37	4.08	4.15	3.67	3.52	3.41	3.30	3.21	3.74	4.98	3.28	1.20	1.62	3.10	3.07	2.56	2.67	2.96	3.03	3.09	3.10	3.10	3.09	3.06	3.01	2.94	2.83	2.69	2.40	2.07	2.06	4.73	6.74	8.55	7.38	3.91	8.44	8.55	9.47	6.46	6.03	7.86	5.36	5.78	3.30	4.67	8.26	3.54	3.67	3.03	3.19	4.49	3.37	3.09	5.46	5.27	3.75	3.89	3.32	3.54	3.81	3.22	2.85	3.05	2.99	3.42	3.98	4.02	3.84	3.66	4.36	4.73	4.14	3.07	2.05	1.25	1.57	6.23	8.23	8.12	8.27	8.25	5.23	3.85	7.61	5.38	4.21	3.79	3.59	4.47	4.12	3.42	3.42	
2.20	3.72	7.76	8.86	1.98	3.48	2.97	4.11	4.55	2.97	3.01	6.64	0.70	2.38	3.55	1.32	2.82	3.70	5.41	3.17	3.59	4.01	5.80	6.99	5.01	3.96	3.94	3.80	4.12	5.19	4.23	3.23	2.92	3.04	3.19	3.10	4.92	3.48	4.06	4.06	3.75	3.62	3.24	2.44	2.50	2.84	2.92	3.00	3.04	3.07	3.09	3.08	3.06	3.01	2.94	2.84	2.62	2.23	1.97	2.18	5.11	7.81	5.11	4.90	7.93	8.44	4.17	4.01	9.06	9.59	6.19	3.32	5.89	2.93	5.25	8.69	4.79	3.62	3.11	3.10	2.80	2.92	5.65	6.66	3.66	4.22	3.69	3.80	2.35	1.10	3.41	3.60	3.07	2.93	3.57	3.88	3.55	3.36	3.75	4.17	2.53	3.30	1.33	1.33	0.85	3.28	7.20	7.25	6.82	8.37	8.49	4.34	5.65	4.53	4.34	4.47	4.41	3.98	5.94	5.73	5.73	
2.29	2.64	4.31	8.13	5.32	3.50	3.60	6.73	4.53	3.89	5.94	6.05	2.02	3.50	3.03	3.57	4.95	5.69	5.61	3.16	3.39	3.89	3.23	5.60	4.65	3.99	3.73	3.68	5.26	5.84	3.90	2.76	3.00	3.66	4.01	3.51	1.63	2.95	3.79	4.15	3.87	3.39	3.42	2.54	2.41	2.60	2.71	2.86	2.93	3.00	3.05	3.07	3.07	3.04	3.00	2.92	2.77	2.49	2.14	2.10	2.84	5.92	5.94	7.61	7.35	4.69	4.46	3.91	5.36	5.65	4.84	2.62	2.99	5.38	2.98	6.01	5.22	2.90	3.66	3.23	2.50	2.54	3.45	6.69	5.41	3.24	3.14	2.69	1.72	3.89	3.95	3.32	0.94	3.07	3.67	4.05	3.74	3.39	3.85	4.16	3.74	2.79	1.95	1.77	0.78	1.29	4.35	6.34	4.22	7.56	9.32	4.04	3.49	3.90	4.12	4.75	6.56	4.48	5.19	7.48	7.48	
3.07	2.51	2.37	4.62	8.66	6.71	7.51	8.25	5.71	5.95	6.55	6.75	6.08	6.26	6.12	5.76	4.19	5.46	7.66	7.08	4.67	3.89	3.41	3.82	4.17	4.19	3.80	3.33	5.93	6.77	2.70	2.46	3.32	4.48	2.40	1.77	2.40	3.08	3.71	4.30	4.51	3.32	2.39	2.93	2.50	2.36	2.40	2.61	2.77	2.89	2.97	3.02	3.05	3.05	3.03	2.98	2.86	2.67	2.36	2.21	2.74	5.68	5.15	3.52	4.23	5.57	5.17	4.65	6.01	7.44	3.85	2.44	3.09	2.20	2.44	5.40	9.15	3.67	2.76	3.67	2.83	2.42	2.92	5.91	6.44	5.43	5.13	5.77	2.32	2.48	4.05	0.97	1.87	3.67	4.03	4.22	4.03	3.21	3.96	4.29	3.72	2.07	0.73	1.16	1.12	0.93	3.94	6.28	4.53	4.87	7.66	4.27	3.76	3.83	4.45	4.39	6.99	5.53	3.28	3.87	3.87	
4.11	2.87	2.02	2.68	4.90	6.88	6.83	8.33	5.04	4.36	3.58	5.15	4.49	4.68	4.89	5.09	4.78	2.90	5.56	6.09	5.23	3.82	3.61	3.72	3.76	4.30	4.37	3.93	6.48	7.10	3.35	3.08	3.72	1.93	2.68	3.01	3.25	3.35	4.01	4.78	4.64	3.44	3.10	2.79	2.83	2.31	2.15	2.29	2.51	2.71	2.85	2.94	2.99	3.03	3.03	3.00	2.92	2.76	2.49	2.26	2.54	5.21	6.87	6.54	6.93	7.99	8.99	8.75	8.11	8.13	1.96	2.87	1.61	2.06	1.84	5.29	8.93	3.92	2.55	2.90	3.55	2.92	2.60	5.36	5.67	5.42	5.09	6.05	6.42	7.92	7.88	5.01	2.14	4.48	4.19	3.41	2.08	3.47	4.71	3.92	1.47	1.36	1.84	1.07	2.17	1.23	1.85	2.70	3.03	7.73	5.90	4.43	4.21	4.02	5.56	5.53	6.15	5.81	4.44	3.52	3.52	
4.06	3.58	2.31	2.32	3.31	4.35	4.64	7.61	6.35	4.88	3.67	3.61	3.80	3.75	3.52	3.45	3.24	3.02	3.17	3.89	4.33	3.68	3.47	3.82	4.56	5.68	5.07	4.48	6.36	7.44	3.95	0.95	3.34	4.14	3.67	3.42	3.42	3.54	5.59	6.00	4.73	4.03	4.14	3.37	2.47	1.79	2.03	2.02	2.22	2.48	2.67	2.80	2.90	2.99	3.02	3.00	2.95	2.82	2.57	2.18	2.16	4.98	7.02	7.46	8.41	9.36	9.60	9.93	10.84	10.62	4.99	3.19	2.17	2.36	1.39	2.17	6.38	9.26	3.63	3.67	3.96	4.03	3.09	3.05	3.71	3.91	3.53	3.19	3.35	3.74	6.08	7.03	8.10	5.10	4.90	2.93	2.42	3.39	4.47	1.42	3.52	3.97	3.65	3.29	1.93	2.06	1.62	1.87	4.50	4.79	3.58	3.83	4.39	5.52	6.12	7.84	9.09	9.49	3.42	4.16	4.16	
1.70	1.34	1.59	2.57	2.94	3.28	3.20	5.10	4.68	4.46	4.05	3.78	4.10	3.96	3.65	3.52	3.10	3.07	3.26	3.37	3.71	3.53	2.84	3.25	5.65	7.37	4.79	5.16	6.79	8.37	3.48	3.79	4.50	4.36	4.61	3.70	3.09	3.19	6.14	7.12	5.25	4.99	5.08	3.20	2.03	1.64	1.23	1.87	2.06	2.34	2.41	2.55	2.78	2.91	2.97	2.99	2.95	2.85	2.65	2.21	1.98	4.61	6.52	7.24	7.53	7.72	8.51	9.73	10.07	10.44	10.63	3.69	2.18	3.13	1.58	1.62	5.86	8.63	4.47	3.54	3.79	4.87	4.28	3.44	3.61	3.75	3.35	3.02	2.86	2.95	3.28	3.60	4.04	7.61	9.51	5.45	4.21	3.77	2.49	3.32	3.66	3.62	2.77	2.07	2.18	1.07	1.72	1.73	3.01	3.74	3.13	3.24	6.24	8.60	7.13	3.98	6.87	7.64	7.12	4.56	4.56	
4.88	4.37	3.71	3.26	2.95	2.93	3.34	3.96	4.16	4.39	4.35	4.06	4.30	3.98	3.92	2.54	2.93	3.20	3.80	3.50	3.62	3.17	2.02	2.54	5.42	7.69	5.76	5.48	7.83	2.52	3.74	4.04	4.83	3.99	4.20	3.81	2.93	3.06	5.56	6.86	5.58	5.33	5.95	2.71	1.77	1.47	1.35	1.26	2.08	2.36	2.24	2.26	2.58	2.81	2.90	2.94	2.94	2.86	2.72	2.34	1.99	2.10	4.95	7.20	6.86	7.12	7.85	9.08	10.14	10.81	10.03	5.00	4.48	2.19	2.26	1.53	2.67	7.22	5.07	3.43	3.52	4.90	5.17	4.60	4.37	4.30	3.75	3.45	3.30	2.66	2.21	2.46	3.26	7.19	8.64	9.18	6.69	2.51	2.62	0.61	0.77	0.66	1.35	3.63	2.35	1.59	1.85	1.97	4.73	3.43	2.99	4.06	7.40	4.38	3.93	3.69	7.83	9.17	5.35	4.36	4.36	
5.02	3.13	3.84	2.48	3.26	2.93	3.37	3.84	3.63	4.22	4.84	4.02	3.93	3.77	3.76	0.23	2.83	3.38	4.62	4.24	4.02	1.37	1.88	2.18	4.75	7.37	7.79	8.08	4.61	4.41	3.84	3.81	3.34	3.74	4.21	4.09	3.96	3.92	4.79	6.79	6.05	5.30	7.06	2.06	1.16	1.14	1.10	1.51	1.21	1.07	2.29	2.19	2.37	2.62	2.78	2.87	2.92	2.88	2.77	2.51	2.16	1.99	2.29	5.04	5.24	6.77	7.11	8.25	9.16	10.97	5.38	5.10	5.16	3.38	2.93	1.62	2.07	7.11	4.84	3.07	3.42	7.00	9.87	7.02	5.40	4.19	2.46	4.02	2.34	3.18	2.06	1.75	2.99	3.81	7.24	6.97	8.97	0.60	5.06	3.20	0.99	1.22	3.66	3.86	0.03	2.17	2.00	2.10	3.11	3.30	2.95	2.98	3.19	5.05	6.66	4.04	4.10	4.52	3.27	3.61	3.61	
4.83	3.81	2.57	2.05	3.58	3.23	3.43	3.91	3.08	4.50	7.49	2.20	3.14	3.61	2.56	3.41	2.84	3.32	5.09	6.22	1.74	1.05	1.86	1.68	4.62	7.81	8.09	5.76	7.29	5.75	4.84	3.68	3.33	3.74	4.46	4.76	4.99	3.57	4.19	6.26	7.26	4.26	7.60	1.79	0.48	0.88	0.81	1.16	1.28	0.12	2.52	2.51	2.30	2.30	2.55	2.75	2.87	2.88	2.80	2.67	2.44	2.18	2.12	2.33	5.03	5.08	6.88	8.00	9.29	11.41	6.23	2.85	2.26	1.70	3.37	1.86	1.50	3.57	4.79	3.59	6.62	8.29	9.06	9.37	9.87	10.80	3.03	2.37	1.05	1.79	1.88	1.74	2.19	3.56	6.60	8.30	9.58	5.43	4.00	0.39	1.20	0.82	0.63	1.72	2.82	2.77	2.45	2.34	3.10	3.53	3.43	3.40	3.80	3.73	3.65	5.60	6.10	4.82	3.71	2.78	2.78	
3.83	3.90	3.37	3.82	3.80	3.41	3.48	4.59	2.97	2.31	7.95	1.80	3.23	0.90	3.98	3.21	3.03	4.49	5.00	6.49	2.59	3.33	2.41	1.61	1.88	6.88	7.81	4.46	5.17	5.60	4.46	3.88	3.24	3.62	5.56	5.24	5.39	2.28	3.27	2.71	8.35	2.83	7.68	2.75	1.50	0.34	0.16	0.61	1.17	0.74	2.91	2.28	2.46	2.07	2.24	2.56	2.78	2.84	2.83	2.78	2.64	2.44	2.22	2.04	2.13	4.61	6.17	7.24	8.25	9.91	11.33	6.13	2.55	2.15	1.16	2.42	1.45	2.36	5.95	3.43	6.28	8.29	8.43	8.01	8.62	9.78	6.65	4.22	4.36	2.97	2.77	2.01	2.21	3.32	7.13	7.34	8.85	9.47	4.58	5.98	6.37	6.93	5.89	5.10	4.67	3.33	3.04	2.75	3.20	4.52	4.32	6.20	7.27	7.46	6.52	6.44	8.25	3.65	4.06	3.24	3.24	
3.96	4.20	3.73	3.77	3.59	1.83	3.43	6.35	3.92	3.15	3.21	4.94	1.42	0.74	2.50	2.98	3.14	4.73	6.32	0.93	2.30	3.70	3.27	2.11	1.69	2.99	7.61	4.55	3.43	3.68	4.02	4.06	3.24	2.80	6.45	7.05	5.02	1.05	1.81	2.20	8.02	1.62	3.50	4.33	5.75	5.31	4.02	3.54	3.29	1.09	3.69	2.52	1.07	2.11	2.04	2.34	2.66	2.78	2.85	2.85	2.75	2.65	2.48	2.15	1.94	1.91	2.11	6.34	7.32	8.20	10.46	10.51	7.09	3.59	2.40	3.26	1.56	1.69	3.14	3.25	2.48	4.38	4.60	6.99	7.80	9.32	6.01	2.19	0.94	0.70	3.02	1.99	2.25	3.46	7.19	6.85	8.64	2.05	3.10	3.45	3.03	3.46	4.03	6.50	6.22	3.84	3.29	2.98	3.29	4.73	4.62	4.38	7.05	7.76	7.62	7.91	3.68	4.71	3.94	3.76	3.76	
4.02	4.04	3.29	3.57	4.14	2.08	3.18	7.31	4.37	3.71	2.47	3.82	1.32	3.37	3.25	2.84	3.11	7.19	0.37	4.05	3.59	4.03	2.50	2.84	1.96	2.69	6.05	4.68	3.79	3.54	3.62	5.04	4.01	4.20	6.26	8.45	5.04	3.85	1.94	2.16	8.42	2.94	3.40	3.41	3.70	4.66	4.94	4.55	4.21	3.92	4.17	1.49	0.28	2.15	1.98	2.18	2.52	2.72	2.84	2.87	2.82	2.77	2.68	2.45	2.12	1.85	1.93	4.83	7.02	7.93	9.87	10.08	9.85	11.08	3.31	1.62	2.46	1.69	1.90	3.28	2.43	3.09	4.24	7.03	8.25	9.36	5.17	1.96	0.58	1.87	2.19	2.15	2.16	3.51	6.88	6.81	9.15	2.46	2.59	2.60	2.54	2.74	4.78	4.74	4.15	3.71	3.22	3.04	4.37	4.74	5.96	5.06	6.27	7.03	7.57	9.44	2.71	3.75	3.29	3.27	3.27	
4.20	3.90	3.09	3.43	4.08	3.40	3.41	4.81	8.48	2.55	2.89	3.40	4.07	3.67	3.19	2.95	4.29	7.32	3.81	1.90	3.51	4.06	2.21	1.61	1.51	2.68	4.02	4.17	4.11	4.03	3.69	5.70	4.07	2.80	5.88	5.14	5.61	4.22	2.38	2.63	4.70	3.91	4.02	3.21	3.63	4.23	4.44	4.42	4.26	4.77	3.59	1.43	0.60	2.00	1.83	2.00	2.39	2.64	2.80	2.87	2.85	2.83	2.78	2.65	2.40	1.99	1.85	4.54	4.95	7.36	9.29	9.12	9.31	10.48	11.86	2.05	3.52	1.48	1.75	1.81	2.35	3.79	6.82	8.11	8.58	9.45	4.89	4.24	5.37	5.95	3.40	2.42	2.17	3.34	7.13	8.28	10.00	4.25	1.76	3.96	3.18	2.90	3.01	1.18	2.69	3.09	3.07	3.06	4.54	4.93	6.74	4.61	5.46	6.72	3.91	7.50	5.13	4.32	3.32	3.03	3.03	
3.07	3.87	3.14	5.67	8.00	8.50	4.66	4.73	7.78	5.03	0.58	5.35	4.15	3.70	3.00	2.98	6.89	3.44	4.29	3.69	3.32	5.18	4.65	3.89	3.43	3.10	3.50	3.78	4.14	5.03	5.45	6.86	4.27	2.67	5.51	4.67	7.62	4.14	4.48	3.57	4.58	2.59	2.52	2.90	3.64	4.20	4.77	4.85	4.74	3.91	2.23	0.84	0.58	0.26	1.70	1.77	2.20	2.54	2.73	2.85	2.86	2.87	2.85	2.76	2.60	2.27	1.94	1.99	4.61	6.59	8.58	8.21	8.76	9.73	11.24	2.44	1.45	1.04	1.58	1.90	2.22	3.80	7.40	8.53	8.82	9.85	4.02	3.90	3.38	5.88	3.20	2.17	2.07	3.31	7.01	8.15	9.76	3.98	3.35	2.80	1.63	3.76	0.93	1.14	2.66	2.74	2.84	3.01	4.47	6.66	7.56	4.94	3.12	6.13	4.16	5.20	4.97	6.11	3.88	3.47	3.47	
5.88	4.40	3.48	6.40	3.94	5.96	7.36	7.45	7.91	2.68	3.69	3.81	4.08	3.41	2.66	2.89	7.70	2.15	3.01	4.52	5.32	4.45	4.73	3.98	3.65	3.43	3.02	3.19	5.30	5.63	7.01	7.11	4.64	3.02	2.06	6.41	7.34	2.31	3.79	2.62	4.64	3.75	2.65	3.55	3.38	4.14	5.21	5.15	4.64	1.05	0.74	0.22	0.27	0.49	1.84	1.60	1.91	2.35	2.61	2.79	2.85	2.87	2.88	2.83	2.73	2.52	2.20	1.92	2.12	5.14	7.67	7.72	7.69	9.28	10.79	9.09	4.62	3.12	2.45	2.26	2.28	3.71	7.23	8.46	8.84	10.17	1.72	0.58	3.36	3.16	2.29	1.82	1.86	3.27	6.99	8.33	9.16	10.12	3.50	5.25	4.90	4.36	3.76	3.21	2.47	2.63	2.59	2.82	4.44	6.68	7.95	7.27	4.05	7.62	4.09	4.07	3.78	3.55	3.40	3.28	3.28	
3.12	3.44	3.50	3.80	4.57	4.04	4.61	3.51	7.99	2.38	3.74	3.55	3.97	3.41	2.75	3.11	8.34	5.31	4.94	4.62	4.34	3.95	4.13	3.89	3.71	3.72	2.87	2.42	5.46	7.15	7.04	6.97	3.77	3.45	2.21	3.54	5.42	4.31	5.14	4.60	4.91	5.57	4.14	3.60	3.36	3.96	6.08	6.06	1.14	1.34	1.05	0.83	0.37	0.45	0.77	1.81	1.76	2.07	2.43	2.68	2.79	2.86	2.88	2.86	2.82	2.70	2.48	2.05	2.02	4.99	5.59	5.63	6.90	9.28	10.14	9.59	5.33	3.78	2.87	2.58	2.55	3.83	7.50	8.61	8.69	9.68	5.50	2.47	3.97	0.80	0.84	2.02	1.69	2.26	3.91	8.15	8.72	10.26	4.66	5.15	5.93	6.30	5.64	4.24	2.85	2.66	2.44	2.58	4.28	6.56	7.89	9.06	4.90	2.29	6.03	7.33	6.14	3.98	3.63	3.22	3.22	
2.82	2.82	2.99	5.27	7.86	4.95	3.68	4.38	4.56	1.91	1.02	3.94	3.87	3.09	3.18	6.44	6.06	5.31	3.93	3.70	3.53	3.80	4.18	4.12	3.94	4.60	3.08	2.10	2.70	3.24	7.84	9.24	3.55	3.55	5.31	6.25	4.85	4.93	5.31	4.57	4.30	3.79	3.96	3.34	3.17	4.68	7.43	1.06	3.45	3.65	3.27	2.66	1.56	0.20	0.07	0.52	2.04	1.98	2.19	2.48	2.66	2.80	2.86	2.88	2.88	2.81	2.69	2.37	2.16	2.38	2.87	5.27	6.71	8.69	9.65	10.13	5.57	3.91	3.09	2.72	2.81	4.15	7.36	8.00	8.20	9.55	0.75	3.18	4.27	4.00	2.87	1.87	1.60	1.90	6.11	7.84	8.54	9.39	1.33	1.28	2.21	3.46	3.94	3.03	3.13	2.64	2.37	2.46	2.75	6.17	7.69	9.40	5.58	4.29	2.62	5.00	6.84	7.54	4.08	3.68	3.68	
3.30	2.67	4.40	5.29	7.87	8.87	4.81	3.96	4.22	4.85	6.33	4.19	4.11	2.90	3.48	4.27	4.76	3.99	3.87	3.66	3.50	3.74	4.34	4.31	4.00	5.29	3.12	2.06	2.79	3.07	4.68	8.15	9.17	7.09	6.54	4.52	0.62	2.46	4.09	4.47	3.53	3.68	3.72	3.37	2.98	4.83	8.79	4.00	3.77	3.58	3.83	3.37	3.68	3.27	2.17	1.30	0.42	2.28	2.12	2.18	2.39	2.65	2.81	2.88	2.91	2.89	2.82	2.66	2.43	2.24	2.35	4.96	5.23	7.83	9.29	10.12	5.58	3.68	3.21	2.87	2.94	4.43	7.65	8.07	8.07	9.74	2.91	3.06	3.93	3.25	2.89	1.89	1.81	1.86	3.56	7.54	8.88	10.69	2.55	2.11	1.98	2.08	2.29	2.26	3.02	2.58	2.26	2.30	2.70	6.37	7.25	8.58	11.10	2.54	3.72	3.02	3.15	6.58	4.71	4.11	4.11	
2.46	2.63	2.54	4.73	7.51	8.47	9.48	2.91	4.07	4.69	5.85	6.68	6.64	6.02	5.55	4.90	4.15	4.36	3.95	3.70	3.66	3.84	5.41	4.99	5.62	2.88	2.97	2.01	2.72	6.95	6.49	7.09	8.16	6.64	5.86	5.30	2.86	1.69	0.61	1.97	2.87	3.43	3.59	3.76	4.17	5.23	4.41	4.21	4.47	3.10	1.73	0.66	0.96	1.69	1.39	1.52	1.83	1.76	2.34	2.05	2.08	2.39	2.68	2.85	2.92	2.93	2.90	2.84	2.69	2.40	2.19	2.34	5.09	7.13	8.51	9.31	6.73	4.09	3.45	3.13	3.08	4.56	7.75	8.11	8.11	9.77	2.44	1.64	0.35	0.74	0.62	2.32	2.16	2.10	3.47	7.15	8.89	9.38	4.15	4.48	3.70	2.89	2.63	2.25	1.96	2.58	2.14	2.00	2.32	6.80	8.27	8.74	9.24	8.10	6.15	5.34	5.26	4.62	5.14	4.41	4.41	
2.54	2.63	2.13	3.25	4.92	7.68	7.82	4.56	4.70	4.39	4.85	3.83	4.18	4.70	4.99	4.77	4.01	3.76	3.62	3.52	3.78	5.00	6.08	6.49	5.33	2.65	2.88	2.23	2.16	3.27	7.30	6.82	7.58	4.44	5.28	4.15	5.40	5.05	3.94	2.87	3.37	3.17	3.48	5.87	5.19	3.85	4.22	4.31	1.96	2.61	4.54	2.31	0.65	0.98	2.02	3.29	2.63	1.82	1.01	2.26	2.02	2.13	2.51	2.79	2.92	2.95	2.95	2.94	2.85	2.65	2.35	2.20	2.46	5.48	7.62	8.34	6.39	3.95	3.29	3.20	4.46	6.78	7.89	8.23	8.37	10.08	5.68	4.49	1.77	1.25	2.53	2.34	2.16	2.28	3.63	7.37	8.87	10.90	0.95	0.91	1.57	2.14	2.57	2.39	1.87	2.88	2.18	1.76	1.84	6.41	7.79	7.28	7.02	7.37	6.27	4.52	3.84	3.75	4.01	4.39	4.39	
3.03	2.71	2.08	4.51	4.77	5.16	5.45	2.45	4.03	4.18	3.47	3.73	3.61	3.78	4.04	4.14	3.90	3.54	3.25	3.12	3.72	6.11	6.52	7.76	1.76	2.27	2.94	2.82	1.99	2.34	4.95	7.51	4.41	4.54	2.52	3.39	3.50	3.82	4.27	3.72	3.49	3.18	4.52	6.81	4.27	4.16	2.82	4.06	4.11	4.19	3.59	0.68	4.22	0.92	4.04	4.55	2.37	1.04	0.38	0.56	2.16	2.02	2.35	2.71	2.89	2.96	2.98	2.99	2.96	2.84	2.63	2.31	2.33	5.31	6.00	7.98	4.76	3.66	3.12	3.07	4.75	7.12	8.73	8.81	8.83	10.20	5.43	8.02	7.63	4.92	3.06	2.19	2.05	2.19	3.76	7.48	8.36	10.16	0.82	1.23	2.39	3.18	3.32	2.84	2.46	1.93	2.46	1.78	1.80	4.49	4.57	4.48	4.68	5.13	4.78	3.81	3.61	3.72	3.94	4.17	4.17	
3.28	2.87	2.17	4.69	4.47	7.76	5.53	1.52	2.62	3.26	3.56	3.69	3.93	4.06	4.05	3.91	3.91	3.44	2.67	2.73	4.98	6.89	6.81	8.60	4.61	3.43	3.12	2.68	2.11	1.90	4.31	8.64	7.80	0.80	1.35	0.87	2.29	3.34	3.66	3.76	3.47	3.35	4.71	6.44	4.13	4.65	4.43	3.28	2.95	1.97	3.76	3.58	4.28	3.67	4.26	4.83	1.54	0.42	0.28	0.41	2.16	1.94	2.20	2.58	2.81	2.93	2.98	3.02	3.03	2.96	2.86	2.57	2.47	2.71	3.31	6.25	4.74	3.58	3.13	3.06	5.04	7.20	8.24	8.83	9.49	7.94	4.18	7.97	8.90	4.67	2.37	2.18	2.13	2.17	3.76	7.08	8.01	10.18	4.55	3.24	3.23	3.36	3.47	3.04	4.10	2.77	3.01	2.17	2.12	2.89	3.35	3.42	3.56	3.92	4.17	3.86	3.60	3.66	3.84	3.95	3.95	
3.90	3.23	2.42	3.34	3.49	4.10	5.48	2.82	3.04	3.38	3.58	3.73	4.10	4.46	4.29	3.97	3.87	1.53	2.20	2.19	4.97	8.01	7.55	7.13	4.19	3.43	3.56	2.70	2.31	2.00	2.98	4.77	8.12	2.73	2.42	2.78	3.08	3.44	3.49	1.24	3.21	4.29	4.70	5.93	4.10	5.47	2.98	1.74	2.81	3.60	4.20	4.35	4.37	4.15	4.28	2.59	0.29	0.11	0.60	0.32	2.12	1.87	2.01	2.42	2.67	2.83	2.95	3.03	3.08	3.06	3.01	2.86	2.75	2.66	2.96	3.83	3.91	3.43	3.14	5.35	5.46	6.86	7.71	8.59	9.91	6.09	3.67	7.85	4.99	2.98	2.51	2.46	2.33	2.36	3.73	6.69	8.20	9.73	8.53	4.59	3.87	3.85	3.00	2.99	4.00	3.69	3.47	2.82	2.66	3.05	3.31	3.42	3.47	3.55	3.69	3.69	3.52	3.48	3.65	3.73	3.73	
4.56	3.53	2.87	3.55	4.49	5.17	4.02	3.57	3.48	3.74	3.69	3.78	4.14	4.99	4.42	4.19	1.83	3.34	2.08	1.75	2.77	7.66	9.42	2.14	4.33	3.41	4.24	2.76	2.52	2.19	3.79	7.26	7.79	2.97	3.61	3.46	3.73	3.66	3.55	2.95	2.93	4.36	4.70	8.37	4.69	3.94	3.55	4.11	3.93	3.84	1.43	4.05	4.11	4.07	1.60	2.52	1.15	0.39	0.32	0.92	0.31	1.94	1.92	2.26	2.44	2.64	2.89	3.01	3.11	3.12	3.11	3.07	3.02	2.89	2.97	3.35	3.41	3.22	3.11	5.50	5.48	6.57	7.57	8.87	9.55	4.25	5.91	3.60	4.80	7.77	3.83	2.94	2.57	2.56	3.87	7.15	8.88	8.04	9.07	6.71	5.09	4.53	3.48	3.61	3.54	3.66	3.60	3.29	3.12	3.23	3.40	3.53	3.47	3.35	3.35	3.40	3.31	3.22	3.20	3.20	3.20	
3.74	3.68	4.89	3.59	4.58	5.06	3.49	3.19	3.49	3.69	3.65	3.61	4.89	6.71	4.83	1.50	2.68	3.47	2.35	1.61	2.29	5.12	8.96	5.84	4.51	3.66	4.67	3.80	2.86	2.26	2.56	7.15	5.32	2.64	3.61	3.90	3.63	3.80	1.97	2.94	3.02	4.10	4.08	7.50	1.58	2.07	2.94	2.78	4.12	1.79	4.06	4.08	4.21	1.98	2.74	1.57	3.12	1.97	0.59	0.68	0.49	0.41	2.11	2.29	2.15	2.34	2.79	2.99	3.13	3.18	3.20	3.21	3.19	3.15	3.16	3.16	3.08	2.95	2.93	3.30	5.50	5.28	7.56	8.71	7.90	5.35	4.30	4.34	8.25	7.98	5.93	3.56	2.83	2.68	4.07	7.92	7.32	6.36	8.33	7.27	5.64	5.49	4.37	3.77	3.74	3.76	3.73	3.58	3.26	3.18	3.54	3.82	3.59	3.33	3.20	3.12	3.22	3.21	2.72	2.41	2.41	
4.26	3.55	3.38	3.51	4.18	5.24	3.95	3.55	3.43	3.73	3.57	3.04	5.09	8.20	1.50	2.80	2.00	3.57	2.67	1.55	1.93	4.91	8.64	8.69	4.67	4.35	2.43	3.85	2.58	2.46	1.97	4.19	8.94	5.33	4.55	2.45	3.81	3.84	3.52	3.03	3.84	4.70	3.54	3.97	7.14	4.31	4.19	4.60	3.06	4.08	4.04	4.78	2.24	2.74	1.49	2.43	4.69	2.65	0.87	0.28	0.60	0.58	1.55	1.11	2.12	2.14	2.66	2.96	3.13	3.21	3.26	3.30	3.29	3.27	3.27	3.19	3.06	2.81	2.69	3.18	5.88	5.58	6.95	8.00	7.26	4.01	4.26	6.59	4.41	4.88	6.63	4.13	2.98	2.72	4.36	8.55	5.81	5.49	7.08	7.36	5.57	4.39	3.86	3.76	3.77	3.82	4.04	3.98	3.32	2.84	3.77	4.31	3.83	3.38	2.59	2.18	3.24	3.03	1.47	2.08	2.08	
3.51	3.44	3.43	3.66	6.07	5.11	4.39	3.47	3.55	3.92	3.87	2.49	4.56	8.88	1.30	0.84	2.67	3.03	0.93	1.60	1.77	4.86	8.08	5.42	8.99	9.48	2.27	2.79	2.56	2.82	4.23	2.22	7.62	9.10	5.01	3.92	3.97	3.31	3.24	3.00	6.05	3.54	3.48	6.56	6.81	5.42	7.30	6.00	4.97	4.72	4.42	1.55	4.12	2.13	3.19	3.65	4.44	0.31	1.09	0.52	0.52	0.67	1.19	0.83	2.54	2.29	2.58	2.93	3.13	3.22	3.29	3.35	3.34	3.32	3.31	3.24	3.14	2.82	2.59	3.07	6.12	5.78	5.48	7.41	5.18	3.89	3.14	3.31	3.36	3.47	3.78	3.50	2.88	2.69	6.73	8.19	5.61	5.19	4.68	6.86	4.65	4.04	3.89	3.89	3.78	3.81	4.57	4.23	2.83	1.17	3.61	6.25	5.00	3.41	0.59	1.54	4.70	3.46	1.78	2.28	2.28	
3.69	3.70	3.40	3.48	4.47	3.37	3.76	3.50	4.42	4.62	2.74	2.24	3.95	8.29	2.77	1.83	3.03	0.83	1.69	1.89	1.95	2.99	7.58	7.93	8.20	8.68	4.05	3.15	3.77	3.35	2.45	1.75	2.67	6.07	5.65	4.58	3.70	3.96	1.96	3.07	6.75	2.19	2.77	7.08	6.48	3.45	6.52	3.18	5.64	8.79	5.50	1.22	2.18	2.45	2.06	2.31	4.19	5.03	2.22	0.96	1.60	2.40	3.06	2.41	2.97	2.64	2.66	2.94	3.16	3.24	3.30	3.36	3.36	3.35	3.34	3.28	3.19	2.89	2.63	3.07	6.15	6.30	6.02	3.67	4.11	3.95	3.48	3.44	3.30	3.18	3.16	2.96	2.68	2.76	7.51	6.67	5.31	4.05	4.75	5.07	4.30	4.04	3.98	4.09	3.97	4.18	5.24	4.64	1.71	2.59	2.45	4.26	6.71	0.32	2.99	3.00	3.81	5.03	1.23	2.03	2.03	
3.91	3.90	3.56	3.54	4.92	3.14	3.19	3.26	4.89	5.61	3.66	2.18	2.77	7.20	1.18	1.00	2.76	3.63	2.59	2.40	2.33	5.04	5.19	4.50	7.73	8.63	2.97	4.47	4.06	3.25	1.50	1.84	1.71	4.75	8.77	5.54	2.02	3.64	3.59	3.55	4.01	5.62	2.68	5.57	7.07	2.76	2.52	2.50	3.16	5.88	9.47	1.25	1.35	3.63	3.14	5.41	6.81	7.92	0.29	1.50	2.58	3.49	3.86	2.92	3.07	2.84	2.84	3.01	3.19	3.28	3.32	3.36	3.38	3.37	3.35	3.30	3.22	2.95	2.69	3.02	6.10	6.45	6.28	3.95	4.01	4.06	3.84	3.67	3.30	2.92	2.76	2.60	2.46	4.55	5.66	4.29	3.86	3.41	3.67	4.07	4.02	3.79	3.77	3.99	4.22	5.30	5.97	3.36	3.13	2.84	2.53	5.59	7.31	3.96	3.37	2.66	2.92	4.23	3.73	3.26	3.26	
3.06	4.84	4.15	4.18	7.65	3.71	2.77	2.78	5.16	2.75	3.49	2.15	2.90	7.20	5.01	5.30	4.41	4.39	3.82	2.90	2.87	3.54	3.47	3.14	3.32	4.81	7.32	7.91	8.32	2.56	2.31	2.47	1.53	2.15	7.35	9.66	9.80	5.03	1.71	3.53	5.85	3.85	5.21	5.25	7.79	2.71	2.42	2.20	2.80	6.97	9.61	7.12	7.40	7.35	3.43	3.98	5.16	8.11	9.77	4.11	2.95	2.65	2.22	2.43	2.95	2.76	2.90	3.09	3.20	3.32	3.34	3.36	3.39	3.38	3.36	3.32	3.24	3.00	2.68	2.84	3.45	6.49	6.60	4.38	4.26	4.19	4.16	4.11	3.40	2.60	2.38	2.34	2.24	2.77	5.59	3.96	3.60	3.57	3.81	4.06	3.97	3.47	3.38	4.17	5.12	6.06	6.78	0.67	3.16	2.87	2.67	3.93	6.60	4.26	3.13	2.61	2.49	3.74	3.40	3.13	3.13	
3.83	3.41	3.57	6.11	8.93	3.78	2.68	2.43	7.70	2.96	3.19	2.37	4.25	5.33	3.94	3.85	4.04	4.01	3.65	3.15	3.45	4.89	3.49	3.13	3.27	3.48	3.50	4.67	7.23	7.67	4.90	3.57	1.93	1.78	5.07	8.34	9.32	9.46	4.99	2.42	2.63	5.76	3.59	3.22	3.80	2.55	2.40	1.97	2.62	5.67	9.70	7.00	6.67	8.10	7.40	3.99	3.65	6.41	7.97	7.77	5.04	3.33	2.26	1.70	2.93	2.68	2.89	3.11	3.21	3.33	3.35	3.36	3.39	3.38	3.37	3.34	3.26	3.08	2.77	2.70	3.02	6.16	6.67	5.65	4.81	4.53	4.54	4.28	2.66	2.51	2.07	2.07	2.03	2.60	5.08	3.85	3.70	3.82	3.89	4.10	4.22	3.31	3.25	5.36	5.66	6.75	5.98	0.86	3.16	2.70	2.59	5.92	7.80	1.53	3.58	2.79	2.63	3.39	2.68	2.60	2.60	
5.04	3.34	3.76	4.00	4.90	3.10	3.15	2.41	4.99	4.72	3.16	3.15	3.15	3.67	3.74	4.13	4.06	3.67	3.38	3.23	3.79	4.36	3.64	3.34	3.63	3.61	3.37	3.02	3.17	5.23	5.85	5.91	2.83	1.82	5.30	7.60	8.13	9.60	8.52	3.73	4.07	3.91	3.28	2.62	3.77	2.93	2.56	2.35	2.35	7.87	8.39	8.66	6.64	7.32	8.31	7.13	5.15	5.08	6.06	7.35	7.06	5.80	4.20	2.53	3.28	2.79	2.91	3.10	3.19	3.31	3.34	3.37	3.40	3.39	3.38	3.35	3.29	3.18	2.99	2.73	2.68	3.21	6.36	8.17	7.75	5.01	5.69	4.72	1.99	1.73	2.20	1.86	1.83	2.40	3.27	3.53	3.77	4.10	4.20	4.55	4.73	3.38	2.37	5.55	6.95	8.09	4.46	1.26	3.38	2.72	2.44	3.32	7.63	2.00	3.87	2.73	2.91	3.40	2.24	2.22	2.22	
2.73	3.14	4.99	7.06	5.29	5.47	3.30	3.28	6.60	4.67	3.76	3.72	3.46	3.52	3.79	4.40	4.19	3.70	3.34	3.31	5.26	2.93	3.92	3.57	3.99	4.09	3.52	2.96	2.80	2.98	3.36	3.83	4.36	2.29	2.49	5.92	7.70	8.87	9.81	5.82	4.87	3.23	2.17	2.30	3.48	4.51	2.95	2.23	2.39	7.51	7.20	8.08	7.51	7.11	7.71	7.20	6.30	4.70	3.46	4.61	5.08	5.03	5.02	4.17	3.56	2.88	2.86	3.05	3.15	3.28	3.32	3.36	3.40	3.40	3.39	3.37	3.33	3.25	3.13	2.87	2.63	2.72	3.13	6.09	8.97	9.05	8.30	5.76	1.95	1.16	1.54	2.23	1.97	2.23	2.85	3.28	3.76	4.81	4.86	6.10	5.45	3.67	2.07	2.14	3.18	7.11	3.67	1.96	3.57	2.89	2.74	3.17	6.64	4.64	1.99	2.23	3.65	2.72	2.99	2.38	2.38	
2.27	2.78	3.58	8.11	8.87	9.79	9.18	3.95	5.16	4.05	4.14	4.22	4.13	3.77	3.94	4.20	2.71	3.26	3.02	3.94	4.52	4.30	4.20	3.79	4.11	1.25	1.56	3.38	3.08	3.05	3.11	3.21	3.18	2.43	2.17	2.61	5.82	7.40	8.43	8.84	9.12	6.14	3.41	4.22	5.84	7.02	4.26	2.49	2.96	5.80	5.67	6.30	7.24	6.73	6.57	5.87	6.43	4.18	3.22	3.52	4.07	4.07	3.97	3.90	3.43	2.81	2.69	2.90	3.09	3.23	3.30	3.35	3.39	3.40	3.41	3.39	3.37	3.30	3.20	3.00	2.78	2.63	2.61	5.35	7.98	9.07	9.46	9.92	1.52	0.96	0.84	1.84	1.19	2.66	2.71	3.03	3.51	5.00	6.63	7.42	6.51	4.42	3.48	2.98	2.59	6.63	4.52	2.16	3.46	2.93	3.24	4.86	5.32	6.27	1.79	1.80	4.06	0.53	3.75	2.94	2.94	
2.12	5.07	7.32	7.67	8.07	5.39	5.45	5.25	4.06	3.46	3.71	3.94	3.99	3.87	6.12	4.10	3.43	4.44	3.52	3.50	4.75	5.11	4.39	3.68	0.76	4.01	3.95	3.95	3.83	3.57	3.40	3.24	3.13	2.71	2.22	2.06	2.33	6.02	6.64	7.70	8.30	7.41	3.23	2.89	2.93	5.53	3.80	2.85	2.71	3.19	3.06	3.70	4.15	4.31	4.29	3.69	3.99	4.22	3.67	3.61	3.90	4.06	4.08	3.07	3.13	2.71	2.48	2.65	2.98	3.17	3.27	3.33	3.38	3.40	3.41	3.41	3.39	3.33	3.23	3.05	2.91	2.74	2.42	2.52	5.56	8.36	8.96	10.51	6.51	4.19	4.08	3.65	3.39	3.43	2.95	2.90	3.19	4.75	6.73	7.55	7.58	5.34	2.62	2.99	2.34	5.73	5.85	1.80	3.36	2.88	3.43	5.26	5.81	3.66	5.00	3.28	3.74	7.10	4.07	3.65	3.65	
2.21	2.51	3.21	5.49	4.91	4.63	8.17	6.03	3.99	3.49	3.28	3.59	3.91	4.18	3.78	3.61	3.46	4.69	5.13	4.46	4.81	5.79	4.90	0.12	3.06	3.71	1.26	4.07	3.60	2.26	3.68	3.64	3.50	3.06	2.68	2.34	2.18	2.59	6.26	6.79	7.18	8.30	5.12	3.03	2.52	3.34	3.58	3.64	3.54	3.37	3.12	3.02	3.32	3.65	3.81	3.69	3.61	3.78	3.81	3.75	3.85	4.14	4.14	2.68	1.39	2.55	2.35	2.44	2.85	3.12	3.24	3.31	3.36	3.40	3.41	3.41	3.41	3.35	3.28	3.09	2.98	2.91	2.47	2.20	5.05	7.63	8.50	9.94	8.32	5.91	5.05	4.09	3.93	3.76	3.27	3.00	3.14	5.66	6.72	7.65	8.75	8.68	3.16	4.05	4.64	3.55	5.82	2.28	3.35	2.74	3.06	5.70	5.95	3.89	2.98	4.39	2.89	6.32	6.45	7.25	7.25	
2.51	2.95	3.47	3.92	6.37	3.98	4.58	9.65	1.81	3.92	3.40	3.65	4.21	4.24	3.69	3.30	2.83	3.08	4.80	5.38	8.64	7.48	1.33	4.46	4.07	1.60	3.86	4.07	3.13	2.31	2.60	2.55	1.81	3.66	3.25	2.90	2.46	2.21	2.71	3.61	5.95	6.75	7.20	5.66	3.87	3.67	3.69	4.35	4.27	3.36	2.57	2.94	3.28	3.40	3.42	3.72	3.67	3.45	3.66	3.75	4.36	4.47	4.38	2.46	1.06	2.30	2.22	2.30	2.72	3.06	3.21	3.29	3.35	3.40	3.42	3.42	3.41	3.37	3.32	3.16	3.03	3.03	2.71	2.24	2.36	5.35	7.94	9.05	8.28	6.44	4.57	4.04	4.00	3.83	3.44	3.17	3.10	6.62	8.19	9.05	9.68	10.11	10.55	3.37	4.12	4.71	2.05	2.39	3.36	2.60	2.69	5.25	8.09	2.66	1.67	2.56	2.40	3.06	3.65	4.02	4.02	
2.29	2.97	5.25	7.09	4.52	4.21	4.81	5.45	3.01	3.38	4.61	3.94	5.34	3.80	4.22	3.74	3.04	2.59	2.76	4.89	5.76	9.48	1.94	0.94	1.06	3.69	3.92	1.02	1.23	0.32	1.50	1.19	1.52	2.44	3.27	2.97	1.80	2.07	2.23	2.98	3.02	3.17	4.16	4.26	3.90	3.91	4.14	5.44	5.09	1.58	1.89	3.25	3.77	3.10	2.67	3.46	4.15	3.47	3.82	4.29	4.60	4.72	3.77	1.67	0.60	0.57	2.12	2.19	2.61	2.99	3.17	3.27	3.33	3.39	3.42	3.44	3.42	3.39	3.35	3.23	3.08	3.05	2.92	2.52	2.27	4.96	7.11	7.90	7.47	6.33	4.61	3.87	3.92	3.74	3.38	3.28	3.18	4.85	7.71	8.73	8.90	8.88	9.39	8.92	5.81	6.33	0.54	3.95	3.36	3.14	2.90	3.09	7.89	3.53	3.06	3.25	2.71	2.65	2.76	3.73	3.73	
1.84	2.31	3.09	5.61	7.90	7.97	8.90	10.27	5.72	4.11	4.02	5.61	3.92	5.19	3.74	3.62	3.90	2.98	2.31	2.33	4.99	9.69	8.67	1.57	1.50	0.76	3.86	3.90	3.90	3.83	6.79	6.79	0.62	3.58	4.11	2.51	0.82	2.12	2.43	2.90	1.52	2.95	3.76	3.98	3.41	3.82	5.40	6.28	2.44	3.28	1.50	5.15	4.75	2.81	2.31	4.11	5.37	3.45	3.97	4.71	4.90	4.49	1.37	0.89	1.48	1.21	2.20	2.15	2.49	2.90	3.13	3.25	3.31	3.37	3.42	3.44	3.43	3.41	3.38	3.30	3.17	3.06	3.01	2.87	2.56	2.62	5.52	6.01	5.72	5.30	4.11	3.71	3.73	3.49	3.11	3.08	4.87	6.80	7.23	7.36	7.34	4.32	7.32	8.01	7.86	2.30	2.93	3.78	3.24	3.18	3.88	4.38	5.66	3.22	3.00	2.07	3.56	2.86	2.83	2.77	2.77	
3.03	2.86	3.07	3.40	3.62	3.73	4.79	7.69	8.83	4.41	4.26	3.25	3.25	4.91	6.90	5.96	4.58	2.60	2.85	1.95	2.99	8.78	7.95	9.46	5.63	3.19	3.71	4.13	3.93	3.48	3.37	3.63	4.03	4.31	5.93	5.60	3.06	1.26	0.54	2.47	3.34	3.46	4.02	4.07	3.05	4.34	6.26	5.87	1.80	3.21	3.02	3.61	5.83	2.36	1.91	3.57	5.94	4.01	3.96	5.02	4.29	1.11	2.50	2.50	2.16	1.55	2.47	2.26	2.44	2.81	3.07	3.24	3.30	3.36	3.41	3.43	3.44	3.43	3.40	3.35	3.27	3.13	3.03	3.03	2.96	2.87	3.11	5.78	4.11	4.18	3.95	3.72	3.68	3.35	2.91	2.67	2.70	7.11	7.97	8.04	8.09	6.61	4.47	7.41	7.99	1.55	4.20	3.73	1.67	3.09	4.18	3.59	5.76	4.97	4.76	4.54	4.75	3.38	3.08	2.82	2.82	
3.75	4.08	3.77	3.39	3.18	3.39	3.36	3.60	6.04	6.02	2.93	3.80	3.02	3.43	6.61	4.48	4.71	4.99	3.91	2.24	2.58	7.86	8.06	8.59	10.17	4.87	4.07	4.17	3.98	3.61	3.27	4.45	3.03	5.85	5.85	5.40	6.56	5.74	5.61	3.92	3.81	4.00	5.37	4.76	3.49	4.63	7.49	0.88	4.18	1.58	3.57	4.59	5.63	1.90	1.58	3.03	5.45	5.50	4.50	8.02	5.36	5.08	4.40	3.08	2.38	1.77	1.43	2.54	2.57	2.76	3.00	3.23	3.30	3.35	3.40	3.42	3.43	3.44	3.43	3.39	3.34	3.25	3.11	3.05	3.18	3.21	3.21	3.54	3.78	3.85	3.74	3.61	3.60	3.35	2.98	2.62	2.30	4.58	4.69	6.70	9.12	10.73	10.11	9.84	11.00	5.22	4.58	1.47	3.44	3.45	4.02	3.59	4.29	4.10	4.03	3.30	3.17	3.08	3.04	2.81	2.81	
4.03	5.70	4.57	2.77	2.87	3.30	3.51	3.03	3.63	6.41	4.08	2.19	2.15	3.19	3.80	3.96	3.67	3.73	3.43	2.40	2.30	5.71	6.10	8.76	9.79	5.04	4.87	4.47	3.15	4.20	3.92	3.07	4.68	6.68	5.33	3.78	4.92	3.80	3.74	3.67	3.59	5.18	5.88	5.64	3.16	5.41	8.19	3.70	4.23	3.61	4.28	5.13	8.62	4.82	0.51	3.58	5.57	6.46	4.80	3.86	4.67	4.42	6.22	4.93	3.20	2.21	1.86	2.71	2.78	2.82	2.97	3.20	3.29	3.34	3.38	3.41	3.43	3.44	3.44	3.42	3.39	3.33	3.22	3.10	3.23	3.41	3.41	3.53	3.65	3.68	3.59	3.46	3.37	3.29	3.16	2.86	2.47	2.20	4.16	5.17	8.39	9.37	9.00	9.23	9.93	6.08	3.61	2.36	1.71	3.55	4.27	1.83	1.43	1.18	1.51	1.85	3.07	3.33	3.16	3.09	3.09	
3.28	4.02	6.12	3.45	3.24	3.46	3.62	2.81	2.96	5.89	4.47	4.54	1.24	3.12	3.59	4.01	3.79	3.86	3.62	2.66	2.12	2.16	5.48	8.06	8.38	9.31	8.15	5.13	5.94	7.27	4.23	4.10	2.80	5.93	6.62	4.66	3.39	3.43	3.49	3.41	3.63	5.14	6.82	8.89	6.76	7.89	8.91	5.12	2.21	3.29	6.07	6.07	5.24	7.46	8.30	9.08	8.89	9.54	4.09	3.12	3.40	3.63	3.85	3.29	3.26	2.62	1.75	2.73	2.91	2.99	3.03	3.18	3.26	3.31	3.36	3.38	3.41	3.44	3.44	3.44	3.42	3.39	3.32	3.20	3.25	3.46	3.55	3.61	3.66	3.67	3.62	3.42	3.16	3.16	3.21	3.01	2.66	2.37	2.09	3.82	7.89	9.45	8.90	8.69	8.95	10.16	3.73	4.99	5.65	4.88	5.78	6.99	2.54	2.42	2.79	3.23	3.42	3.42	3.32	3.50	3.50	
2.88	3.59	4.84	2.23	3.03	4.22	3.86	3.19	4.11	4.23	5.10	0.87	2.34	3.33	3.81	4.29	3.87	4.03	3.72	3.28	2.37	1.67	2.22	5.82	7.35	7.59	8.00	7.25	6.24	6.85	6.95	5.62	4.11	3.09	3.92	3.94	3.54	3.53	3.48	3.57	5.28	6.81	6.74	4.53	2.97	3.25	8.05	8.42	8.97	6.10	4.25	3.68	5.04	5.79	6.24	7.54	6.86	8.46	9.37	5.45	4.71	4.25	2.25	1.30	0.47	1.16	1.73	2.89	2.96	3.10	3.13	3.16	3.19	3.25	3.30	3.35	3.38	3.42	3.43	3.45	3.44	3.42	3.40	3.30	3.26	3.39	3.53	3.66	3.67	3.70	3.76	3.51	3.13	3.10	3.21	3.06	2.77	2.43	2.19	4.07	7.45	8.77	8.53	5.60	5.35	7.32	2.65	4.54	4.45	2.62	3.00	6.54	5.78	3.75	3.87	3.63	3.59	3.36	3.48	3.90	3.90	
4.33	4.87	7.22	5.47	8.36	5.28	2.82	4.02	3.52	4.81	4.33	4.18	4.15	3.59	3.94	4.76	2.99	3.88	4.32	2.28	1.45	1.96	1.71	3.00	6.06	6.90	7.15	7.26	6.11	6.06	5.97	5.66	4.97	3.47	3.53	3.57	3.48	3.55	3.71	5.20	7.32	5.46	4.27	3.22	2.75	2.95	3.61	7.19	7.49	6.43	5.79	3.78	2.44	2.47	3.07	6.72	6.12	6.84	9.57	10.54	3.16	1.41	1.07	1.27	2.66	3.18	2.88	3.22	3.07	3.16	3.23	3.14	3.04	3.11	3.22	3.29	3.34	3.39	3.42	3.44	3.44	3.44	3.45	3.40	3.33	3.32	3.35	3.52	3.60	3.64	3.77	3.53	3.14	3.06	3.19	3.11	2.86	2.50	2.18	4.00	6.45	7.84	9.04	8.69	5.04	4.73	2.44	3.96	3.76	3.52	2.57	3.57	6.19	4.66	4.07	3.56	3.49	3.08	3.21	3.84	3.84	
2.30	2.86	3.68	3.50	3.43	5.51	6.08	4.46	4.04	3.34	3.59	3.98	4.11	3.69	3.62	5.23	3.34	4.05	3.08	0.69	1.63	2.96	1.81	2.34	3.51	4.07	5.68	5.89	6.02	6.29	4.43	4.09	3.82	3.66	3.43	3.22	3.25	3.78	5.87	7.81	5.83	4.25	4.07	3.40	2.66	2.51	3.13	6.57	6.85	5.27	6.44	5.41	3.98	2.28	2.88	3.46	5.52	3.17	7.64	9.57	8.99	7.32	5.18	4.61	4.84	4.18	3.92	3.53	3.30	3.26	3.35	3.26	2.96	2.90	3.07	3.22	3.30	3.36	3.40	3.43	3.44	3.44	3.46	3.47	3.46	3.43	3.32	3.32	3.43	3.57	3.67	3.49	3.15	3.03	3.14	3.14	2.93	2.59	2.20	2.04	5.64	6.88	7.97	9.88	10.48	4.85	3.51	3.20	3.35	2.95	2.55	2.95	3.75	4.22	4.11	3.66	3.45	3.11	2.86	3.39	3.39	
2.79	3.30	3.99	3.68	2.99	3.09	5.79	5.48	3.96	4.21	3.94	3.56	3.91	4.10	3.50	5.05	4.92	2.68	0.88	2.38	3.00	1.87	3.04	2.44	3.06	4.05	3.89	3.64	3.60	3.81	4.21	3.90	3.59	3.55	3.27	3.00	2.97	3.76	3.86	4.01	4.06	3.97	4.05	4.03	3.02	2.20	2.51	3.47	4.22	3.93	3.40	3.92	3.77	2.94	2.54	2.68	2.18	1.63	6.35	8.66	7.62	7.39	7.20	5.00	3.73	3.88	3.95	3.72	3.51	3.35	3.25	3.26	3.03	2.78	2.90	3.11	3.23	3.32	3.38	3.41	3.43	3.43	3.45	3.46	3.49	3.59	3.57	3.40	3.37	3.54	3.67	3.55	3.26	3.08	3.12	3.15	3.00	2.68	2.30	2.08	4.03	6.05	6.85	8.99	11.53	2.61	2.57	2.94	2.74	3.13	2.92	2.71	2.86	3.36	3.75	3.74	3.65	3.45	3.06	2.81	2.81	
3.08	4.70	5.14	4.21	2.98	2.21	3.97	5.53	4.52	4.06	3.99	3.37	4.16	4.23	3.45	4.48	7.04	6.42	4.98	3.29	3.71	4.32	3.93	3.54	3.45	3.75	3.72	3.63	3.68	3.65	3.81	3.69	3.52	3.17	2.47	3.08	3.42	3.81	4.26	4.00	4.01	3.94	4.10	4.34	3.68	2.50	2.39	2.99	3.56	3.66	3.33	3.39	3.79	3.69	2.97	2.78	2.30	1.48	2.20	7.27	6.91	6.17	6.60	5.32	4.18	3.93	3.97	3.89	3.82	3.61	3.05	2.84	2.90	2.71	2.73	2.98	3.15	3.26	3.34	3.39	3.42	3.43	3.43	3.40	3.41	3.59	3.74	3.65	3.52	3.50	3.67	3.68	3.34	3.14	3.14	3.14	3.06	2.78	2.41	2.15	3.93	5.53	6.15	8.18	11.26	2.53	3.13	3.82	2.01	3.46	3.50	3.17	2.87	2.99	3.37	3.86	3.92	3.16	3.19	2.80	2.80	
2.99	3.10	5.53	4.94	3.51	2.05	3.58	6.03	3.00	3.81	3.54	2.70	4.49	7.32	6.31	6.39	6.24	6.39	6.84	5.55	5.36	4.30	4.17	4.51	4.49	3.86	3.56	3.83	3.98	3.66	3.77	3.58	3.21	3.17	2.81	3.45	3.31	5.15	5.31	4.03	3.92	4.55	4.47	3.05	1.11	3.38	3.05	3.28	3.31	3.32	3.28	3.27	3.83	4.11	3.37	3.05	1.38	1.87	1.97	3.81	5.83	4.45	4.78	4.50	4.21	3.96	4.01	4.11	4.25	3.86	1.91	2.49	2.55	2.50	2.56	2.83	3.06	3.18	3.28	3.35	3.40	3.42	3.43	3.36	3.32	3.48	3.67	3.70	3.68	3.50	3.52	3.69	3.43	3.21	3.20	3.16	3.09	2.84	2.54	2.27	2.33	5.22	6.09	8.27	11.15	5.16	4.40	1.51	3.62	3.55	2.23	1.55	3.44	3.25	3.42	3.99	4.24	1.75	3.13	2.79	2.79	
3.35	3.12	3.73	8.01	3.16	2.40	3.32	7.50	4.41	4.24	4.15	4.19	4.46	4.57	3.81	3.87	3.86	3.90	4.03	4.06	3.97	3.90	4.16	4.85	5.52	3.69	3.38	4.05	3.65	3.33	3.74	1.55	3.46	3.29	3.80	4.66	4.39	5.30	5.63	4.20	3.62	5.13	2.16	3.98	3.75	3.53	3.95	3.54	3.67	3.42	3.42	3.33	4.75	4.00	0.47	3.70	3.88	2.60	2.58	3.05	3.52	3.55	3.69	3.78	3.92	3.93	4.07	4.42	5.00	3.57	1.28	0.83	2.39	2.24	2.37	2.69	2.95	3.09	3.20	3.29	3.36	3.40	3.40	3.33	3.25	3.35	3.58	3.64	3.70	3.62	3.47	3.56	3.46	3.27	3.23	3.19	3.14	2.91	2.68	2.44	3.64	5.03	5.96	8.90	5.57	3.47	2.79	4.30	1.91	1.07	3.79	3.85	3.50	3.23	3.40	5.27	5.38	1.56	3.21	2.84	2.84	
3.50	4.95	4.41	7.45	4.31	3.43	3.56	4.99	3.60	3.53	3.65	3.70	3.66	3.57	3.79	3.96	3.89	3.83	3.82	3.59	3.28	3.32	3.97	5.79	6.90	3.95	3.10	4.95	0.49	2.33	3.90	3.43	3.61	3.38	5.45	4.61	4.60	5.52	6.59	4.72	3.40	4.76	0.34	3.87	3.41	3.23	4.01	3.47	2.09	3.54	3.43	3.09	2.66	5.27	5.60	3.85	3.67	3.73	3.43	3.36	3.29	3.20	3.28	3.10	3.41	3.96	4.25	5.54	5.70	2.51	0.54	0.75	0.29	2.12	2.16	2.51	2.79	2.97	3.10	3.20	3.30	3.35	3.37	3.31	3.23	3.23	3.45	3.60	3.62	3.68	3.60	3.49	3.42	3.31	3.20	3.17	3.24	3.03	2.77	2.51	2.60	5.41	6.36	9.72	7.07	5.95	5.19	1.69	2.29	3.62	3.59	3.61	3.47	3.21	3.01	3.48	6.26	2.25	3.36	2.82	2.82	
6.33	7.21	7.02	7.52	7.94	7.53	5.25	4.78	4.16	3.72	4.14	3.97	3.44	3.48	3.97	4.20	4.11	4.05	4.01	3.36	3.09	3.34	5.19	6.98	6.67	4.69	1.49	3.83	2.74	3.98	4.01	3.86	3.48	3.66	5.26	4.66	5.27	4.88	6.09	5.91	3.40	3.96	1.48	4.04	3.47	3.25	5.02	3.78	2.52	3.11	1.74	3.69	4.04	3.32	3.71	3.81	3.67	3.81	3.83	3.32	2.54	2.79	2.45	1.23	2.99	4.27	5.69	6.03	6.20	1.43	0.57	0.91	0.80	2.26	2.09	2.30	2.56	2.82	2.98	3.10	3.19	3.23	3.31	3.30	3.26	3.19	3.29	3.51	3.59	3.61	3.62	3.52	3.42	3.35	3.21	3.12	3.22	3.11	2.82	2.47	2.47	5.23	6.54	10.14	4.41	3.56	6.20	8.63	3.57	1.60	1.02	3.53	3.66	3.66	3.17	3.11	5.70	3.07	3.79	3.10	3.10	
2.53	2.98	3.48	3.67	4.10	4.16	4.81	5.44	4.03	3.67	4.78	1.42	3.25	3.71	4.77	4.26	3.69	4.05	2.17	3.00	2.90	4.86	5.27	6.96	7.61	0.88	2.57	3.45	3.00	2.37	4.00	3.48	3.35	3.75	5.47	5.19	5.99	4.92	5.78	6.31	5.98	6.47	4.79	4.32	1.11	3.29	3.85	5.63	0.82	3.94	5.33	5.14	3.68	3.43	3.78	4.06	4.00	4.09	4.39	1.89	1.80	3.31	1.22	2.79	2.67	3.87	6.57	7.46	5.79	0.67	1.98	1.91	1.44	2.62	2.26	2.17	2.26	2.58	2.82	2.99	3.11	3.15	3.29	3.30	3.30	3.25	3.24	3.45	3.61	3.57	3.55	3.51	3.43	3.37	3.27	3.12	3.12	3.05	2.83	2.44	2.40	5.16	5.83	10.00	4.27	2.87	3.45	6.53	8.64	0.73	1.97	3.80	3.69	4.01	3.91	3.53	3.84	7.45	4.18	3.89	3.89	
3.02	3.18	3.42	3.78	4.41	4.01	3.94	5.21	4.12	3.29	5.46	3.19	3.44	3.88	5.50	4.57	3.28	4.02	1.77	2.72	2.49	5.19	6.70	6.74	5.96	4.47	4.09	3.88	4.13	4.78	4.10	3.46	3.44	3.49	6.14	5.88	7.16	7.55	5.40	3.95	3.50	5.43	7.43	4.72	4.21	3.32	5.85	7.82	6.19	4.26	3.66	3.88	3.74	3.56	3.79	4.07	5.17	5.32	2.48	0.71	2.25	2.30	2.62	2.80	2.70	3.27	3.56	7.98	0.16	2.33	2.91	2.83	1.59	0.62	2.53	2.19	2.06	2.32	2.63	2.89	3.10	3.22	3.30	3.32	3.32	3.29	3.27	3.48	3.69	3.57	3.50	3.50	3.46	3.40	3.30	3.21	3.14	2.98	2.80	2.40	2.20	3.68	5.57	10.10	5.18	3.24	2.85	3.58	6.87	9.08	5.04	4.27	3.53	3.64	3.99	3.91	5.89	5.24	6.21	8.98	8.98	
3.72	3.42	3.24	5.02	5.33	4.25	3.43	4.62	3.12	3.59	3.84	3.80	3.44	4.04	5.48	5.16	3.42	2.62	1.95	2.74	2.40	3.27	7.91	5.91	4.36	3.93	3.85	3.66	3.84	4.52	4.00	3.30	3.80	4.64	3.32	5.85	4.33	4.01	3.84	3.74	3.22	3.07	3.38	6.41	6.70	3.97	5.32	5.62	5.90	5.85	4.09	3.97	3.87	3.70	3.80	3.92	5.67	5.07	0.46	1.55	2.70	1.56	3.11	2.69	2.78	3.43	5.12	7.48	1.36	2.16	2.10	0.81	1.48	1.80	1.41	2.35	2.02	2.20	2.50	2.77	3.05	3.22	3.31	3.34	3.33	3.30	3.23	3.48	3.83	3.65	3.52	3.54	3.51	3.44	3.31	3.27	3.20	3.00	2.80	2.42	2.10	3.60	5.20	9.19	6.02	4.38	2.75	2.63	3.38	6.73	8.30	4.68	3.57	7.06	3.46	6.45	6.70	5.50	4.14	8.96	8.96	
3.51	3.41	3.11	6.08	6.69	3.73	3.83	4.50	3.79	3.08	4.00	3.42	3.27	5.10	7.31	5.35	0.43	2.15	2.73	2.93	2.66	4.87	8.43	3.81	4.16	3.74	3.79	3.79	3.88	4.41	3.89	2.91	3.68	6.12	4.14	7.35	4.43	3.67	3.79	3.99	3.50	3.01	2.51	2.92	6.29	4.32	3.31	3.39	3.85	3.82	3.60	3.77	4.00	4.03	4.63	5.34	6.22	1.45	0.58	2.59	0.87	2.82	2.92	2.33	2.45	3.19	7.01	8.98	1.17	1.07	0.52	1.99	2.30	1.81	1.26	0.73	2.18	2.24	2.50	2.69	3.00	3.20	3.30	3.36	3.35	3.33	3.15	3.32	3.85	3.77	3.62	3.63	3.58	3.52	3.33	3.29	3.23	3.05	2.87	2.54	2.17	4.07	5.04	7.28	10.99	3.32	3.31	2.28	2.58	3.30	7.04	7.56	3.81	3.00	3.03	6.98	3.79	3.92	4.24	4.64	4.64	
3.85	3.61	4.41	6.01	1.97	4.31	4.53	5.07	3.73	4.17	3.65	3.26	3.38	5.14	8.33	4.62	4.08	4.02	3.86	3.09	2.93	5.39	8.84	3.28	3.05	3.64	3.80	4.08	4.02	4.42	3.97	2.81	3.21	4.15	5.57	6.37	4.58	3.67	3.94	3.57	3.99	3.59	2.97	2.46	3.36	4.11	3.74	3.56	3.93	3.56	2.97	3.65	4.02	5.22	5.23	5.75	6.34	0.28	1.55	0.60	3.79	3.13	1.82	2.76	2.49	2.04	2.92	7.63	0.50	0.25	0.74	2.32	1.93	1.13	0.76	1.58	2.49	2.33	2.52	2.69	2.96	3.18	3.27	3.35	3.35	3.35	3.14	3.17	3.70	3.77	3.65	3.64	3.60	3.58	3.39	3.31	3.24	3.10	2.97	2.72	2.38	4.24	3.75	6.11	9.96	2.97	3.90	2.54	2.13	2.55	3.56	7.52	4.10	3.06	3.36	3.51	3.62	3.76	4.17	4.48	4.48	
3.47	4.63	4.73	8.48	4.41	4.75	7.97	8.30	5.24	4.30	3.55	3.24	4.52	5.13	7.06	3.72	4.11	3.94	3.62	3.21	3.29	5.64	4.46	3.27	3.94	3.34	3.46	4.21	4.34	4.59	4.17	3.24	3.48	3.75	5.55	8.58	2.39	2.24	4.16	3.14	2.03	4.15	1.46	3.29	2.57	3.29	3.67	4.21	4.49	1.50	2.65	3.49	5.39	5.21	5.60	5.99	4.54	0.34	1.64	0.75	3.84	0.71	2.75	2.97	3.65	3.37	4.33	7.20	0.53	1.37	0.52	2.91	1.86	0.75	1.39	1.83	1.53	2.49	2.53	2.68	2.95	3.16	3.25	3.32	3.34	3.35	3.20	3.14	3.50	3.68	3.63	3.60	3.58	3.59	3.47	3.38	3.29	3.13	3.03	2.87	2.68	2.49	3.68	5.75	8.67	4.29	4.07	3.00	2.32	2.08	3.06	7.27	4.94	3.30	3.00	3.30	4.21	3.83	4.32	4.40	4.40	
3.05	6.52	5.03	5.39	4.40	3.47	3.73	6.12	5.71	4.89	4.01	3.44	3.54	5.41	5.28	0.95	2.31	3.67	3.43	3.48	4.58	7.05	3.08	2.04	2.20	3.27	2.89	3.87	4.54	5.66	4.40	3.83	4.17	5.35	5.33	4.22	4.28	4.57	5.03	5.18	5.03	5.20	5.26	4.04	3.56	3.24	3.37	5.85	4.75	3.77	2.59	3.01	5.57	6.74	6.23	3.75	8.01	3.90	1.04	1.24	0.37	1.99	3.04	3.45	3.43	2.41	5.01	6.01	6.04	4.46	8.02	5.23	1.38	0.75	1.72	2.09	1.76	2.66	2.60	2.68	2.93	3.14	3.24	3.31	3.34	3.33	3.26	3.16	3.34	3.60	3.65	3.60	3.56	3.54	3.50	3.46	3.38	3.22	3.07	2.94	2.82	2.85	3.79	5.86	8.14	3.37	4.06	3.46	2.56	2.03	2.06	3.62	6.64	3.48	3.20	3.46	3.57	3.90	5.58	4.87	4.87	
4.53	4.57	3.59	4.29	4.50	3.97	3.71	4.04	4.64	4.80	4.51	3.86	3.51	7.28	1.37	4.00	3.31	2.34	3.56	4.05	4.92	7.75	2.00	2.98	3.23	3.36	2.58	3.02	4.05	6.98	4.42	4.09	4.64	5.16	4.21	4.27	2.82	3.41	3.46	3.80	3.95	3.90	3.83	3.75	3.55	3.53	3.24	3.48	4.58	3.94	2.59	2.91	3.29	7.27	4.30	4.38	6.92	8.61	5.96	3.12	0.63	2.13	4.11	5.13	4.52	3.92	6.30	5.97	4.90	6.18	3.56	7.21	5.21	2.78	2.33	2.22	2.01	2.84	2.68	2.65	2.87	3.12	3.23	3.31	3.35	3.35	3.33	3.23	3.24	3.48	3.65	3.66	3.58	3.48	3.43	3.45	3.42	3.29	3.14	2.98	2.76	4.10	5.02	6.62	9.22	1.22	1.89	1.45	3.40	2.59	2.47	2.66	3.84	3.38	3.23	3.59	3.90	3.92	6.85	8.49	8.49	
3.59	3.55	3.72	4.34	4.62	4.47	3.95	3.62	4.05	4.16	4.49	4.09	3.68	4.48	6.16	6.66	7.34	4.63	4.13	4.97	5.79	8.87	3.47	2.80	4.00	3.60	2.85	2.48	3.27	7.96	6.54	4.00	5.95	4.94	4.67	3.52	2.01	3.64	3.47	3.56	3.69	3.99	3.80	3.42	3.39	3.68	3.75	4.39	5.00	3.91	2.59	3.20	4.60	5.63	4.11	2.71	5.28	7.01	8.26	8.67	8.65	7.19	7.34	7.17	3.70	7.49	4.19	5.18	4.17	3.12	2.77	3.43	8.77	6.88	5.12	3.41	2.47	3.09	2.83	2.71	2.81	3.08	3.23	3.30	3.34	3.36	3.37	3.29	3.24	3.34	3.55	3.70	3.64	3.45	3.36	3.37	3.37	3.29	3.21	3.06	2.76	3.90	5.10	7.55	10.79	5.25	4.34	4.23	3.95	2.90	2.52	2.40	2.87	3.84	3.16	3.87	4.01	6.56	8.99	8.87	8.87	
3.25	3.62	4.06	5.11	5.31	4.84	3.06	3.59	4.78	4.01	4.89	3.82	5.01	4.26	4.37	4.63	5.29	5.71	5.77	4.59	5.51	7.91	5.80	3.52	4.24	4.04	3.60	2.69	2.76	3.75	3.79	6.07	8.73	7.08	7.82	3.33	4.80	4.32	4.13	3.97	3.94	3.65	2.23	3.78	3.09	3.59	4.35	3.80	4.45	3.99	2.97	3.53	4.86	7.12	5.90	4.24	4.68	2.81	6.28	7.00	7.73	7.35	3.76	3.29	3.28	3.40	4.09	4.83	4.54	3.65	4.51	2.62	4.37	6.45	6.14	5.05	2.90	1.66	3.06	2.89	2.91	3.09	3.23	3.29	3.33	3.35	3.37	3.33	3.28	3.26	3.41	3.69	3.70	3.47	3.33	3.32	3.33	3.22	3.18	3.09	2.86	3.80	4.95	7.53	10.80	5.27	4.49	3.99	3.56	2.80	2.93	2.56	2.31	2.40	2.76	3.83	6.94	7.58	8.81	4.65	4.65	
2.77	5.14	5.25	5.70	8.49	2.63	3.66	3.34	7.24	3.94	4.53	5.06	3.06	2.80	3.25	2.90	3.44	3.53	4.15	5.36	3.86	5.32	5.88	5.73	5.14	5.63	4.12	3.36	2.91	3.48	3.46	6.25	8.36	6.46	4.44	5.26	3.81	0.83	1.39	0.63	2.81	2.43	1.91	3.25	1.79	4.50	6.70	6.50	4.75	4.38	3.69	3.83	6.94	4.61	4.65	5.05	3.19	2.51	3.31	3.80	7.59	8.10	4.30	3.61	3.23	3.58	4.16	4.44	5.65	4.53	3.87	2.53	4.05	5.59	4.83	5.41	3.77	2.39	3.48	3.04	3.00	3.11	3.20	3.27	3.31	3.34	3.36	3.35	3.33	3.25	3.34	3.67	3.81	3.61	3.36	3.29	3.32	3.19	3.08	2.96	2.73	4.05	5.30	7.44	10.55	2.46	1.97	1.11	3.66	3.33	3.30	2.51	2.30	1.98	2.19	3.64	3.73	7.47	8.95	4.60	4.60	
2.65	3.10	5.57	5.69	9.02	3.47	4.08	5.01	5.04	3.00	4.16	6.42	4.11	4.03	4.93	4.82	3.87	3.55	3.86	4.24	4.22	3.80	3.60	3.90	3.93	3.81	3.98	3.55	3.22	3.57	3.39	6.75	6.93	5.09	3.50	8.88	7.78	7.01	7.28	6.47	7.59	6.84	8.60	6.65	5.57	4.57	2.89	6.74	8.06	7.19	7.98	8.06	6.82	4.68	4.79	3.42	3.36	2.76	2.36	3.14	6.80	7.63	6.87	3.93	4.10	3.93	4.51	4.55	1.65	2.58	3.26	3.30	3.64	6.02	4.65	3.63	4.38	4.49	3.64	3.27	2.96	3.03	3.13	3.23	3.28	3.32	3.35	3.35	3.34	3.23	3.23	3.55	3.83	3.80	3.48	3.27	3.32	3.23	3.04	2.85	2.53	2.38	5.44	7.07	9.99	11.22	3.20	1.90	1.96	3.87	3.46	0.54	1.97	2.05	1.91	2.25	3.60	4.14	8.75	4.70	4.70	
3.61	4.47	3.13	3.43	8.03	8.62	3.84	2.23	2.63	2.81	3.35	3.90	4.19	3.90	3.90	4.23	4.15	4.00	3.97	4.00	4.41	4.18	3.23	3.21	3.45	3.24	3.32	3.24	3.08	3.55	3.46	6.97	5.67	3.51	6.04	6.12	5.82	6.05	6.16	4.13	5.97	3.61	7.05	5.53	3.98	4.70	2.79	3.09	6.24	3.60	6.65	6.50	5.35	5.27	3.79	3.57	3.75	3.38	2.38	1.94	2.34	3.66	6.22	4.04	4.10	4.02	8.83	1.81	1.78	4.32	3.21	3.32	2.10	3.29	4.41	3.81	3.54	3.52	3.72	3.40	2.96	2.85	2.97	3.14	3.24	3.28	3.32	3.34	3.33	3.20	3.11	3.31	3.63	3.79	3.61	3.32	3.31	3.27	3.08	2.86	2.49	2.15	3.98	6.68	8.90	10.64	10.62	5.66	5.71	3.45	1.87	0.86	2.79	2.55	2.05	2.07	2.25	4.02	8.30	4.72	4.72	
3.69	4.14	3.62	6.28	5.33	5.45	5.67	3.92	3.78	3.93	3.57	3.77	3.99	3.95	4.06	4.23	4.05	4.34	4.33	3.66	4.36	3.70	3.52	3.30	3.40	2.94	2.90	3.58	3.05	3.26	3.35	3.94	5.91	3.70	3.46	3.88	3.85	3.64	3.65	4.05	4.03	3.51	6.98	5.49	3.94	3.89	3.31	2.89	3.36	3.51	3.88	6.24	4.20	3.77	3.68	3.88	4.31	3.89	2.35	2.05	2.11	2.59	2.82	2.71	3.68	7.18	7.43	8.39	8.46	5.78	4.58	4.29	3.65	3.00	3.48	4.01	3.78	3.32	3.27	3.24	3.02	2.76	2.79	3.02	3.18	3.24	3.28	3.31	3.31	3.23	3.10	3.16	3.44	3.65	3.57	3.34	3.32	3.31	3.12	2.90	2.57	2.10	4.01	6.29	7.99	9.15	10.50	10.75	10.85	10.75	2.36	2.64	2.59	2.34	2.45	2.17	2.21	2.87	8.70	4.65	4.65	
3.08	5.10	4.12	6.77	7.07	6.73	2.21	3.47	3.91	3.80	3.72	3.82	3.99	3.99	4.19	4.34	3.97	5.03	3.04	3.58	4.97	2.65	1.33	1.16	1.36	3.05	2.99	3.17	3.27	3.19	3.23	3.70	4.15	3.78	3.58	3.79	3.90	3.59	3.09	3.45	3.97	3.58	3.85	4.31	3.94	3.71	3.54	3.27	3.09	2.84	3.47	4.07	3.83	3.64	3.67	4.15	4.49	1.63	2.76	2.68	2.40	2.28	2.19	2.18	3.37	3.42	3.46	5.96	6.80	6.80	6.23	4.61	4.62	3.87	3.64	3.90	3.99	3.53	3.07	2.99	3.00	2.81	2.68	2.88	3.12	3.21	3.25	3.28	3.28	3.25	3.13	3.10	3.34	3.60	3.53	3.35	3.37	3.37	3.19	2.98	2.70	2.21	1.83	4.39	6.72	7.32	8.47	9.37	9.93	10.79	9.54	3.03	2.25	2.66	2.89	2.43	2.35	2.84	8.15	4.44	4.44	
4.84	2.67	5.40	7.94	10.12	3.55	1.92	2.15	3.76	3.63	3.72	3.83	4.04	4.04	4.23	4.40	4.10	5.61	3.12	3.39	6.39	2.56	3.74	4.65	3.87	3.34	3.14	3.57	3.64	3.29	3.25	3.47	3.64	3.63	3.62	3.83	4.33	4.31	3.30	3.11	3.53	3.44	3.49	3.91	3.85	3.59	3.65	3.75	3.44	2.90	3.43	3.87	3.37	3.62	4.13	5.70	4.79	1.11	3.26	3.24	2.73	1.65	2.32	2.41	2.63	2.87	2.89	2.91	3.21	3.52	3.58	3.67	3.77	3.70	3.71	4.00	4.06	2.89	1.39	0.44	2.85	2.87	2.70	2.76	3.03	3.17	3.23	3.25	3.25	3.24	3.16	3.04	3.15	3.45	3.47	3.30	3.36	3.43	3.29	3.11	2.90	2.48	2.01	1.95	4.52	4.69	6.84	7.86	8.76	9.43	11.10	6.15	3.65	3.52	2.69	2.78	2.57	2.88	7.76	5.44	5.44	
2.57	2.61	2.52	2.86	7.88	6.36	3.08	0.92	0.50	3.74	3.83	3.98	4.09	4.39	5.14	5.44	6.88	5.74	2.74	2.36	3.32	3.29	3.48	3.70	4.00	3.15	2.95	4.16	4.40	3.61	3.35	3.43	3.34	3.43	3.59	3.85	4.26	4.68	3.99	3.49	3.38	3.39	3.54	4.09	4.14	3.60	3.69	3.96	4.04	3.33	3.61	3.79	3.18	3.23	4.02	6.80	3.32	1.76	2.74	2.28	1.00	2.23	3.00	3.18	2.85	3.03	3.27	2.92	2.81	2.98	3.14	3.39	3.56	3.55	3.59	4.19	4.67	2.10	0.74	0.42	2.67	2.78	2.72	2.71	2.96	3.14	3.19	3.21	3.21	3.21	3.17	3.08	3.03	3.20	3.29	3.16	3.21	3.40	3.39	3.26	3.10	2.80	2.42	2.18	2.18	4.75	4.90	7.00	7.78	8.33	9.52	10.06	6.49	4.36	3.42	3.27	2.95	3.05	3.49	3.87	3.87	
3.47	3.34	2.80	2.72	3.48	5.96	5.96	4.57	4.33	3.82	5.28	4.09	4.24	3.91	3.73	3.96	4.62	9.11	5.53	0.36	2.44	3.83	3.53	3.79	0.99	3.07	3.63	4.23	6.04	4.57	3.72	3.55	3.24	3.40	3.66	3.52	3.87	4.44	4.35	3.82	3.37	3.31	3.50	4.27	4.28	3.75	3.54	3.77	3.95	3.65	3.42	3.31	2.93	2.82	3.48	8.01	2.06	2.85	4.09	3.90	4.10	3.35	3.55	3.74	3.05	3.41	3.62	2.68	2.67	2.70	2.98	3.30	3.40	3.37	3.54	4.93	4.78	1.61	0.51	0.85	0.63	2.78	2.72	2.72	2.91	3.08	3.13	3.15	3.16	3.17	3.16	3.13	3.09	3.11	3.15	3.07	3.03	3.18	3.29	3.30	3.23	3.05	2.80	2.56	2.40	2.29	4.71	4.78	6.56	7.52	8.17	8.86	7.99	6.21	4.11	3.63	3.27	3.24	3.45	3.67	3.67	
3.88	4.30	3.22	3.18	2.91	4.01	8.79	3.99	3.78	3.60	3.33	3.93	6.23	3.98	3.44	3.73	4.23	6.08	2.00	1.45	2.60	2.83	3.68	3.92	1.48	2.62	2.41	3.42	7.61	4.56	1.73	3.79	3.68	3.65	3.80	3.70	3.87	4.41	4.54	4.00	3.32	3.28	3.59	6.18	4.14	3.47	3.46	4.00	4.26	3.98	3.62	2.99	2.75	2.83	5.71	8.26	2.98	3.56	3.61	4.06	4.05	3.42	3.52	4.37	3.90	4.33	3.58	1.50	0.57	1.76	2.56	3.23	3.14	3.50	4.27	5.30	4.35	0.17	1.41	1.73	1.50	1.63	2.78	2.71	2.88	3.00	3.03	3.06	3.08	3.11	3.12	3.13	3.14	3.14	3.13	3.07	2.98	2.97	3.00	3.09	3.16	3.13	3.05	2.87	2.65	2.49	2.39	2.30	4.79	5.17	7.63	8.22	8.18	5.11	4.33	3.73	3.43	3.38	3.45	3.54	3.54	
3.32	5.13	4.76	3.69	3.50	4.92	5.28	2.99	3.87	3.27	2.90	3.64	4.55	4.18	5.13	3.55	5.09	8.92	7.08	4.06	3.25	3.21	3.83	2.11	1.68	2.55	3.38	3.34	7.39	8.36	3.26	3.78	3.72	3.84	3.94	3.71	3.73	4.47	4.47	3.98	3.20	3.52	4.03	4.13	3.92	3.27	3.53	4.53	4.88	4.50	2.96	3.36	2.74	2.71	5.61	6.73	1.35	3.39	3.29	3.50	3.04	3.25	3.00	3.76	6.27	6.13	0.95	2.23	3.33	2.25	3.04	4.40	3.90	3.28	4.04	5.55	1.02	3.23	3.04	2.99	2.52	2.29	3.01	2.75	2.75	2.78	2.84	2.91	2.97	3.02	3.05	3.07	3.10	3.11	3.10	3.07	3.03	2.97	2.85	2.84	2.90	2.96	3.09	3.12	2.93	2.77	2.68	2.51	2.39	5.10	7.23	8.19	7.79	4.97	4.23	3.85	3.60	3.53	3.48	3.45	3.45	
5.06	7.57	8.83	9.40	8.98	4.84	2.01	3.66	2.80	3.65	2.78	3.14	4.48	4.39	3.05	3.15	5.55	8.42	11.06	2.02	1.24	3.03	3.48	3.02	3.26	2.48	1.93	2.12	8.01	8.32	5.32	4.12	3.86	4.07	4.26	3.78	3.33	6.64	3.33	3.95	3.21	3.80	5.94	2.26	3.50	3.23	3.37	4.25	7.08	4.78	2.84	3.54	2.85	2.61	3.59	4.72	1.72	3.51	3.34	3.41	3.85	3.78	2.63	2.71	3.61	6.84	2.31	3.85	3.54	1.08	3.70	5.03	4.90	3.16	3.46	3.36	5.40	5.67	5.26	4.33	3.46	3.04	3.45	3.04	2.71	2.46	2.50	2.67	2.78	2.87	2.94	3.00	3.04	3.06	3.07	3.06	3.05	3.04	2.92	2.87	2.82	2.77	2.89	3.10	3.12	3.00	2.92	2.76	2.60	5.06	5.47	7.72	7.85	4.25	4.19	3.94	3.72	3.67	3.53	3.39	3.39	
1.85	6.56	7.53	7.22	8.16	8.44	8.57	7.59	5.30	3.35	3.33	2.73	4.28	3.61	3.10	3.07	5.76	7.94	9.94	3.31	1.60	2.28	5.19	4.99	4.22	2.83	2.02	1.90	4.23	5.09	4.71	4.22	4.15	4.32	4.55	4.16	3.45	3.83	4.42	3.89	3.31	3.86	6.69	4.08	3.14	3.11	3.34	3.78	6.81	7.12	2.80	2.11	3.03	2.59	5.10	3.05	1.94	3.49	3.29	3.59	4.15	3.62	3.23	2.64	3.23	6.43	2.12	3.88	1.44	2.26	3.24	3.58	6.06	1.89	2.99	4.62	4.24	4.64	3.85	4.15	3.96	3.97	3.89	3.46	2.77	2.43	2.39	2.44	2.50	2.66	2.80	2.89	2.96	3.00	3.03	3.05	3.06	3.09	3.11	3.08	2.98	2.84	2.79	2.89	3.04	3.15	3.14	2.99	2.86	2.80	5.37	5.96	6.31	4.10	4.06	3.91	3.74	3.75	3.67	3.56	3.56	
1.71	5.98	3.77	3.49	5.80	5.93	6.29	7.28	7.21	8.68	4.09	2.91	4.19	3.74	3.28	3.53	4.35	3.78	4.45	7.89	6.40	5.91	5.84	5.82	4.89	3.43	2.68	2.69	4.81	4.22	3.71	3.74	4.27	4.27	6.05	4.41	3.90	3.73	3.72	3.69	3.55	3.95	3.48	3.86	2.98	3.03	3.45	6.14	6.43	8.91	5.36	3.08	3.48	3.42	3.75	0.47	2.33	3.64	3.31	3.58	4.34	3.83	3.46	2.74	3.04	6.27	1.85	1.13	2.31	2.66	3.42	4.33	5.55	5.29	5.24	5.35	4.86	4.31	3.58	3.62	3.71	3.79	4.06	2.82	0.82	2.78	2.70	2.41	2.17	2.35	2.59	2.74	2.85	2.93	2.99	3.04	3.09	3.14	3.18	3.18	3.12	3.02	2.93	2.85	2.86	3.05	3.26	3.19	3.05	3.04	3.05	5.80	6.35	6.14	4.04	3.94	3.76	3.65	3.67	4.26	4.26	
2.38	2.93	3.68	3.67	3.62	3.55	3.85	3.95	4.04	7.05	4.36	3.52	4.27	4.53	3.40	3.87	5.80	4.62	4.65	3.51	4.22	4.72	3.30	4.09	4.23	3.81	3.42	3.97	3.92	4.00	3.26	3.39	5.95	5.98	5.60	4.39	2.93	3.71	3.48	3.67	3.88	4.31	2.05	3.36	2.94	3.07	3.48	3.58	3.55	6.64	8.80	4.50	4.18	2.87	3.50	4.17	3.72	3.94	0.69	3.46	5.63	3.88	3.87	2.96	2.96	5.39	0.52	3.97	1.15	3.13	3.79	8.24	7.47	6.51	5.64	5.73	4.26	4.33	3.77	3.61	3.58	3.65	4.55	0.48	2.23	3.62	2.14	2.59	2.02	1.99	2.23	2.48	2.68	2.83	2.92	3.01	3.08	3.13	3.17	3.19	3.17	3.13	3.07	2.98	2.86	2.86	3.09	3.28	3.20	3.12	3.13	5.68	6.22	6.19	6.49	4.12	3.92	3.67	3.60	4.72	4.72	
3.53	3.76	4.01	4.09	3.73	3.21	3.15	3.22	3.38	4.04	3.89	3.59	6.76	4.27	3.48	3.77	6.57	5.47	0.08	2.37	3.34	2.70	2.79	3.09	3.79	3.82	3.89	5.59	4.19	4.79	3.67	2.96	6.73	7.35	4.77	4.39	3.99	3.51	3.72	3.98	5.40	4.60	2.19	3.11	3.00	3.24	5.87	6.07	5.71	5.63	7.58	8.57	3.25	3.49	3.01	3.77	3.87	3.85	3.74	3.55	3.87	4.69	4.08	3.38	3.84	5.97	3.63	4.94	5.44	6.59	7.23	6.46	6.30	6.03	3.92	3.57	3.60	3.64	3.51	3.54	3.67	4.43	2.06	3.12	3.99	4.76	2.92	1.58	2.17	1.86	1.88	2.10	2.42	2.68	2.83	2.94	3.03	3.09	3.14	3.17	3.17	3.15	3.12	3.09	3.00	2.88	2.89	3.15	3.34	3.21	3.13	3.35	6.15	5.87	6.03	6.82	4.22	4.02	3.73	3.79	3.79	
3.95	5.30	5.03	4.38	3.30	3.23	3.04	3.07	3.28	3.49	3.32	3.33	3.74	3.58	6.22	7.16	8.93	6.53	2.87	2.52	2.79	2.56	2.77	3.16	3.70	3.89	5.63	6.18	5.63	6.35	3.05	3.58	3.15	3.98	5.17	4.43	3.84	3.45	3.92	5.42	5.43	2.86	3.92	3.05	3.11	3.62	3.72	3.26	6.12	8.14	6.52	6.47	3.67	0.79	2.32	3.51	3.45	3.62	3.92	4.00	4.40	4.09	2.49	3.76	4.55	2.55	3.98	4.47	5.22	5.46	5.60	3.58	3.89	4.11	3.86	3.71	3.77	3.64	3.20	3.19	4.43	4.14	2.10	3.31	3.61	5.12	3.94	1.74	1.08	2.00	1.75	1.75	2.05	2.43	2.67	2.83	2.94	3.01	3.07	3.11	3.13	3.14	3.14	3.12	3.09	3.02	2.91	3.03	3.38	3.41	3.17	3.32	6.19	3.54	5.68	7.71	8.20	8.04	8.58	4.13	4.13	
3.25	5.88	6.61	3.93	2.19	2.37	3.48	3.08	3.73	3.75	3.32	3.63	3.37	2.75	3.05	3.73	8.59	6.68	2.19	2.35	3.03	2.92	3.03	3.51	4.21	4.08	6.09	6.07	4.74	5.64	4.53	3.38	3.72	3.67	4.32	4.18	3.65	3.47	3.81	5.97	0.60	2.96	3.74	3.14	3.18	3.88	5.04	3.59	5.07	3.28	5.33	5.25	5.73	3.68	3.01	3.82	3.47	3.49	3.96	5.01	6.37	2.52	2.62	2.74	3.28	3.24	3.70	4.60	5.46	3.47	3.29	3.42	3.55	3.72	3.63	3.62	3.91	3.69	2.98	2.79	5.23	1.84	3.39	3.58	3.49	4.73	6.00	2.20	0.96	0.87	0.40	1.75	1.76	2.08	2.43	2.67	2.81	2.89	2.95	3.02	3.06	3.10	3.12	3.13	3.12	3.11	3.00	2.96	3.27	3.50	3.27	3.26	6.13	5.93	5.64	5.96	8.00	7.94	3.99	4.24	4.24	
2.34	5.44	8.90	3.06	0.53	1.77	0.72	3.37	5.26	3.28	3.64	4.18	2.33	2.67	2.68	3.54	8.60	7.06	2.69	2.58	2.66	2.65	2.96	3.98	6.22	6.43	6.71	6.44	5.09	4.99	4.94	3.07	3.73	3.72	4.10	3.62	3.36	3.68	3.90	6.69	3.40	3.27	3.52	3.21	3.18	3.52	7.58	4.17	3.66	4.49	3.27	4.06	5.67	5.78	5.85	4.09	3.59	3.20	3.39	8.18	7.99	8.16	7.67	8.17	8.23	5.16	4.28	4.32	3.36	3.38	3.51	3.64	3.44	3.45	3.49	3.38	4.32	4.25	3.29	3.17	1.45	4.30	3.77	3.65	3.58	4.12	6.79	2.25	0.30	0.17	0.39	0.34	1.92	1.97	2.20	2.43	2.59	2.70	2.79	2.88	2.95	3.02	3.06	3.10	3.13	3.12	3.05	2.90	3.02	3.37	3.35	3.24	3.43	3.47	5.63	5.75	7.68	3.76	5.90	5.83	5.83	
2.14	4.67	6.50	3.92	3.11	3.97	3.97	3.51	4.09	3.02	4.43	3.26	3.96	3.16	2.58	3.38	6.92	5.31	3.41	2.82	2.62	2.52	2.65	3.92	7.22	8.15	8.83	9.18	7.42	6.16	3.66	1.95	1.32	4.00	4.15	3.37	3.16	3.83	4.32	3.79	2.93	3.75	3.34	3.37	3.57	3.35	6.32	8.33	6.71	3.78	5.68	4.01	3.24	3.91	5.32	5.60	5.00	3.12	6.04	5.87	5.89	6.17	6.17	6.39	7.44	6.77	5.01	3.62	3.42	3.63	3.99	4.20	3.69	3.12	3.24	3.33	4.77	5.18	2.84	3.78	4.81	3.79	3.63	3.48	3.81	5.26	5.46	1.36	1.37	0.39	0.05	0.73	0.85	2.43	2.25	2.21	2.25	2.35	2.50	2.64	2.77	2.88	2.97	3.04	3.10	3.11	3.10	2.98	2.95	3.21	3.34	3.29	3.33	3.39	5.45	5.68	7.54	4.06	3.89	7.92	7.92	
2.44	4.78	5.71	8.30	4.61	4.63	1.67	4.33	4.52	4.01	5.68	2.04	4.07	3.69	2.70	3.36	6.74	3.74	3.65	2.90	2.58	2.48	2.53	3.75	6.84	8.46	8.88	9.23	9.61	7.52	3.77	2.41	2.26	4.10	4.17	3.30	2.99	3.73	6.48	3.17	2.92	3.53	3.24	3.36	3.83	5.30	5.14	5.74	7.25	4.28	3.88	3.73	3.66	3.52	3.21	3.40	3.49	3.30	3.24	3.34	3.31	3.47	6.17	6.15	6.12	6.20	4.28	3.81	3.66	3.89	4.44	4.99	3.92	3.23	3.46	3.87	4.46	7.53	5.74	5.05	3.92	3.88	3.69	3.53	3.81	5.60	3.89	0.84	0.54	0.97	2.87	3.49	2.08	1.67	2.71	2.28	2.11	2.02	2.11	2.28	2.46	2.65	2.83	2.96	3.04	3.09	3.11	3.06	2.99	3.12	3.29	3.33	3.31	3.35	5.56	5.79	7.91	4.27	6.14	4.03	4.03	
2.90	5.19	3.99	4.07	8.12	5.25	4.73	4.72	3.21	3.94	3.69	4.30	4.22	2.35	2.97	3.43	8.65	4.31	4.09	3.52	2.63	2.36	2.53	3.89	7.20	8.09	8.23	8.25	9.37	10.84	2.82	3.18	4.11	4.21	4.05	3.14	3.02	3.79	6.51	3.08	3.95	3.34	3.17	3.20	3.46	6.54	7.74	6.69	7.24	7.70	2.38	3.66	3.64	3.44	3.31	3.13	3.16	3.15	3.20	3.24	3.18	3.22	3.43	3.68	3.73	3.69	3.66	3.53	3.58	4.20	4.46	6.16	5.64	3.98	3.47	3.53	2.87	4.94	5.13	3.74	3.69	3.70	3.61	4.62	5.27	6.10	1.38	1.22	2.70	4.11	3.90	4.05	2.12	3.58	2.36	1.65	1.49	2.00	1.88	2.01	2.11	2.32	2.63	2.85	2.98	3.05	3.10	3.10	3.02	3.06	3.23	3.32	3.26	3.20	5.69	5.94	6.43	6.37	4.28	4.36	4.36	
3.33	5.38	4.13	3.17	3.89	4.65	6.38	5.19	4.73	5.59	5.21	4.04	4.23	4.34	3.19	3.37	8.79	3.14	2.30	2.37	2.11	2.09	2.28	4.13	7.62	7.62	7.56	7.85	9.55	8.63	5.98	3.77	4.78	4.75	4.16	3.09	3.06	5.68	5.16	3.43	3.82	3.29	3.22	3.64	3.59	3.09	3.31	3.85	5.70	7.53	4.48	3.67	3.53	3.47	3.46	3.31	3.23	3.15	3.11	3.17	3.16	3.14	3.28	3.40	3.37	3.27	3.24	3.24	3.28	4.00	6.41	5.99	6.44	5.58	2.75	4.04	4.26	3.34	3.56	3.52	3.45	3.47	4.45	4.81	6.06	8.12	4.25	4.94	4.58	4.04	4.01	2.26	4.08	4.14	2.42	1.53	1.84	1.02	1.90	1.91	1.94	2.09	2.36	2.66	2.89	3.02	3.09	3.12	3.07	3.04	3.15	3.31	3.30	3.16	3.10	5.67	6.31	6.58	7.70	7.96	7.96	
3.71	4.44	3.30	3.31	3.08	3.57	6.40	9.02	4.87	4.44	6.08	5.17	3.10	3.13	2.67	3.01	7.50	1.59	1.14	0.90	1.82	1.98	2.01	4.06	7.72	7.34	7.00	7.73	9.81	5.74	6.62	6.95	10.16	4.17	4.40	3.31	3.22	4.03	4.19	4.25	3.60	3.33	3.37	3.88	5.23	3.57	2.90	3.27	4.09	5.50	4.84	3.91	3.65	3.53	3.69	3.75	3.59	3.39	3.33	3.35	3.28	3.23	3.32	3.39	2.40	2.95	3.07	3.20	3.14	3.62	6.37	6.49	6.56	6.95	3.60	3.29	2.95	3.23	3.57	3.48	3.24	3.43	4.22	4.48	5.77	6.27	4.52	5.17	4.43	4.37	3.94	4.02	4.33	4.45	1.96	1.29	1.99	1.08	0.98	0.29	2.07	2.18	2.32	2.50	2.80	2.99	3.07	3.12	3.11	3.04	3.05	3.19	3.31	3.22	3.07	3.09	6.06	5.97	6.37	9.02	9.02	
4.39	4.42	4.39	3.68	2.82	2.98	3.51	6.98	5.57	4.13	4.27	5.15	4.03	2.86	2.78	2.67	4.16	9.73	3.27	2.58	2.21	2.04	1.90	3.85	7.54	7.18	7.14	8.12	8.77	4.34	3.92	8.82	7.56	5.15	4.38	3.63	3.72	3.97	4.36	3.46	3.31	3.20	3.57	4.02	5.71	4.15	3.45	4.87	7.90	3.33	3.63	3.75	3.52	3.52	3.77	4.07	3.82	3.61	3.80	3.69	3.51	3.41	3.50	3.44	2.68	2.74	3.00	3.28	3.46	3.36	6.36	7.34	8.32	5.22	2.88	2.82	2.91	3.43	4.06	3.74	3.29	4.26	4.72	4.82	2.08	3.65	4.51	3.85	3.97	4.23	3.87	3.78	4.73	4.71	0.81	1.59	2.00	0.23	0.68	1.46	1.41	2.52	2.51	2.52	2.74	2.94	3.03	3.10	3.12	3.09	3.03	3.08	3.24	3.23	3.04	2.95	3.20	3.52	6.44	9.13	9.13	
3.14	4.52	4.31	4.09	2.87	2.55	2.93	4.17	8.36	4.19	5.57	5.41	2.32	1.85	2.49	2.53	3.36	8.60	4.74	2.75	2.17	2.08	1.88	2.61	4.55	4.45	7.53	8.19	6.83	4.23	3.93	4.14	4.82	4.11	4.65	4.12	4.30	2.64	4.31	3.82	3.12	2.94	3.45	6.16	7.75	7.83	4.34	3.71	3.25	3.40	3.87	3.59	3.53	3.58	3.79	0.65	3.65	3.70	4.13	4.08	3.80	3.76	3.87	0.40	2.74	2.79	3.06	3.41	3.60	5.36	5.98	6.74	8.17	2.95	2.16	3.29	3.01	3.72	5.39	4.09	2.41	4.32	5.97	2.27	3.13	3.66	3.44	3.59	3.69	4.01	3.84	3.75	5.35	3.93	0.76	1.96	1.03	4.18	4.94	4.43	2.61	2.65	2.51	2.53	2.70	2.89	3.00	3.08	3.11	3.13	3.11	3.14	3.31	3.39	3.22	3.03	2.97	3.23	6.51	6.63	6.63	
3.09	4.59	4.70	3.48	3.27	2.27	2.48	3.88	8.19	3.95	6.00	6.64	2.25	2.24	2.75	2.08	2.90	5.53	2.45	1.65	1.82	2.04	1.79	3.73	4.52	4.78	7.65	7.65	4.48	3.97	3.88	6.30	9.47	9.30	5.21	4.15	4.03	3.87	2.57	4.02	3.05	2.74	3.07	3.77	6.44	7.94	7.57	2.17	3.75	3.35	3.46	3.55	3.81	3.98	3.27	3.59	3.52	3.82	4.23	4.08	3.25	2.99	0.86	2.72	3.21	3.05	3.19	3.83	5.30	5.00	5.29	5.95	7.46	6.41	3.09	3.57	3.01	3.39	6.09	5.89	2.50	4.64	6.13	1.80	2.63	3.25	3.57	3.79	3.51	4.14	4.36	4.04	5.02	2.53	1.63	3.81	5.33	4.24	4.69	2.53	1.14	1.50	2.20	2.36	2.60	2.81	2.96	3.06	3.10	3.14	3.13	3.18	3.36	3.51	3.47	3.32	3.04	3.03	6.45	7.16	7.16	
4.59	4.26	4.83	1.55	4.00	2.48	2.25	3.67	6.80	3.56	5.90	9.62	5.50	3.34	3.04	2.17	2.59	4.99	3.10	1.96	2.26	2.17	1.62	2.11	2.85	7.40	7.19	6.83	7.82	3.87	7.32	8.94	5.82	8.16	9.43	5.70	4.77	4.88	4.85	4.17	3.14	2.73	2.99	5.78	6.16	7.78	8.61	1.76	2.12	3.37	3.18	3.52	4.20	4.75	3.81	3.37	3.57	3.83	4.95	5.23	2.37	2.21	4.42	4.68	3.70	3.28	3.28	3.91	5.38	5.22	4.93	5.37	7.03	5.09	3.83	3.84	3.12	3.09	5.75	7.35	3.80	4.77	4.52	2.61	3.48	3.52	3.99	4.04	3.06	3.34	4.97	5.55	4.54	6.14	5.06	5.27	4.58	3.91	0.93	1.99	0.96	0.79	1.87	2.06	2.41	2.70	2.88	3.02	3.08	3.12	3.11	3.12	3.30	3.45	3.48	3.46	3.25	3.02	6.17	7.07	7.07	
4.14	3.69	4.17	7.48	4.85	3.03	2.27	3.53	6.76	3.61	6.11	6.63	5.24	4.31	2.99	2.52	2.36	4.44	7.78	2.79	3.04	2.75	1.75	1.66	2.31	4.84	3.85	5.02	3.98	4.34	7.45	5.17	3.32	3.69	8.73	4.60	4.60	5.27	5.14	4.12	3.18	2.79	2.84	3.33	3.70	6.24	9.37	2.10	2.19	3.45	3.08	3.43	5.81	2.13	3.67	3.21	3.49	3.75	4.93	5.61	3.25	3.93	4.41	3.65	3.50	3.20	3.28	5.44	5.61	5.26	5.13	5.63	1.01	3.20	4.38	3.72	3.13	3.15	5.08	6.82	5.56	5.19	1.77	3.01	3.62	3.83	4.12	4.50	3.24	2.99	4.60	3.03	3.81	3.29	3.58	4.26	4.22	0.58	3.56	2.55	0.71	0.64	1.79	1.86	2.24	2.60	2.80	2.95	3.05	3.09	3.07	3.07	3.26	3.47	3.53	3.52	3.44	3.16	3.53	6.71	6.71	
4.19	3.58	3.49	6.84	4.33	3.94	2.46	3.18	7.18	4.08	6.38	7.84	4.01	4.27	3.18	2.51	2.27	4.18	8.56	4.48	2.05	2.84	2.49	1.60	2.05	4.76	4.80	4.73	4.48	4.63	5.31	3.60	3.42	3.88	6.97	4.10	4.14	5.38	5.59	4.26	3.13	2.96	3.09	3.28	3.38	5.97	6.18	4.14	3.38	3.59	3.14	3.45	6.19	4.58	3.63	3.07	3.36	4.62	4.97	7.32	5.43	4.45	3.70	3.65	3.56	3.10	2.97	6.39	6.98	5.47	4.79	3.15	3.12	3.42	3.31	3.45	3.18	2.87	6.29	7.31	6.09	3.54	2.65	3.19	3.47	3.68	4.77	5.54	3.03	2.93	3.11	2.38	3.17	3.33	3.50	1.85	4.05	3.89	3.20	1.91	0.31	0.74	1.21	1.99	2.11	2.46	2.72	2.90	3.01	3.06	3.05	3.01	3.13	3.38	3.55	3.57	3.53	3.29	3.44	6.32	6.32	
3.37	3.84	3.25	3.91	4.88	4.51	2.83	3.01	7.04	4.42	3.87	5.37	2.21	1.42	3.62	2.53	2.05	3.96	5.06	6.25	4.85	2.87	2.34	1.90	1.99	4.54	3.20	4.51	7.58	9.11	4.91	3.61	3.91	8.18	4.26	3.56	3.68	7.16	6.50	4.85	3.15	2.96	3.39	3.56	5.01	5.60	4.69	3.13	3.06	3.46	3.22	3.75	6.09	4.45	3.70	3.06	3.15	3.72	5.85	5.35	4.53	3.56	3.50	3.72	3.93	3.59	2.46	5.49	5.69	7.96	5.40	3.05	3.42	3.11	2.97	3.44	4.39	3.31	4.71	6.92	8.11	1.65	3.40	3.39	3.34	3.29	4.58	6.71	3.47	2.29	2.85	3.32	3.35	2.50	3.57	3.87	4.14	3.43	2.12	1.21	2.71	2.70	2.44	2.33	2.12	2.36	2.65	2.86	2.97	3.02	3.03	2.98	2.97	3.13	3.37	3.50	3.51	3.37	3.42	3.65	3.65	
5.02	4.29	3.63	3.61	3.94	4.16	3.03	2.82	6.59	4.52	4.20	5.33	3.20	2.73	2.88	2.27	2.05	2.68	4.43	4.56	4.99	6.20	3.07	2.40	1.91	2.62	2.90	4.40	8.39	7.09	5.71	3.73	4.30	4.55	3.89	3.21	3.54	8.35	7.74	3.21	3.81	3.08	3.42	3.55	5.59	7.97	5.03	4.35	4.19	3.36	3.13	5.46	6.93	1.96	3.73	1.07	3.11	4.63	4.45	4.70	3.85	3.29	3.34	3.75	5.43	4.63	2.86	2.01	2.78	5.50	6.40	3.37	2.55	2.86	2.84	3.52	5.69	3.40	3.33	3.46	7.67	3.92	3.26	3.37	3.40	3.73	3.81	6.85	5.82	3.13	2.99	3.34	2.37	3.54	3.72	3.76	3.54	1.96	5.19	5.48	4.66	3.85	2.71	2.48	2.22	2.34	2.60	2.82	2.95	3.01	3.04	3.01	2.98	3.02	3.17	3.38	3.47	3.42	3.45	3.58	3.58	
4.69	4.79	4.73	4.33	3.88	3.67	3.04	2.48	3.34	4.26	4.62	5.53	2.11	1.10	3.08	2.54	2.56	2.60	3.17	3.42	3.54	5.72	3.92	3.56	2.15	2.06	2.49	4.50	8.54	4.23	4.11	3.95	3.59	4.04	3.92	3.16	3.38	6.49	8.64	5.09	4.76	4.00	3.92	4.85	5.51	4.44	3.96	4.02	4.02	3.36	3.14	3.70	7.84	2.85	3.94	3.24	4.17	4.35	4.15	3.85	3.51	3.18	3.28	3.85	5.60	5.63	1.48	2.11	2.26	5.22	2.47	1.76	2.04	2.82	2.71	3.28	6.87	3.37	3.29	5.52	4.13	3.70	3.46	3.40	3.56	3.58	4.28	6.14	4.36	3.29	2.09	3.60	3.54	3.65	3.21	3.08	2.51	3.80	2.73	1.02	0.83	0.99	1.55	1.80	2.33	2.35	2.56	2.80	2.95	3.01	3.05	3.06	3.07	3.10	3.17	3.33	3.48	3.44	3.44	3.51	3.51	
3.71	4.32	5.28	4.56	3.21	3.86	3.32	2.54	2.83	4.12	4.95	7.12	1.65	1.05	1.04	3.26	2.49	3.20	3.05	2.83	2.80	3.64	6.02	3.47	3.16	1.82	1.98	4.76	4.95	4.11	3.88	4.25	4.12	4.23	4.32	3.49	3.16	7.28	7.66	4.16	4.57	4.42	4.20	5.59	6.10	3.62	3.93	3.77	3.58	3.05	3.30	3.60	8.02	2.12	2.56	4.00	3.47	3.78	4.14	4.13	3.21	3.05	3.16	3.70	6.59	6.24	2.18	2.47	2.22	4.89	4.88	1.75	2.29	2.87	2.56	2.85	6.80	6.45	3.83	5.44	6.34	3.51	3.41	3.38	4.10	5.28	3.21	5.90	3.94	1.69	2.30	1.10	1.46	3.73	3.71	2.73	2.26	2.92	0.96	3.30	0.53	1.16	2.17	2.25	2.58	2.43	2.55	2.76	2.92	3.00	3.06	3.07	3.12	3.25	3.35	3.42	3.48	3.45	3.42	3.44	3.44	
3.09	3.51	4.66	5.66	1.47	2.74	3.80	3.06	2.76	3.78	7.25	5.84	2.02	3.65	4.15	2.20	3.43	3.25	2.66	3.00	2.56	2.98	4.06	4.84	2.67	2.19	1.85	4.78	4.35	4.06	3.73	4.48	5.33	5.34	4.66	4.16	3.37	6.31	3.48	3.55	4.05	4.21	4.01	6.80	5.00	2.91	4.08	3.96	3.37	2.86	3.20	5.64	6.28	7.46	4.47	3.86	3.66	3.65	3.97	4.05	3.23	2.73	2.90	3.46	7.14	7.96	3.38	2.94	2.30	4.40	4.65	2.60	2.61	3.01	2.56	2.76	6.34	7.55	4.27	4.22	3.73	3.73	3.38	3.11	3.95	6.39	3.32	4.98	1.16	4.01	3.42	6.93	5.35	5.39	4.89	1.92	4.38	5.77	8.30	9.40	5.33	4.33	3.98	3.37	2.56	2.75	2.62	2.72	2.88	2.99	3.07	3.10	3.14	3.31	3.52	3.60	3.56	3.51	3.47	3.46	3.46	
2.91	3.35	4.49	6.61	3.51	4.07	3.91	3.53	3.06	3.45	7.41	7.21	1.72	0.38	2.84	4.94	5.55	5.43	3.38	2.89	2.92	3.08	3.93	4.57	2.89	2.82	2.17	3.13	4.18	4.25	4.01	5.50	7.03	9.06	10.14	3.43	4.19	3.20	3.08	3.37	3.81	4.16	5.98	6.93	8.90	2.55	4.40	1.90	3.44	2.91	3.17	5.84	8.62	4.31	3.99	3.77	3.90	3.92	3.57	3.61	3.15	2.26	2.23	5.19	7.32	9.65	2.10	3.80	3.63	3.17	5.87	3.47	2.93	3.05	2.51	2.70	4.75	8.30	3.87	3.42	3.18	3.50	3.51	3.39	3.14	5.79	4.82	2.97	7.12	6.61	3.34	5.10	2.57	4.75	8.20	8.48	6.76	6.33	6.50	7.34	7.88	7.19	6.39	4.88	3.36	2.90	2.62	2.68	2.83	2.97	3.06	3.11	3.14	3.25	3.48	3.66	3.66	3.57	3.51	3.50	3.50	
2.59	3.21	6.71	5.36	3.90	3.94	3.86	4.08	4.05	3.90	6.93	9.24	1.25	1.95	3.73	2.54	3.05	3.61	4.26	3.75	3.08	3.19	5.05	4.75	2.85	3.06	2.48	3.00	4.66	6.30	7.15	8.33	9.01	8.61	9.40	10.75	3.32	3.33	2.81	3.46	3.79	8.01	8.66	9.30	9.40	9.30	3.06	3.03	3.24	2.91	3.21	6.30	3.20	4.03	3.64	3.64	4.17	4.49	0.63	3.20	3.46	2.23	1.41	1.69	5.41	7.94	10.45	4.06	2.86	3.74	3.11	4.03	3.28	2.94	2.34	2.50	5.97	8.75	1.10	2.86	3.35	3.37	3.73	4.47	3.39	5.55	3.73	5.62	5.96	7.09	5.45	3.24	4.41	5.06	6.64	7.17	6.32	5.83	5.51	3.06	5.23	4.17	4.50	4.13	3.46	2.60	2.30	2.49	2.74	2.92	3.04	3.12	3.15	3.20	3.37	3.58	3.66	3.58	3.50	3.49	3.49	
2.34	3.14	8.80	5.19	4.59	3.78	3.70	4.13	4.29	6.31	7.35	5.26	3.46	3.84	4.07	3.27	2.45	3.18	3.52	3.38	2.92	2.97	5.37	5.75	3.12	3.00	2.49	2.64	6.85	8.21	8.10	8.34	7.69	8.25	8.71	10.40	4.08	3.33	3.62	3.50	7.99	7.66	8.12	6.96	8.63	9.12	3.63	2.79	2.81	3.09	3.46	6.57	5.13	4.28	3.71	3.67	4.26	3.79	1.69	3.51	3.92	2.90	1.50	1.20	2.00	5.44	9.18	5.50	5.14	1.31	3.18	2.93	3.27	2.69	2.28	2.41	4.61	8.19	2.99	3.20	3.16	3.10	3.92	5.53	2.88	5.41	6.10	4.47	4.78	6.01	6.74	4.81	4.13	2.39	5.28	5.58	5.67	4.02	5.11	3.13	3.26	3.47	3.49	3.54	1.98	2.40	1.90	2.16	2.59	2.89	3.04	3.15	3.20	3.26	3.38	3.49	3.61	3.62	3.51	3.47	3.47	
2.24	3.33	6.53	5.87	4.58	3.79	3.55	3.97	3.84	6.50	8.67	0.97	1.90	1.54	1.65	2.47	3.31	3.22	3.15	2.84	2.65	2.87	5.33	3.89	2.81	2.73	2.29	2.25	4.58	5.17	7.74	7.68	7.54	8.16	8.53	10.30	4.16	3.27	3.25	3.56	7.51	7.80	7.95	7.84	7.36	9.24	5.26	4.28	2.62	2.97	5.96	6.95	6.41	3.87	4.05	3.94	4.38	0.92	3.91	3.48	4.00	1.03	2.41	1.44	1.51	2.31	5.79	9.38	10.13	4.43	3.07	1.35	0.66	2.73	2.34	2.52	4.44	7.54	4.77	3.90	2.98	2.72	3.45	6.72	7.00	6.65	6.39	4.52	4.02	4.25	3.18	4.86	4.69	2.80	2.65	2.94	3.17	3.53	3.74	3.57	0.63	3.60	3.61	3.06	2.25	0.97	2.07	2.10	2.48	2.84	3.04	3.16	3.21	3.30	3.47	3.48	3.57	3.69	3.58	3.49	3.49	
2.59	6.90	4.60	4.54	4.34	4.04	3.83	3.80	6.32	7.23	10.51	2.30	1.02	2.20	4.30	3.61	3.62	3.18	2.22	2.58	2.38	2.86	5.43	1.67	2.75	2.61	2.27	2.30	2.83	5.10	7.57	4.95	7.49	7.51	8.96	8.24	4.43	3.38	2.80	3.96	7.05	7.60	7.45	7.51	7.03	8.74	7.94	3.09	3.10	2.41	3.29	8.53	5.62	3.82	3.80	3.91	4.56	3.13	4.00	3.50	3.98	2.53	3.20	2.04	1.18	1.55	4.90	7.95	10.22	1.04	1.04	3.71	1.32	3.02	2.45	2.55	4.52	8.28	1.39	4.03	3.14	2.71	3.11	3.31	7.02	5.82	6.74	6.57	5.45	5.46	4.59	3.32	3.18	3.05	2.85	2.74	2.81	2.96	3.40	3.60	3.41	3.61	3.45	2.44	0.91	1.14	1.91	2.48	2.52	2.81	3.05	3.21	3.22	3.30	3.52	3.47	3.44	3.62	3.60	3.55	3.55	
3.68	3.70	4.24	4.00	4.03	4.21	3.95	3.64	6.55	7.57	7.22	4.68	5.10	6.13	3.34	2.34	0.97	1.14	1.25	3.02	2.43	2.79	5.67	3.81	2.86	2.61	2.41	2.46	2.67	4.97	5.27	5.29	5.08	7.48	9.32	6.23	4.16	3.63	3.17	2.90	3.35	3.89	3.97	3.72	6.65	8.38	8.05	5.25	3.86	2.71	2.94	7.58	3.52	3.02	3.17	3.74	4.57	2.78	1.92	3.78	2.21	3.57	3.17	1.00	1.41	1.22	2.05	6.71	9.49	5.81	2.41	0.27	2.64	3.14	2.58	2.40	4.39	7.74	8.28	4.46	3.53	2.81	2.78	6.69	6.80	4.57	3.84	4.51	4.74	3.65	3.49	3.20	3.13	3.45	3.46	3.22	2.96	2.95	3.30	2.98	2.80	3.61	3.12	0.83	2.77	3.25	2.63	2.75	2.68	2.86	3.08	3.24	3.21	3.28	3.57	3.58	3.43	3.50	3.58	3.60	3.60	
3.12	3.74	4.34	4.25	4.13	4.01	4.07	3.81	6.23	8.71	5.87	5.51	4.82	4.03	6.77	4.67	4.71	7.40	4.80	3.68	2.70	2.78	5.69	4.82	2.83	2.56	2.38	2.55	2.68	3.21	5.09	5.34	5.04	7.26	9.49	5.30	3.99	3.57	3.28	3.02	3.27	4.46	7.67	6.83	4.01	3.87	6.15	5.68	3.82	3.15	3.58	8.17	4.03	2.68	2.92	3.60	6.71	5.88	4.05	1.21	3.92	3.70	3.80	0.84	2.03	1.30	1.80	5.03	8.36	9.72	5.84	4.47	3.48	3.18	2.62	2.54	2.54	4.82	8.80	4.80	3.83	3.73	3.47	5.84	6.50	6.08	5.50	3.55	3.72	3.61	3.56	3.48	3.53	3.28	2.70	2.46	2.41	2.09	2.41	3.16	3.23	3.44	1.03	1.84	2.19	2.46	2.27	2.85	2.84	3.00	3.18	3.31	3.27	3.27	3.54	3.68	3.53	3.46	3.51	3.56	3.56	
3.45	4.07	4.30	7.05	4.58	4.23	4.26	4.96	4.00	4.57	4.54	4.59	4.23	3.41	3.86	4.18	3.83	4.24	4.65	3.80	2.79	2.67	5.29	7.29	3.73	2.92	2.42	2.70	2.98	3.17	3.19	5.09	5.05	7.67	8.43	5.56	3.89	3.55	3.26	3.00	4.25	4.51	7.33	8.34	4.44	4.89	3.42	3.01	3.01	3.03	5.92	8.08	4.10	2.67	2.62	3.10	6.50	8.67	8.63	0.85	1.65	3.95	3.89	1.79	2.69	1.68	1.57	4.71	7.17	9.51	4.78	4.25	3.24	3.18	2.65	2.81	4.15	4.53	6.62	7.80	4.66	5.81	4.47	3.58	4.22	3.43	3.62	3.61	3.82	3.80	3.14	2.77	3.15	2.26	6.35	5.97	2.22	4.71	7.62	8.93	9.48	9.60	7.44	6.99	5.69	3.61	3.14	2.96	3.46	3.30	3.35	3.39	3.30	3.26	3.48	3.67	3.58	3.45	3.46	3.51	3.51	
3.65	5.84	4.03	3.78	4.16	6.31	5.82	4.72	4.33	2.32	1.37	3.74	1.77	3.74	3.62	4.25	4.42	3.93	4.00	3.87	2.80	2.24	3.31	6.64	2.57	2.40	2.53	2.58	3.09	3.16	2.95	3.10	5.09	7.61	4.91	4.81	3.90	3.61	3.32	3.09	3.10	4.43	4.41	4.56	4.54	4.27	3.15	2.77	2.71	3.33	6.58	7.13	3.04	3.28	2.69	2.72	3.43	8.08	6.14	4.85	4.56	4.11	2.58	3.26	3.31	2.13	1.52	1.91	5.01	8.94	2.31	2.06	1.98	3.28	2.63	2.79	4.79	3.88	5.99	3.73	3.90	4.08	5.36	4.08	3.25	3.28	3.41	3.57	3.85	3.58	1.22	3.69	5.52	5.50	5.90	6.52	6.48	6.25	6.46	6.76	6.66	6.71	6.58	6.61	7.98	7.97	6.50	4.85	3.99	3.57	3.50	3.47	3.35	3.29	3.50	3.80	3.80	3.60	3.47	3.46	3.46	
3.44	6.26	4.74	4.06	4.54	6.85	7.71	5.54	4.59	4.90	2.13	4.48	4.64	4.55	4.64	4.64	4.76	1.11	4.29	3.56	3.65	2.71	2.81	5.61	5.70	3.52	3.64	3.16	3.34	3.36	3.04	2.98	4.89	3.83	3.85	4.57	4.22	3.64	3.37	3.20	3.20	4.41	4.32	7.11	4.67	3.75	3.56	2.86	2.42	5.69	7.33	4.21	5.28	3.63	3.13	3.16	6.28	3.37	3.48	3.61	7.32	4.05	3.38	3.71	4.12	3.21	2.24	1.94	2.39	5.35	8.73	1.67	3.01	3.99	3.05	2.53	4.48	5.98	6.71	3.45	3.68	3.95	3.67	3.75	3.71	3.65	3.69	3.64	6.26	6.37	4.03	4.82	5.06	5.21	2.94	5.74	3.23	5.53	3.03	3.03	5.74	5.51	5.79	5.82	4.12	4.91	4.56	4.60	4.20	3.84	3.68	3.56	3.40	3.17	3.12	3.36	3.58	3.59	3.50	3.45	3.45	
3.35	6.62	6.38	3.40	2.63	6.58	4.03	6.44	3.63	1.38	1.79	2.57	2.26	5.63	5.02	4.93	2.68	4.48	3.79	2.58	3.43	3.50	2.92	3.68	4.97	2.21	3.60	4.12	3.64	3.49	3.20	3.11	3.48	3.68	3.60	3.76	3.87	3.64	3.39	3.23	3.19	4.51	3.03	6.79	4.02	3.63	3.84	2.98	2.30	6.16	3.39	3.75	3.89	3.42	2.86	2.52	2.94	3.18	3.15	3.00	6.80	3.40	3.61	4.61	0.95	4.16	3.04	2.22	2.53	2.82	3.52	4.34	4.62	4.59	3.52	2.42	4.21	6.70	3.31	3.30	3.42	3.58	3.73	3.97	4.08	3.81	3.87	3.39	3.24	3.50	3.56	3.13	2.97	2.92	2.66	2.67	2.81	2.77	2.52	2.32	2.56	2.67	2.88	2.87	2.70	3.10	3.82	2.64	4.42	4.04	3.78	3.59	3.38	3.05	2.78	2.86	3.19	3.45	3.51	3.49	3.49	
