ncols	121
nrows	160
xllcorner	1648855.938895
yllcorner	466851.943984
cellsize	500.000000
NODATA_value	nan
4.52	4.87	5.91	6.26	4.08	2.47	4.31	9.06	9.91	5.48	4.75	4.93	5.05	4.86	3.14	2.16	3.58	3.56	4.90	5.90	5.98	5.49	5.10	2.70	4.12	3.85	4.33	4.65	4.74	4.83	4.90	4.90	5.01	5.68	8.45	9.71	6.09	6.22	6.31	5.86	6.02	6.01	5.46	5.26	4.56	7.94	6.44	5.34	3.76	4.99	4.39	3.52	5.79	5.80	5.49	5.52	4.00	3.62	3.63	5.54	5.83	5.04	4.99	4.37	4.81	9.04	5.22	4.18	3.61	5.19	7.02	4.98	1.50	0.96	3.36	3.90	3.66	4.05	6.81	9.82	10.64	6.21	5.60	4.89	4.55	4.92	3.85	4.00	7.06	7.80	5.62	5.45	10.19	9.23	9.75	10.47	5.00	3.24	2.40	2.11	3.57	5.58	8.37	11.13	7.39	6.79	11.42	3.14	4.56	3.29	3.63	5.16	6.28	5.66	4.76	4.08	3.94	7.21	10.50	10.97	10.97	
4.52	4.87	5.91	6.26	4.08	2.47	4.31	9.06	9.91	5.48	4.75	4.93	5.05	4.86	3.14	2.16	3.58	3.56	4.90	5.90	5.98	5.49	5.10	2.70	4.12	3.85	4.33	4.65	4.74	4.83	4.90	4.90	5.01	5.68	8.45	9.71	6.09	6.22	6.31	5.86	6.02	6.01	5.46	5.26	4.56	7.94	6.44	5.34	3.76	4.99	4.39	3.52	5.79	5.80	5.49	5.52	4.00	3.62	3.63	5.54	5.83	5.04	4.99	4.37	4.81	9.04	5.22	4.18	3.61	5.19	7.02	4.98	1.50	0.96	3.36	3.90	3.66	4.05	6.81	9.82	10.64	6.21	5.60	4.89	4.55	4.92	3.85	4.00	7.06	7.80	5.62	5.45	10.19	9.23	9.75	10.47	5.00	3.24	2.40	2.11	3.57	5.58	8.37	11.13	7.39	6.79	11.42	3.14	4.56	3.29	3.63	5.16	6.28	5.66	4.76	4.08	3.94	7.21	10.50	10.97	10.97	
4.49	4.90	6.56	6.77	3.19	1.97	2.79	4.87	8.46	9.56	4.87	5.15	1.77	2.25	3.22	3.67	3.72	3.86	6.95	6.07	4.14	3.60	2.80	1.76	3.55	3.57	4.18	4.52	4.63	4.72	4.79	4.72	4.41	4.25	7.48	7.33	6.03	6.12	7.12	6.67	6.91	6.74	5.98	5.53	4.23	4.56	9.04	5.76	3.74	5.37	4.89	3.20	4.01	8.48	6.29	2.95	3.74	2.96	2.69	4.94	6.79	5.50	5.50	4.23	3.20	5.13	6.61	5.19	3.70	4.62	9.75	5.26	4.57	3.48	4.28	4.15	3.27	3.45	4.64	9.01	10.17	3.34	4.66	3.48	3.73	4.28	3.46	2.99	6.71	5.48	4.47	7.87	6.58	8.61	6.58	10.82	5.51	4.36	3.92	3.38	3.03	4.40	7.72	8.23	9.97	10.02	10.99	3.61	4.47	4.01	3.33	4.83	8.06	4.73	4.14	3.66	3.05	3.32	7.60	11.15	11.15	
2.83	5.00	7.02	4.11	3.16	1.65	2.16	2.91	4.72	5.37	6.30	4.54	4.60	3.66	3.97	3.84	4.33	5.71	7.86	2.71	2.58	1.15	1.34	2.72	2.98	3.33	3.99	4.28	4.42	4.54	4.57	4.41	3.84	3.36	4.25	5.32	5.53	7.45	7.41	7.58	8.70	10.25	11.28	8.53	9.58	10.49	6.97	7.05	4.65	5.56	5.49	3.27	3.05	5.79	8.89	3.87	4.13	2.67	1.09	3.11	9.55	8.91	7.15	5.28	2.65	3.50	5.86	7.96	4.78	6.00	2.53	3.87	2.24	4.49	2.94	2.41	3.37	3.12	5.23	8.41	9.37	10.43	3.54	3.64	2.78	4.10	3.56	2.34	4.18	6.55	4.65	3.69	5.81	4.68	8.72	10.26	6.69	6.26	5.05	3.77	2.54	3.33	4.59	8.01	7.31	9.34	12.09	4.47	5.06	3.97	3.02	4.33	9.66	4.35	3.19	3.61	2.74	2.28	4.46	8.56	8.56	
2.57	2.99	5.99	11.16	5.91	2.62	2.40	2.72	3.80	4.64	6.42	4.32	3.69	3.88	3.92	4.15	5.01	6.81	3.61	2.94	2.46	1.41	1.38	2.60	2.74	3.19	3.79	4.04	4.24	4.39	4.36	4.20	3.83	3.56	4.04	4.47	7.22	8.68	9.94	10.46	9.17	9.31	8.36	7.82	8.10	9.03	10.69	11.73	6.60	6.32	5.66	4.08	3.06	4.68	7.16	5.21	4.45	3.13	0.48	1.27	5.86	9.70	10.67	4.32	3.78	3.51	4.39	4.78	6.50	10.65	6.51	3.15	5.25	2.00	3.43	4.07	3.72	3.80	5.21	7.74	9.12	5.81	7.70	5.73	4.19	4.47	3.80	3.20	3.29	4.74	6.62	3.51	3.86	3.96	6.41	8.73	7.06	8.31	5.81	4.51	2.73	3.40	4.41	8.68	8.51	8.37	11.24	5.34	5.32	4.07	2.76	4.11	10.24	4.24	3.69	3.67	3.54	2.31	3.94	8.11	8.11	
2.86	3.00	4.28	10.01	6.45	3.87	2.80	3.35	6.99	8.03	9.44	3.36	3.14	3.81	3.75	4.79	6.81	7.07	3.33	2.05	1.63	1.71	1.70	2.64	2.89	3.07	3.43	3.79	4.10	4.26	4.22	4.08	3.80	3.48	3.65	5.72	7.77	10.19	8.59	6.62	6.82	7.39	6.37	6.43	6.57	6.70	8.24	9.51	10.74	11.93	7.03	4.95	3.64	3.95	6.42	7.38	3.82	3.40	1.46	0.82	2.68	8.68	10.95	6.93	5.56	4.39	5.02	4.30	4.60	6.48	6.73	3.48	2.70	4.58	4.10	4.04	3.96	4.79	5.10	8.50	2.24	5.00	5.19	6.33	5.62	5.14	5.33	4.56	3.48	3.36	4.43	6.90	4.59	3.82	4.55	6.87	6.13	5.49	8.63	5.14	3.01	3.45	4.09	8.88	9.40	9.85	10.89	5.01	6.10	4.18	3.13	4.45	10.40	4.25	4.90	2.31	3.42	3.20	3.93	5.01	5.01	
3.05	3.35	4.84	8.98	10.96	4.42	4.14	3.65	4.79	7.35	6.30	3.04	4.46	3.09	3.35	6.01	9.33	4.80	6.24	3.93	3.32	2.92	2.22	1.50	3.26	3.04	3.00	3.54	4.00	4.14	4.11	4.01	3.71	3.32	3.38	5.90	8.71	9.01	5.63	5.03	5.34	5.53	4.68	4.18	3.97	4.25	7.20	6.51	6.21	9.48	11.12	6.82	5.25	4.15	5.97	5.68	4.92	4.00	2.83	1.44	2.25	7.42	8.70	11.04	6.47	5.48	5.55	5.14	7.80	5.18	9.27	5.35	4.59	4.48	3.75	3.76	4.14	4.84	5.27	6.30	4.89	4.83	4.87	5.42	5.36	5.31	5.88	5.04	3.68	2.97	3.30	4.62	4.98	4.43	4.12	5.01	4.67	4.99	8.64	5.45	3.06	3.31	3.97	7.45	9.72	10.29	11.72	8.85	7.27	4.09	4.03	6.04	7.65	3.25	4.66	4.47	4.85	4.58	4.30	3.95	3.95	
2.89	4.65	4.40	5.28	5.90	6.00	4.57	6.09	5.31	7.30	3.25	3.49	2.90	2.64	2.83	5.99	11.01	4.95	4.85	3.62	5.44	4.07	1.69	1.71	2.47	2.91	2.62	3.30	3.86	4.01	4.02	3.97	3.61	3.19	3.26	6.22	8.41	8.02	5.50	5.09	5.25	5.17	4.75	4.48	3.95	8.08	5.38	5.15	4.35	4.26	8.52	9.67	6.15	5.52	6.45	4.81	5.51	5.14	3.88	2.77	2.74	3.15	4.36	8.16	10.24	10.28	10.81	4.00	3.66	4.26	6.45	6.04	5.42	5.02	3.74	3.41	4.47	3.82	5.16	9.39	7.23	3.47	4.21	5.00	4.92	5.59	6.20	3.27	4.17	4.06	4.04	3.63	5.04	5.15	4.11	4.16	4.11	4.50	6.27	5.73	3.25	3.17	4.05	7.64	8.97	9.14	8.35	8.71	8.84	6.73	6.27	11.46	4.40	3.86	3.01	4.56	4.80	5.50	3.87	3.29	3.29	
2.48	4.81	7.24	4.80	4.86	7.40	4.95	5.49	5.23	5.11	6.81	4.12	4.21	2.56	2.77	4.65	11.86	4.60	2.89	6.65	5.99	3.67	5.94	0.97	2.27	2.89	2.37	3.09	3.75	3.94	3.99	3.95	3.59	3.20	3.44	3.96	4.76	7.56	5.81	5.71	5.76	5.25	5.18	5.14	4.04	3.74	6.76	5.78	4.34	3.57	4.26	5.34	5.34	6.35	7.51	5.69	5.23	5.38	4.60	4.28	3.39	2.83	3.05	3.23	8.02	8.24	10.13	7.84	3.14	4.18	5.13	5.06	5.13	5.79	4.49	3.48	3.51	3.26	4.90	5.86	10.24	4.41	5.74	5.52	5.19	6.81	4.45	5.50	4.89	5.75	5.05	3.19	4.33	5.21	3.93	3.80	3.96	3.91	5.52	5.63	3.42	3.24	4.41	8.39	5.15	5.33	5.47	5.56	5.70	5.53	4.85	5.35	7.88	7.51	4.51	4.05	5.01	6.45	4.29	3.10	3.10	
2.48	3.56	8.64	4.71	3.96	3.91	5.05	8.83	5.22	5.03	6.61	4.40	4.33	2.66	3.38	5.78	11.25	6.88	5.67	8.84	6.84	3.51	1.24	0.56	1.42	1.98	2.43	3.03	3.71	3.90	3.99	3.94	3.65	3.25	3.44	6.03	6.31	8.49	6.53	6.75	7.14	6.11	6.50	6.18	3.85	5.36	8.54	6.21	4.18	3.04	3.92	5.02	5.20	6.94	6.32	4.97	5.14	5.77	5.00	5.45	2.45	2.88	3.46	2.93	3.42	5.19	8.69	11.64	4.20	3.39	4.01	3.95	4.49	6.30	5.56	3.81	3.43	3.30	3.36	5.14	8.79	11.21	7.04	6.67	5.46	5.77	5.41	5.07	4.79	6.03	6.73	3.92	3.90	4.33	3.68	3.70	4.04	3.56	4.27	5.06	3.46	3.34	4.63	5.31	5.56	5.58	5.59	5.45	5.37	5.35	5.07	5.01	10.25	4.82	4.93	3.36	4.73	8.65	3.57	3.58	3.58	
3.31	3.94	5.30	4.97	3.96	3.27	7.51	5.44	4.93	4.49	10.27	6.08	4.69	2.74	3.88	6.18	5.18	5.96	4.66	8.60	5.53	4.61	2.34	0.91	2.23	2.03	2.59	3.11	3.68	3.90	4.01	3.95	3.74	3.33	3.20	3.42	6.15	8.56	9.63	10.74	11.58	8.79	8.31	6.87	3.66	4.65	9.47	6.88	3.72	2.92	6.26	5.67	5.94	5.96	5.16	4.14	4.75	7.71	5.88	3.04	3.85	3.62	4.58	2.95	2.32	4.61	8.39	10.70	7.32	4.98	4.27	3.74	4.34	7.78	2.98	3.54	4.05	3.89	2.04	2.72	5.39	9.13	10.88	11.58	6.30	6.44	5.89	5.29	3.62	5.27	6.65	3.01	1.66	2.81	4.38	4.23	4.42	3.62	3.84	4.11	3.23	3.40	4.32	5.21	5.91	6.12	6.12	5.67	5.49	5.64	5.69	5.72	6.37	4.49	4.81	2.96	3.84	9.88	6.16	4.27	4.27	
4.42	4.85	5.22	5.34	3.53	2.91	3.86	5.04	4.67	5.59	5.87	7.47	4.93	2.78	3.80	8.82	7.10	5.37	4.73	7.75	6.00	4.07	1.95	1.20	1.93	2.69	2.56	3.22	3.69	3.91	4.03	3.96	3.83	3.50	3.14	3.04	3.16	6.08	8.20	8.90	10.66	11.87	12.40	9.00	3.76	4.48	5.89	8.80	4.84	2.42	3.91	8.67	6.96	5.90	4.32	3.47	3.52	5.44	9.77	5.88	4.20	5.60	5.24	4.04	2.42	3.06	4.84	8.62	8.72	6.76	4.55	4.26	5.84	2.09	3.59	2.69	2.67	3.06	3.32	2.54	2.75	5.60	8.23	10.00	10.43	7.39	5.97	4.55	3.75	5.56	5.34	5.06	4.28	5.36	4.73	4.52	3.05	4.03	4.34	4.08	2.75	2.94	3.78	7.68	8.06	9.13	8.30	7.47	7.90	7.59	7.55	6.78	4.47	6.13	4.34	2.96	4.47	6.26	5.86	4.70	4.70	
4.80	5.16	2.17	5.12	3.91	2.90	3.65	5.07	4.89	4.66	6.03	7.12	5.32	2.96	3.60	6.33	3.62	5.43	5.82	6.78	4.76	3.14	3.04	1.91	1.98	2.85	2.52	3.15	3.67	3.89	4.04	3.98	3.88	3.69	3.31	2.96	2.97	5.79	6.34	8.37	9.52	10.34	11.28	13.62	6.48	4.05	4.61	10.91	5.20	2.14	2.68	5.65	10.74	5.74	4.57	3.62	3.10	3.79	8.90	4.31	1.97	4.36	5.31	4.67	3.74	2.68	3.71	5.95	10.29	6.20	4.46	4.95	1.99	2.75	4.53	2.23	2.36	3.45	3.89	3.18	2.90	3.22	3.78	6.48	9.56	9.57	10.27	11.24	7.88	7.72	4.26	4.72	4.34	4.88	5.99	2.60	4.43	4.33	5.26	4.64	2.47	2.15	3.22	4.36	9.09	9.98	8.35	8.53	10.00	10.68	9.95	9.95	8.05	5.73	4.51	3.66	4.63	7.40	3.94	4.39	4.39	
5.07	6.60	5.22	5.52	3.93	2.86	3.51	5.75	8.95	8.92	9.33	6.91	6.03	3.62	4.21	7.91	6.53	6.20	7.34	4.66	5.68	2.70	2.98	1.98	1.38	2.89	2.64	2.99	3.50	3.83	4.02	3.99	3.93	3.81	3.48	2.99	2.81	3.14	6.07	8.08	9.78	10.25	11.01	13.19	6.31	5.13	4.88	6.69	3.55	2.77	2.49	4.98	8.56	4.08	5.98	5.36	3.79	3.27	5.49	4.81	4.50	4.11	5.15	6.04	4.33	2.95	2.83	5.17	7.69	9.47	6.82	5.53	5.86	5.51	3.66	3.94	4.25	4.82	4.80	4.18	3.51	3.28	3.27	3.73	6.26	6.81	9.42	10.40	11.45	6.84	4.43	4.40	4.02	4.90	4.63	5.42	4.26	4.73	5.56	3.34	2.70	1.64	2.82	4.46	9.29	6.98	5.65	6.83	9.34	9.56	8.04	8.42	10.87	11.02	4.91	4.95	6.48	3.69	3.71	3.58	3.58	
5.35	4.96	5.08	5.70	4.51	2.52	3.01	4.58	4.79	4.92	9.50	10.45	4.22	4.61	4.24	5.55	6.07	1.00	8.40	8.66	7.98	4.81	3.12	1.89	1.77	1.62	3.05	2.99	3.17	3.70	4.00	4.00	3.97	3.87	3.62	3.15	2.69	2.78	5.69	7.74	9.29	10.27	10.99	12.67	7.19	7.08	7.93	6.71	4.95	3.35	4.60	4.47	5.44	8.69	6.66	5.25	4.03	3.95	6.67	3.94	3.97	3.96	5.02	8.02	5.25	3.75	2.71	4.83	7.29	5.29	5.88	5.82	4.83	5.31	5.90	5.27	4.97	5.24	5.59	4.53	3.69	3.73	3.08	3.06	3.28	3.95	8.70	10.39	11.47	12.09	8.25	3.99	2.58	2.08	5.68	2.80	2.88	5.52	5.49	3.65	3.05	1.52	2.35	7.78	9.12	4.82	3.96	7.13	6.87	6.50	5.35	4.86	6.40	6.83	9.68	8.98	5.04	4.27	3.48	3.11	3.11	
5.44	4.87	5.19	6.25	4.43	2.29	2.14	5.77	5.51	5.14	5.79	5.93	5.89	4.19	3.88	5.01	7.30	7.42	7.83	11.38	10.10	5.79	3.51	0.96	1.35	1.07	1.91	3.14	2.90	3.54	3.99	4.00	4.00	3.91	3.72	3.34	2.67	2.51	5.35	7.33	9.07	10.29	11.23	12.60	12.90	10.72	11.37	3.96	3.81	4.87	4.37	4.62	4.74	10.11	11.49	11.25	4.10	4.89	2.63	3.86	3.62	3.78	4.49	6.02	4.87	4.86	3.64	4.80	5.53	3.49	5.78	5.53	3.95	4.68	5.06	5.02	5.08	5.62	5.76	2.72	3.46	3.50	3.50	2.99	2.63	2.54	5.76	8.83	11.00	8.23	11.60	7.56	6.13	4.89	5.41	3.82	2.30	5.61	5.88	3.31	3.21	1.90	2.39	8.04	5.95	4.73	4.10	4.70	5.08	5.15	4.77	8.71	5.58	6.40	10.47	9.69	4.18	4.30	3.39	2.72	2.72	
5.15	5.00	4.70	7.00	3.98	2.82	1.46	3.16	8.53	9.20	9.53	3.64	3.96	3.17	3.50	3.90	5.08	5.17	6.27	13.57	9.48	6.33	5.47	2.89	1.56	0.36	1.49	3.19	2.96	3.50	3.98	3.99	4.03	3.96	3.80	3.49	2.79	2.37	5.04	7.13	8.94	10.21	10.16	10.77	11.97	11.24	10.26	9.71	8.03	7.59	7.67	8.15	7.89	7.26	7.78	8.58	9.84	9.68	7.06	5.53	3.55	3.71	5.05	8.30	10.40	3.96	3.96	6.09	6.25	5.41	6.47	6.95	5.73	2.46	3.92	4.53	5.78	7.18	2.89	1.87	3.95	4.04	3.32	3.84	2.91	1.93	2.24	6.49	10.18	5.83	9.35	8.06	8.16	2.08	5.01	3.55	4.07	4.64	3.79	3.61	3.03	2.63	3.13	5.33	5.49	4.93	5.21	5.29	4.80	4.74	4.49	8.14	9.12	9.22	9.83	7.60	4.13	4.75	3.66	3.00	3.00	
4.77	4.25	4.13	6.81	3.87	4.27	1.91	1.70	5.45	9.87	10.01	9.55	3.86	4.77	4.42	3.91	3.95	3.86	4.32	10.27	11.44	8.49	5.39	2.99	2.46	0.72	1.56	2.94	3.08	3.58	3.94	4.00	4.06	4.00	3.85	3.61	3.01	2.43	2.45	5.49	8.07	8.46	8.77	10.29	11.18	9.10	9.25	8.52	6.57	6.42	6.95	6.60	6.40	5.34	5.37	5.70	5.98	8.21	9.14	6.49	4.03	3.43	8.37	10.04	8.75	4.70	4.09	4.11	4.56	6.14	6.25	7.33	5.62	4.26	3.08	4.04	8.74	3.57	2.25	2.24	4.23	2.76	4.17	4.34	3.09	1.69	1.55	5.84	8.95	8.29	7.36	11.03	8.36	4.13	4.99	3.80	4.55	4.89	4.87	4.18	3.56	3.29	4.10	5.25	6.14	5.17	7.09	5.98	4.83	4.56	4.92	4.21	8.11	9.38	6.08	8.92	6.96	5.47	4.65	4.65	4.65	
4.99	4.17	3.75	6.19	8.80	5.03	2.85	1.79	2.78	9.01	10.43	11.53	4.01	5.13	4.95	4.39	4.04	4.05	4.33	5.89	8.47	8.75	7.87	4.33	1.23	0.56	2.18	2.54	3.06	3.64	3.88	4.00	4.09	4.03	3.91	3.73	3.27	2.68	2.52	5.56	6.43	8.43	8.89	11.16	10.74	8.64	10.33	7.47	5.54	5.95	6.45	5.00	4.97	4.58	4.05	4.50	5.25	5.51	5.92	5.90	4.30	3.62	5.67	6.21	8.53	5.52	4.38	3.89	3.52	4.33	5.72	10.22	4.61	4.71	2.53	3.13	9.53	3.06	1.55	2.52	2.40	2.12	5.71	4.89	3.35	2.03	1.42	2.37	6.92	8.00	8.86	6.88	9.82	5.15	3.49	2.96	3.70	5.15	4.70	4.02	3.50	3.86	5.15	6.84	6.39	6.94	9.43	8.63	5.60	4.77	5.17	4.78	6.50	9.01	8.60	8.93	6.10	4.69	7.99	6.49	6.49	
5.75	4.53	3.68	5.60	5.96	6.07	4.78	2.67	2.35	6.58	10.16	11.17	4.67	3.70	4.70	4.96	4.86	4.83	4.58	5.39	6.63	7.64	8.98	5.15	4.21	1.53	0.54	2.15	2.87	3.57	3.82	4.01	4.11	4.04	3.96	3.84	3.49	3.00	2.65	3.02	6.36	8.39	9.18	11.95	7.66	6.83	8.05	7.03	6.41	4.86	4.79	4.94	4.88	4.73	4.52	4.74	5.46	5.64	5.27	5.23	4.38	4.31	5.33	8.79	8.42	3.46	4.66	3.93	3.32	4.09	5.56	10.19	4.57	5.31	2.71	2.88	9.99	6.17	4.61	4.46	4.68	5.18	5.80	5.50	3.81	2.92	1.75	1.60	2.63	6.99	10.39	10.80	11.83	8.04	6.27	5.44	6.41	6.14	5.14	4.77	3.61	3.98	5.40	8.03	5.82	5.36	4.30	6.64	10.18	5.87	5.46	6.82	5.89	6.64	7.76	8.70	5.77	4.23	4.33	7.38	7.38	
5.35	4.00	2.37	4.22	4.66	5.14	4.49	3.11	2.20	5.74	9.02	9.91	11.23	5.91	4.97	5.06	5.30	3.55	4.27	5.50	1.57	6.27	8.99	7.42	5.75	1.62	1.28	1.93	2.61	3.35	3.76	3.99	4.09	4.06	4.01	3.92	3.68	3.30	2.75	2.67	5.82	8.05	9.73	12.04	5.83	4.43	5.19	5.40	5.31	5.25	4.89	4.96	4.93	4.99	6.11	5.26	5.98	6.13	4.81	5.01	4.73	6.29	5.81	4.31	7.08	5.28	4.48	3.91	3.60	4.38	4.60	9.11	9.34	6.05	3.57	3.85	8.40	6.15	2.06	4.41	4.01	4.36	5.66	8.48	4.02	2.87	2.49	1.32	1.67	3.07	9.00	12.18	7.61	6.34	5.58	5.53	6.55	6.38	5.78	4.68	3.79	4.01	5.10	9.02	6.73	4.78	5.10	8.21	6.53	9.71	5.86	5.38	5.28	5.65	7.78	8.62	5.55	4.08	4.58	7.95	7.95	
5.15	4.63	4.52	4.63	4.70	5.16	4.88	3.45	2.45	2.99	6.12	7.77	9.85	11.41	6.37	4.61	4.78	5.01	5.13	5.63	5.85	5.72	8.45	8.31	5.58	3.08	1.39	2.11	2.39	3.05	3.66	3.93	4.05	4.06	4.05	4.00	3.83	3.53	2.89	2.56	3.28	6.22	9.29	11.56	5.86	4.74	4.82	9.07	5.33	5.77	5.44	5.37	5.85	6.34	7.98	4.71	7.51	7.75	5.63	6.16	5.38	4.40	4.68	4.41	4.70	5.03	4.55	4.03	3.98	5.87	5.46	8.32	6.60	6.13	4.28	5.09	5.08	2.32	3.78	4.79	4.20	3.84	4.38	7.62	4.18	3.22	2.03	1.51	1.30	2.63	6.98	12.47	6.45	3.94	3.08	2.79	4.11	5.16	5.20	4.55	4.25	4.73	6.85	9.30	9.11	5.65	5.44	4.61	9.14	11.08	4.72	3.87	3.94	4.98	7.81	8.22	5.49	3.97	5.18	8.59	8.59	
5.68	5.36	4.70	5.09	5.11	5.53	5.60	4.19	2.65	2.72	3.35	6.16	7.91	10.13	10.59	8.28	5.55	4.82	4.81	5.48	5.91	6.07	10.11	5.49	4.06	2.48	1.64	2.63	2.25	2.73	3.49	3.84	4.00	4.06	4.08	4.06	3.92	3.66	3.12	2.74	3.28	6.43	9.12	9.46	6.26	5.42	5.34	5.41	5.74	5.59	7.00	7.07	6.15	6.89	8.42	5.72	6.72	8.46	7.87	5.69	2.67	2.69	4.14	5.96	4.88	4.38	4.42	4.26	3.95	8.20	7.67	5.29	5.81	4.95	8.13	6.00	5.52	6.66	6.56	5.12	5.23	4.29	3.59	6.96	8.47	3.90	2.70	1.96	1.24	2.47	6.90	12.26	8.28	6.41	4.85	5.15	2.48	3.85	3.55	3.65	4.35	7.15	8.24	8.98	9.93	7.36	5.81	5.15	8.12	9.65	7.38	4.23	4.32	3.13	6.09	8.16	5.14	3.99	7.87	10.95	10.95	
5.98	5.20	4.76	5.45	5.84	6.31	6.22	4.29	3.01	2.55	2.55	2.80	6.46	7.51	10.02	9.44	6.02	5.01	4.79	5.06	5.90	7.23	9.61	5.18	4.44	2.89	1.33	2.43	2.31	2.46	3.25	3.73	3.94	4.04	4.09	4.09	3.98	3.77	3.35	3.00	3.20	6.69	9.11	5.86	5.59	5.62	6.25	6.16	7.41	7.08	7.81	8.64	7.34	6.96	7.92	6.77	4.84	9.61	7.09	5.46	4.54	3.68	3.56	4.47	4.35	4.09	4.28	4.70	5.11	5.47	10.54	6.05	5.89	5.91	4.97	5.06	5.07	4.80	4.91	4.64	4.78	4.69	3.53	6.30	10.31	4.63	3.06	2.56	1.49	2.12	7.03	11.23	13.32	4.67	3.99	3.61	2.74	4.04	2.97	2.87	4.19	7.72	9.41	9.16	9.18	11.02	5.69	5.22	6.12	8.64	9.54	6.78	5.03	3.60	3.92	7.10	4.72	4.16	6.16	10.68	10.68	
5.06	4.95	4.71	6.74	6.06	6.08	6.64	3.78	3.05	2.57	2.38	2.45	2.81	7.20	8.09	9.91	6.37	5.37	4.76	4.93	5.79	9.38	8.33	6.53	4.59	1.53	0.76	1.39	2.67	2.50	2.98	3.52	3.84	3.99	4.08	4.10	4.03	3.88	3.54	3.16	3.24	6.81	6.79	5.13	5.17	6.28	7.96	8.29	8.72	7.40	7.87	9.52	10.74	10.46	10.74	8.37	5.35	4.93	5.78	5.82	5.81	3.63	3.92	4.26	4.16	3.54	4.28	6.27	5.13	7.14	5.08	6.40	7.40	2.99	2.67	4.16	5.25	5.17	4.75	4.33	4.58	4.50	3.83	3.86	7.60	7.97	4.43	3.25	1.88	2.20	6.92	11.06	12.92	4.79	3.66	3.58	3.22	2.83	2.78	2.49	6.65	7.89	9.87	10.81	10.85	6.82	5.98	5.56	5.19	8.01	9.62	7.17	6.51	4.69	4.38	6.69	4.42	4.37	8.84	9.33	9.33	
4.54	4.77	5.57	6.21	6.85	6.09	5.53	3.38	3.24	3.05	2.69	2.62	2.77	3.18	7.30	9.62	6.59	4.95	4.73	4.97	7.55	12.12	5.83	5.78	3.14	1.78	1.62	2.00	1.66	2.88	2.94	3.25	3.61	3.88	4.05	4.10	4.08	3.95	3.70	3.29	3.39	4.28	4.67	6.67	6.04	6.26	8.31	8.49	8.66	6.79	5.62	7.87	9.33	10.34	11.20	9.76	4.85	5.56	2.30	2.29	3.36	2.99	3.79	4.02	3.64	2.92	4.12	8.33	5.76	4.54	7.42	5.70	7.25	6.79	6.43	4.64	5.09	4.19	2.81	3.24	4.74	4.79	4.39	4.15	5.01	6.72	5.46	3.67	2.12	2.24	6.94	11.55	10.53	5.27	4.57	4.15	3.43	3.89	2.66	2.35	3.78	8.13	9.54	8.52	9.34	7.40	6.11	6.75	5.82	6.64	9.22	6.82	6.17	5.58	4.72	5.34	4.51	4.01	6.26	7.39	7.39	
4.49	5.38	6.62	6.98	7.89	5.96	4.79	5.54	4.83	2.42	2.73	3.80	3.23	2.61	2.98	8.76	6.81	4.21	3.75	7.76	9.95	11.82	9.76	5.90	4.19	3.86	3.43	2.55	1.59	1.98	3.23	3.08	3.30	3.74	4.01	4.10	4.11	4.02	3.86	3.46	3.46	3.91	3.83	6.12	8.02	9.31	9.88	9.51	9.67	7.31	5.94	7.75	8.21	4.70	11.00	10.17	6.73	5.85	6.90	4.46	3.66	4.10	3.48	3.19	3.15	2.19	3.18	9.82	8.46	6.11	5.44	5.49	5.67	6.65	4.76	5.84	4.30	6.03	5.41	4.86	5.03	5.31	5.03	5.07	5.37	2.51	4.55	2.91	1.95	2.25	7.08	11.60	8.70	4.94	3.84	4.13	3.77	3.61	2.32	2.13	6.88	9.99	7.08	7.65	8.33	7.34	6.33	5.58	5.59	4.41	7.86	6.29	5.83	5.79	4.78	5.10	5.00	3.87	4.86	9.66	9.66	
5.09	6.47	7.42	2.90	4.41	5.91	5.39	5.30	6.20	6.77	6.72	5.26	2.30	2.85	2.42	5.01	6.60	3.71	3.48	8.11	9.13	11.19	11.46	5.84	5.32	5.13	3.62	2.60	0.80	1.61	1.80	3.11	3.12	3.58	3.94	4.08	4.14	4.08	4.01	3.59	3.49	3.61	3.19	5.68	7.69	9.31	11.39	12.17	12.24	11.34	11.56	10.34	6.93	8.05	9.12	10.12	8.80	7.19	9.63	6.97	6.00	5.65	4.97	3.66	3.14	1.96	2.41	9.23	8.25	7.75	5.83	5.24	5.05	9.98	7.29	3.52	2.21	3.70	5.12	3.82	4.64	4.73	5.66	5.74	5.44	5.13	2.71	2.27	1.69	2.18	7.31	11.40	12.59	7.11	3.96	2.67	2.29	3.37	2.13	1.92	7.51	7.68	7.04	7.12	6.98	6.09	5.93	5.84	5.47	4.42	5.46	5.53	5.61	5.98	5.30	5.17	5.73	4.38	3.70	4.94	4.94	
4.57	6.90	7.83	3.91	3.99	4.58	4.95	4.41	4.53	4.86	4.98	5.37	5.35	3.45	2.85	3.71	4.46	3.08	3.66	9.29	10.83	9.68	8.39	6.96	5.21	4.78	3.56	3.41	1.56	1.47	1.61	3.12	3.14	3.47	3.84	4.08	4.17	4.14	4.09	3.71	3.57	3.45	2.86	2.76	5.56	8.26	10.52	12.12	11.27	10.62	10.96	8.61	5.98	6.56	8.23	9.78	8.97	8.01	9.70	11.29	7.06	5.11	3.96	3.63	3.64	2.56	3.09	6.95	5.68	5.58	5.62	5.15	4.68	9.35	11.44	4.43	2.34	1.73	5.09	4.83	5.14	5.36	6.01	6.45	4.36	2.78	2.90	2.44	1.62	1.92	7.08	10.70	13.03	4.55	3.78	2.87	2.88	3.58	2.29	2.16	4.87	5.33	5.30	5.58	5.54	5.58	5.34	5.72	5.70	4.86	4.71	4.51	5.57	6.72	6.44	5.97	6.11	4.19	3.23	3.06	3.06	
2.99	5.99	6.11	4.71	4.03	4.26	4.62	4.69	4.74	5.01	5.13	5.17	5.21	4.55	3.63	3.40	3.25	2.55	2.40	7.25	9.36	11.27	12.74	5.52	5.06	4.66	3.83	2.68	1.94	0.97	1.40	2.97	3.13	3.40	3.78	4.10	4.20	4.20	4.13	3.89	3.73	3.39	2.81	2.56	5.20	7.63	10.60	11.66	10.60	11.30	10.45	8.87	6.40	5.62	8.12	9.45	8.41	7.82	8.83	9.61	8.05	7.72	7.28	5.66	4.32	3.39	4.13	5.70	5.59	4.97	5.31	5.44	4.93	5.05	9.55	4.09	3.48	4.81	4.88	4.26	4.36	4.70	6.84	8.89	6.08	4.47	3.45	2.67	1.81	1.94	4.04	10.00	12.56	7.07	4.80	3.90	3.26	3.55	2.60	2.74	4.70	5.39	5.32	5.37	5.52	5.48	4.66	5.69	6.32	5.70	4.73	3.32	4.29	8.47	8.79	6.89	4.87	3.94	3.41	2.57	2.57	
5.75	5.63	5.95	4.72	4.21	4.09	4.85	5.25	5.25	5.63	5.57	5.17	5.32	4.89	4.13	3.42	2.74	2.58	2.42	3.49	7.48	9.65	11.48	11.85	8.93	4.84	3.85	3.32	2.24	1.58	1.64	2.85	3.03	3.34	3.76	4.13	4.23	4.24	4.19	4.06	3.88	3.49	2.91	2.53	2.55	7.07	10.11	9.86	9.70	11.72	9.45	8.23	7.26	6.36	8.07	8.69	7.71	7.83	9.02	9.01	7.12	5.93	6.30	5.73	4.70	3.81	4.33	8.38	5.83	4.68	5.45	5.72	5.35	7.15	7.08	3.86	3.06	3.81	5.13	5.48	4.50	4.36	6.53	7.15	7.42	5.61	3.67	2.64	2.01	2.21	6.86	10.18	12.34	4.44	3.80	3.32	2.63	2.50	2.83	3.21	5.82	6.48	6.33	5.91	5.93	4.60	3.79	6.85	7.09	6.02	3.94	3.19	2.82	4.69	8.76	8.68	3.83	4.01	3.46	2.43	2.43	
5.96	4.29	4.18	3.77	4.01	4.25	5.57	6.21	5.66	6.21	5.43	5.13	5.26	4.66	4.04	2.86	2.60	2.94	2.86	2.28	3.29	8.01	11.01	11.81	13.24	4.97	3.91	3.58	2.57	1.92	2.44	2.89	2.97	3.35	3.79	4.16	4.25	4.29	4.25	4.16	4.00	3.74	3.16	2.63	2.56	5.52	9.17	9.08	9.45	11.12	8.35	7.46	7.56	7.00	7.21	7.07	6.75	7.05	7.29	7.26	6.78	5.67	5.55	5.42	4.92	4.30	3.95	9.27	7.99	5.35	5.07	5.43	5.34	7.85	6.93	5.30	4.26	4.17	4.37	4.83	4.92	4.61	6.85	5.20	8.22	6.36	4.05	2.58	1.89	2.21	7.41	10.32	12.29	5.17	4.30	3.25	3.12	3.91	2.99	3.18	5.70	8.99	8.43	6.84	5.75	4.03	3.26	7.40	9.71	4.60	3.96	3.51	2.79	3.99	8.12	10.68	4.20	4.11	4.07	2.66	2.66	
6.80	4.64	2.58	4.68	3.89	4.32	7.54	6.86	5.12	7.67	6.05	5.33	4.12	2.04	2.20	2.39	3.24	3.74	3.55	2.16	1.77	6.97	10.05	11.36	13.22	5.08	4.02	2.89	2.77	3.04	2.54	3.13	2.95	3.42	3.85	4.16	4.27	4.33	4.31	4.24	4.11	3.94	3.45	2.90	2.74	3.38	6.95	9.51	10.25	8.04	6.99	5.82	5.55	5.37	5.19	5.23	4.87	4.69	5.18	5.50	5.62	5.47	5.27	5.14	5.24	6.31	5.67	7.77	6.06	7.39	6.40	5.71	4.67	5.86	6.46	6.08	5.50	5.02	4.58	4.44	5.02	5.26	5.11	4.86	5.72	7.98	4.27	2.76	1.61	1.86	7.34	10.36	11.82	9.90	5.00	3.47	3.20	3.71	3.11	3.22	5.03	9.24	10.74	8.01	4.84	3.77	2.48	3.73	7.70	3.83	5.66	4.23	3.28	3.77	7.23	8.89	6.26	5.71	3.16	3.61	3.61	
5.58	5.01	4.78	4.70	3.87	4.02	7.78	8.16	4.09	7.50	7.24	2.08	4.45	5.11	5.35	4.65	3.83	5.60	3.50	2.16	1.30	2.96	8.60	10.50	13.43	8.48	4.99	2.13	1.29	2.23	2.87	3.22	2.90	3.36	3.84	4.14	4.29	4.36	4.36	4.31	4.21	4.07	3.71	3.29	2.90	3.18	6.85	10.13	6.29	5.64	5.65	5.74	6.02	5.74	5.34	5.51	5.28	4.87	4.88	4.86	4.87	5.28	5.21	4.66	7.68	8.61	5.20	5.97	5.03	5.69	5.41	7.10	5.30	4.66	5.50	5.57	5.19	5.37	5.28	4.77	4.35	5.16	4.78	4.64	5.57	7.19	4.17	3.50	1.53	1.59	7.26	9.57	10.97	12.22	4.83	3.65	3.57	3.52	3.13	3.35	7.37	9.09	10.78	12.22	5.67	4.04	4.67	5.15	7.28	5.41	5.67	3.80	4.21	4.06	4.99	7.27	6.29	5.37	4.13	4.52	4.52	
6.31	6.29	5.61	4.46	3.83	3.89	8.49	9.85	4.10	8.51	5.94	5.18	5.27	5.30	5.65	5.34	5.00	5.64	3.54	2.20	1.45	2.13	6.45	7.57	11.59	14.01	6.82	5.09	2.79	1.94	2.73	3.19	2.98	3.19	3.69	4.10	4.30	4.39	4.40	4.37	4.29	4.17	3.94	3.63	3.04	2.90	6.87	6.90	5.70	8.01	5.77	5.70	7.53	6.32	6.20	6.45	5.94	5.25	4.76	4.34	4.27	5.85	6.01	5.37	7.64	5.35	9.80	5.45	5.24	5.05	4.82	5.48	6.75	4.69	3.83	4.26	4.79	5.54	5.68	5.40	5.79	5.48	4.61	4.30	5.46	6.92	3.83	3.05	1.88	1.60	4.55	8.99	10.49	11.94	6.38	5.12	4.31	3.55	3.08	3.30	7.98	9.31	9.79	12.38	13.30	6.72	5.13	5.10	6.66	5.51	4.10	4.88	4.32	5.28	6.41	8.76	3.81	4.36	5.17	4.06	4.06	
5.46	5.23	4.78	4.02	3.85	6.18	8.46	11.54	2.64	4.28	5.16	5.11	5.02	5.33	6.19	5.77	4.49	4.16	3.16	2.96	2.04	2.27	2.15	3.54	8.90	15.62	7.68	7.88	4.73	3.68	3.54	2.43	3.28	3.15	3.45	3.99	4.29	4.39	4.43	4.40	4.34	4.27	4.12	3.85	3.28	3.06	4.26	5.28	5.51	6.08	6.46	7.05	7.76	7.57	7.04	7.03	6.10	5.16	4.07	4.08	4.41	7.40	6.46	7.59	5.89	7.20	5.31	8.83	5.85	4.98	4.80	4.44	4.79	6.06	4.06	5.24	4.70	4.67	4.87	5.21	6.01	5.82	4.74	3.93	5.34	7.32	4.97	3.65	2.34	1.70	4.39	9.20	10.66	9.40	7.30	5.79	4.51	3.68	3.04	3.35	8.37	9.34	9.03	11.06	11.42	5.67	4.74	8.66	8.37	6.72	5.76	7.22	6.26	6.61	6.46	9.11	5.12	5.34	5.08	4.14	4.14	
5.68	4.83	4.32	3.79	3.53	6.44	9.29	10.85	4.11	4.64	4.50	4.64	4.35	5.84	6.65	3.21	1.82	2.20	2.55	2.58	2.36	2.17	1.50	1.76	7.62	12.21	13.69	8.32	6.32	4.45	3.09	2.86	2.27	3.53	3.39	3.85	4.25	4.37	4.45	4.43	4.39	4.34	4.22	3.98	3.55	3.42	4.01	4.39	6.23	8.09	8.38	8.29	8.33	8.85	9.57	9.00	6.55	4.54	3.83	4.16	4.25	3.08	4.01	6.59	9.46	5.71	7.14	9.86	6.58	5.69	5.15	4.49	4.10	4.70	5.89	4.26	5.08	4.72	4.63	4.93	5.93	6.02	4.91	4.00	5.25	6.97	5.36	4.21	2.43	1.55	4.15	9.49	8.40	8.15	7.62	7.13	5.50	3.88	3.28	4.46	8.22	8.85	8.96	10.80	6.15	4.82	3.67	3.75	8.13	8.04	6.34	9.59	9.69	6.62	6.85	10.26	11.02	5.09	4.29	3.29	3.29	
5.50	4.95	4.63	3.88	3.08	6.16	10.19	10.96	4.30	4.63	4.41	4.22	4.12	5.81	7.67	2.87	4.30	4.61	3.88	5.32	2.16	2.67	1.57	1.58	6.12	9.52	10.83	9.04	8.18	7.79	5.64	4.21	3.63	4.09	3.62	3.74	4.18	4.37	4.46	4.45	4.42	4.38	4.26	4.05	3.65	3.50	3.84	5.44	7.25	9.31	10.81	11.49	11.41	10.87	11.39	12.08	12.45	4.02	3.30	4.46	4.76	3.27	3.46	4.69	5.39	9.52	9.88	8.65	5.99	5.97	4.28	4.86	4.65	4.25	4.85	5.42	5.35	5.04	4.71	4.86	5.73	5.93	5.36	4.68	5.50	5.84	5.34	4.08	2.42	1.69	4.30	7.84	6.89	7.09	5.85	6.11	5.58	3.66	3.11	4.79	8.98	9.55	10.57	11.03	7.13	5.09	3.93	3.91	8.64	6.34	4.63	7.47	7.20	5.57	5.34	9.57	11.75	5.52	4.91	3.14	3.14	
4.98	4.99	5.14	4.39	3.32	5.86	9.29	10.82	7.10	5.32	3.82	4.66	4.36	6.02	6.01	3.77	4.48	5.47	5.63	6.18	4.51	3.41	1.69	1.77	3.40	8.01	8.34	6.97	5.99	6.57	6.09	5.07	4.72	4.41	3.54	3.53	4.12	4.37	4.43	4.44	4.43	4.39	4.27	4.06	3.62	3.24	3.44	5.99	8.69	9.70	10.71	11.56	11.14	9.93	10.21	10.96	12.23	12.71	5.46	4.29	4.20	3.81	3.40	4.62	5.91	5.71	6.44	6.90	4.08	4.83	5.46	5.98	3.33	3.27	2.51	5.03	5.20	5.16	4.96	5.10	5.44	5.75	5.47	5.15	6.15	6.56	5.65	4.28	2.59	2.33	3.72	5.14	5.01	5.11	5.21	5.32	4.97	2.92	1.93	4.29	9.15	10.64	11.18	7.62	6.79	5.28	3.72	4.40	8.34	6.19	4.67	5.06	5.52	5.43	5.59	5.12	9.67	12.15	5.49	3.85	3.85	
4.17	4.88	6.07	5.00	4.79	7.26	8.88	7.32	6.49	5.16	4.73	4.44	4.92	5.29	5.80	5.47	5.67	5.14	5.61	6.91	6.96	5.43	1.60	1.75	3.62	5.28	6.40	6.19	5.84	6.03	5.95	5.23	5.32	4.84	3.02	2.97	3.99	4.26	4.33	4.39	4.41	4.38	4.27	4.05	3.60	2.97	2.98	6.26	8.83	9.36	9.87	10.91	11.14	9.75	10.12	10.78	11.84	12.82	5.88	5.21	5.49	4.04	3.47	5.70	5.11	4.83	6.32	7.09	4.68	3.57	4.48	5.10	5.93	4.92	5.17	5.09	5.10	5.06	5.08	5.53	5.59	5.89	5.68	4.74	5.87	6.96	4.32	3.42	3.15	3.18	4.07	4.92	4.56	4.43	5.08	5.53	4.71	2.60	1.02	2.00	8.28	10.43	11.25	5.88	5.70	5.08	3.96	4.88	5.85	5.03	4.40	4.99	5.54	5.42	6.75	5.55	8.84	11.82	6.39	5.01	5.01	
3.56	5.92	7.35	5.38	4.77	6.58	7.95	8.73	5.38	5.07	4.68	5.08	2.14	5.45	5.48	5.55	2.46	4.97	5.27	7.51	6.74	4.48	2.29	1.71	3.46	4.35	5.21	5.81	6.15	5.87	5.62	5.63	6.62	5.12	2.61	2.60	3.60	3.85	4.14	4.31	4.36	4.35	4.26	4.04	3.65	2.89	2.80	6.31	8.70	9.14	9.26	9.94	10.69	10.16	10.34	10.51	11.34	13.00	6.18	5.67	5.71	4.32	3.81	4.54	4.90	4.87	5.62	6.87	5.18	4.07	2.84	4.58	5.09	5.36	5.19	5.18	5.14	4.99	5.11	5.61	5.60	6.04	5.70	4.41	4.87	8.58	3.70	2.92	3.82	4.36	4.53	4.26	4.28	4.47	5.53	6.87	4.56	1.91	0.61	1.55	4.69	9.67	11.05	6.39	5.45	5.10	4.99	5.11	5.32	4.68	4.47	7.77	9.20	9.89	10.06	9.65	8.87	7.20	7.20	5.91	5.91	
3.24	7.21	7.94	6.08	4.90	6.87	6.75	5.46	5.55	4.10	5.75	5.03	5.37	5.76	4.81	5.31	5.39	4.49	5.15	8.40	4.13	6.69	3.58	2.43	2.61	3.95	4.45	5.62	6.17	5.48	5.46	6.63	7.51	5.34	2.50	2.32	3.12	3.24	3.82	4.14	4.25	4.31	4.26	4.08	3.77	2.99	2.77	6.17	6.82	8.95	8.86	9.27	10.03	10.20	10.50	10.41	10.84	12.72	13.05	6.13	5.88	4.85	4.52	4.54	4.66	4.78	5.35	6.61	3.42	5.87	4.19	2.72	4.75	4.98	4.81	4.98	5.12	5.07	4.99	5.44	5.34	6.94	6.46	4.70	5.90	6.51	6.20	2.15	4.88	5.11	2.75	3.78	5.10	5.99	7.41	7.85	4.79	1.92	0.37	1.27	4.26	6.13	10.03	6.12	4.91	5.19	6.05	6.27	5.89	4.91	3.62	3.22	4.32	5.23	7.34	6.30	5.48	7.73	6.45	5.53	5.53	
2.81	7.64	8.75	6.56	5.96	9.03	3.91	4.22	5.97	7.05	7.74	6.90	4.76	5.56	2.76	5.66	5.76	3.50	5.64	2.91	5.08	4.44	3.32	2.08	1.66	3.41	4.64	6.41	6.03	5.52	6.44	7.38	6.11	3.01	1.20	1.40	2.91	2.83	3.30	3.84	4.12	4.26	4.25	4.13	3.94	3.30	2.98	3.39	6.33	8.71	8.79	9.19	9.88	10.09	10.33	10.58	10.97	12.37	13.19	7.05	6.00	5.21	5.09	4.84	4.64	4.71	5.03	6.08	6.73	3.02	5.99	3.50	4.80	2.71	4.33	4.67	5.24	5.21	4.77	5.27	5.82	7.09	7.41	1.82	5.44	6.03	3.32	3.81	5.54	5.58	5.29	3.50	5.99	7.60	9.73	8.41	4.79	1.88	0.51	1.15	2.60	5.89	8.89	5.79	4.85	5.41	8.18	8.29	7.19	5.39	4.20	2.96	3.57	7.44	5.48	5.18	7.94	6.59	5.75	7.50	7.50	
2.18	3.34	9.61	7.80	5.55	5.42	6.10	4.89	4.59	4.85	5.11	5.64	8.33	7.63	7.81	9.55	8.62	6.35	8.89	6.64	4.29	4.60	5.72	4.81	1.08	5.46	6.19	7.14	6.27	6.25	7.15	5.49	3.00	2.47	1.60	2.53	2.40	2.68	2.72	3.46	4.02	4.20	4.25	4.20	4.08	3.71	3.38	3.20	3.49	6.57	8.10	8.93	9.65	9.69	10.01	10.59	10.88	11.71	11.99	6.35	6.05	5.20	5.43	5.15	4.63	4.69	5.03	10.58	6.18	6.69	3.54	3.58	5.12	3.14	3.73	4.23	5.39	4.51	4.75	6.20	5.43	6.74	5.01	3.89	5.26	6.32	2.68	1.52	5.35	5.39	2.98	5.83	5.67	6.53	8.32	8.91	5.11	3.45	0.67	1.23	2.12	5.00	6.30	5.43	4.52	5.61	9.13	10.27	10.03	5.86	4.99	3.40	3.44	4.69	5.01	4.95	8.41	5.73	5.53	4.86	4.86	
2.25	3.03	6.42	6.86	6.38	5.43	4.98	4.82	4.72	4.55	4.30	4.09	6.06	6.20	6.05	6.76	8.38	6.95	7.01	9.28	5.90	4.95	5.81	4.74	3.94	4.75	7.23	8.53	7.81	7.59	6.48	4.65	3.91	3.46	2.72	2.67	2.50	1.61	2.37	3.22	3.96	4.17	4.26	4.26	4.20	4.02	3.79	3.35	3.30	3.91	6.10	6.58	9.24	9.28	9.54	10.53	11.26	12.10	12.94	12.35	6.84	6.42	5.91	5.44	4.58	4.75	5.37	5.62	5.77	6.86	3.89	5.31	5.05	3.73	3.19	3.74	5.42	5.26	4.81	7.10	5.90	7.21	5.36	5.38	5.60	4.85	4.12	5.39	2.06	5.44	5.03	4.93	6.59	3.04	7.62	9.83	9.48	4.55	3.05	1.48	1.75	2.81	4.48	5.11	4.54	5.11	9.08	10.37	11.67	5.95	5.72	3.91	3.55	4.70	4.79	5.11	7.25	4.22	4.09	3.68	3.68	
2.80	3.50	6.18	8.98	6.94	5.17	4.92	4.92	4.92	4.65	4.40	4.18	4.30	4.76	4.51	4.75	7.15	6.56	7.12	8.91	6.73	5.96	5.60	5.09	3.60	3.68	4.63	8.07	10.48	11.20	6.16	4.86	3.91	3.83	2.94	2.16	2.36	1.96	2.47	3.24	3.96	4.17	4.30	4.32	4.29	4.21	4.07	3.71	3.46	3.71	3.53	5.80	8.16	8.56	8.96	10.18	10.98	11.50	11.38	12.14	13.13	12.76	6.95	5.44	4.83	5.01	5.60	5.65	5.55	7.06	5.55	4.42	3.68	4.22	3.22	3.44	6.57	4.87	4.51	7.52	4.85	6.67	5.37	3.50	3.91	5.06	5.77	2.37	5.60	5.62	4.28	3.59	6.08	6.17	5.75	5.59	7.36	8.64	3.90	2.50	1.72	1.91	3.39	5.69	5.42	5.16	8.28	9.00	10.99	7.11	4.96	4.20	3.91	6.07	5.27	6.53	4.49	4.26	3.82	3.26	3.26	
3.11	3.89	8.57	9.93	3.11	2.89	4.53	2.72	2.26	3.33	4.19	4.77	4.57	4.50	4.56	4.71	5.27	5.34	5.23	7.06	6.97	5.91	5.67	5.20	3.70	3.37	3.82	7.41	9.30	12.08	7.99	4.10	3.31	3.27	3.38	3.22	3.13	3.17	2.80	3.43	4.01	4.21	4.36	4.36	4.36	4.32	4.23	4.02	3.79	3.80	3.43	3.21	5.77	5.90	7.92	9.22	9.94	9.96	10.16	11.25	12.64	11.61	8.52	6.25	5.38	5.65	5.90	5.73	5.43	8.59	3.69	3.47	3.90	4.47	3.63	3.43	6.46	2.81	5.27	8.75	2.27	5.09	8.35	5.44	4.19	4.64	4.81	5.09	6.82	6.64	5.53	5.25	5.09	5.83	5.48	4.57	5.63	6.70	6.71	3.45	2.75	1.85	2.64	5.44	8.06	7.95	8.76	8.65	10.79	9.17	6.01	4.67	4.67	6.27	7.79	5.52	4.83	4.42	4.12	3.62	3.62	
3.57	5.45	5.16	6.00	6.99	6.28	6.09	5.90	5.50	5.31	5.22	5.31	5.15	4.79	4.63	4.66	4.91	5.04	4.95	5.23	5.73	5.66	5.48	5.25	3.91	2.77	3.32	6.94	8.53	9.55	10.14	9.66	8.08	6.23	5.12	4.78	4.02	3.72	3.25	3.68	4.09	4.25	4.37	4.37	4.40	4.40	4.33	4.23	4.10	3.98	3.60	3.34	3.46	5.19	5.55	8.18	8.37	8.75	9.97	10.94	11.29	10.87	10.13	8.22	10.85	6.46	11.95	12.06	11.69	12.09	7.42	6.29	5.05	4.46	3.84	3.58	6.30	4.55	5.27	6.46	5.30	5.30	6.84	6.31	4.49	4.92	4.43	4.36	4.70	5.42	5.88	5.69	5.31	5.68	5.34	4.47	4.71	5.14	5.82	5.48	3.33	2.18	2.23	4.91	8.84	9.47	10.11	9.60	11.24	13.67	7.19	4.54	4.15	5.15	5.79	6.16	5.72	5.03	4.43	4.47	4.47	
5.01	5.88	5.17	5.29	5.47	5.52	5.36	5.01	5.08	5.15	5.42	5.65	5.63	5.13	4.98	4.94	4.93	4.68	4.59	4.80	5.16	5.57	5.99	5.95	4.61	3.04	2.82	3.84	6.81	7.42	7.66	8.13	9.06	8.30	6.22	5.54	4.92	4.37	3.86	4.06	4.15	4.18	4.29	4.35	4.40	4.42	4.41	4.38	4.30	4.17	3.91	3.70	3.54	3.21	3.35	5.96	7.08	7.85	9.66	10.06	9.47	10.41	11.17	10.48	7.05	9.35	9.01	10.09	9.48	9.55	7.40	6.65	4.93	5.00	3.88	3.70	5.99	5.63	7.58	6.01	4.43	5.50	7.21	3.88	5.96	4.78	5.35	4.76	4.52	5.02	5.49	5.82	5.96	6.07	6.03	5.10	4.77	4.82	4.67	4.63	3.60	2.19	2.01	4.60	8.50	8.14	4.93	4.96	9.83	12.65	10.08	3.27	2.82	4.84	5.47	4.97	5.25	4.85	4.75	5.78	5.78	
6.42	5.72	3.23	5.09	5.00	5.38	5.04	4.74	5.00	4.74	5.19	6.17	5.94	4.68	5.21	4.66	4.88	4.54	4.68	4.74	4.88	5.53	6.46	6.63	4.56	3.35	3.07	3.69	4.49	5.16	5.69	5.95	6.73	7.95	6.60	5.74	5.53	4.80	4.47	4.63	4.29	3.91	4.08	4.25	4.33	4.40	4.45	4.47	4.43	4.34	4.19	4.04	3.77	3.39	3.42	3.80	3.81	7.70	8.61	8.86	9.76	11.23	11.98	5.69	9.23	6.79	9.00	10.50	9.79	10.07	12.53	4.09	5.60	4.11	3.27	3.73	5.70	6.09	4.91	5.23	4.29	3.88	7.10	5.61	4.35	5.50	6.05	5.69	3.04	5.31	5.63	6.00	5.76	5.82	5.86	4.95	5.66	5.33	4.73	3.93	2.46	1.93	1.90	4.54	5.41	5.43	7.85	8.03	9.23	12.11	9.11	8.19	6.16	4.34	6.10	6.04	5.49	4.61	4.83	6.46	6.46	
6.56	6.32	5.21	4.96	4.92	5.32	4.52	4.37	5.29	4.52	5.50	7.81	6.47	4.32	4.97	3.72	2.80	2.70	4.95	4.78	4.71	6.25	7.27	7.33	5.34	3.79	3.13	3.42	3.67	4.63	5.40	5.54	5.96	6.40	6.16	5.84	5.63	5.26	5.18	5.22	4.32	3.63	3.87	4.08	4.15	4.33	4.48	4.53	4.51	4.46	4.38	4.26	4.07	3.83	3.62	3.52	3.43	5.72	6.40	7.19	9.51	11.50	11.88	7.42	8.05	5.25	5.25	6.11	7.98	6.25	7.03	3.73	6.07	4.27	4.24	3.86	4.62	8.07	5.14	5.49	4.23	3.71	5.79	6.79	3.50	4.51	4.85	5.37	5.03	5.03	5.26	7.94	7.44	8.34	8.65	4.37	3.13	3.06	3.50	3.36	3.06	2.02	1.79	3.01	4.30	5.70	4.95	4.43	8.95	12.12	6.72	5.92	8.52	4.36	4.07	5.11	5.51	4.77	5.91	6.65	6.65	
5.49	7.22	4.47	4.77	4.81	3.05	1.66	4.42	6.62	2.89	4.81	8.12	6.36	3.22	2.98	4.61	4.59	4.31	4.90	4.41	5.27	7.19	9.07	8.00	3.97	2.68	1.90	1.60	1.97	4.87	5.52	5.44	5.56	5.49	5.31	5.30	5.54	5.84	6.16	4.55	3.00	3.66	3.88	3.78	3.92	4.27	4.47	4.54	4.57	4.56	4.51	4.42	4.29	4.15	3.91	3.67	3.40	3.31	3.64	6.59	9.18	11.39	8.95	5.48	8.51	10.23	5.55	11.32	10.44	10.74	12.68	6.06	5.70	6.48	5.88	4.89	4.32	4.89	5.64	5.70	4.61	3.84	7.15	6.75	5.11	3.18	4.39	4.92	4.94	4.42	4.35	4.92	5.08	5.55	7.48	6.30	7.33	6.32	6.73	4.45	4.38	2.98	1.96	2.24	4.89	8.19	8.45	8.53	10.37	9.17	5.65	8.22	10.08	5.73	4.45	4.24	4.96	5.51	5.35	5.50	5.50	
3.79	8.51	7.00	3.89	5.79	4.75	4.15	4.89	6.82	4.30	3.52	8.66	3.68	4.75	4.44	5.19	2.63	5.11	5.33	4.32	6.34	4.68	5.29	9.47	6.08	5.12	4.71	4.49	4.56	5.77	5.92	5.27	5.05	4.88	4.72	4.61	5.38	6.92	4.95	2.82	2.72	4.10	4.10	3.42	3.67	4.19	4.39	4.53	4.61	4.63	4.61	4.55	4.46	4.33	4.16	3.97	3.58	3.08	3.01	5.97	8.43	10.52	8.61	5.40	9.59	10.30	11.23	7.96	7.62	9.73	7.58	6.28	4.62	6.15	9.35	4.51	5.19	4.41	4.63	5.61	4.55	4.08	7.32	7.57	5.88	5.37	4.61	5.03	5.49	4.68	4.22	4.60	4.52	5.12	5.89	5.85	5.52	5.30	6.13	6.55	4.58	4.00	2.73	1.72	2.10	7.72	9.69	9.21	9.33	9.44	6.02	5.29	8.66	6.51	5.60	5.05	4.93	6.18	5.99	5.34	5.34	
3.09	5.06	9.16	10.59	4.66	4.62	3.98	5.72	6.05	4.31	4.11	8.35	3.26	4.09	4.93	3.00	3.56	5.05	6.74	4.38	5.07	4.01	6.44	8.22	6.20	5.44	5.35	5.11	5.66	7.19	6.07	4.81	4.34	4.45	4.64	4.62	6.47	4.04	4.83	5.47	4.92	4.79	4.25	3.12	3.34	3.97	4.24	4.51	4.64	4.69	4.69	4.64	4.57	4.46	4.32	4.15	3.85	3.30	2.94	3.25	6.64	9.41	6.76	6.27	9.27	10.20	6.01	5.76	10.99	11.89	8.42	5.10	5.50	4.25	6.70	10.05	6.70	5.09	4.47	4.45	3.83	3.98	7.34	8.68	6.08	5.79	5.07	5.34	4.41	3.14	4.77	5.27	4.62	4.41	5.31	5.74	5.24	4.94	5.53	6.03	4.41	4.56	2.76	1.97	1.36	4.36	8.71	8.18	7.62	9.89	9.81	5.04	6.23	6.08	5.82	6.01	6.14	5.66	7.79	7.75	7.75	
3.24	3.72	5.64	9.97	6.51	5.00	4.82	8.35	6.20	5.19	7.04	7.71	3.69	5.04	4.58	4.86	4.94	6.73	7.25	3.90	3.81	3.98	4.60	6.78	6.47	5.47	5.12	5.02	7.48	8.15	6.01	4.30	3.95	4.99	5.55	4.55	1.89	4.36	5.41	5.78	5.60	5.13	4.36	2.95	2.85	3.48	4.05	4.48	4.65	4.73	4.74	4.70	4.64	4.54	4.42	4.28	4.05	3.64	3.15	3.14	4.21	7.50	7.37	9.01	9.05	6.51	6.32	5.64	7.37	8.06	7.21	4.65	4.30	5.20	4.21	7.91	7.40	4.91	5.04	4.51	3.43	3.54	4.94	8.72	7.56	5.30	4.89	4.66	3.80	5.25	5.41	5.34	3.46	4.31	5.33	5.90	5.45	4.91	5.58	6.00	5.56	4.34	3.57	2.55	1.33	2.13	5.88	7.12	5.18	9.35	11.00	5.89	4.75	5.29	5.56	6.43	8.67	6.33	6.90	9.27	9.27	
4.32	3.55	3.37	6.13	10.35	7.33	8.66	9.38	6.36	6.28	7.09	7.49	6.79	6.74	6.70	6.13	4.64	6.29	9.01	8.12	5.57	4.61	4.75	5.35	5.77	5.76	5.26	4.58	8.30	8.90	4.55	3.45	4.30	5.94	3.67	2.87	3.79	4.34	5.33	6.23	6.88	5.72	4.37	3.00	2.18	2.75	3.71	4.35	4.62	4.74	4.75	4.73	4.67	4.59	4.50	4.37	4.17	3.89	3.42	3.20	3.93	7.33	6.75	4.91	5.90	7.70	7.21	6.45	8.16	9.93	6.33	4.39	4.37	3.03	3.31	7.15	10.79	5.56	4.19	5.07	3.85	3.34	4.14	7.75	8.37	6.02	5.47	6.27	4.41	4.25	5.74	3.68	2.96	4.93	5.72	6.06	5.74	4.71	5.67	6.22	5.49	4.15	3.04	2.74	1.62	1.63	5.18	6.93	5.57	6.69	9.09	6.06	5.01	5.15	6.05	6.09	9.24	7.54	5.16	5.38	5.38	
5.73	4.04	2.92	3.86	6.54	7.69	7.69	9.78	5.89	4.60	4.72	5.82	5.62	5.75	5.90	6.10	5.45	4.11	6.71	7.53	6.53	5.31	4.99	5.16	5.17	5.91	5.90	5.07	8.68	9.14	4.94	4.10	4.63	2.08	3.69	3.81	4.42	4.61	5.79	7.32	7.55	6.58	5.51	3.45	1.84	1.98	3.16	4.04	4.48	4.67	4.72	4.70	4.65	4.60	4.53	4.43	4.27	4.02	3.59	3.18	3.55	6.76	8.59	8.31	9.11	10.24	10.93	10.60	10.43	10.45	4.41	4.90	3.50	2.79	2.47	6.70	10.74	6.04	4.34	4.09	4.77	4.04	3.79	6.84	7.27	6.89	6.15	7.03	7.71	8.67	8.67	6.86	3.44	6.00	6.04	5.41	4.13	4.90	6.49	5.97	3.33	2.57	2.66	2.43	2.75	1.85	2.90	3.90	4.35	9.52	6.89	6.01	5.61	5.42	7.51	7.46	8.31	7.95	6.19	4.87	4.87	
6.11	4.98	3.30	3.40	4.78	5.69	5.69	9.09	7.53	5.65	5.13	5.05	5.32	5.27	4.98	4.88	4.59	4.33	4.55	5.51	6.04	5.11	4.79	5.25	6.03	7.58	6.37	5.30	8.35	9.57	5.43	2.60	3.03	4.57	4.70	4.79	4.63	4.88	7.91	8.94	8.04	7.76	7.17	4.37	2.04	1.72	2.30	3.59	4.30	4.52	4.58	4.58	4.56	4.58	4.53	4.46	4.33	4.11	3.70	3.09	3.06	6.34	8.58	9.13	10.22	10.81	11.20	12.07	12.91	12.05	6.29	5.47	4.24	3.21	1.89	3.16	8.21	10.73	5.45	4.89	5.28	5.59	4.52	4.65	5.58	5.79	5.16	4.63	4.85	5.35	7.23	8.01	9.55	6.87	6.92	5.12	4.57	5.03	6.43	2.21	4.21	5.68	5.12	3.48	3.21	2.80	2.39	2.74	6.01	6.38	4.98	5.12	5.85	7.46	8.03	9.52	10.95	11.59	5.63	5.61	5.61	
3.95	3.22	3.15	3.65	4.23	4.67	4.53	6.60	6.59	6.20	5.64	5.30	5.74	5.55	5.15	4.99	4.40	4.37	4.65	4.77	5.18	4.92	3.91	4.44	7.25	9.41	5.95	6.19	8.84	10.34	4.10	4.07	4.74	5.38	5.43	5.03	4.21	4.52	8.58	10.26	8.69	9.05	9.10	5.61	2.11	1.46	1.47	2.98	4.21	4.47	4.29	4.27	4.40	4.50	4.50	4.46	4.36	4.16	3.84	3.18	2.83	5.86	8.10	8.76	8.62	8.88	10.30	11.83	11.85	12.36	12.15	5.11	3.76	4.21	2.10	2.28	7.42	10.36	6.12	4.65	5.03	6.78	6.06	5.04	5.37	5.59	5.02	4.58	4.35	4.45	4.74	4.89	5.53	9.28	11.14	7.51	6.15	5.63	3.42	4.79	5.36	5.26	3.12	3.63	3.80	2.59	2.18	2.33	4.48	5.09	4.18	4.23	8.20	10.50	8.13	5.45	8.39	9.71	8.24	6.20	6.20	
6.91	6.08	5.11	4.54	4.18	4.15	4.70	5.61	5.85	6.12	6.07	5.69	5.89	5.54	5.49	4.18	4.06	4.47	5.34	4.92	5.07	4.35	2.87	3.44	7.04	9.79	7.14	6.81	9.86	3.64	4.37	4.39	5.10	5.51	5.78	5.21	4.05	4.46	7.76	10.10	8.87	9.38	10.60	7.15	2.23	0.71	0.59	2.05	4.13	4.52	4.04	3.83	4.13	4.37	4.42	4.43	4.37	4.22	3.98	3.41	2.91	3.10	6.28	8.36	7.62	8.23	9.48	11.06	12.51	13.38	11.52	7.03	5.21	3.73	2.99	2.05	3.92	8.85	6.32	4.50	4.67	6.86	7.18	6.31	6.09	6.16	5.43	5.03	4.89	4.06	3.31	3.45	4.56	8.51	10.25	11.19	8.96	3.70	4.79	2.89	2.64	2.51	2.79	5.04	3.98	3.15	2.07	2.46	5.98	4.71	3.95	5.27	8.90	6.14	5.66	5.25	9.66	11.50	6.96	5.99	5.99	
7.06	5.13	5.30	4.13	4.49	4.05	4.68	5.38	5.03	5.82	6.78	5.74	5.08	4.98	5.05	2.65	3.75	4.63	6.14	5.83	5.55	3.17	2.43	2.86	6.25	9.47	9.46	9.41	6.68	5.47	4.53	4.45	4.58	5.16	5.82	5.62	5.39	5.17	6.33	10.03	9.11	8.43	11.83	7.55	3.55	1.16	0.57	1.79	3.35	3.40	3.92	3.60	3.79	4.10	4.25	4.36	4.38	4.30	4.09	3.69	3.26	3.09	3.55	6.16	6.24	7.88	8.75	10.49	11.96	13.74	6.57	5.86	5.68	4.40	4.05	2.26	3.02	8.65	5.74	4.03	4.58	8.83	11.21	8.78	7.42	6.53	4.81	5.58	4.39	4.47	2.94	2.42	4.02	5.19	9.05	9.21	11.27	3.72	7.10	5.63	3.40	2.98	5.07	5.40	2.92	3.56	2.16	2.55	4.25	4.51	4.06	4.29	4.80	6.72	8.34	5.73	6.04	6.91	4.74	4.92	4.92	
6.76	5.71	4.41	3.81	4.84	4.38	4.68	5.42	4.19	5.96	9.49	4.07	4.32	4.78	4.59	4.61	3.73	4.55	6.73	7.92	3.70	2.84	2.42	2.27	5.92	9.90	9.23	6.16	8.25	6.89	5.67	5.03	4.54	5.14	6.20	6.49	6.73	3.96	4.85	9.11	10.28	5.93	11.69	7.96	6.18	2.83	1.28	1.61	2.41	2.61	3.89	3.86	3.64	3.62	3.95	4.24	4.38	4.34	4.18	3.98	3.69	3.38	3.33	3.51	6.07	6.23	8.59	10.13	11.74	13.95	8.65	4.95	4.55	3.69	4.84	2.66	2.17	5.07	5.25	4.20	8.06	9.46	10.08	10.78	11.69	12.70	5.57	4.56	2.62	3.13	1.93	2.11	2.87	4.84	8.49	10.38	11.76	7.74	6.27	2.98	2.93	2.75	2.58	2.32	3.55	4.17	2.75	2.76	4.06	4.78	4.70	4.70	5.44	5.42	5.25	7.53	8.42	7.18	5.27	3.62	3.62	
5.71	5.70	5.03	5.18	5.13	4.61	4.72	6.20	4.11	3.28	9.91	3.90	4.56	2.51	5.51	4.29	3.97	5.94	6.76	7.96	4.56	4.45	3.27	2.40	2.86	8.69	9.11	5.00	5.83	6.68	6.12	5.27	4.39	4.95	7.72	7.15	7.03	4.20	2.88	4.17	11.37	4.10	10.23	6.67	5.55	3.55	3.51	2.69	2.62	2.20	4.03	3.80	3.69	3.22	3.53	4.04	4.32	4.33	4.28	4.21	4.02	3.75	3.42	3.15	3.20	5.60	7.44	8.87	10.11	12.24	13.46	8.68	4.84	4.89	3.96	3.33	1.39	3.53	6.18	3.97	7.28	9.21	9.43	9.58	10.69	12.09	8.06	4.79	4.65	3.81	3.81	2.30	2.69	4.50	8.94	9.28	11.13	10.71	6.09	6.50	6.66	7.33	5.88	5.20	5.06	4.07	3.55	3.22	4.07	5.94	5.72	7.61	9.07	9.16	8.29	8.53	10.52	5.68	5.40	4.02	4.02	
5.86	5.87	5.14	5.12	5.03	3.23	4.63	8.06	5.43	4.14	4.64	6.97	3.66	3.08	4.05	3.91	4.14	6.47	7.94	3.08	3.91	5.01	4.53	3.07	2.62	4.46	9.19	5.67	4.81	5.11	5.49	5.51	4.43	3.79	8.79	9.23	6.64	3.41	2.24	3.31	10.96	2.83	4.86	6.83	8.32	7.52	5.16	3.62	3.71	2.43	4.97	3.69	2.50	3.10	3.29	3.79	4.19	4.32	4.38	4.35	4.18	4.02	3.74	3.31	3.04	2.96	3.22	7.85	8.95	10.30	12.99	12.25	8.92	5.35	5.33	4.61	2.16	2.61	4.12	3.85	3.42	5.70	6.11	8.86	10.00	11.65	8.15	4.03	3.18	3.10	4.10	2.20	2.67	4.64	8.99	8.90	11.11	3.83	3.66	4.05	4.50	5.02	5.74	6.79	6.64	5.12	3.98	3.53	4.21	6.20	6.10	5.69	8.59	9.43	9.70	10.26	5.18	5.58	5.23	4.75	4.75	
6.09	5.59	4.50	4.88	5.66	3.52	4.28	9.21	6.05	5.14	3.56	5.43	3.82	5.21	4.34	3.71	4.19	9.28	3.27	5.60	4.88	5.58	4.41	3.91	2.86	3.96	7.56	6.53	5.19	4.87	4.94	6.74	5.05	5.04	8.10	10.70	6.48	5.61	2.51	3.31	11.03	4.73	4.62	4.74	5.67	6.52	6.30	5.73	5.06	5.45	6.25	3.24	1.43	2.90	3.24	3.58	4.04	4.33	4.46	4.43	4.27	4.16	3.98	3.68	3.27	2.87	2.97	6.20	8.63	10.05	12.43	11.81	11.28	13.01	5.72	4.83	3.21	2.50	2.86	3.70	3.24	4.26	5.83	9.09	10.35	11.57	7.62	3.41	2.65	3.80	3.22	2.37	2.47	4.66	8.73	8.92	11.71	4.41	3.86	2.51	1.95	4.24	5.14	4.99	5.17	4.79	3.97	3.66	5.54	6.29	7.62	6.44	7.74	8.80	9.87	11.76	4.83	5.28	4.45	4.23	4.23	
6.23	5.33	4.18	4.69	5.59	4.83	4.62	6.42	10.40	4.77	3.99	4.84	5.52	5.28	4.19	3.87	5.89	9.25	5.85	3.68	4.83	5.83	4.26	3.26	1.80	3.76	5.65	5.74	5.61	5.54	5.04	7.58	5.13	3.28	7.29	7.13	7.96	6.10	3.26	4.09	7.22	5.27	4.94	5.17	5.04	6.08	6.22	6.08	5.95	7.67	6.84	4.45	2.02	2.17	2.96	3.36	3.92	4.34	4.49	4.47	4.33	4.26	4.14	3.96	3.61	3.03	2.85	5.69	6.29	9.31	11.56	10.50	10.79	12.82	14.06	5.56	5.03	2.69	2.36	2.30	3.00	4.94	8.82	10.17	10.58	11.63	7.30	6.15	6.37	6.33	3.89	2.76	2.46	4.40	8.93	10.38	12.41	5.87	3.93	5.81	4.87	4.32	4.55	2.94	3.79	3.81	3.78	3.70	5.73	6.53	8.73	6.17	6.70	8.45	6.00	8.82	5.72	5.83	4.50	3.83	3.83	
4.52	5.23	4.22	6.68	9.20	9.70	6.10	6.34	9.76	6.94	1.85	6.24	5.92	4.99	3.94	3.95	9.06	5.11	5.92	5.05	4.86	5.59	5.09	4.76	4.56	4.22	4.81	5.13	5.65	6.71	7.01	8.60	5.39	3.63	6.57	6.56	9.56	6.05	4.75	5.30	5.48	4.19	3.74	4.41	5.21	6.03	6.79	6.99	7.59	7.19	5.95	5.10	1.75	1.24	2.28	2.86	3.75	4.36	4.47	4.47	4.38	4.33	4.25	4.12	3.87	3.39	2.98	3.08	5.83	8.40	10.52	9.28	10.37	12.35	13.76	5.06	4.39	2.96	2.19	2.15	2.68	4.85	9.46	10.54	10.87	12.03	6.24	5.75	4.99	6.40	4.50	2.55	2.37	4.32	8.81	10.22	12.19	7.07	6.11	5.31	4.29	5.25	3.45	2.10	3.45	3.46	3.44	3.64	5.62	8.49	9.85	6.83	4.55	8.04	6.45	5.83	5.52	6.42	5.05	4.39	4.39	
6.47	5.39	4.66	7.54	5.46	7.31	8.77	9.30	9.89	4.72	5.09	5.30	5.60	4.62	3.54	4.01	9.70	3.40	3.41	4.58	5.61	5.61	5.75	5.40	4.92	4.68	4.11	4.30	6.88	7.35	8.71	8.78	5.78	4.09	2.79	8.59	9.26	4.55	5.33	2.72	5.18	4.68	4.33	5.00	4.72	5.88	7.45	7.83	7.33	7.79	4.35	4.17	2.48	1.69	1.82	2.04	3.29	4.24	4.33	4.39	4.39	4.36	4.32	4.21	4.04	3.75	3.33	2.96	3.26	6.79	9.17	8.69	9.52	12.04	13.09	10.39	5.91	4.09	3.08	2.54	2.72	4.73	9.30	10.44	10.97	12.46	4.40	3.37	4.92	4.92	3.75	2.15	2.10	4.18	8.77	10.33	11.61	12.55	4.29	5.14	4.63	4.18	3.96	3.28	3.06	3.18	3.06	3.38	5.51	8.46	10.36	9.45	5.75	9.26	6.16	5.01	5.47	4.93	4.55	4.27	4.27	
4.28	4.62	4.68	5.19	6.32	5.62	5.81	5.05	9.97	5.02	5.12	4.90	5.44	4.62	3.75	4.47	9.70	6.27	5.40	5.02	5.14	5.47	5.66	5.30	5.06	5.11	3.94	3.29	6.93	8.87	8.96	8.72	5.43	4.65	3.08	5.30	7.48	4.60	5.50	5.01	5.41	6.43	5.18	4.92	4.57	5.58	8.64	8.63	3.99	3.99	4.07	4.76	3.54	2.12	1.27	1.57	2.86	3.81	4.03	4.23	4.33	4.34	4.33	4.27	4.19	4.00	3.71	3.12	3.16	6.40	6.95	6.82	8.79	11.82	12.14	11.14	6.60	4.67	3.51	3.00	3.09	4.94	9.53	10.45	10.84	12.18	8.04	5.05	5.58	3.10	2.57	2.34	1.79	2.90	5.34	10.17	11.21	12.43	5.39	5.17	5.89	6.42	5.75	4.32	3.48	3.19	2.85	3.08	5.26	8.31	10.27	11.61	7.17	2.85	5.94	7.60	6.43	5.48	4.74	4.11	4.11	
3.75	3.74	4.00	6.86	9.92	6.83	5.10	5.74	6.52	4.57	3.28	5.33	5.32	4.53	4.39	7.09	6.90	6.17	5.26	5.04	4.83	5.21	5.72	5.63	5.40	6.08	4.23	2.82	3.80	4.60	9.84	11.23	5.40	4.82	6.57	8.15	5.72	5.42	5.73	5.06	4.77	5.23	5.47	4.52	4.27	6.52	10.06	2.88	4.39	4.66	4.82	5.07	6.81	5.25	2.93	1.26	2.69	3.33	3.62	3.96	4.14	4.26	4.32	4.31	4.29	4.17	3.98	3.55	3.36	3.70	4.25	6.52	8.42	10.83	11.72	12.00	6.90	4.77	3.84	3.26	3.47	5.42	9.33	9.82	10.37	12.18	4.11	3.93	4.25	4.25	3.18	2.47	1.68	2.32	7.79	9.97	11.20	12.03	4.12	2.82	2.12	3.22	4.00	4.00	4.08	3.22	2.75	2.89	3.47	7.96	9.86	12.07	8.25	6.31	4.21	4.68	7.18	7.92	5.18	4.60	4.60	
4.30	3.48	5.54	6.78	9.64	10.72	6.49	5.51	5.99	5.49	6.79	5.76	4.60	3.20	3.49	4.60	5.30	5.30	4.98	4.98	4.76	5.12	5.96	5.94	5.57	6.69	4.25	2.65	3.87	4.41	6.12	10.06	10.83	8.59	8.03	6.47	2.38	2.71	4.54	4.94	4.82	4.81	5.06	4.56	4.13	6.65	11.13	6.06	5.27	5.68	5.99	5.66	5.07	4.46	2.81	1.89	1.81	3.28	3.41	3.55	3.75	4.07	4.27	4.34	4.35	4.29	4.16	3.96	3.69	3.44	3.56	6.18	6.69	9.75	11.48	12.12	6.92	5.26	4.02	3.51	3.70	5.85	9.63	9.85	10.20	12.43	4.90	4.05	4.08	3.78	4.37	2.82	1.90	2.10	4.78	9.67	11.66	12.86	4.27	3.42	2.85	2.08	2.29	3.30	3.98	3.19	2.64	2.63	3.31	8.38	9.27	11.05	13.28	5.33	5.30	4.18	3.62	7.00	5.73	5.23	5.23	
3.65	3.43	3.41	6.12	9.07	10.40	11.30	3.61	4.59	4.98	6.34	7.51	7.35	6.54	6.05	5.49	5.23	5.39	5.39	5.01	4.95	5.23	7.16	6.74	7.19	4.40	3.97	2.57	3.72	8.37	7.86	8.75	9.90	8.45	7.42	6.01	3.65	2.70	2.12	3.72	3.93	4.67	4.84	5.16	5.77	7.03	6.79	6.56	6.68	5.07	3.01	3.01	2.46	2.45	2.13	2.80	2.94	2.99	3.46	3.25	3.29	3.74	4.13	4.33	4.38	4.37	4.30	4.21	4.00	3.62	3.37	3.57	6.44	8.89	10.53	11.18	7.91	5.49	4.35	3.89	3.96	6.11	9.71	9.83	10.21	12.43	4.66	3.84	2.78	2.96	2.29	3.21	2.30	2.35	4.65	9.25	11.67	11.16	5.27	4.82	3.90	2.88	2.56	3.23	2.86	3.27	2.54	2.20	2.78	8.84	10.14	10.41	10.66	8.93	6.46	5.22	4.99	5.35	6.09	5.72	5.72	
4.26	3.48	2.89	4.56	6.34	9.51	9.64	5.52	5.16	4.81	5.17	5.02	5.30	5.84	6.21	5.96	5.50	5.15	4.94	4.77	5.13	6.57	7.89	8.31	6.93	4.66	3.77	2.94	3.01	4.56	8.98	8.25	9.31	6.55	6.47	5.93	6.25	5.64	4.59	3.84	4.50	4.22	4.70	7.75	6.75	5.70	6.31	6.44	2.33	3.64	6.89	5.21	2.95	2.10	3.04	4.36	3.67	2.69	2.49	3.31	3.13	3.40	3.92	4.29	4.42	4.42	4.38	4.35	4.21	3.93	3.58	3.38	3.73	7.13	9.43	10.12	7.58	5.33	4.22	4.07	5.65	8.65	9.84	10.00	10.50	12.53	7.64	5.25	3.16	3.10	3.19	2.98	2.31	2.57	4.79	9.39	11.51	13.55	4.51	3.05	2.39	2.34	2.53	3.28	2.98	3.71	2.66	1.94	2.31	8.25	9.13	8.21	8.15	8.70	7.28	5.69	5.17	5.07	5.39	5.81	5.81	
4.94	3.59	2.76	5.88	6.19	6.95	7.70	3.74	4.38	4.62	4.60	4.78	5.00	5.25	5.64	5.74	5.36	4.87	4.43	4.20	5.06	7.86	8.19	9.73	4.43	4.06	3.85	3.83	2.78	3.24	6.70	9.33	6.38	6.57	3.55	4.98	4.95	5.10	5.67	5.06	4.63	4.22	6.06	8.72	6.23	6.03	3.33	5.96	5.99	6.22	6.04	3.32	5.85	1.76	5.63	6.41	4.23	1.98	1.59	1.79	3.34	3.22	3.73	4.23	4.41	4.46	4.44	4.43	4.36	4.18	3.93	3.49	3.59	6.82	7.73	9.69	6.46	4.93	4.04	4.01	6.02	8.88	10.61	10.61	11.03	12.15	6.89	8.62	8.26	5.62	3.90	2.82	2.18	2.48	4.88	9.41	10.90	13.14	4.92	3.61	2.79	3.05	3.12	3.46	3.36	3.09	3.11	2.13	2.57	6.09	6.21	6.02	6.29	7.00	6.53	5.44	5.07	5.20	5.41	5.66	5.66	
5.21	3.77	2.86	6.06	5.86	9.54	7.80	3.46	3.05	4.51	4.54	5.07	5.41	5.63	5.65	5.44	5.39	4.76	3.61	3.59	6.61	8.68	8.40	10.55	6.76	4.54	4.15	4.07	2.87	2.58	5.82	10.79	9.52	3.16	2.65	2.15	4.01	4.73	5.13	5.09	4.61	4.50	6.43	8.24	5.97	6.06	6.33	5.27	3.33	1.62	5.77	5.73	6.09	5.37	6.32	7.57	4.82	3.40	1.12	1.42	3.47	3.17	3.58	4.12	4.35	4.44	4.46	4.47	4.46	4.36	4.22	3.83	3.81	4.19	5.02	7.98	6.13	4.80	4.12	4.11	6.36	8.81	10.13	10.86	11.80	9.07	6.06	8.78	10.21	5.80	3.99	2.83	2.25	2.46	4.84	9.05	10.51	12.95	6.07	4.73	3.61	3.32	3.30	3.56	4.69	3.77	3.90	2.80	3.20	4.68	5.29	5.29	5.51	5.98	6.14	5.58	5.16	5.20	5.37	5.48	5.48	
5.76	4.27	3.26	4.72	4.90	5.80	7.66	4.22	4.38	4.45	4.86	5.09	5.62	6.17	5.96	5.45	5.36	3.27	2.88	2.81	6.50	9.94	9.32	8.84	6.14	4.52	4.86	4.37	3.03	2.66	4.23	6.74	10.03	4.34	3.46	3.63	4.67	4.74	4.84	2.44	4.27	5.65	6.49	7.80	5.86	6.89	4.90	2.90	4.44	4.99	6.08	6.30	6.34	6.18	6.94	5.65	4.37	4.17	1.64	1.29	3.40	3.17	3.41	3.95	4.23	4.34	4.42	4.49	4.53	4.48	4.41	4.22	4.16	4.08	4.57	5.75	5.55	4.65	4.22	6.61	6.77	8.43	9.68	10.85	12.11	6.68	5.13	8.99	7.11	4.58	4.36	3.16	2.48	2.71	4.88	8.82	10.60	11.66	9.79	5.89	4.48	3.95	4.01	3.60	4.57	4.97	4.61	3.80	3.94	4.77	5.15	5.26	5.38	5.48	5.53	5.45	5.18	5.06	5.19	5.26	5.26	
6.23	4.73	3.86	4.91	5.98	6.98	5.36	5.27	4.54	5.02	4.96	5.13	5.66	6.79	6.22	5.57	3.38	4.49	2.69	2.24	3.82	9.54	11.53	5.01	5.90	4.56	5.86	4.44	3.28	2.91	5.07	9.37	9.58	4.58	5.26	4.97	5.11	5.00	4.90	3.95	3.94	5.72	6.37	10.41	6.68	5.70	5.33	5.84	5.60	5.46	1.34	5.83	6.09	6.17	3.13	4.08	4.41	5.94	2.06	0.93	1.93	3.24	3.34	3.83	3.96	4.07	4.33	4.47	4.57	4.57	4.55	4.51	4.45	4.32	4.55	5.02	4.85	4.43	4.24	6.83	6.87	8.19	9.56	11.13	11.23	6.29	5.84	5.01	6.90	8.77	5.14	3.70	2.82	2.98	5.13	9.50	10.67	9.01	10.55	7.80	5.69	4.83	4.55	4.31	4.75	4.99	4.94	4.61	4.57	4.88	5.21	5.40	5.35	5.20	5.12	5.16	5.05	4.86	4.75	4.68	4.68	
5.39	4.94	5.78	4.94	6.26	7.09	5.04	4.54	4.69	4.95	4.92	4.90	6.52	8.49	6.30	3.01	4.25	4.64	3.08	2.05	3.14	6.69	11.16	8.16	6.12	5.00	5.80	5.18	3.79	3.04	3.49	9.09	7.58	4.54	5.37	5.36	4.93	5.24	2.96	3.87	4.13	5.54	5.63	9.54	2.26	3.60	4.72	4.71	5.75	1.78	5.65	6.08	5.25	1.56	3.20	3.14	6.13	5.32	3.62	1.37	1.71	2.09	3.58	3.94	3.57	3.62	4.17	4.41	4.57	4.63	4.65	4.67	4.64	4.60	4.66	4.61	4.41	4.13	4.01	4.60	7.08	6.79	9.26	10.69	9.47	5.66	5.03	5.78	9.56	9.05	6.71	4.50	3.26	3.20	5.52	10.37	8.06	6.65	9.63	8.42	6.34	5.84	5.36	5.09	5.12	5.19	5.25	5.21	4.85	4.75	5.33	5.77	5.48	5.19	4.97	4.78	4.94	4.93	4.20	3.68	3.68	
5.41	4.80	4.62	4.93	5.89	7.32	5.86	4.75	4.58	5.02	4.87	4.17	6.70	10.10	3.66	4.61	3.64	4.86	3.57	1.97	2.61	6.38	10.74	10.35	6.57	6.13	4.25	5.21	3.84	3.39	2.79	5.62	10.59	7.42	6.24	4.17	5.17	5.49	4.78	3.95	5.29	6.03	4.98	5.85	7.45	5.92	5.65	6.26	5.12	5.57	5.65	6.72	1.89	2.26	2.01	3.82	8.23	6.20	5.11	2.69	2.03	2.09	3.36	3.26	3.27	3.18	3.93	4.33	4.55	4.66	4.72	4.79	4.75	4.72	4.74	4.58	4.37	3.94	3.66	4.51	7.58	6.97	8.29	9.83	8.81	5.50	5.12	7.64	5.99	6.54	7.51	5.09	3.60	3.36	6.11	10.80	6.36	5.42	7.94	8.55	6.48	5.59	5.36	5.23	5.25	5.36	5.76	5.89	5.02	4.18	5.43	6.39	5.95	5.43	4.52	3.74	4.97	5.04	3.25	2.94	2.94	
4.81	4.70	4.76	5.13	7.70	7.12	5.99	4.62	4.75	5.34	4.87	3.36	5.98	10.97	4.06	2.79	3.72	4.16	2.77	1.94	2.35	6.26	9.88	7.24	10.63	11.04	3.81	3.42	3.75	3.94	3.55	3.24	9.24	10.72	6.89	5.34	5.53	5.07	4.32	3.97	7.85	5.11	4.70	7.61	6.97	5.81	7.33	7.31	6.79	6.49	6.40	1.90	6.04	2.22	4.27	5.10	7.47	4.39	4.95	3.39	2.17	1.44	2.64	2.94	3.40	3.13	3.70	4.23	4.54	4.67	4.76	4.85	4.82	4.77	4.76	4.62	4.46	3.94	3.52	4.44	7.87	7.17	6.86	9.06	7.24	5.76	4.69	5.12	5.22	5.32	5.50	4.74	3.64	3.52	9.00	9.72	6.17	5.26	5.75	8.05	6.34	5.65	5.46	5.46	5.30	5.38	6.58	6.49	4.85	2.63	4.83	8.55	7.34	5.58	2.91	2.86	6.37	5.43	3.53	2.98	2.98	
4.94	5.06	4.73	4.86	6.27	5.47	5.06	4.63	5.89	6.29	4.39	2.91	5.21	10.55	4.99	3.39	4.05	2.78	3.36	2.25	2.54	4.23	9.28	9.46	9.98	10.37	5.98	4.90	5.20	4.63	3.44	2.51	3.71	7.92	7.78	6.29	5.25	5.46	3.18	4.24	8.46	3.04	3.93	7.34	6.66	4.49	6.30	4.33	7.22	10.78	7.67	3.16	3.25	3.18	2.12	1.22	6.74	6.36	4.76	3.74	2.33	1.20	1.89	3.09	3.81	3.45	3.66	4.17	4.57	4.69	4.78	4.85	4.85	4.82	4.79	4.67	4.53	4.02	3.59	4.44	7.95	7.95	7.56	5.68	6.29	5.95	5.27	5.29	5.15	4.92	4.68	4.11	3.52	3.91	9.66	7.72	5.87	5.00	5.83	6.64	6.18	5.66	5.57	5.73	5.53	5.95	7.57	6.87	3.74	3.30	2.98	6.10	9.30	3.42	4.43	3.71	5.17	6.99	3.03	3.15	3.15	
5.21	5.37	4.85	4.86	6.77	5.16	4.20	4.31	6.61	7.20	4.98	2.75	3.76	9.45	3.81	2.34	3.27	5.15	3.91	2.96	3.07	6.50	6.65	5.93	9.25	10.08	4.26	6.21	5.86	4.93	3.06	2.48	2.29	6.04	10.86	7.65	4.48	5.28	4.83	5.04	5.52	5.48	3.05	5.25	7.34	4.03	3.37	3.36	4.37	7.84	11.75	2.41	1.65	5.70	2.36	5.17	7.37	9.11	3.20	4.08	3.29	2.57	3.20	3.36	4.02	3.72	3.83	4.25	4.60	4.74	4.80	4.84	4.88	4.85	4.81	4.71	4.58	4.12	3.69	4.33	7.81	8.25	8.13	5.93	6.04	6.10	5.77	5.62	5.15	4.52	4.09	3.67	3.38	6.10	7.71	6.02	5.08	4.85	5.28	5.91	5.79	5.36	5.28	5.61	5.90	7.54	8.55	5.62	4.84	3.47	2.90	7.92	9.86	6.14	4.64	3.36	3.92	6.10	5.32	4.33	4.33	
4.60	5.41	5.31	5.65	9.29	5.57	3.59	3.70	6.99	4.95	4.64	2.70	4.06	9.04	5.90	5.86	5.72	5.69	5.05	3.72	3.90	5.09	5.01	4.54	4.84	6.44	8.45	9.09	9.33	4.02	4.01	3.21	1.96	2.91	9.06	11.42	10.95	6.83	2.89	3.82	5.60	5.50	4.94	4.67	8.36	4.08	3.22	2.85	3.80	9.06	11.80	7.52	7.70	7.70	5.42	5.65	4.86	9.09	11.47	5.61	4.59	2.86	2.89	3.02	3.95	3.68	3.94	4.37	4.62	4.78	4.81	4.84	4.90	4.87	4.83	4.76	4.63	4.24	3.80	4.06	4.99	8.32	8.56	6.38	6.28	6.23	6.22	6.30	5.30	4.04	3.56	3.41	3.22	4.21	7.41	5.52	5.10	5.03	5.43	5.84	5.74	4.95	4.71	5.87	7.01	8.53	9.37	3.94	4.61	3.47	3.03	5.62	9.10	6.39	4.58	3.36	3.46	5.61	4.95	4.24	4.24	
4.94	4.64	4.81	7.56	10.74	5.79	3.48	3.31	9.78	5.09	4.16	3.11	5.84	6.32	5.30	5.28	5.57	5.46	4.89	4.18	4.79	6.52	4.98	4.50	4.78	5.09	5.04	5.92	8.50	8.60	5.46	4.71	2.47	2.38	6.48	9.82	10.86	10.73	5.47	3.60	3.97	5.75	4.74	4.37	5.28	4.16	3.16	2.35	3.51	7.49	11.45	7.62	6.72	8.77	7.91	4.14	2.92	6.25	9.05	8.92	6.23	4.32	3.57	3.00	3.96	3.60	3.99	4.44	4.63	4.81	4.83	4.85	4.90	4.88	4.85	4.80	4.68	4.38	3.99	3.85	4.31	7.87	8.65	7.73	6.93	6.58	6.69	6.85	5.16	3.79	3.15	3.15	3.07	4.04	6.53	5.57	5.16	5.35	5.51	5.89	6.11	4.76	4.52	7.20	7.73	9.42	8.39	3.96	4.50	3.25	2.98	8.03	10.40	4.67	5.04	3.68	3.81	5.33	4.15	3.55	3.55	
5.74	4.48	5.06	5.51	6.75	5.19	4.16	3.31	6.89	6.70	4.15	4.35	4.07	5.03	5.09	5.69	5.61	5.00	4.55	4.39	5.32	6.14	5.04	4.70	5.23	5.26	4.93	4.44	4.63	6.43	7.11	6.42	3.75	2.41	6.49	8.80	9.53	11.45	9.66	5.82	5.61	5.55	4.67	3.51	5.23	4.70	3.39	2.26	3.24	9.49	9.66	9.64	6.91	7.81	9.34	7.76	5.27	4.62	6.35	8.53	8.22	6.48	4.80	3.99	4.42	3.74	4.06	4.45	4.62	4.81	4.84	4.87	4.91	4.89	4.87	4.82	4.73	4.51	4.24	3.86	3.79	4.57	8.08	10.28	10.00	7.25	8.06	7.43	5.22	3.86	3.15	2.88	2.92	3.79	4.91	4.96	5.17	5.63	5.85	6.55	6.77	4.89	3.56	7.08	9.20	10.80	6.83	4.23	4.60	3.28	2.95	4.72	10.18	5.12	5.45	3.90	4.38	5.28	3.62	2.87	2.87	
3.55	4.14	6.40	8.56	7.01	7.40	4.73	4.51	8.19	6.34	5.01	5.26	5.06	4.67	5.12	6.08	5.72	4.97	4.49	4.56	6.86	4.92	5.38	4.96	5.65	5.84	5.05	4.31	4.10	4.34	4.84	5.41	4.78	3.01	3.52	7.03	9.00	10.64	11.44	6.49	6.70	5.40	3.76	2.93	4.89	4.95	4.01	1.90	3.25	8.75	8.01	9.34	8.34	7.62	8.54	8.03	7.06	4.91	4.31	6.02	6.76	6.52	6.30	5.79	4.91	3.96	4.07	4.42	4.61	4.79	4.82	4.87	4.91	4.91	4.89	4.85	4.77	4.61	4.41	4.01	3.71	3.90	4.41	7.85	11.22	11.28	10.82	8.54	5.38	4.18	3.55	3.02	2.96	3.36	4.01	4.41	4.99	6.38	6.71	8.44	7.56	5.40	2.83	2.85	4.61	9.70	6.03	4.46	4.72	3.52	3.50	4.63	9.04	6.71	4.42	3.49	5.26	4.43	4.06	2.81	2.81	
2.87	3.67	4.86	9.43	10.40	11.54	10.65	4.70	5.93	5.43	5.51	5.65	5.53	4.99	5.37	5.89	4.43	4.75	4.34	5.21	6.10	5.98	5.79	5.27	5.80	3.42	3.71	4.66	4.36	4.39	4.53	4.69	4.57	3.48	3.18	3.75	6.91	8.85	9.95	10.20	10.39	6.95	3.84	3.50	6.95	7.77	4.41	2.63	3.71	6.90	6.45	7.47	8.48	7.66	7.49	6.84	7.53	5.82	4.68	5.18	5.95	5.91	5.66	5.52	4.85	3.99	3.93	4.30	4.57	4.75	4.79	4.86	4.90	4.92	4.91	4.87	4.81	4.67	4.50	4.17	3.90	3.76	3.68	6.77	10.06	11.27	12.00	12.64	5.11	4.15	3.37	3.25	2.49	3.43	3.48	3.86	4.51	6.56	8.76	9.86	8.72	6.34	5.00	3.54	3.76	9.18	6.78	4.51	4.58	3.54	4.16	6.78	7.51	8.38	3.96	3.58	5.79	3.07	4.80	3.51	3.51	
2.68	5.93	8.45	9.03	9.49	7.03	7.52	7.25	5.48	4.72	5.09	5.35	5.35	5.22	7.50	5.57	4.81	5.97	4.78	4.93	5.99	6.43	6.16	5.50	2.45	5.60	5.37	5.36	5.30	5.01	4.84	4.69	4.54	3.93	3.33	3.13	3.36	7.24	7.85	9.18	10.00	8.80	4.62	2.09	3.82	6.49	5.10	3.95	4.02	4.82	4.55	5.09	5.86	6.04	6.06	5.47	5.90	6.20	5.41	5.33	5.76	5.98	5.87	4.61	4.33	3.94	3.78	4.04	4.46	4.69	4.76	4.84	4.89	4.92	4.91	4.89	4.85	4.72	4.57	4.26	4.09	3.94	3.44	3.51	7.26	10.40	11.30	13.10	7.82	5.20	4.47	4.42	3.94	4.24	3.59	3.51	4.01	6.33	8.88	9.95	9.95	7.42	4.94	4.01	3.22	8.13	8.13	4.46	4.38	3.41	4.36	7.37	7.83	5.68	4.57	4.42	5.17	7.38	5.29	4.56	4.56	
2.85	3.34	4.34	6.87	6.35	6.23	9.89	7.41	5.91	4.69	4.43	4.86	5.34	5.73	5.22	4.87	4.59	6.10	6.67	5.73	6.09	7.20	6.76	3.00	4.84	5.07	3.06	5.59	5.31	4.11	5.12	5.14	4.97	4.47	3.93	3.53	3.10	3.47	7.62	8.46	8.94	9.76	6.41	3.77	3.54	4.81	5.04	5.16	5.23	5.02	4.62	4.54	5.06	5.51	5.68	5.50	5.38	5.63	5.67	5.59	5.76	6.29	6.44	4.56	2.49	3.58	3.70	3.74	4.28	4.63	4.72	4.80	4.86	4.91	4.91	4.90	4.87	4.76	4.65	4.34	4.20	4.19	3.54	3.11	6.49	9.54	10.69	12.35	9.72	6.72	5.44	4.89	5.03	4.74	3.94	3.55	3.85	7.59	8.87	9.89	10.99	10.76	5.55	5.46	5.66	5.47	7.99	4.62	4.32	3.24	3.89	7.87	8.12	5.94	4.51	3.66	4.22	6.86	6.69	7.67	7.67	
3.16	3.84	4.67	5.36	7.77	5.51	6.36	11.37	4.38	5.12	4.47	4.94	5.81	5.82	5.03	4.51	3.88	4.21	6.09	6.82	10.11	9.11	3.78	6.36	5.51	3.24	5.26	5.62	4.64	4.29	4.31	4.36	3.71	5.12	4.80	4.57	3.51	2.62	3.79	5.65	7.34	8.11	8.60	6.64	5.38	5.18	5.19	6.22	6.33	5.17	4.07	4.32	4.90	5.08	5.08	5.52	5.43	5.12	5.45	5.68	6.46	6.99	7.23	4.86	2.70	2.85	3.52	3.48	4.06	4.54	4.67	4.76	4.83	4.90	4.92	4.92	4.89	4.80	4.72	4.46	4.29	4.35	3.89	3.23	3.51	6.98	9.89	11.08	9.72	7.36	5.88	5.31	5.21	4.89	4.18	3.78	3.77	8.45	10.04	10.84	11.28	11.88	12.60	5.68	5.37	6.94	4.59	4.39	4.33	3.28	3.57	7.33	10.58	5.24	3.39	3.61	3.57	4.39	4.71	5.17	5.17	
2.82	3.83	6.50	8.56	6.10	5.68	6.55	7.47	5.16	4.76	5.70	5.12	5.80	5.53	5.66	5.04	4.15	3.58	3.79	6.03	7.35	11.30	4.58	3.84	3.08	4.93	5.49	2.52	1.85	2.34	3.20	3.21	3.76	4.20	5.29	5.55	3.81	2.03	2.92	5.05	4.91	4.81	6.05	6.05	5.48	5.49	5.87	7.76	7.16	3.80	3.24	4.70	5.37	4.75	4.05	5.08	5.94	4.98	5.39	6.16	6.97	7.75	7.20	5.78	2.41	1.06	3.15	3.21	3.83	4.40	4.60	4.72	4.80	4.88	4.92	4.94	4.90	4.84	4.77	4.59	4.40	4.38	4.19	3.71	3.46	6.45	8.89	9.70	8.98	7.38	5.81	5.19	5.25	4.85	4.14	3.94	3.97	6.24	9.28	10.42	10.67	10.83	11.57	11.07	7.72	8.41	3.38	5.51	4.33	4.01	4.03	4.81	10.28	4.12	3.36	4.41	3.86	3.89	3.76	4.56	4.56	
2.40	3.10	4.20	6.89	9.21	9.10	10.40	11.87	7.62	5.58	5.17	6.08	5.27	6.67	5.44	5.25	5.16	3.99	3.14	3.12	6.50	11.48	9.75	3.97	3.78	1.62	5.35	5.27	5.35	5.32	7.18	7.30	2.73	5.38	6.16	5.43	5.50	1.99	2.57	4.61	3.40	4.26	5.36	5.65	4.81	5.38	7.72	8.74	4.59	4.60	1.70	6.72	6.60	4.54	2.78	5.36	7.36	5.07	5.41	6.80	7.41	7.40	6.21	3.79	3.19	1.40	2.87	2.98	3.59	4.21	4.50	4.67	4.75	4.85	4.92	4.94	4.91	4.88	4.82	4.71	4.55	4.38	4.32	4.20	3.86	4.15	7.23	7.86	7.55	6.81	5.76	5.10	5.12	4.61	3.88	3.76	5.92	8.25	8.88	9.36	9.60	6.32	9.34	10.44	10.34	4.81	4.94	5.20	4.25	4.21	5.59	6.48	7.87	3.78	3.30	2.87	4.77	4.04	3.62	3.47	3.47	
3.95	3.81	4.21	4.69	5.00	5.01	6.00	9.21	10.40	5.62	5.72	3.43	4.41	6.29	7.80	6.58	4.90	3.96	3.71	2.51	4.17	10.38	8.99	11.08	7.71	4.87	5.13	4.26	3.87	4.92	4.77	5.10	5.65	6.20	6.62	6.67	4.60	2.60	1.06	2.66	4.44	4.67	5.59	5.80	4.34	6.07	8.92	8.04	4.69	4.36	3.61	5.00	7.74	4.53	2.66	4.54	7.92	5.64	5.48	7.25	6.60	3.41	4.38	4.33	3.11	2.12	2.98	2.95	3.41	4.00	4.38	4.64	4.72	4.82	4.90	4.93	4.93	4.91	4.87	4.80	4.70	4.49	4.37	4.40	4.40	4.46	4.96	7.41	6.21	6.12	5.60	5.17	5.10	4.49	3.77	3.42	3.47	8.20	9.37	10.18	10.74	8.80	6.34	9.74	10.69	4.69	5.85	5.05	3.06	4.22	6.10	5.54	5.84	5.06	4.69	4.68	4.74	4.52	3.87	3.39	3.39	
4.76	5.22	5.12	4.67	4.43	4.69	4.66	4.99	7.79	8.04	4.20	5.07	4.11	4.76	7.49	5.69	5.66	5.89	4.45	2.89	3.58	9.34	9.27	10.42	11.76	6.63	5.51	5.73	5.50	5.05	4.69	4.24	4.40	7.49	6.72	6.28	7.35	6.26	5.68	4.94	4.88	5.25	7.47	6.63	4.52	6.35	10.12	4.22	5.62	2.39	4.84	6.14	7.47	3.96	3.02	3.84	7.17	7.31	6.03	9.93	5.35	5.51	5.47	4.76	3.61	2.80	1.97	3.18	3.47	3.85	4.25	4.60	4.71	4.81	4.89	4.91	4.93	4.94	4.91	4.86	4.80	4.66	4.48	4.42	4.70	4.86	4.96	5.44	5.71	5.68	5.35	5.07	5.02	4.54	3.98	3.52	3.11	5.34	5.61	8.49	11.91	12.61	11.49	11.73	13.26	7.85	6.27	3.03	4.43	4.64	6.08	3.52	4.36	4.70	4.42	4.79	4.50	4.25	3.93	3.48	3.48	
4.73	6.93	5.95	4.29	3.89	4.56	4.92	4.25	5.05	8.38	5.59	3.23	3.17	4.46	5.29	5.46	5.03	5.13	4.66	3.26	3.26	6.95	7.62	10.62	11.52	7.10	6.55	6.02	4.92	5.70	5.45	4.36	4.34	7.88	6.10	4.26	5.23	4.95	4.94	4.81	4.68	6.92	8.06	7.45	4.18	6.99	10.31	6.01	5.60	4.69	5.75	6.51	9.72	6.35	1.86	4.60	7.16	8.31	4.08	5.85	6.48	6.64	7.06	5.72	3.96	2.77	2.43	3.41	3.69	3.86	4.16	4.55	4.71	4.79	4.87	4.89	4.93	4.95	4.93	4.90	4.86	4.79	4.64	4.48	4.75	5.09	5.12	5.31	5.45	5.41	5.19	4.95	4.74	4.49	4.29	3.89	3.33	2.99	4.89	6.68	10.92	10.94	10.50	11.10	12.21	8.64	5.82	3.72	3.49	4.62	6.00	3.10	2.53	2.55	2.51	2.27	4.43	4.45	4.14	4.05	4.05	
4.30	5.35	7.49	5.19	4.23	4.70	5.23	3.88	4.10	7.75	6.61	6.12	3.07	4.29	4.93	5.51	5.22	5.34	5.01	3.72	3.10	3.15	6.84	9.68	9.71	10.66	8.98	5.45	5.99	7.69	4.45	5.55	2.13	6.40	7.38	5.30	4.48	4.59	4.62	4.50	4.87	7.10	8.95	10.13	6.83	9.11	10.20	7.02	3.43	4.85	6.01	5.89	5.95	7.97	9.07	9.99	9.98	10.82	4.73	3.22	3.73	4.01	4.48	3.98	3.49	2.86	2.63	3.49	3.84	4.04	4.22	4.53	4.68	4.75	4.83	4.87	4.92	4.94	4.94	4.94	4.91	4.87	4.79	4.61	4.75	5.10	5.21	5.30	5.36	5.35	5.26	4.94	4.42	4.33	4.45	4.14	3.58	3.14	2.57	5.00	10.34	11.67	11.25	11.02	11.44	12.71	5.94	4.62	5.01	5.11	7.06	7.68	3.57	2.90	3.41	3.47	4.67	4.44	4.38	4.96	4.96	
3.81	4.81	6.45	4.21	4.60	5.62	5.60	4.25	5.19	5.90	7.03	3.61	4.04	4.39	5.12	5.87	5.31	5.52	5.35	4.52	3.43	2.58	3.32	7.34	8.54	8.72	9.19	8.03	6.58	7.51	7.73	6.19	4.20	4.20	5.41	5.38	4.75	4.72	4.62	4.78	7.31	8.82	7.46	5.21	4.13	4.65	9.38	9.59	10.16	6.45	4.29	3.43	5.09	6.09	7.12	8.57	7.50	10.01	10.79	7.80	6.82	6.18	3.96	3.58	2.70	2.36	2.90	3.70	3.90	4.22	4.39	4.54	4.60	4.69	4.77	4.83	4.88	4.92	4.93	4.95	4.94	4.92	4.90	4.76	4.76	4.95	5.14	5.32	5.33	5.35	5.45	5.00	4.30	4.26	4.51	4.25	3.76	3.19	2.67	5.14	9.63	11.25	11.37	8.06	7.71	10.10	5.06	4.30	4.11	3.64	4.25	8.19	6.50	4.66	4.20	4.98	4.84	4.32	4.62	5.58	5.58	
4.75	5.82	8.31	6.86	9.53	7.02	4.90	5.31	4.78	6.38	6.04	5.75	5.44	4.68	5.25	6.46	4.56	5.31	5.86	4.20	2.99	2.90	2.66	4.41	7.37	7.84	8.21	8.21	6.70	6.85	6.98	6.60	5.63	4.67	4.87	4.86	4.66	4.73	4.95	6.95	9.36	6.80	5.22	4.56	3.84	4.28	5.21	8.84	8.66	7.14	6.36	5.29	3.42	3.12	4.11	7.90	6.25	7.94	11.84	12.30	6.10	4.19	3.76	3.23	3.28	3.37	3.81	4.17	4.08	4.36	4.62	4.60	4.45	4.52	4.67	4.76	4.83	4.88	4.92	4.95	4.95	4.94	4.96	4.91	4.85	4.85	4.92	5.17	5.25	5.32	5.50	5.03	4.34	4.26	4.49	4.33	3.90	3.31	2.71	4.86	8.16	9.99	12.02	11.54	7.63	7.51	3.71	3.46	3.48	3.09	3.62	5.33	7.56	5.68	5.68	4.87	4.76	4.12	4.45	5.61	5.61	
3.17	3.98	5.06	4.80	4.74	7.13	7.96	6.25	5.49	4.16	5.04	5.33	5.45	4.89	4.89	6.96	5.11	5.51	4.59	2.72	3.55	3.96	2.64	3.48	5.06	5.78	6.68	6.92	6.94	7.29	6.21	5.69	5.28	5.03	4.70	4.38	4.34	5.05	7.51	9.53	7.17	6.13	5.76	4.87	3.91	3.73	4.51	8.26	7.82	5.96	7.43	6.30	4.08	3.18	3.95	4.98	5.75	3.97	9.75	11.68	10.18	8.04	5.84	5.18	4.97	5.19	5.22	4.68	4.46	4.56	4.85	4.80	4.38	4.26	4.48	4.67	4.77	4.85	4.89	4.93	4.94	4.95	4.97	4.99	4.97	4.98	4.92	4.95	5.07	5.29	5.40	5.01	4.45	4.25	4.39	4.38	4.02	3.47	2.80	2.58	7.10	8.82	10.66	13.26	13.44	6.10	5.31	4.21	3.84	4.12	3.72	4.58	5.70	6.17	5.84	5.06	4.83	4.47	4.23	5.06	5.06	
3.68	4.45	5.43	5.06	4.23	4.31	7.58	7.49	5.60	5.70	5.28	4.72	5.21	5.51	4.78	6.61	6.36	4.03	2.69	2.98	3.28	3.50	3.98	3.41	4.38	5.71	5.52	5.20	5.14	5.40	5.96	5.49	5.01	4.90	4.49	4.09	4.02	5.10	5.52	5.86	5.88	5.68	5.77	5.85	4.54	3.44	3.89	5.17	6.21	5.71	4.98	5.65	5.34	4.28	3.91	4.17	3.38	2.48	8.16	10.67	8.75	8.42	8.32	6.06	4.94	5.31	5.39	5.08	4.90	4.83	4.83	4.83	4.46	4.08	4.24	4.53	4.68	4.80	4.87	4.90	4.93	4.93	4.96	4.96	4.98	5.17	5.21	4.99	4.96	5.21	5.35	5.10	4.60	4.27	4.34	4.39	4.15	3.63	2.98	2.63	5.09	7.78	9.26	12.47	14.60	4.72	3.34	3.18	3.33	4.48	4.41	4.37	4.59	5.09	5.40	5.25	5.21	5.15	4.48	4.07	4.07	
3.94	5.92	6.72	5.88	4.14	3.05	5.50	7.66	6.15	5.45	5.31	4.43	5.49	5.80	4.56	5.88	7.64	6.97	5.66	4.17	4.72	5.11	5.19	4.74	4.83	5.29	5.27	5.17	5.25	5.16	5.42	5.23	4.89	4.58	3.75	4.20	4.60	5.25	6.00	5.78	5.74	5.61	5.91	6.32	5.36	3.72	3.67	4.54	5.33	5.40	4.87	4.93	5.48	5.41	4.45	4.29	3.66	2.62	3.70	9.04	8.03	7.10	7.81	6.60	5.77	5.43	5.51	5.44	5.48	5.41	4.74	4.40	4.35	3.99	3.99	4.34	4.58	4.73	4.81	4.87	4.91	4.92	4.95	4.88	4.87	5.17	5.40	5.24	5.08	5.07	5.28	5.29	4.71	4.35	4.36	4.37	4.23	3.78	3.16	2.72	4.93	7.29	8.67	11.89	14.80	4.72	5.04	5.52	3.03	4.92	5.21	4.79	4.32	4.32	4.72	5.46	5.72	5.19	4.57	3.78	3.78	
3.87	4.12	7.12	6.56	4.68	2.70	4.97	8.12	4.97	5.06	4.98	3.94	5.71	7.93	6.71	6.92	6.80	7.12	7.73	6.75	6.29	5.76	5.56	6.08	6.21	5.36	5.02	5.44	5.63	5.17	5.35	5.11	4.55	4.43	4.03	4.74	4.61	6.55	6.85	5.74	5.54	6.28	6.39	5.17	3.49	4.57	4.27	4.81	4.93	4.88	4.76	4.70	5.56	5.98	5.07	4.71	3.01	3.00	3.39	5.53	7.11	6.18	6.57	6.44	5.93	5.53	5.63	5.85	6.27	5.89	4.06	3.91	3.97	3.76	3.75	4.14	4.48	4.63	4.74	4.82	4.88	4.90	4.93	4.83	4.75	5.03	5.32	5.32	5.29	5.04	5.11	5.35	4.83	4.45	4.44	4.37	4.28	3.89	3.35	2.82	2.94	7.05	8.82	12.05	14.03	7.91	6.41	3.55	5.15	4.96	4.48	3.09	4.63	4.28	4.55	5.63	6.47	4.16	4.44	3.75	3.75	
4.36	4.15	5.13	9.55	4.93	3.09	4.59	9.35	6.00	4.38	5.20	5.05	5.42	5.63	5.28	5.37	5.32	5.39	5.60	5.59	5.40	5.24	5.59	6.60	7.36	5.47	4.70	5.61	5.12	4.80	5.21	3.27	4.53	4.27	5.08	5.93	5.50	6.66	7.27	5.93	5.12	6.96	4.04	5.73	5.21	4.70	5.37	5.26	5.20	4.88	4.90	4.78	6.45	5.67	2.41	3.61	3.99	3.82	3.92	4.74	5.37	5.40	5.51	5.48	5.58	5.51	5.73	6.45	7.34	5.92	3.91	2.77	3.68	3.38	3.45	3.94	4.35	4.51	4.64	4.74	4.83	4.87	4.91	4.82	4.68	4.84	5.20	5.27	5.34	5.25	5.07	5.20	4.92	4.59	4.49	4.40	4.37	3.97	3.49	2.91	4.54	6.88	8.76	12.67	8.35	5.14	5.41	6.17	4.06	1.43	5.36	5.36	4.66	4.18	4.41	7.20	7.64	4.16	4.47	3.79	3.79	
4.56	5.93	5.79	8.92	6.10	4.48	4.92	6.92	5.19	4.74	4.96	5.08	5.06	4.93	5.24	5.49	5.36	5.29	5.31	4.96	4.44	4.45	5.36	7.66	8.74	5.51	4.26	6.12	1.89	3.56	5.02	4.53	4.63	4.35	7.04	5.93	5.82	6.76	8.31	6.32	4.95	6.66	3.25	5.41	4.66	4.31	5.56	5.34	3.74	4.95	4.97	4.64	2.30	5.65	6.11	5.33	5.18	5.31	5.00	5.05	5.00	4.87	4.89	4.47	4.79	5.51	6.07	7.87	8.33	5.39	3.50	2.20	2.31	3.10	3.13	3.71	4.15	4.37	4.53	4.65	4.76	4.82	4.87	4.83	4.68	4.66	5.01	5.24	5.29	5.37	5.23	5.07	4.91	4.70	4.48	4.35	4.48	4.11	3.55	2.90	3.01	7.15	9.21	13.10	7.46	7.62	7.34	4.47	3.39	5.03	5.14	5.03	4.66	4.27	3.95	4.82	8.46	4.83	4.70	3.74	3.74	
6.61	7.80	7.72	8.54	9.07	8.45	6.86	6.70	5.60	4.95	5.60	5.45	4.68	4.72	5.44	5.78	5.62	5.53	5.49	4.53	4.06	4.44	6.77	8.83	8.48	6.23	2.86	5.25	3.96	5.45	5.52	5.12	4.45	4.76	6.91	5.89	6.57	6.00	7.72	7.47	4.90	5.59	3.58	5.44	4.62	4.29	6.75	5.77	4.24	4.35	3.07	3.66	4.29	4.68	5.29	5.41	5.25	5.52	5.68	5.21	4.28	4.45	4.15	2.73	3.96	5.84	7.76	8.52	9.01	5.06	3.28	2.22	2.69	3.17	3.03	3.45	3.85	4.18	4.39	4.53	4.65	4.72	4.83	4.83	4.73	4.61	4.77	5.15	5.31	5.32	5.28	5.07	4.90	4.78	4.50	4.26	4.44	4.21	3.59	2.84	2.85	6.71	9.26	13.29	5.87	4.99	8.03	9.79	5.63	3.71	3.19	4.71	4.75	4.82	4.17	4.23	7.77	5.28	5.25	4.14	4.14	
3.55	4.13	4.76	5.02	5.64	5.76	6.60	7.39	5.35	4.80	6.45	3.86	4.17	4.88	6.36	5.88	5.16	5.50	3.64	3.90	3.67	6.23	6.82	8.78	9.39	2.66	3.46	3.88	4.20	4.00	5.38	4.52	4.29	4.96	7.14	6.50	7.46	6.23	7.22	7.62	6.13	6.99	6.56	5.76	2.80	4.32	5.26	7.42	2.33	3.71	5.76	5.80	5.12	4.76	5.29	5.71	5.76	5.98	6.38	3.80	3.04	4.68	2.37	3.57	3.37	5.18	8.72	10.39	8.59	4.32	2.98	2.33	2.32	3.60	3.28	3.31	3.45	3.89	4.21	4.40	4.55	4.63	4.77	4.81	4.78	4.66	4.67	5.05	5.36	5.27	5.19	5.08	4.93	4.81	4.57	4.30	4.34	4.14	3.65	2.86	2.76	6.43	8.30	13.49	6.67	4.12	5.14	8.36	9.35	3.47	4.16	4.85	4.58	5.14	4.97	4.55	5.51	8.16	5.68	5.24	5.24	
4.07	4.30	4.65	5.13	6.07	5.59	5.46	7.11	5.47	4.32	7.13	4.85	4.31	5.08	7.25	6.09	4.85	5.19	3.81	3.44	3.05	6.69	8.46	8.44	6.68	5.22	5.23	5.22	5.54	6.00	5.42	4.45	4.50	4.78	7.65	7.47	8.81	8.95	5.87	5.17	4.86	6.65	8.34	6.34	5.63	4.43	6.86	8.83	6.74	4.99	5.16	5.44	5.15	4.91	5.27	5.75	7.16	7.45	4.33	2.36	3.41	3.42	3.98	3.53	3.46	4.57	5.30	11.17	4.36	4.42	3.13	2.81	2.26	2.63	3.72	3.32	3.15	3.53	3.94	4.22	4.48	4.63	4.74	4.80	4.78	4.70	4.65	5.03	5.47	5.26	5.10	5.06	4.96	4.82	4.60	4.45	4.36	4.02	3.68	2.96	2.60	4.47	7.81	13.66	7.95	4.77	4.32	5.25	8.48	10.42	6.82	5.53	4.41	4.67	5.14	5.05	7.56	6.14	7.04	10.17	10.17	
4.84	4.52	4.34	6.46	7.14	5.84	4.70	6.31	4.85	4.85	5.34	4.94	4.35	5.35	7.29	6.73	4.84	4.04	3.87	3.40	2.93	4.44	9.94	6.77	5.15	5.41	5.25	4.95	5.21	6.13	5.28	4.23	5.04	6.09	4.68	7.50	6.24	5.48	5.47	5.31	4.60	4.45	4.79	7.74	7.43	4.35	5.72	6.55	6.94	6.70	5.67	5.47	5.30	5.09	5.35	5.60	7.86	7.08	2.93	1.92	3.84	2.41	4.16	3.42	3.54	4.75	7.37	10.58	4.58	4.46	2.65	2.01	3.12	3.42	3.35	3.47	2.94	3.23	3.69	4.00	4.37	4.59	4.71	4.78	4.76	4.71	4.53	4.95	5.64	5.32	5.06	5.09	5.01	4.86	4.61	4.56	4.41	4.04	3.76	3.13	2.57	4.33	6.97	12.44	9.23	6.57	4.22	3.97	4.99	8.21	9.26	5.54	4.72	6.89	4.59	7.56	7.73	6.33	5.71	10.38	10.38	
4.83	4.50	4.12	7.64	8.36	5.47	5.07	6.08	5.50	4.64	5.32	4.37	4.18	6.66	9.11	6.84	2.81	3.48	4.13	3.63	3.31	6.49	10.33	5.69	5.71	5.10	5.11	5.07	5.21	5.97	5.18	3.73	4.92	7.58	5.50	9.06	6.44	5.24	5.36	5.68	5.01	4.39	3.73	4.28	7.71	5.33	4.67	4.83	5.51	5.43	5.03	5.20	5.49	5.60	6.26	7.26	8.48	3.06	2.53	3.66	2.57	4.12	3.87	2.65	3.23	4.37	9.27	11.82	4.63	4.35	2.77	3.45	4.01	3.62	3.23	3.05	2.86	3.06	3.55	3.79	4.24	4.54	4.68	4.77	4.76	4.74	4.40	4.70	5.65	5.42	5.13	5.17	5.07	4.95	4.65	4.59	4.43	4.15	3.91	3.34	2.75	4.81	6.52	10.14	14.33	6.33	5.02	3.36	3.96	4.91	8.53	8.29	5.29	3.81	4.10	7.83	5.51	5.56	6.03	6.64	6.64	
5.10	4.80	5.44	7.50	3.84	5.61	5.92	6.86	5.43	5.52	4.75	4.14	4.40	6.72	10.03	6.39	5.56	5.35	5.01	3.86	3.79	7.14	10.48	5.15	4.52	4.88	5.03	5.42	5.36	5.97	5.29	3.60	4.40	5.73	7.14	8.13	6.42	5.02	5.45	5.48	5.47	4.96	4.25	3.68	4.95	5.84	5.19	5.02	5.63	5.08	4.08	4.99	5.56	6.94	6.93	7.72	8.42	3.13	2.11	2.22	5.36	4.25	2.97	3.73	3.68	3.12	4.55	10.47	4.43	4.01	3.29	4.03	3.85	2.99	2.35	2.37	3.10	3.04	3.44	3.68	4.15	4.49	4.62	4.73	4.76	4.76	4.40	4.52	5.43	5.42	5.20	5.20	5.11	5.05	4.75	4.62	4.46	4.25	4.04	3.59	3.08	5.04	5.00	8.77	13.75	6.38	5.92	3.86	3.32	3.78	5.16	9.02	5.81	4.00	4.26	5.00	5.21	5.40	6.18	6.77	6.77	
4.54	5.73	5.95	9.29	5.74	5.56	9.22	9.64	6.95	5.63	4.57	4.13	5.77	6.79	8.66	5.50	5.55	5.26	4.69	4.12	4.43	7.44	5.59	4.78	5.34	4.44	4.49	5.54	5.75	6.18	5.51	4.15	4.76	5.27	7.14	10.31	3.32	3.84	5.69	3.85	3.09	5.57	3.61	4.57	3.93	4.63	5.06	5.86	6.39	3.38	3.40	4.66	7.08	7.01	7.39	7.89	6.37	3.16	2.79	2.96	5.27	2.42	3.86	4.16	4.95	4.35	6.19	9.90	3.47	3.11	3.04	4.97	4.42	3.00	2.29	2.52	2.23	3.20	3.33	3.60	4.10	4.44	4.57	4.70	4.75	4.75	4.51	4.51	5.11	5.33	5.24	5.18	5.11	5.09	4.86	4.69	4.55	4.30	4.09	3.76	3.41	3.17	4.99	8.62	12.57	7.84	6.20	4.46	3.49	3.01	4.26	8.80	5.56	4.39	4.05	4.69	5.60	5.43	6.47	6.91	6.91	
4.11	6.91	5.97	6.65	5.81	4.57	5.06	7.81	7.44	6.38	5.14	4.44	4.69	7.14	7.20	3.46	4.13	4.81	4.43	4.53	5.99	8.75	5.29	3.84	3.76	4.25	3.67	5.06	6.00	7.28	5.74	4.87	5.62	6.79	6.87	6.06	5.94	5.54	6.14	6.42	6.12	6.14	6.19	4.91	4.86	4.41	4.58	7.71	6.59	5.07	3.19	3.98	7.29	8.70	8.05	5.44	8.62	5.74	3.36	3.58	2.80	3.08	4.36	4.97	4.84	3.92	6.76	8.11	6.09	6.19	8.46	7.58	4.72	3.74	2.77	2.49	2.55	3.41	3.35	3.57	4.06	4.40	4.55	4.69	4.74	4.73	4.65	4.55	4.80	5.21	5.28	5.17	5.10	5.03	4.90	4.79	4.66	4.38	4.12	3.82	3.50	3.48	5.18	8.98	12.01	7.00	6.06	5.02	3.90	2.90	3.03	5.27	6.93	4.73	4.23	4.75	4.96	5.41	8.04	7.70	7.70	
5.15	5.15	4.79	5.72	5.96	5.29	5.06	5.52	6.26	6.33	5.86	5.02	4.64	8.97	3.64	5.66	5.05	3.90	4.53	5.20	6.32	9.37	3.93	4.35	4.18	4.34	3.31	4.00	5.45	8.35	5.77	5.25	6.28	6.76	5.85	6.00	4.40	4.83	4.93	5.39	5.56	5.50	5.41	5.21	4.82	4.81	4.52	4.99	6.56	5.32	3.33	3.91	4.67	9.39	6.36	4.07	7.22	9.72	7.50	5.11	3.00	3.27	5.47	6.60	5.27	5.12	7.84	6.21	4.63	5.87	4.92	9.23	5.98	4.76	3.84	3.14	2.98	3.63	3.47	3.54	3.95	4.34	4.54	4.69	4.73	4.74	4.76	4.61	4.62	5.03	5.26	5.24	5.15	4.96	4.83	4.80	4.71	4.46	4.19	3.86	3.33	4.99	6.93	9.84	12.86	5.03	4.17	3.08	4.79	3.55	2.77	4.05	5.33	4.59	4.20	4.81	5.27	5.30	9.36	11.16	11.16	
4.78	4.68	4.90	5.77	6.12	5.96	5.30	4.85	5.40	5.53	5.92	5.49	4.90	6.03	6.69	7.20	8.03	5.95	5.32	5.74	6.97	10.16	4.90	4.25	5.25	4.71	3.75	3.33	4.47	9.05	7.35	5.25	7.79	6.83	6.36	5.35	4.06	5.08	4.93	5.07	5.21	5.65	5.34	4.71	4.60	5.02	5.21	5.84	6.79	5.32	3.27	4.34	6.29	7.67	4.58	3.47	5.02	7.82	9.32	9.63	9.40	7.48	7.48	7.59	5.16	8.06	6.08	5.63	6.03	4.50	3.78	5.21	10.18	7.72	5.76	4.34	3.76	3.98	3.70	3.62	3.83	4.28	4.55	4.67	4.72	4.76	4.81	4.68	4.62	4.81	5.08	5.32	5.26	4.93	4.75	4.74	4.66	4.44	4.27	3.93	3.27	4.71	6.93	10.80	13.85	7.54	5.57	4.83	4.01	4.09	3.54	3.66	4.27	4.46	4.03	5.06	5.25	8.44	10.82	9.81	9.81	
4.19	4.67	5.29	6.61	6.96	6.48	4.49	4.61	6.00	5.29	6.28	4.33	5.33	5.41	5.43	5.49	6.19	6.77	6.88	5.51	6.48	9.14	6.60	4.97	5.56	5.27	4.72	3.56	3.75	5.11	5.04	7.60	10.48	7.80	8.71	5.48	6.50	5.79	5.56	5.36	5.32	5.39	4.15	5.00	4.41	4.78	5.86	5.41	6.13	5.34	3.86	4.80	6.76	7.74	6.20	4.34	3.97	3.73	7.22	8.10	9.23	8.28	5.40	4.73	4.60	4.72	6.02	7.14	4.46	5.20	3.36	4.13	6.62	7.48	6.84	5.67	4.55	3.08	4.01	3.77	3.88	4.26	4.54	4.65	4.71	4.76	4.81	4.75	4.70	4.65	4.84	5.33	5.39	4.97	4.72	4.66	4.60	4.36	4.23	3.94	3.33	4.52	6.62	10.64	13.85	8.14	6.65	5.91	5.21	4.19	4.22	3.93	3.49	3.20	3.49	4.84	8.16	9.41	9.98	6.70	6.70	
3.40	6.34	6.52	7.11	10.38	4.86	4.69	4.33	8.59	5.28	5.69	5.79	4.48	3.95	4.35	4.06	4.63	4.76	5.61	6.48	5.26	6.45	7.08	6.85	5.90	6.32	5.43	4.36	3.81	4.70	4.64	7.87	9.56	6.94	5.94	7.16	5.82	2.87	2.67	2.59	4.51	4.37	3.91	4.79	3.55	4.56	7.52	7.89	6.44	5.75	4.71	5.30	7.45	4.75	5.18	5.45	4.29	3.50	4.44	5.09	9.34	9.85	6.06	4.97	4.34	5.02	6.28	6.77	6.03	4.41	2.93	3.89	5.85	6.33	5.31	5.91	4.40	3.97	4.58	3.95	4.00	4.32	4.51	4.63	4.70	4.75	4.79	4.78	4.77	4.57	4.67	5.29	5.50	5.14	4.74	4.59	4.59	4.33	4.12	3.82	3.20	4.75	6.84	10.24	13.71	5.20	4.73	3.82	5.45	4.75	4.79	4.23	3.35	2.61	2.80	4.48	4.78	9.35	10.06	6.49	6.49	
3.24	3.98	6.67	6.97	10.95	5.67	5.23	6.11	6.35	3.37	5.06	7.12	5.36	4.97	5.84	5.86	5.16	4.82	5.30	5.84	5.83	5.32	5.01	5.38	5.39	5.18	5.33	4.63	4.18	4.80	4.58	8.29	7.80	5.60	4.74	10.35	8.51	7.58	7.80	7.37	8.21	7.80	9.64	7.05	5.75	4.71	3.87	7.94	9.04	7.67	8.84	9.12	7.50	5.65	5.08	4.79	4.77	4.03	3.52	4.28	8.19	9.16	7.41	5.30	5.18	5.55	6.74	6.84	3.70	2.50	4.81	2.34	4.84	6.70	5.26	4.81	5.41	5.49	4.51	4.39	4.08	4.28	4.42	4.58	4.67	4.72	4.77	4.79	4.77	4.52	4.52	5.11	5.51	5.40	4.89	4.53	4.58	4.42	4.12	3.75	3.08	2.68	6.76	9.34	12.76	13.06	5.15	4.55	4.60	5.53	5.14	3.13	3.19	2.62	2.43	3.05	4.47	5.77	9.85	6.55	6.55	
4.30	5.33	4.14	4.58	9.83	10.31	5.41	3.80	3.31	4.11	4.49	5.26	5.59	5.18	5.22	5.69	5.58	5.43	5.49	5.54	6.12	5.84	4.52	4.52	4.90	4.54	4.55	4.35	4.11	4.84	4.74	8.40	6.82	4.77	6.97	7.38	6.96	7.05	7.10	5.71	6.85	4.98	8.43	6.52	5.48	5.11	3.78	4.37	7.29	4.97	7.86	7.91	6.47	6.07	5.26	5.01	5.40	5.00	3.71	3.18	3.75	5.35	7.06	5.18	5.32	5.69	10.74	4.46	4.61	6.20	4.99	4.82	1.45	4.22	5.73	5.22	5.13	5.06	5.28	4.81	4.24	4.09	4.24	4.49	4.62	4.67	4.74	4.78	4.75	4.54	4.41	4.79	5.28	5.48	5.08	4.55	4.57	4.53	4.20	3.82	3.21	2.54	4.90	8.66	11.17	12.83	11.92	7.71	7.70	5.99	4.51	3.09	3.95	3.17	2.56	2.76	3.08	5.51	9.50	6.60	6.60	
4.66	4.89	4.61	7.52	6.90	7.31	6.59	5.36	5.09	5.18	4.75	5.05	5.33	5.25	5.42	5.70	5.43	5.86	5.93	4.98	6.00	5.71	4.74	4.54	4.80	4.09	3.97	4.57	4.20	4.54	4.69	5.56	6.99	5.11	4.87	5.53	5.45	5.12	5.10	5.67	5.65	4.80	8.29	6.60	5.44	5.35	4.52	4.19	4.91	4.79	5.48	7.64	6.09	5.31	5.13	5.46	6.27	5.87	4.02	3.30	3.49	4.15	4.29	3.88	5.01	8.44	8.62	9.68	9.41	6.25	4.86	4.45	3.95	4.13	5.07	5.89	5.55	4.94	4.86	4.80	4.41	3.97	3.99	4.32	4.54	4.62	4.70	4.75	4.73	4.62	4.42	4.56	5.07	5.37	5.09	4.60	4.61	4.63	4.30	3.97	3.49	2.68	4.86	7.98	9.64	10.93	12.08	11.91	12.77	12.88	4.45	4.06	2.85	3.16	3.07	2.78	2.98	4.27	9.77	6.54	6.54	
3.98	5.92	5.20	8.23	8.70	8.42	4.08	4.84	5.23	5.07	4.95	5.07	5.28	5.27	5.58	5.84	5.30	6.61	4.66	4.78	6.64	4.73	3.29	2.94	3.00	4.15	3.99	4.32	4.51	4.47	4.60	5.27	5.80	5.28	5.03	5.37	5.53	5.12	4.46	4.97	5.62	4.92	5.35	6.05	5.54	5.23	5.02	4.76	4.59	4.19	5.15	6.01	5.50	5.05	5.10	5.94	6.66	4.16	4.41	3.97	3.80	3.68	3.52	3.46	4.77	5.00	5.00	7.20	8.14	7.91	7.08	6.10	6.08	5.56	5.30	5.78	5.96	5.33	4.68	4.51	4.40	4.03	3.81	4.09	4.44	4.57	4.67	4.71	4.72	4.68	4.49	4.44	4.89	5.31	5.04	4.61	4.69	4.74	4.45	4.16	3.80	3.05	2.62	5.62	7.86	8.56	9.84	10.81	11.69	12.75	10.80	5.14	3.39	3.72	3.67	3.04	3.08	4.14	9.12	6.29	6.29	
5.19	3.49	6.32	9.49	12.05	5.39	4.43	4.05	5.00	4.82	4.91	5.03	5.30	5.29	5.58	5.96	5.58	7.13	4.99	4.69	7.90	3.54	3.79	4.93	5.24	4.41	4.13	4.83	5.03	4.63	4.63	4.95	5.16	5.08	5.06	5.36	6.03	6.00	4.69	4.50	5.08	4.87	4.94	5.59	5.49	5.10	5.21	5.40	5.03	4.15	4.98	5.64	4.72	4.92	5.71	7.89	7.02	3.83	4.86	4.83	4.37	3.15	3.50	3.83	4.24	4.65	4.68	4.71	5.14	5.49	5.46	5.50	5.59	5.44	5.41	5.90	6.32	5.18	3.58	2.59	4.15	4.08	3.78	3.88	4.30	4.53	4.64	4.68	4.69	4.68	4.58	4.41	4.62	5.12	4.99	4.58	4.70	4.84	4.64	4.37	4.11	3.57	3.10	3.32	5.63	5.89	8.07	9.41	10.37	11.27	13.30	7.28	4.89	4.77	3.69	3.49	3.34	4.11	8.64	6.89	6.89	
3.36	3.49	3.45	3.97	9.58	8.47	5.33	3.64	2.63	4.83	4.95	5.15	5.34	5.64	6.41	6.82	8.40	7.45	4.53	3.61	4.87	4.75	3.90	4.99	5.46	4.18	3.80	5.56	6.09	5.01	4.72	4.87	4.70	4.78	5.00	5.28	5.92	6.45	5.57	4.89	4.78	4.74	4.89	5.75	5.87	5.15	5.19	5.51	5.59	4.68	5.09	5.43	4.36	4.36	5.60	9.25	5.65	4.08	4.50	4.27	2.76	3.33	4.14	4.70	4.36	4.78	5.22	4.68	4.53	4.72	4.85	5.12	5.29	5.18	5.18	6.26	7.11	4.56	2.83	2.50	3.87	3.96	3.78	3.74	4.16	4.49	4.59	4.65	4.67	4.68	4.63	4.52	4.52	4.82	4.84	4.49	4.54	4.83	4.77	4.58	4.42	4.09	3.68	3.51	3.62	5.82	6.09	8.34	9.20	10.00	11.59	11.49	7.32	4.96	4.63	4.16	3.82	4.25	4.97	5.46	5.46	
4.43	4.42	3.87	3.85	4.89	7.78	8.04	6.26	5.57	4.93	5.98	5.31	5.58	5.15	4.91	5.22	6.19	11.06	7.42	2.47	2.75	5.21	4.73	5.14	3.13	3.98	4.11	5.56	7.88	6.25	5.14	4.95	4.54	4.72	5.06	4.92	5.43	6.21	6.08	5.36	4.68	4.50	4.75	6.00	6.11	5.22	4.88	5.27	5.56	5.18	4.93	4.77	4.08	3.84	5.00	10.46	3.52	3.25	4.86	4.90	5.59	4.38	4.80	5.53	4.75	5.26	5.79	4.65	4.09	4.09	4.43	4.88	4.99	4.87	5.23	7.23	7.36	4.57	3.01	1.94	2.29	3.88	3.72	3.67	4.07	4.44	4.53	4.58	4.62	4.65	4.65	4.63	4.62	4.68	4.70	4.47	4.37	4.60	4.67	4.67	4.65	4.45	4.15	3.89	3.78	3.66	5.71	5.89	7.82	9.11	9.96	10.63	9.21	6.83	5.41	4.77	4.32	4.51	4.88	5.14	5.14	
4.93	5.41	4.56	4.31	4.05	5.57	10.11	5.63	4.82	4.69	4.28	5.16	7.49	5.27	4.49	4.92	5.73	8.17	4.95	3.62	3.76	3.74	5.07	5.50	3.05	3.42	2.88	4.44	9.67	6.64	3.86	5.04	4.90	4.91	5.20	5.09	5.35	6.16	6.41	5.60	4.46	4.35	4.92	8.12	5.96	4.77	4.69	5.56	6.02	5.70	5.25	4.40	3.90	3.85	7.67	10.55	4.68	5.17	5.27	5.76	5.57	4.58	4.76	6.10	5.71	6.34	5.81	4.12	2.67	3.20	3.97	4.87	4.83	4.92	6.05	7.76	6.94	3.83	3.06	2.08	2.71	2.56	3.72	3.62	4.04	4.37	4.44	4.49	4.55	4.60	4.63	4.66	4.69	4.68	4.66	4.54	4.41	4.40	4.39	4.52	4.65	4.59	4.50	4.30	4.05	3.88	3.82	3.72	6.00	6.78	9.44	10.00	9.46	6.86	5.75	5.11	4.70	4.75	4.87	4.96	4.96	
4.15	6.18	6.14	5.21	4.58	6.47	7.21	4.86	5.10	4.30	3.73	4.80	6.09	5.53	5.66	4.69	6.58	11.02	8.20	5.78	3.60	4.19	5.48	4.30	3.08	3.11	3.60	4.21	9.49	10.22	4.77	5.00	4.94	5.17	5.41	5.10	5.11	6.22	6.46	5.44	4.14	4.64	5.68	6.06	5.50	4.33	4.64	6.16	6.79	6.31	4.78	4.69	3.82	3.67	7.62	8.94	3.87	4.94	4.80	4.94	4.66	4.68	4.17	5.21	8.24	8.29	3.49	3.61	4.57	3.45	4.30	6.02	5.68	4.90	5.87	7.95	2.62	3.76	3.65	3.02	3.44	3.25	4.01	3.77	4.00	4.17	4.23	4.33	4.43	4.52	4.57	4.62	4.68	4.68	4.66	4.61	4.55	4.44	4.26	4.31	4.41	4.41	4.59	4.64	4.36	4.16	4.11	3.91	3.77	6.58	9.07	9.98	9.02	6.70	6.07	5.36	5.01	4.99	4.95	4.92	4.92	
5.46	8.34	9.94	10.26	9.98	6.41	4.09	5.57	4.53	4.73	3.59	4.12	6.01	5.85	3.96	4.22	6.97	10.38	13.67	5.75	3.56	3.55	5.33	3.53	3.72	3.07	2.19	2.65	9.95	9.77	6.49	5.46	5.16	5.50	5.85	5.23	4.64	8.48	5.04	5.28	4.08	5.08	7.93	4.04	4.73	4.16	4.38	5.77	9.16	6.74	4.88	4.90	3.89	3.49	5.31	7.13	4.05	4.94	4.63	4.67	5.37	5.41	3.97	3.83	5.28	9.19	4.70	5.41	4.75	2.00	4.79	6.84	7.03	5.10	5.20	1.76	5.23	5.83	5.46	4.60	4.51	4.08	4.72	4.34	4.16	3.88	3.86	4.07	4.22	4.35	4.48	4.57	4.64	4.66	4.67	4.64	4.61	4.56	4.38	4.35	4.31	4.20	4.39	4.63	4.57	4.44	4.39	4.19	3.97	6.36	7.08	9.42	9.09	6.26	6.02	5.53	5.20	5.21	5.11	4.98	4.98	
2.31	7.58	8.39	8.06	9.27	9.39	9.56	8.31	6.47	4.79	4.27	3.49	5.74	5.13	4.03	4.15	7.19	9.65	12.60	5.33	3.18	1.59	4.89	5.27	4.58	3.54	2.42	2.58	5.83	7.09	6.39	5.67	5.60	5.85	6.26	5.75	4.87	5.53	5.47	5.14	4.27	5.32	8.67	5.71	4.07	3.96	4.36	5.17	8.84	9.24	5.05	4.14	4.07	3.39	7.11	5.79	4.13	4.82	4.39	4.82	5.82	5.47	4.58	3.65	4.70	8.82	4.90	5.32	2.47	3.38	4.33	4.85	8.42	3.70	1.58	4.10	4.31	4.69	5.14	5.30	5.49	5.59	5.58	5.17	4.33	3.70	3.67	3.80	3.85	4.09	4.34	4.50	4.60	4.64	4.65	4.66	4.65	4.64	4.61	4.55	4.43	4.27	4.26	4.36	4.48	4.62	4.65	4.42	4.24	4.23	6.77	7.72	7.97	6.05	5.88	5.56	5.27	5.29	5.33	5.32	5.32	
2.21	6.85	5.13	4.75	6.91	7.08	7.54	8.24	8.31	9.76	5.29	3.67	5.62	5.26	4.20	4.71	6.07	5.51	6.50	9.07	6.72	5.81	5.88	6.27	5.40	4.37	3.42	3.73	6.36	5.93	5.07	5.08	5.82	5.85	7.80	6.12	5.46	5.25	5.07	4.92	4.80	5.67	5.14	5.27	3.77	3.85	4.60	7.66	8.09	10.96	7.34	5.36	4.64	4.34	5.48	3.54	4.34	4.86	4.30	4.76	6.08	5.67	4.86	3.73	4.41	8.58	4.67	1.75	3.48	3.93	4.70	6.07	7.68	5.02	4.90	5.26	5.01	4.71	4.78	5.16	5.30	5.50	6.11	5.13	3.20	3.81	3.95	3.69	3.36	3.69	4.14	4.38	4.52	4.59	4.64	4.66	4.68	4.68	4.69	4.66	4.57	4.46	4.37	4.27	4.25	4.47	4.76	4.67	4.46	4.46	4.52	7.47	8.03	7.42	5.81	5.60	5.34	5.17	5.34	6.37	6.37	
3.24	4.00	5.02	5.03	4.96	4.92	5.27	5.35	5.47	8.40	5.71	4.49	5.77	6.02	4.33	5.15	7.80	6.54	6.60	4.24	4.43	4.72	4.23	5.14	5.54	4.95	4.47	5.37	5.49	5.56	4.47	4.61	7.60	7.73	7.39	6.13	4.22	4.99	4.61	4.95	5.41	6.28	4.15	4.51	3.70	3.95	4.74	5.05	5.09	8.40	10.63	6.62	5.68	3.98	5.19	5.85	5.05	5.17	1.79	4.62	7.58	5.68	5.41	4.05	4.26	7.63	3.28	5.24	1.53	4.65	4.92	8.94	8.03	6.93	5.95	6.07	5.76	5.77	5.40	5.20	5.16	5.39	7.14	3.18	3.54	4.76	3.91	3.67	2.98	3.26	3.78	4.14	4.38	4.52	4.59	4.64	4.67	4.68	4.69	4.68	4.64	4.57	4.51	4.40	4.23	4.21	4.52	4.77	4.68	4.56	4.55	7.26	7.82	7.38	8.00	5.84	5.55	5.21	5.29	6.72	6.72	
4.59	4.98	5.46	5.57	5.09	4.50	4.39	4.44	4.70	5.54	5.20	4.71	8.06	5.64	4.47	5.07	8.70	7.76	3.33	3.21	3.41	3.73	3.46	4.05	4.98	4.99	5.14	7.17	5.76	6.30	4.99	4.06	8.32	9.15	6.63	6.11	5.42	4.60	4.91	5.43	7.22	6.63	3.95	3.97	3.78	4.24	7.32	7.48	7.33	7.43	9.33	10.44	5.43	4.90	4.17	5.44	5.30	5.11	4.95	4.88	5.65	6.60	5.75	4.58	5.42	7.96	3.21	4.33	5.29	6.66	7.52	6.73	7.03	6.99	5.65	5.25	5.33	5.36	5.09	5.09	5.44	6.91	4.10	4.51	5.13	6.81	5.33	3.29	2.53	2.85	3.38	3.74	4.11	4.39	4.51	4.57	4.62	4.63	4.66	4.67	4.65	4.61	4.57	4.51	4.39	4.23	4.22	4.57	4.88	4.68	4.47	4.86	7.70	6.78	7.53	8.71	5.86	5.60	5.73	5.56	5.56	
5.00	6.83	6.70	5.87	4.65	4.41	4.18	4.23	4.54	4.81	4.52	4.55	5.11	4.77	7.34	8.83	11.14	8.87	4.68	3.38	3.02	3.55	3.55	4.09	4.86	5.09	7.23	7.78	6.99	7.73	4.58	4.64	4.47	5.69	6.55	6.08	5.09	4.45	5.21	7.22	7.32	4.03	5.23	3.81	3.93	4.84	5.25	4.65	7.55	9.86	8.24	8.44	5.48	2.74	3.80	4.91	4.65	4.74	5.21	5.50	6.34	5.99	4.55	5.05	6.23	1.72	3.58	4.28	5.00	5.35	5.89	5.08	5.54	5.98	5.70	5.46	5.56	5.36	4.64	4.66	6.77	6.64	3.61	4.38	4.73	7.76	7.46	4.92	2.32	2.17	2.92	3.31	3.68	4.13	4.34	4.43	4.52	4.55	4.59	4.62	4.62	4.62	4.60	4.56	4.50	4.41	4.17	4.29	4.89	4.92	4.43	4.73	7.65	4.89	7.04	9.49	9.74	9.60	9.92	5.89	5.89	
4.01	7.52	8.45	5.83	3.92	3.56	4.57	4.13	5.01	5.06	4.49	4.94	4.62	3.74	4.09	5.12	10.78	9.03	4.88	3.28	3.07	3.67	3.80	4.48	5.49	5.39	7.75	7.66	6.14	6.94	6.02	4.82	4.95	5.24	6.09	5.69	4.77	4.52	5.17	7.93	3.26	4.47	4.90	3.92	4.03	5.20	6.82	5.10	6.37	4.80	7.06	7.25	6.22	5.27	4.49	5.12	4.48	4.38	5.16	6.73	8.13	4.52	3.48	4.54	5.39	3.43	3.47	4.20	5.39	4.73	4.74	5.07	5.35	5.57	5.35	5.30	5.73	5.57	4.57	4.23	7.85	3.25	4.95	4.71	4.72	7.59	10.12	6.11	2.98	1.67	1.81	2.97	3.33	3.72	4.03	4.23	4.36	4.42	4.47	4.53	4.56	4.59	4.58	4.57	4.55	4.50	4.26	4.13	4.66	5.03	4.57	4.61	7.39	6.76	6.94	7.69	9.54	9.10	5.82	6.10	6.10	
2.85	6.87	11.04	5.59	3.14	3.07	2.37	4.26	6.55	4.79	4.77	5.50	3.81	3.56	3.62	4.91	10.86	8.43	5.04	3.69	3.57	3.22	3.65	5.00	7.73	7.92	8.34	8.02	6.52	6.41	6.39	4.87	5.07	5.16	5.73	4.88	4.36	4.88	5.42	8.63	4.61	4.32	4.53	4.05	4.11	4.75	9.44	6.01	5.12	5.89	4.96	6.20	6.25	6.02	6.09	5.45	4.61	4.00	4.52	9.28	8.75	8.97	8.10	8.91	8.97	5.66	4.38	4.24	4.45	4.79	5.07	5.41	5.16	5.13	5.10	4.97	6.26	6.36	5.25	5.07	1.67	4.96	5.09	4.94	5.17	6.90	10.96	6.32	5.70	2.63	2.06	2.04	3.10	3.39	3.68	3.95	4.09	4.19	4.29	4.38	4.45	4.52	4.54	4.56	4.56	4.50	4.36	4.09	4.33	4.89	4.75	4.61	4.87	4.81	7.01	7.52	9.51	5.63	7.29	7.22	7.22	
2.64	5.89	8.37	5.92	5.00	5.02	5.03	4.45	5.39	4.51	5.58	4.74	5.14	4.10	3.40	4.67	9.14	6.62	5.07	3.94	3.52	2.99	3.19	4.84	8.71	9.68	10.31	10.79	9.01	7.70	5.32	3.97	3.10	5.41	5.65	4.39	4.03	5.16	6.06	6.00	4.63	4.95	4.26	4.27	4.72	4.67	7.86	9.89	8.29	5.37	7.29	6.05	3.58	4.36	5.83	6.17	5.23	4.10	6.99	6.84	6.83	7.30	7.19	7.45	8.46	7.49	5.79	4.88	4.68	5.06	5.68	6.11	5.40	4.70	4.81	4.84	6.77	7.43	4.85	3.12	5.05	5.31	4.97	4.84	5.78	8.46	8.95	8.28	4.00	2.26	1.81	2.71	1.85	3.53	3.65	3.73	3.74	3.81	3.97	4.14	4.28	4.39	4.46	4.51	4.53	4.50	4.45	4.23	4.18	4.63	4.79	4.68	4.67	4.68	6.95	7.40	9.48	5.96	5.63	8.94	8.94	
3.03	6.01	7.25	9.57	6.45	5.89	3.08	5.38	5.72	5.22	6.73	3.75	5.25	4.77	3.47	4.62	8.90	5.07	4.79	4.10	3.42	2.90	3.00	4.62	8.23	9.76	10.00	10.85	11.55	9.28	5.90	4.24	3.57	5.53	5.63	4.26	3.84	5.15	8.40	4.44	4.31	4.59	4.11	4.29	5.10	6.82	6.69	7.33	9.13	6.36	5.66	3.82	3.83	3.88	4.45	4.71	4.79	4.53	4.72	4.97	4.91	5.15	7.21	7.18	7.18	7.15	5.99	5.19	4.94	5.34	6.23	7.02	5.90	4.87	5.01	5.63	6.38	9.31	5.73	5.40	5.41	5.34	5.06	5.04	5.73	8.81	6.64	3.82	3.61	2.79	3.18	3.04	2.37	3.30	4.11	3.74	3.55	3.42	3.54	3.77	3.99	4.16	4.31	4.41	4.47	4.48	4.48	4.36	4.20	4.45	4.71	4.71	4.57	4.56	7.02	7.37	9.70	6.20	7.48	5.87	5.87	
3.66	6.51	5.44	5.39	9.16	6.74	5.95	6.08	4.41	5.24	4.91	5.54	5.43	3.88	3.81	4.74	10.15	5.48	4.76	4.13	3.40	2.74	2.98	4.86	8.48	9.15	9.35	9.91	11.50	12.61	4.78	4.90	5.45	5.71	5.49	4.08	3.92	5.33	8.46	4.38	5.29	4.30	4.05	4.22	4.77	7.95	9.31	8.19	9.11	9.63	3.22	3.97	4.30	4.72	4.56	4.39	4.49	4.57	4.75	4.86	4.77	4.84	5.20	5.51	5.51	5.47	5.20	4.83	4.80	5.71	6.24	8.20	7.69	5.85	5.24	5.30	1.53	5.19	5.67	5.27	5.15	5.11	5.05	6.42	7.74	9.10	3.84	3.07	3.46	4.85	5.40	5.09	3.32	5.17	4.36	3.45	3.15	3.15	3.08	3.48	3.68	3.78	4.05	4.27	4.38	4.43	4.47	4.44	4.27	4.32	4.58	4.69	4.52	4.42	6.92	7.32	8.05	7.84	6.14	6.41	6.41	
4.30	6.80	5.50	4.14	5.07	6.03	7.76	6.67	6.00	6.88	6.65	5.24	5.37	5.60	4.14	4.57	10.29	5.09	3.73	3.12	2.81	2.40	2.65	5.17	8.77	8.49	8.69	9.63	11.56	9.83	7.65	5.71	6.31	6.36	5.58	3.96	3.99	7.46	6.04	4.90	5.05	4.23	4.15	4.89	5.06	4.49	4.78	5.50	7.57	8.74	5.15	4.12	4.86	4.73	4.79	4.68	4.68	4.67	4.67	4.78	4.78	4.78	5.06	5.27	5.14	4.81	4.54	4.39	4.39	5.45	8.45	7.98	8.61	7.75	4.60	3.20	4.21	4.72	5.10	4.98	4.84	4.92	6.14	6.59	8.43	10.64	4.88	5.53	5.84	5.85	5.52	3.45	5.49	6.42	4.87	3.27	3.51	2.73	2.52	3.16	3.39	3.41	3.68	4.01	4.24	4.38	4.45	4.48	4.36	4.26	4.42	4.65	4.62	4.44	4.36	6.96	7.85	8.10	9.74	10.35	10.35	
4.91	5.92	4.78	4.22	3.96	4.67	7.64	10.22	6.25	5.69	7.38	6.64	4.70	4.73	3.28	3.98	9.33	4.80	4.54	3.08	2.61	2.21	2.31	5.12	8.90	8.17	8.10	9.52	11.40	6.94	7.85	8.43	11.68	6.29	5.83	4.21	4.33	5.77	5.60	5.80	4.71	4.26	4.37	5.25	6.92	5.12	4.26	4.87	6.19	6.39	5.44	4.93	4.93	4.77	5.09	5.31	5.16	4.88	4.86	4.98	4.93	4.89	5.08	5.22	4.24	4.17	4.16	4.29	4.25	4.97	8.41	8.55	8.86	9.26	3.89	3.95	4.10	4.48	5.05	4.95	4.65	4.89	6.05	6.40	8.07	6.95	5.73	6.12	6.41	6.21	5.51	5.54	6.52	7.52	5.36	4.32	4.13	3.59	2.22	2.12	2.98	3.22	3.47	3.65	4.05	4.33	4.43	4.49	4.43	4.28	4.28	4.52	4.70	4.57	4.35	4.37	7.41	7.46	8.44	11.44	11.44	
5.91	5.93	5.75	4.72	3.64	3.93	4.63	8.44	6.94	5.36	5.63	6.89	5.17	4.27	3.61	3.35	5.73	11.27	5.28	3.79	2.91	2.27	2.18	4.86	8.74	8.07	8.30	9.74	9.96	5.90	5.26	10.17	9.55	7.17	5.78	4.71	5.14	5.66	5.55	4.49	4.31	4.08	4.65	5.44	7.57	6.07	4.84	6.48	9.80	4.06	4.75	5.19	4.74	4.78	5.23	5.80	5.38	5.00	5.39	5.42	5.22	5.13	5.32	5.31	4.22	3.62	3.94	4.40	4.76	4.73	8.18	9.38	10.74	6.17	4.24	3.47	3.81	4.58	5.65	5.47	4.60	5.95	6.74	6.91	1.16	4.51	5.19	5.67	5.75	6.05	5.59	5.49	7.26	7.86	6.90	5.59	4.48	3.88	2.06	2.78	1.64	3.21	3.46	3.45	3.91	4.29	4.39	4.47	4.45	4.38	4.27	4.38	4.68	4.70	4.39	4.23	4.50	4.95	8.56	11.15	11.15	
5.20	6.01	5.64	5.32	3.75	3.39	3.82	5.52	9.43	5.45	6.92	7.30	5.10	4.07	3.20	3.04	4.63	10.53	6.45	3.87	2.86	2.38	2.14	3.42	5.80	5.55	8.69	9.54	8.03	5.67	5.21	5.67	6.70	6.37	6.11	5.46	5.93	3.95	5.92	5.18	4.04	3.74	4.50	7.77	9.55	9.68	6.07	5.35	3.68	4.80	4.60	4.86	4.77	4.96	5.44	2.32	5.04	5.10	5.87	5.89	5.49	5.42	5.66	3.11	3.92	3.48	3.94	4.61	5.08	6.99	7.69	8.58	10.60	4.57	4.29	4.34	3.70	4.75	7.41	6.03	3.92	5.95	8.25	1.38	4.22	4.24	4.97	5.24	5.31	5.72	5.70	5.50	8.02	6.67	3.93	4.15	2.72	3.73	3.91	3.09	2.19	3.22	3.34	3.41	3.87	4.24	4.36	4.46	4.46	4.45	4.36	4.37	4.71	4.89	4.60	4.34	4.11	4.53	8.59	8.56	8.56	
5.09	6.01	6.10	5.22	4.21	2.95	3.17	5.18	9.27	5.16	7.44	8.67	4.78	4.24	3.46	2.66	3.94	7.61	5.39	3.85	2.72	2.40	2.03	4.57	5.62	5.98	8.75	8.60	6.08	5.28	5.18	8.12	10.83	10.38	6.93	5.93	5.36	5.05	4.22	5.36	3.95	3.50	4.05	5.23	8.19	9.83	9.46	3.19	4.24	4.33	4.72	4.74	5.15	5.64	5.09	5.01	4.75	5.26	6.01	6.09	5.16	4.87	2.76	3.79	4.22	3.76	4.09	5.24	7.09	6.74	6.96	7.72	9.83	7.60	5.27	4.53	3.56	4.19	8.17	8.00	3.91	6.29	8.47	3.04	3.68	4.53	5.01	5.42	4.97	5.85	6.17	5.96	7.54	4.60	2.27	3.31	5.13	4.80	4.58	3.00	1.75	1.45	2.93	3.30	3.83	4.16	4.31	4.44	4.46	4.47	4.36	4.36	4.72	4.99	4.84	4.64	4.17	4.25	8.39	9.07	9.07	
6.12	5.57	6.30	3.98	5.03	3.09	2.80	4.88	8.09	4.69	7.34	11.38	6.56	5.03	3.97	2.71	3.43	6.89	5.48	4.46	3.36	2.61	1.90	2.74	3.86	8.74	7.89	7.55	8.91	5.21	9.10	10.30	6.53	9.29	10.84	7.04	6.42	6.59	6.58	5.60	4.09	3.49	3.93	7.38	7.81	9.69	10.73	4.08	3.88	4.66	4.17	4.60	5.76	6.77	5.42	4.48	4.76	5.30	6.85	7.26	4.42	2.17	4.68	4.99	4.72	4.10	4.23	5.44	7.36	7.04	6.58	7.16	9.23	5.68	5.21	4.90	3.72	3.88	7.81	9.67	5.50	6.60	6.58	4.73	4.65	4.63	5.45	5.90	4.81	4.94	6.77	7.70	5.98	6.43	6.42	6.81	6.06	5.52	1.82	3.38	2.27	1.23	2.27	3.01	3.67	4.04	4.24	4.41	4.44	4.46	4.32	4.29	4.68	4.95	4.91	4.83	4.52	4.26	7.93	9.02	9.02	
5.56	4.89	5.54	8.59	6.17	3.73	2.75	4.69	8.21	4.80	7.41	8.49	7.07	5.12	3.64	3.17	3.07	6.13	9.15	4.92	4.39	3.41	2.15	2.11	3.17	6.18	5.16	6.14	5.40	5.90	9.27	5.93	4.46	4.98	10.15	6.29	6.19	7.20	7.05	5.58	4.15	3.59	3.82	4.71	5.20	8.12	11.51	4.27	3.72	4.54	3.87	4.43	7.94	4.68	5.06	4.20	4.69	5.28	6.75	7.60	3.70	3.96	4.58	4.81	4.57	4.10	4.25	7.49	7.67	7.07	6.86	7.59	2.71	4.34	4.88	4.80	3.87	4.07	7.10	9.18	7.59	7.22	2.69	4.45	4.57	4.89	5.59	6.59	5.05	4.41	6.43	4.91	5.06	5.24	5.68	6.68	6.49	2.55	5.64	5.03	3.29	1.81	1.27	2.40	3.33	3.86	4.14	4.33	4.40	4.42	4.29	4.24	4.60	4.93	4.99	4.92	4.84	4.47	5.21	8.62	8.62	
5.64	4.79	4.68	8.30	5.95	4.96	2.98	4.20	8.64	5.43	7.30	9.57	5.68	5.74	4.38	3.25	2.95	5.65	10.02	5.77	3.72	4.26	3.03	1.93	2.80	5.94	5.74	5.96	6.00	6.42	6.38	5.00	4.24	5.28	8.14	5.54	5.52	7.40	7.73	5.76	4.04	3.84	4.23	4.67	4.84	7.91	8.43	5.41	4.77	4.62	3.87	4.51	8.39	6.61	4.95	4.03	4.54	6.47	6.67	8.27	5.77	5.03	4.90	4.82	4.72	4.12	3.95	8.46	9.11	7.46	6.78	5.50	3.20	3.95	4.39	4.49	4.14	3.85	8.25	9.69	8.53	5.22	3.46	4.00	4.31	4.68	6.57	7.89	5.04	4.61	3.77	3.39	4.95	5.25	5.53	6.03	6.25	6.19	6.29	5.43	5.24	2.24	0.97	1.75	2.84	3.59	3.99	4.23	4.34	4.38	4.30	4.21	4.40	4.80	5.05	5.02	5.01	4.69	5.05	8.03	8.03	
4.89	5.14	4.39	5.30	6.45	5.82	3.53	3.96	8.44	5.87	5.15	7.34	5.00	3.78	4.82	3.32	2.71	5.21	6.79	7.20	6.34	3.99	3.62	2.30	2.61	5.52	4.18	5.79	9.52	10.92	5.94	4.76	4.73	9.53	5.86	4.79	4.94	9.33	8.76	6.55	4.05	3.84	4.59	4.89	6.63	7.62	6.94	5.17	4.39	4.39	3.98	5.07	8.30	6.36	5.06	4.05	4.36	5.47	5.94	6.26	5.46	4.86	4.65	4.93	5.29	5.02	3.56	6.91	7.54	10.33	7.58	3.35	3.72	4.18	3.78	4.46	6.04	4.75	6.08	9.28	10.97	3.72	3.90	4.26	4.17	4.24	6.27	9.31	5.83	3.17	2.63	4.73	4.89	1.33	5.54	5.86	6.21	6.32	5.23	5.08	3.79	3.46	2.56	1.80	2.45	3.28	3.82	4.14	4.28	4.33	4.32	4.23	4.23	4.53	4.91	5.02	4.99	4.82	5.02	5.49	5.49	
6.72	5.74	4.89	4.94	5.32	5.51	3.95	3.76	7.67	6.00	5.61	7.33	5.16	3.94	3.28	3.38	2.79	3.79	5.87	5.89	6.19	7.08	4.76	3.04	2.43	3.45	3.76	5.76	10.30	8.02	6.52	4.92	5.32	6.13	5.39	4.37	4.86	10.30	9.78	5.61	4.93	3.98	4.64	4.90	7.33	9.83	5.72	5.77	5.62	4.26	3.90	7.32	9.10	4.14	5.16	2.58	4.47	5.64	4.99	5.40	4.57	4.40	4.39	4.98	7.35	6.59	4.19	2.78	4.02	7.88	7.49	4.20	3.79	3.70	3.44	4.47	7.88	4.94	4.48	5.13	10.47	5.30	4.25	4.20	4.35	5.15	5.32	9.36	8.26	3.84	4.33	4.84	0.34	5.15	5.50	5.51	5.97	3.79	4.52	5.44	4.61	3.54	2.33	2.27	2.35	3.04	3.66	4.04	4.22	4.30	4.35	4.31	4.25	4.40	4.72	4.92	4.89	4.89	5.03	5.32	5.32	
6.21	6.29	6.20	5.75	5.21	4.94	4.06	3.34	4.49	5.68	6.24	7.64	5.11	3.84	4.48	3.86	3.43	3.66	4.49	4.69	4.74	7.14	5.75	4.59	2.73	2.66	3.25	5.95	9.95	5.80	5.55	5.31	4.91	5.65	5.47	4.40	4.73	8.34	10.42	6.89	6.19	5.09	5.19	6.45	7.35	6.19	5.63	5.59	5.43	4.29	3.97	5.06	10.15	5.23	5.48	4.43	4.68	5.08	4.85	4.66	4.93	4.14	4.19	5.07	7.78	7.86	3.74	2.72	3.18	7.65	4.30	3.48	3.59	3.44	3.10	4.05	9.28	5.53	4.38	7.54	6.84	5.06	4.43	4.25	4.64	5.28	5.77	8.37	7.10	5.31	3.59	5.09	4.87	5.04	5.12	5.22	4.92	2.84	2.78	3.40	3.30	1.84	1.58	1.78	2.29	2.89	3.48	3.93	4.17	4.30	4.38	4.35	4.36	4.51	4.70	4.87	5.01	4.95	5.01	5.20	5.20	
4.90	5.68	6.90	6.41	5.05	5.02	4.32	3.26	3.68	5.47	6.75	9.21	4.11	3.64	3.41	4.59	3.72	4.30	4.27	3.92	3.76	4.88	7.44	5.20	4.07	2.30	2.66	6.22	6.67	5.59	5.20	5.75	5.64	5.91	6.06	4.85	4.45	8.92	8.11	5.61	6.03	5.79	5.59	7.36	7.97	5.41	5.44	5.25	4.87	3.90	4.20	4.93	10.25	4.83	3.25	3.55	4.81	5.35	5.88	5.81	4.46	3.85	3.94	4.82	9.13	8.57	4.49	3.18	2.97	7.18	7.59	3.50	3.77	3.37	2.80	3.42	9.18	8.65	5.48	7.36	7.17	5.36	4.35	4.24	5.59	7.35	4.57	7.99	6.03	3.39	3.69	3.06	3.31	5.30	5.59	5.14	2.68	2.33	3.87	6.66	5.31	5.06	2.94	1.93	2.18	2.80	3.30	3.80	4.13	4.30	4.39	4.35	4.40	4.67	4.86	4.93	5.02	4.97	5.00	5.10	5.10	
4.09	4.63	6.18	7.57	3.65	3.79	4.79	3.83	3.50	5.02	9.31	8.10	3.84	4.07	4.33	3.04	4.73	4.66	4.17	3.99	3.34	3.97	5.51	6.48	4.30	2.79	2.49	6.01	5.99	5.50	5.01	6.03	7.14	7.29	6.53	5.60	4.73	6.42	4.82	4.77	5.37	5.72	5.53	8.62	7.12	4.71	5.55	5.50	4.54	3.52	4.13	7.39	8.30	8.50	5.89	5.27	5.08	5.24	5.74	5.73	4.35	3.39	3.51	4.38	9.64	10.41	5.79	3.92	2.99	6.49	7.28	3.70	3.93	3.52	2.76	3.31	8.71	10.08	6.26	4.39	5.54	5.22	4.37	4.04	5.44	8.65	5.15	7.11	3.92	5.70	4.43	6.20	5.99	6.66	6.61	2.54	3.40	4.58	8.42	11.17	6.30	5.55	4.72	3.36	2.00	2.92	3.24	3.68	4.07	4.29	4.41	4.37	4.41	4.68	4.99	5.11	5.11	5.01	5.01	5.07	5.07	
3.75	4.35	6.01	8.49	5.17	5.18	4.95	4.46	3.93	4.63	9.39	9.42	4.61	2.71	2.90	4.90	5.87	5.70	4.00	4.03	3.69	3.99	5.34	6.23	4.60	3.62	2.76	4.18	5.64	5.68	5.37	7.16	8.89	10.76	11.53	5.56	5.75	4.40	4.07	4.43	5.08	5.63	7.52	8.66	10.23	4.87	5.97	3.89	4.49	3.53	4.09	7.88	9.94	5.92	5.76	5.24	5.46	5.69	5.28	5.19	4.33	2.83	2.58	6.42	9.33	12.15	5.23	5.17	4.48	5.01	7.04	4.00	3.99	3.65	2.72	3.20	6.74	11.00	4.87	5.25	4.69	4.66	4.61	4.89	4.62	8.04	7.18	0.91	6.59	6.21	4.54	3.82	3.20	5.70	9.62	9.28	6.87	6.08	6.63	8.58	9.60	8.89	7.24	4.92	3.11	3.10	3.22	3.63	4.04	4.31	4.41	4.40	4.40	4.55	4.91	5.24	5.22	5.05	5.03	5.07	5.07	
3.22	4.16	8.55	6.31	5.09	5.01	4.88	5.19	5.26	5.22	8.78	11.35	4.03	4.03	4.96	2.44	4.08	4.87	5.46	4.92	3.90	4.08	6.59	6.50	4.56	3.93	3.05	3.80	6.11	7.91	8.58	9.77	10.14	9.49	10.81	12.39	5.31	4.31	3.48	4.46	5.10	9.04	9.71	10.45	10.75	11.11	5.39	4.16	4.13	3.58	4.22	8.49	5.47	5.92	5.18	4.97	5.79	6.48	3.08	4.62	4.88	2.99	1.69	2.22	6.77	10.13	12.67	6.25	4.50	5.98	3.42	4.22	4.05	3.67	2.53	2.90	8.23	11.45	3.96	4.85	4.66	4.30	4.89	6.45	5.00	7.57	5.84	4.89	5.43	7.30	5.13	4.37	3.58	5.61	7.84	8.23	7.03	6.25	5.44	5.02	6.58	6.37	6.14	5.30	3.97	2.90	2.87	3.52	4.04	4.30	4.38	4.42	4.43	4.47	4.77	5.18	5.25	5.11	5.03	5.02	5.02	
2.86	4.15	10.35	6.64	5.45	4.81	4.71	5.31	5.60	7.88	9.31	7.53	5.03	4.73	4.63	3.39	3.35	4.33	4.79	4.49	3.74	3.82	6.95	7.45	4.70	3.81	3.03	3.25	8.43	9.34	9.13	9.36	8.47	9.15	10.43	12.43	5.98	4.23	3.94	4.53	8.88	8.45	9.12	8.14	10.10	11.35	5.48	4.14	3.45	3.82	4.62	8.72	7.44	6.03	5.03	4.85	5.88	6.17	3.38	4.74	5.53	4.13	1.96	1.58	2.77	7.03	11.57	7.87	7.26	3.65	3.51	4.05	4.74	3.46	2.37	2.73	6.42	10.84	4.60	5.05	4.18	3.84	5.24	7.76	4.66	7.32	6.07	4.17	3.98	5.99	6.96	4.43	2.93	3.37	6.14	6.76	6.79	6.22	5.92	5.03	5.37	5.54	5.34	5.15	3.48	2.41	1.78	2.89	3.91	4.25	4.35	4.45	4.44	4.47	4.79	5.05	5.19	5.22	5.03	4.94	4.94	
2.84	4.48	7.71	6.87	5.90	4.87	4.60	5.17	5.07	8.25	10.85	4.22	3.75	2.75	2.57	3.96	4.40	4.35	4.30	3.79	3.39	3.71	6.96	6.03	4.43	3.48	2.84	2.88	5.78	6.47	8.89	8.56	8.32	9.42	10.53	12.19	5.82	4.33	3.62	4.52	8.39	8.74	8.90	8.80	8.87	11.54	6.89	5.69	3.09	3.60	7.48	9.10	7.44	5.26	5.33	5.15	6.14	3.94	5.36	4.71	5.73	3.39	3.12	1.77	2.06	3.23	7.65	12.10	12.39	6.84	3.73	3.42	2.76	3.35	2.35	2.80	6.19	10.24	7.45	5.65	3.91	3.40	4.78	8.85	6.96	6.33	6.36	4.49	3.21	3.61	4.64	5.47	4.94	4.14	4.38	4.93	5.25	5.65	6.11	5.73	2.29	5.71	5.78	5.50	4.69	2.50	0.90	2.05	3.52	4.09	4.28	4.43	4.38	4.48	4.91	4.97	5.09	5.31	5.09	4.94	4.94	
3.51	7.71	6.12	5.97	5.59	5.25	5.00	5.00	7.49	9.04	12.67	4.70	3.60	4.63	5.67	4.96	5.01	4.61	3.72	3.32	2.97	3.68	7.14	4.33	4.46	3.29	2.89	3.05	3.92	6.42	8.67	6.11	8.47	9.06	11.13	9.62	5.61	4.52	3.58	4.76	8.04	8.66	8.49	8.51	8.43	10.82	9.26	5.05	3.82	2.85	4.47	10.83	6.66	5.22	5.03	5.23	6.51	5.77	5.48	4.81	5.94	3.50	4.26	2.80	1.67	2.06	6.30	10.46	12.79	4.56	3.34	5.29	2.40	3.62	2.50	2.75	6.06	11.01	4.74	5.75	4.14	3.57	4.57	5.12	7.41	5.80	6.91	6.84	5.48	5.33	5.13	4.94	4.80	4.79	4.75	4.67	4.75	4.91	5.57	5.80	5.29	5.76	6.30	5.94	4.42	3.51	1.82	1.93	3.10	3.85	4.19	4.42	4.30	4.42	4.98	4.97	4.95	5.24	5.13	5.02	5.02	
4.64	4.93	5.59	5.28	5.22	5.52	5.22	4.82	7.77	9.29	9.25	5.98	5.64	6.75	4.33	3.40	2.85	3.55	3.50	3.72	2.96	3.56	7.43	5.52	4.53	3.28	3.10	3.29	3.71	6.23	6.48	6.35	6.27	9.13	11.47	7.49	5.85	4.80	4.12	3.83	4.58	5.35	5.48	5.22	8.11	10.17	9.29	6.31	4.93	3.27	4.05	10.08	5.27	4.07	4.20	5.09	6.54	5.16	4.01	5.31	4.04	4.97	4.49	2.84	1.78	1.27	2.79	8.97	12.30	8.49	5.14	2.66	3.99	3.85	2.76	2.66	5.73	10.01	10.21	6.34	4.79	4.30	4.27	7.28	7.09	4.51	4.62	5.51	5.77	5.34	5.23	4.84	4.79	5.36	5.44	5.02	4.75	4.70	5.13	5.14	4.82	6.06	6.24	3.73	3.29	3.01	2.44	2.30	2.99	3.64	4.10	4.39	4.25	4.35	5.03	5.14	4.92	5.05	5.09	5.09	5.09	
4.13	4.86	5.66	5.58	5.40	5.28	5.39	5.03	7.56	10.30	7.48	6.48	5.50	5.38	7.73	6.09	5.96	8.35	5.68	4.60	3.29	3.57	7.47	7.16	4.79	3.22	3.08	3.43	3.71	4.44	6.13	6.45	6.28	8.99	11.56	6.55	5.54	4.74	4.32	3.98	4.43	5.89	9.26	8.46	5.68	5.74	6.88	6.23	4.90	3.99	4.98	10.72	5.90	3.46	3.80	4.86	8.74	8.03	6.11	3.39	5.50	5.12	5.44	2.93	2.47	1.12	2.23	6.75	10.87	12.21	6.72	5.04	4.02	4.00	2.94	3.04	3.65	6.54	11.17	6.94	5.48	5.30	2.36	5.49	6.84	6.30	5.64	5.18	5.53	5.40	5.34	5.10	5.00	5.30	4.91	4.59	4.46	4.11	4.30	5.14	5.38	6.04	4.32	3.98	4.09	4.74	2.73	2.46	2.99	3.55	4.09	4.40	4.26	4.28	4.95	5.28	5.03	4.93	4.99	5.03	5.03	
4.40	5.13	5.54	8.36	5.95	5.52	5.61	6.17	5.40	6.30	6.14	6.10	5.64	4.61	5.26	5.65	5.15	5.67	6.13	4.91	3.53	3.43	6.97	9.31	5.90	3.62	3.07	3.58	4.03	4.28	4.29	6.22	6.37	9.41	10.07	6.74	5.37	4.76	4.34	4.03	5.36	5.75	8.71	9.94	6.39	5.59	4.99	4.12	3.95	3.93	8.19	10.48	5.79	3.40	3.37	4.16	8.26	10.52	10.42	3.51	3.73	5.39	6.00	4.06	3.31	1.67	1.80	6.03	9.39	11.81	7.26	5.91	4.69	4.11	3.00	3.36	5.73	6.04	8.85	10.08	4.42	5.56	4.08	4.08	4.95	5.10	5.30	5.28	5.65	5.59	4.97	4.51	4.80	4.13	5.84	5.23	1.60	5.94	7.48	9.94	10.83	10.71	7.72	7.43	6.84	5.93	5.08	3.22	3.62	3.82	4.25	4.49	4.32	4.28	4.86	5.29	5.12	4.90	4.88	4.91	4.91	
4.59	7.00	5.26	4.99	5.44	7.49	7.25	6.10	5.84	4.48	3.26	5.06	2.90	4.96	4.84	5.65	5.86	5.24	5.32	5.09	3.65	2.93	4.54	8.72	5.28	4.05	3.24	3.47	4.21	4.28	4.00	4.22	6.49	9.04	6.68	6.58	5.39	4.88	4.49	4.25	4.33	5.66	5.79	6.32	6.66	5.22	4.56	3.67	3.50	4.48	8.85	9.21	4.84	4.25	3.48	3.69	4.95	9.67	7.75	6.71	6.40	5.80	3.17	3.92	4.32	2.57	1.84	2.73	6.67	11.29	4.60	4.51	4.01	4.29	2.91	3.28	6.51	5.49	8.03	5.91	5.62	5.64	5.64	4.90	4.79	4.87	5.00	5.12	5.74	5.67	1.49	4.68	6.21	6.09	6.46	7.41	7.31	6.72	6.68	7.50	7.84	8.03	8.07	7.89	9.76	9.72	7.47	5.50	4.64	4.30	4.52	4.62	4.40	4.29	4.73	5.29	5.32	5.02	4.82	4.78	4.78	
4.30	7.59	5.96	5.11	5.47	8.02	9.21	6.84	6.07	6.42	4.49	5.75	6.00	5.96	5.79	6.05	6.43	3.58	5.63	5.16	4.74	3.59	3.94	7.30	7.65	5.52	4.62	4.11	4.53	4.60	4.23	4.23	6.33	5.53	5.52	6.11	5.63	5.01	4.66	4.48	4.54	5.73	5.69	8.78	6.63	5.63	4.97	3.82	3.19	7.53	9.15	6.34	6.18	4.94	4.17	4.27	7.79	5.10	5.14	5.12	9.19	5.94	4.00	5.07	5.62	4.22	2.95	3.08	3.99	7.34	10.71	3.34	4.86	5.37	3.65	3.05	6.16	7.82	8.45	5.34	5.32	5.41	5.45	5.43	5.31	5.10	5.03	5.25	8.03	6.81	4.98	5.21	5.89	5.85	4.48	6.60	5.13	6.16	4.36	4.34	6.84	6.61	7.04	6.86	5.96	7.05	6.81	6.39	5.49	4.92	4.88	4.78	4.54	4.27	4.34	4.81	5.11	5.04	4.85	4.74	4.74	
4.10	7.89	7.47	4.76	3.82	7.52	5.36	7.73	5.42	3.79	4.26	4.72	4.42	7.09	6.40	6.44	4.69	6.23	5.46	4.35	5.05	4.56	4.11	5.22	6.77	4.56	5.36	5.23	4.89	4.83	4.50	4.47	5.04	5.31	5.17	5.39	5.47	5.08	4.76	4.59	4.61	5.86	4.48	8.40	5.87	5.54	5.38	4.05	3.29	8.03	5.28	5.70	5.70	4.93	4.17	3.90	4.64	4.92	4.79	4.44	8.66	4.93	5.28	6.44	3.58	5.52	4.08	3.61	4.37	4.81	5.56	6.35	6.55	6.30	4.45	3.17	5.87	8.49	5.04	5.10	5.32	5.55	5.61	5.68	5.58	5.34	5.32	5.00	4.76	5.41	5.43	4.78	4.76	4.70	4.28	4.43	4.66	4.55	4.14	3.93	4.44	4.63	4.96	5.01	4.74	5.25	6.06	4.80	6.04	5.34	5.08	4.87	4.62	4.30	4.14	4.41	4.78	4.94	4.89	4.79	4.79	
