ncols	121
nrows	160
xllcorner	1648855.938895
yllcorner	466851.943984
cellsize	500.000000
NODATA_value	nan
240	238	246	304	293	264	221	231	226	247	254	258	268	278	212	197	273	255	250	273	300	324	316	337	296	279	264	258	254	251	248	243	230	212	224	209	228	226	231	231	232	239	244	250	245	250	242	257	254	252	259	251	243	241	254	270	296	281	244	235	247	255	255	244	225	240	232	266	245	228	254	230	208	186	264	271	265	230	228	235	231	250	272	284	282	279	267	237	238	217	227	227	226	206	228	228	196	197	205	241	237	218	226	216	220	225	235	215	266	264	248	236	256	283	289	271	236	226	228	233	233	
240	238	246	304	293	264	221	231	226	247	254	258	268	278	212	197	273	255	250	273	300	324	316	337	296	279	264	258	254	251	248	243	230	212	224	209	228	226	231	231	232	239	244	250	245	250	242	257	254	252	259	251	243	241	254	270	296	281	244	235	247	255	255	244	225	240	232	266	245	228	254	230	208	186	264	271	265	230	228	235	231	250	272	284	282	279	267	237	238	217	227	227	226	206	228	228	196	197	205	241	237	218	226	216	220	225	235	215	266	264	248	236	256	283	289	271	236	226	228	233	233	
227	234	244	289	282	262	242	238	236	244	276	257	191	202	242	257	252	251	279	309	344	3	331	311	282	270	262	257	253	251	247	243	233	222	231	221	227	227	257	258	256	264	271	242	252	229	261	250	246	255	258	245	236	261	252	288	270	264	237	234	271	255	257	252	241	239	244	246	242	242	263	252	262	264	264	265	247	228	229	244	241	200	267	295	286	282	262	242	244	246	243	222	232	210	229	236	201	200	235	249	227	223	231	227	226	242	258	258	257	255	234	234	280	297	274	266	249	234	240	243	243	
229	231	245	239	250	267	270	270	254	252	254	211	209	207	246	236	241	278	285	241	220	162	257	275	267	261	259	256	253	250	247	243	238	238	245	237	226	254	260	265	263	261	253	202	214	250	239	241	238	255	252	242	242	249	237	222	252	251	232	232	244	259	269	252	261	257	246	262	254	265	225	201	250	247	308	197	227	229	256	259	253	244	222	259	288	253	248	246	249	234	248	252	234	242	241	234	203	200	226	231	217	229	239	251	253	252	254	236	246	239	223	234	273	262	253	252	261	262	259	252	252	
236	240	249	249	247	287	254	282	264	266	261	214	215	231	231	233	248	280	338	219	200	175	265	268	266	262	258	254	252	249	247	244	240	237	236	231	254	261	264	238	226	222	212	208	210	218	228	226	236	244	250	246	245	250	251	274	282	255	238	228	241	249	260	270	246	258	258	250	244	254	253	270	249	184	193	233	226	234	256	273	268	257	228	202	197	196	217	249	260	253	211	205	255	253	245	224	207	211	205	233	216	227	233	256	265	264	264	233	242	239	227	237	264	225	231	257	248	247	255	251	251	
239	243	249	259	285	270	247	275	285	285	281	228	218	238	223	235	265	300	243	197	183	285	280	262	264	264	259	254	251	249	247	244	241	236	234	252	257	254	225	217	227	226	220	218	221	230	233	229	227	234	241	244	246	248	249	249	263	227	229	219	240	248	249	279	239	243	275	258	257	250	249	288	186	244	236	229	230	250	246	272	208	255	254	250	235	244	248	258	270	268	252	234	256	266	265	232	215	242	216	235	215	225	232	250	253	259	267	255	241	239	228	246	242	212	237	254	225	236	249	253	253	
238	245	255	254	251	230	236	260	284	284	259	278	250	229	219	250	280	297	238	169	313	302	319	300	261	263	257	252	250	248	247	245	241	235	235	253	253	230	241	238	247	249	256	257	259	255	241	242	240	232	227	238	238	243	255	223	212	197	231	233	255	248	240	240	275	263	264	253	276	253	226	208	194	240	233	231	238	247	244	249	224	249	260	256	246	241	248	269	260	263	266	259	225	261	265	258	247	246	231	239	220	227	236	246	245	243	233	210	234	218	234	249	252	252	245	226	234	235	243	243	243	
231	254	256	260	255	244	236	280	283	271	303	263	226	225	221	247	272	248	230	280	279	294	309	285	298	259	252	249	248	248	247	245	242	238	242	245	236	227	253	255	260	262	262	266	270	267	267	273	277	268	235	226	237	240	255	216	244	241	238	251	273	272	247	235	233	232	249	207	222	268	244	223	238	239	240	243	243	241	244	237	246	229	250	246	240	252	259	221	239	247	268	277	266	259	259	258	253	251	249	242	227	230	242	251	239	229	226	221	218	228	224	245	275	235	204	237	231	240	262	232	232	
225	250	281	260	257	213	238	245	247	244	247	260	246	224	230	249	261	206	190	268	289	289	304	345	324	251	244	245	247	247	247	246	244	241	246	250	249	261	248	251	256	259	267	270	276	269	283	273	283	281	271	261	253	251	235	250	242	242	242	268	268	274	273	269	241	235	237	221	258	267	261	247	235	243	251	259	258	250	244	240	232	227	239	241	252	285	214	243	231	259	270	269	269	267	263	259	258	256	250	247	232	233	246	236	255	257	258	257	254	250	247	248	248	246	234	222	225	251	252	228	228	
239	250	247	209	242	247	247	231	246	236	246	242	241	221	236	260	262	249	229	245	282	262	152	130	150	198	234	241	246	247	247	246	245	243	243	254	254	261	248	245	269	273	277	286	305	287	278	278	269	268	266	266	266	268	256	239	232	246	254	292	292	250	267	279	263	253	247	246	248	258	251	241	236	250	253	252	255	261	259	234	230	229	233	238	284	250	249	240	234	239	281	250	275	282	258	259	262	263	259	250	236	238	248	248	253	257	260	261	259	258	261	263	265	259	240	211	223	263	266	229	229	
276	259	262	247	254	251	234	248	244	241	248	219	240	220	236	257	315	249	235	250	249	229	174	155	215	188	233	240	246	246	247	247	246	245	244	241	236	237	239	244	252	264	268	283	287	292	273	295	264	242	279	265	267	267	258	236	231	263	288	272	242	263	298	266	264	253	249	249	242	236	242	239	246	276	212	235	247	256	199	256	233	232	236	244	225	238	237	240	300	240	284	276	274	211	241	250	259	261	262	251	244	242	242	242	243	245	263	249	248	258	258	259	259	237	238	215	231	253	242	234	234	
251	266	257	257	252	251	252	252	251	249	257	255	242	225	239	262	255	248	246	261	211	207	178	162	173	242	234	241	246	246	247	247	247	247	248	247	244	240	237	236	236	240	253	281	277	304	258	289	255	236	237	265	280	257	252	247	243	244	264	249	243	286	248	250	259	261	254	250	224	247	239	239	281	199	197	184	187	219	252	255	260	241	233	228	218	232	253	268	275	254	297	244	226	236	267	274	274	246	253	259	251	241	238	253	254	262	268	267	264	267	269	275	283	252	244	231	253	254	247	240	240	
249	250	219	250	242	238	242	249	251	252	257	254	248	238	248	256	180	249	257	234	214	202	181	174	175	241	238	245	246	247	247	247	247	247	247	246	244	247	246	251	257	256	254	257	246	305	247	278	254	241	240	248	256	247	249	266	260	256	251	257	249	242	244	249	255	265	258	253	263	255	259	284	220	204	247	254	189	216	248	257	271	274	266	242	227	218	217	221	259	283	228	253	242	237	261	211	241	240	249	255	251	238	238	243	255	244	219	218	227	231	223	221	237	256	241	233	253	288	206	242	242	
243	212	254	245	232	234	239	248	245	252	255	249	248	243	258	279	249	244	254	290	253	229	198	228	248	245	243	248	248	247	247	248	247	247	247	246	243	241	247	254	258	260	260	261	253	300	249	257	245	241	247	255	246	266	242	250	258	260	257	239	243	235	238	245	284	261	259	256	248	224	210	213	210	197	194	203	221	240	247	259	272	282	280	268	236	231	231	247	255	282	261	268	239	244	242	247	238	241	281	274	246	229	234	246	260	222	221	231	242	235	217	220	230	224	242	268	288	221	195	238	238	
253	252	252	255	254	243	243	250	251	251	246	252	259	244	244	247	244	68	241	266	277	277	285	291	297	246	243	249	248	247	247	248	247	247	247	246	243	240	248	252	255	259	260	263	245	285	280	290	250	245	299	255	245	262	252	278	264	249	280	235	236	229	234	256	266	251	253	260	224	258	256	253	245	243	240	228	235	239	248	276	288	270	283	281	266	248	241	253	259	240	271	255	289	204	244	262	277	263	274	269	244	217	227	257	237	251	243	240	243	239	245	246	246	245	233	231	214	209	219	230	230	
250	245	242	249	259	252	241	251	258	249	255	258	225	201	252	246	214	210	236	258	261	259	264	225	184	231	273	244	242	245	247	247	248	248	247	247	243	240	251	256	260	262	257	248	251	268	268	271	241	234	237	244	244	236	232	221	266	251	227	213	228	229	238	246	284	244	246	254	253	204	250	248	247	261	253	239	234	244	266	294	266	278	264	276	281	267	243	244	231	211	225	219	239	239	237	286	272	257	285	261	235	209	227	248	253	245	251	262	263	258	250	259	252	258	260	247	224	242	237	224	224	
248	191	238	247	258	249	242	240	247	260	271	219	213	200	240	261	242	229	240	241	200	215	219	245	250	114	188	240	237	243	247	247	248	248	247	247	245	243	249	251	250	241	231	233	235	225	222	216	203	200	203	211	210	211	219	219	221	214	206	236	225	227	243	261	255	228	202	211	213	239	239	246	257	299	241	229	250	281	290	227	272	263	273	259	277	285	265	252	232	231	226	244	243	235	239	293	236	239	296	204	183	211	234	252	250	244	252	263	265	260	258	263	256	263	264	250	232	236	228	220	220	
229	244	244	245	216	241	239	240	242	234	226	217	220	250	256	262	262	258	259	243	224	198	192	207	202	161	186	241	238	243	247	247	248	248	248	248	248	249	252	250	243	232	231	244	239	225	226	221	208	208	212	216	218	222	225	235	245	231	223	206	228	230	246	245	223	208	242	233	230	232	241	243	263	246	221	219	269	294	214	289	294	288	265	289	288	281	280	249	232	213	241	248	244	277	257	274	237	244	202	200	220	216	236	249	274	239	271	265	274	254	269	258	272	265	251	213	244	231	224	237	237	
256	256	256	245	223	196	212	228	248	240	244	249	240	250	250	252	258	268	275	270	248	235	228	206	212	189	249	241	240	244	247	247	248	248	249	249	250	251	255	252	250	244	255	260	236	224	228	214	212	210	217	249	250	251	256	264	267	267	261	250	240	247	256	257	223	251	248	245	238	238	242	252	235	242	214	219	265	252	273	294	294	266	280	293	264	262	283	268	239	244	264	252	262	280	267	183	178	195	204	200	211	216	236	270	275	261	257	270	279	264	265	257	282	275	219	216	210	219	210	239	239	
260	261	265	237	235	227	193	234	243	248	251	253	261	231	241	244	249	259	268	269	263	252	202	269	268	254	209	242	242	246	247	247	248	249	249	249	250	252	254	255	253	259	264	259	225	221	224	218	211	244	249	251	251	253	259	265	266	270	269	261	254	258	272	272	226	223	244	239	231	239	243	251	261	242	222	232	259	250	243	238	229	236	238	286	260	268	258	258	242	240	248	258	248	209	199	192	198	203	213	229	208	215	232	269	275	282	249	244	265	279	288	287	202	203	210	217	207	229	232	247	247	
255	250	213	258	259	258	256	254	258	251	241	230	226	204	241	252	254	286	257	252	47	243	244	284	261	237	230	240	241	246	247	248	248	249	249	250	250	251	252	252	254	253	255	250	222	241	242	248	245	249	252	252	251	250	277	284	271	284	260	264	267	286	290	206	216	203	231	232	229	245	253	258	248	243	231	245	268	249	283	249	243	238	237	275	266	253	243	233	232	237	244	250	256	252	242	202	205	205	238	222	210	221	235	265	279	249	281	267	248	274	247	196	198	199	217	217	225	223	233	251	251	
211	220	245	247	251	256	263	273	281	276	244	231	232	229	244	283	200	199	222	220	239	234	249	278	237	197	165	238	241	246	248	248	249	249	249	250	250	250	250	252	258	252	252	242	215	241	243	243	246	254	253	253	279	272	283	282	276	283	281	282	295	294	201	201	205	237	222	228	228	254	260	266	254	244	244	247	302	280	234	238	239	241	238	242	221	212	201	226	216	232	250	252	214	210	210	209	202	207	195	220	213	229	260	263	275	242	287	257	267	234	202	204	193	189	219	217	239	222	240	253	253	
210	245	240	244	248	252	283	273	291	290	272	237	237	235	228	209	207	226	212	240	236	240	269	238	217	187	215	246	246	247	249	249	249	249	249	249	249	250	250	252	256	257	255	229	231	234	239	244	257	253	271	276	286	282	281	295	290	276	281	298	257	195	197	206	205	222	232	231	234	258	274	257	256	299	268	231	216	217	210	222	194	240	238	244	209	213	218	226	202	228	248	251	253	254	255	248	239	243	226	214	217	253	265	266	268	283	285	191	216	221	202	201	230	199	219	216	235	226	249	238	238	
247	243	238	245	273	273	291	282	275	289	287	275	243	244	236	219	207	218	236	231	234	247	272	248	218	204	298	264	249	249	251	250	250	250	249	249	249	250	250	251	253	260	245	253	238	235	250	252	274	280	274	272	279	283	280	291	304	269	251	212	198	192	195	229	228	233	227	238	262	252	255	262	249	255	257	258	257	260	258	252	250	223	243	241	233	208	206	225	198	220	250	255	250	207	196	191	188	239	223	205	225	250	259	268	273	243	198	193	203	224	219	201	195	205	238	220	235	232	248	239	239	
247	246	244	268	273	277	293	279	285	277	287	292	280	246	244	227	209	240	228	226	235	258	295	262	251	274	323	206	248	252	255	253	251	250	249	249	249	250	250	249	253	253	234	240	236	250	265	270	276	289	281	263	260	262	264	287	249	256	261	255	253	199	226	236	243	222	226	255	266	271	256	250	229	207	216	248	250	253	257	257	256	255	256	259	245	208	218	225	200	213	252	261	254	212	204	216	200	186	216	202	246	253	256	246	231	206	201	196	192	226	226	209	204	201	232	218	233	238	238	236	236	
247	249	275	272	287	291	296	284	270	279	266	282	291	279	240	233	219	236	221	231	254	260	221	227	213	226	282	263	271	251	256	255	252	250	249	249	250	250	250	250	253	254	244	248	247	248	268	273	276	289	295	281	275	261	258	278	291	250	251	211	204	195	228	229	237	212	224	265	256	261	284	255	224	244	244	246	244	284	252	241	248	251	257	266	270	241	201	228	203	211	250	257	231	207	196	193	192	232	215	204	234	259	237	226	225	211	204	206	198	217	228	222	242	203	234	245	243	246	250	252	252	
250	271	285	290	284	204	193	194	182	186	257	254	274	286	274	243	215	232	223	252	254	243	253	217	252	284	292	297	273	287	251	253	251	249	249	249	249	249	250	250	251	250	239	246	252	256	262	269	272	285	288	283	286	245	251	247	200	244	201	199	205	236	250	246	237	209	222	254	274	288	218	248	242	240	261	248	243	205	247	242	242	245	248	255	267	236	255	232	205	213	252	256	256	216	206	206	201	233	216	209	255	246	214	223	224	223	215	245	211	241	230	249	245	246	249	252	255	259	254	258	258	
298	287	286	326	201	209	208	216	217	216	214	209	223	263	274	261	216	230	225	257	261	258	267	285	279	285	286	279	348	269	253	248	247	249	249	249	249	249	250	249	249	248	239	240	243	244	247	251	245	229	242	225	205	213	225	228	214	202	217	243	244	242	252	244	233	211	233	238	225	221	242	246	243	247	248	252	250	254	245	249	255	254	240	262	264	256	290	233	202	211	249	254	264	255	278	279	230	235	217	218	244	228	221	225	224	251	247	247	249	253	252	248	247	251	252	253	260	264	261	257	257	
308	290	235	201	198	217	212	245	253	257	260	260	256	247	269	272	247	237	237	249	253	264	246	290	284	284	267	252	224	242	210	245	245	247	248	248	249	249	250	249	250	249	242	239	242	248	253	249	231	227	230	216	202	205	225	231	218	207	222	230	200	191	195	196	226	218	246	249	261	256	252	251	251	257	255	240	214	215	240	239	213	236	237	255	273	230	216	222	199	209	246	251	252	228	219	203	203	232	222	231	247	259	257	257	257	258	256	255	257	260	261	248	240	239	263	269	274	279	248	242	242	
185	207	212	208	210	243	245	248	254	260	265	266	264	264	270	275	268	257	254	242	238	246	255	293	282	263	239	230	200	136	211	246	245	245	247	248	249	249	249	250	251	251	247	245	247	252	255	240	225	232	228	218	203	198	226	231	218	212	226	228	216	212	211	199	227	224	242	258	263	257	251	251	252	253	269	229	192	190	193	218	211	236	244	215	197	200	202	217	199	210	243	259	256	214	208	197	193	230	222	226	249	258	262	262	260	261	254	250	252	257	259	253	234	250	265	279	288	242	231	214	214	
246	212	215	222	240	235	240	248	251	258	261	262	262	267	275	273	272	271	274	259	246	246	235	228	215	235	244	232	200	198	239	245	244	244	246	248	248	249	249	250	250	251	251	250	250	253	250	225	225	240	222	214	206	201	224	228	218	218	231	227	217	225	223	239	233	232	240	271	264	255	263	255	250	276	274	223	193	187	193	197	208	243	238	213	228	205	206	214	200	210	256	261	261	247	226	216	196	186	215	211	240	246	252	256	259	290	244	263	264	279	273	239	229	235	248	280	237	231	228	209	209	
216	230	221	214	230	223	236	272	277	273	277	280	280	287	291	305	259	266	279	284	260	248	242	247	264	265	247	221	193	208	234	241	240	242	245	248	248	249	249	250	250	251	252	253	256	252	242	228	240	240	219	216	215	215	222	227	225	228	235	233	227	246	244	241	240	246	251	262	279	247	256	257	253	237	209	198	189	189	192	209	212	251	217	246	231	207	213	216	200	208	252	256	254	215	214	197	192	226	208	204	232	256	264	273	284	277	243	263	267	285	239	235	230	239	252	272	232	233	228	208	208	
254	264	249	240	219	216	254	282	294	278	286	293	304	298	201	217	246	270	281	298	286	249	250	256	265	244	217	195	178	175	179	240	238	242	245	248	248	249	249	250	250	250	251	254	259	263	251	250	246	230	222	239	253	256	259	262	265	268	266	261	254	248	245	241	241	279	297	266	250	280	279	282	197	209	211	205	198	220	194	206	213	218	251	245	248	215	221	224	201	208	249	249	241	218	212	202	196	221	205	204	231	250	256	276	280	276	288	239	257	237	242	235	236	242	250	248	239	236	242	219	219	
203	200	213	228	215	219	253	284	303	279	293	225	231	247	246	246	298	296	317	291	313	268	249	239	238	214	217	203	183	184	223	244	241	244	246	248	248	249	249	250	250	250	251	254	255	254	263	258	244	252	249	249	256	261	262	264	269	272	271	264	254	248	247	246	267	272	257	296	260	256	251	221	204	201	208	206	216	214	243	208	203	251	248	245	247	250	236	233	202	210	248	241	239	235	214	204	198	213	201	207	248	249	248	260	273	275	233	279	260	242	237	259	238	246	252	251	243	236	290	232	232	
225	222	241	227	222	230	258	277	307	279	220	235	245	241	244	280	293	300	298	281	307	303	242	232	238	226	238	253	279	300	260	245	243	246	247	248	249	249	250	250	250	250	251	252	252	252	252	239	246	239	249	250	272	258	276	279	284	263	263	259	250	268	264	271	272	250	267	253	265	267	263	249	216	198	198	218	216	217	214	243	246	249	247	242	245	251	214	195	207	211	248	255	257	243	207	200	196	206	199	212	251	249	244	244	243	240	228	225	237	239	246	278	276	280	281	278	274	263	289	252	252	
255	253	244	232	230	260	264	268	259	250	260	250	239	236	259	282	301	304	283	260	278	302	293	254	250	249	260	250	249	252	237	233	240	245	247	248	249	250	250	250	250	250	251	251	252	257	260	249	237	242	257	273	272	276	276	279	284	289	279	285	285	268	250	277	289	284	250	283	256	260	265	266	256	232	200	248	249	248	246	244	247	247	244	240	248	230	209	193	222	216	247	260	254	226	208	203	197	217	203	220	257	261	260	257	231	229	205	213	235	227	208	234	243	264	238	261	275	286	242	239	239	
256	251	245	241	236	259	271	275	255	253	250	245	239	257	261	309	213	236	243	269	318	297	308	292	258	249	224	197	188	189	190	211	218	240	245	248	250	250	250	250	250	250	250	250	249	250	251	244	255	262	267	274	277	271	267	274	282	283	262	279	252	248	246	246	268	246	284	274	247	249	255	258	260	255	226	218	245	246	246	246	248	247	242	247	258	258	245	251	242	230	253	251	228	220	216	206	226	215	207	238	259	266	271	271	215	227	229	228	240	209	206	225	219	219	223	229	248	274	238	233	233	
249	245	246	249	247	260	263	277	264	247	240	260	241	257	290	188	231	227	185	185	221	272	303	311	256	250	232	219	211	206	201	207	204	242	246	250	251	251	251	251	250	250	250	249	246	241	238	259	264	263	259	258	251	245	245	239	244	273	274	295	250	247	247	249	247	248	271	237	214	203	193	242	248	253	252	248	244	244	245	248	250	248	246	250	260	256	261	261	254	255	260	238	227	223	242	238	229	222	211	234	255	260	260	236	212	213	223	229	243	219	232	225	225	238	241	242	247	264	238	224	224	
244	244	249	291	256	271	262	254	254	245	258	246	248	262	248	211	232	249	246	202	292	296	285	310	300	253	239	226	236	236	229	243	246	253	255	254	254	252	252	251	251	250	249	248	245	238	234	253	259	250	244	240	231	223	228	230	239	243	250	294	254	243	242	250	252	247	248	224	207	240	233	231	199	236	222	249	247	245	243	247	250	250	248	246	249	253	284	261	253	263	274	272	267	260	255	257	256	246	225	236	247	251	242	218	212	202	225	237	232	213	233	243	247	245	247	248	258	255	238	226	226	
241	244	272	295	290	283	269	261	255	246	261	267	267	259	257	236	250	245	242	248	290	291	277	290	298	284	268	258	257	259	254	249	253	263	267	263	258	255	253	251	251	250	250	248	246	239	237	251	250	245	241	239	230	218	226	237	247	255	254	252	249	245	243	252	251	251	251	253	210	200	253	251	230	219	244	245	245	243	241	244	246	247	250	246	243	271	282	251	244	254	267	270	267	259	255	257	272	265	250	244	246	245	236	209	243	232	231	243	249	246	242	243	244	243	260	245	265	251	240	241	241	
238	261	279	297	306	292	286	290	258	252	291	250	213	256	256	252	287	243	240	264	290	283	277	278	278	276	264	256	258	259	253	250	270	281	269	271	267	258	253	252	251	250	250	249	247	242	242	253	250	244	238	237	230	221	227	239	248	254	289	251	249	246	249	254	253	251	253	254	216	233	233	256	255	250	246	244	242	241	241	243	242	243	274	249	245	281	226	216	240	252	259	260	258	247	257	282	295	276	259	255	252	246	232	214	198	232	239	254	259	256	252	254	252	251	251	231	226	242	209	231	231	
234	268	276	298	295	286	300	255	247	294	245	246	246	247	253	242	256	259	240	277	283	254	258	269	287	250	250	262	264	265	261	274	282	289	277	294	267	260	255	251	250	250	250	250	249	246	247	250	245	241	236	237	233	228	236	248	252	254	254	249	247	245	249	254	254	253	252	251	228	247	252	259	255	253	248	244	242	243	242	243	240	259	282	247	272	276	248	259	267	284	273	240	276	269	272	285	291	265	257	260	253	254	229	210	230	230	240	248	256	262	264	258	250	249	238	230	246	244	249	245	245	
222	255	272	293	297	267	192	200	212	217	213	200	187	239	224	235	250	287	259	310	210	207	203	168	246	273	245	273	282	280	278	287	304	288	275	296	257	260	255	251	249	249	250	253	251	250	255	255	243	242	235	239	239	238	246	253	256	255	254	250	248	246	248	250	252	251	250	249	246	244	249	260	250	265	245	239	241	244	243	244	268	256	286	191	270	288	264	284	286	243	237	284	277	265	269	282	267	257	252	259	258	251	224	228	221	226	258	262	268	279	261	267	261	245	253	247	252	255	230	210	210	
221	238	247	235	257	259	224	245	239	238	237	233	221	211	211	227	214	197	221	205	214	225	243	234	162	264	266	271	276	277	287	311	297	238	255	265	276	254	250	248	248	249	250	252	252	253	257	260	257	242	231	238	240	241	247	254	260	263	270	284	250	255	248	250	248	246	248	232	248	247	276	249	250	264	240	235	241	270	240	266	274	266	289	238	270	287	280	301	243	243	291	278	283	284	257	244	229	237	243	252	260	243	236	234	225	237	252	257	268	264	251	252	264	259	254	250	264	215	206	247	247	
235	249	255	258	260	264	263	260	261	262	264	265	237	230	224	234	223	211	230	224	196	219	241	235	223	225	248	259	272	278	293	296	296	291	297	299	287	225	238	244	247	248	249	251	252	253	256	259	262	260	238	240	239	238	246	251	255	255	250	256	278	244	248	246	241	240	243	246	245	249	275	245	263	258	235	233	244	243	236	275	289	285	261	244	287	296	236	242	288	238	237	237	287	321	213	218	201	215	225	240	248	248	240	235	235	248	258	257	262	276	248	242	241	250	253	254	272	233	244	240	240	
240	248	263	280	256	258	253	254	257	258	258	262	264	261	257	257	237	226	233	228	224	214	191	236	228	230	235	238	246	267	285	280	282	278	281	236	191	197	230	240	246	248	250	251	252	253	254	257	261	263	258	241	236	232	239	242	239	232	222	224	231	229	242	233	233	237	243	245	242	248	276	280	288	240	229	228	257	241	233	271	295	287	254	310	241	225	240	280	234	236	298	180	220	218	211	246	244	203	210	212	229	223	226	244	246	245	269	267	262	282	246	238	234	264	247	272	207	215	228	226	226	
244	250	265	262	213	223	247	279	206	191	214	252	258	263	268	266	262	258	256	231	226	247	246	244	237	242	247	244	247	247	200	216	216	193	186	187	191	230	227	239	246	249	250	251	252	253	254	255	258	261	262	262	242	237	236	239	233	225	221	231	234	218	208	234	227	236	242	247	239	261	276	214	204	231	227	226	253	300	252	269	216	239	274	245	234	250	246	239	228	225	221	246	250	253	251	252	250	247	203	204	222	205	214	241	260	262	265	268	260	277	242	237	275	259	282	201	206	201	229	224	224	
253	265	265	259	221	212	209	211	225	247	248	251	256	262	269	272	271	267	263	260	255	251	253	257	262	268	261	245	244	235	224	210	200	197	194	192	193	228	230	242	248	250	251	252	253	253	253	254	256	259	261	265	266	239	242	238	226	223	230	237	227	217	212	203	244	238	237	241	243	234	248	243	236	231	230	229	255	270	257	253	245	222	242	241	236	248	254	257	255	252	249	247	251	257	258	262	265	261	247	203	211	209	212	240	251	242	230	223	231	239	241	242	270	246	203	208	210	229	226	228	228	
267	268	270	268	263	259	257	254	251	247	246	249	253	282	261	265	268	267	263	259	255	251	253	259	269	281	288	274	242	232	230	227	223	213	203	201	212	230	235	247	253	254	253	253	253	253	253	254	255	256	258	262	266	268	268	244	227	234	240	231	222	226	222	218	236	218	217	224	220	225	246	243	242	243	234	232	253	293	277	213	230	219	244	216	242	248	242	248	252	252	249	246	246	248	253	258	264	267	265	256	242	220	216	242	237	223	242	241	236	246	212	209	181	192	200	203	235	228	224	236	236	
263	264	273	266	265	262	257	250	249	247	245	267	272	297	254	282	258	255	253	253	249	247	250	278	292	278	289	292	266	259	256	253	251	226	230	220	238	236	243	254	260	259	256	255	254	253	253	253	254	255	256	258	261	266	272	267	257	243	236	225	230	249	248	247	223	220	224	233	231	233	240	252	244	248	256	235	246	292	249	251	241	234	246	210	199	222	222	238	227	235	236	236	258	258	259	261	243	248	250	262	254	228	223	245	241	239	234	248	256	258	214	205	198	197	200	202	229	222	228	241	241	
255	255	265	257	254	255	251	242	268	250	265	274	290	295	294	297	252	275	246	247	245	269	266	282	273	287	273	278	274	270	270	268	266	260	249	242	240	241	249	259	263	260	258	257	255	254	253	253	254	254	255	256	257	261	265	267	264	242	238	239	251	259	242	216	216	238	240	247	254	247	253	259	239	273	249	244	248	225	205	242	237	231	246	241	206	253	250	244	239	238	236	231	220	227	210	186	188	214	257	258	239	230	228	239	242	254	247	247	266	248	207	242	210	200	228	229	233	230	243	249	249	
242	280	272	252	256	294	257	235	282	305	265	272	294	299	307	242	242	277	278	281	275	274	268	284	248	217	169	164	233	263	269	271	268	261	253	244	240	259	279	294	274	252	257	257	255	254	254	254	254	254	254	255	255	257	259	263	265	262	252	247	250	248	220	234	217	239	241	257	250	254	257	240	238	237	240	246	256	255	246	225	233	229	250	254	246	230	249	250	254	256	255	251	247	248	226	243	213	236	236	200	230	231	234	236	239	256	267	268	254	220	202	219	222	208	222	232	234	241	250	253	253	
237	236	240	270	249	248	235	241	290	252	242	270	232	248	196	245	253	267	287	278	287	251	253	223	208	209	199	230	238	256	265	268	264	259	253	247	260	279	299	220	220	250	258	258	256	256	255	255	254	254	254	254	254	255	256	257	259	260	257	247	247	242	221	237	227	244	242	235	238	240	249	206	246	237	218	202	249	256	255	227	235	230	247	248	237	244	241	245	251	255	258	261	261	259	254	250	246	248	244	241	198	239	244	245	236	241	236	227	223	217	203	239	219	207	226	228	237	251	247	246	246	
237	239	224	243	249	239	233	249	289	250	264	284	276	251	248	246	294	236	279	295	254	196	219	222	212	236	234	228	237	272	283	271	269	265	263	267	294	205	210	244	245	256	263	262	261	259	258	256	255	254	254	253	253	253	254	254	255	257	260	259	250	236	236	230	235	242	252	251	254	262	257	242	194	249	234	222	244	248	253	251	240	236	242	238	239	240	238	243	263	237	243	254	262	260	256	255	255	254	255	254	252	248	267	255	253	246	237	221	216	228	220	206	208	226	224	230	248	253	269	268	268	
248	249	240	240	202	234	232	273	246	241	277	262	213	237	236	241	189	230	244	198	198	196	254	223	243	236	234	230	259	274	283	286	285	279	287	314	195	236	245	242	270	279	264	267	268	266	262	258	256	255	254	253	253	253	253	253	253	254	256	259	260	243	236	244	259	258	260	255	267	268	262	255	254	198	242	244	245	239	243	246	243	241	242	244	241	249	253	256	235	237	237	268	260	245	248	251	251	248	248	249	254	290	264	258	260	256	248	218	225	241	229	237	234	230	229	240	263	277	276	263	263	
259	259	256	247	237	202	234	225	209	208	216	216	211	204	207	201	203	227	233	217	209	206	243	246	239	235	243	238	263	282	291	294	285	289	316	207	234	235	236	243	265	291	278	267	274	274	268	262	258	256	255	254	253	252	252	252	252	252	252	252	251	260	265	245	252	269	269	269	271	277	260	248	253	244	236	246	232	230	221	242	240	241	244	247	242	196	192	196	233	252	259	257	195	234	243	247	246	246	244	247	287	284	275	254	254	262	249	217	231	250	223	229	223	227	246	248	264	280	278	284	284	
262	265	272	264	249	216	222	233	209	202	234	217	229	228	226	225	216	253	233	231	220	238	239	240	237	239	269	277	267	282	291	295	301	340	204	199	227	220	232	254	283	289	287	279	271	277	275	268	262	258	256	254	253	252	252	251	251	251	250	245	242	253	261	263	262	263	261	264	265	274	232	246	244	245	238	240	234	231	228	215	236	242	251	244	237	229	219	219	224	210	210	235	192	231	266	271	272	241	271	280	296	210	198	213	240	255	260	246	241	247	214	229	224	231	263	267	268	275	240	233	233	
267	259	268	273	266	240	233	235	220	211	250	253	257	261	263	263	262	263	265	260	252	243	237	236	260	266	287	292	270	281	298	290	181	199	206	223	216	215	258	271	283	281	281	286	296	298	276	273	267	262	258	255	253	252	252	251	251	250	249	246	243	246	245	245	242	228	229	242	240	221	206	242	243	247	243	246	240	224	226	232	231	242	254	263	261	257	253	252	249	245	220	210	229	229	255	270	262	269	275	209	207	246	236	191	231	247	254	243	250	240	238	223	228	260	262	253	247	254	240	235	235	
229	225	247	266	270	263	260	244	256	250	248	251	257	261	262	264	263	260	262	262	255	250	242	233	255	265	295	284	275	282	202	198	198	210	200	228	219	223	258	270	280	279	281	287	296	305	304	269	266	265	263	257	254	253	252	251	251	250	249	248	247	250	251	245	229	225	236	238	228	230	224	210	214	244	240	246	245	233	221	226	227	240	247	255	260	260	261	263	266	262	249	234	233	232	230	234	271	284	206	223	248	250	191	237	253	254	237	232	251	230	227	222	252	249	219	236	230	238	216	242	242	
255	254	252	257	265	263	261	261	255	249	249	253	276	255	255	285	251	248	252	256	256	291	250	236	259	266	288	283	278	212	207	201	198	233	234	234	232	250	266	267	281	278	284	280	286	290	304	300	261	264	264	260	256	254	252	251	251	250	251	250	251	252	246	233	222	229	236	236	242	254	227	236	202	221	240	243	250	236	216	225	226	239	239	238	242	249	252	253	260	266	257	242	240	228	228	240	252	204	230	237	282	278	284	240	288	243	223	225	244	239	227	244	239	241	243	246	255	255	231	245	245	
255	263	251	269	252	251	252	253	246	240	261	271	295	291	295	250	237	237	269	272	282	281	240	233	254	264	278	262	256	210	204	204	232	231	235	237	270	287	275	263	285	290	282	274	276	282	288	313	292	294	258	259	259	256	253	252	251	251	251	252	255	260	259	235	229	235	246	253	257	259	209	204	202	212	245	248	249	239	211	225	229	242	225	242	248	252	254	243	271	250	250	243	238	239	247	252	259	240	241	256	272	277	235	239	255	230	216	223	237	236	238	248	255	255	266	249	251	259	228	244	244	
252	259	260	244	244	242	244	250	244	250	273	288	294	299	254	244	229	237	265	283	292	245	243	242	248	253	226	213	222	216	205	227	222	226	238	266	277	317	289	257	283	312	280	275	255	269	273	301	325	256	250	257	263	261	255	252	251	251	251	252	256	260	261	254	236	241	249	249	245	240	230	216	230	227	250	253	251	251	203	213	239	224	217	222	230	237	249	259	221	216	184	228	231	240	255	251	247	243	251	238	207	266	269	193	195	224	214	216	229	234	239	242	255	252	252	267	267	254	249	235	235	
247	246	238	242	241	240	239	267	255	253	249	279	295	292	251	236	225	259	269	295	244	248	251	263	264	248	226	209	218	217	235	230	224	229	260	272	287	265	334	231	277	322	287	201	206	250	241	240	203	223	244	283	263	263	258	254	252	251	251	252	255	257	258	258	254	237	236	236	235	234	226	240	218	247	254	252	211	256	206	215	229	218	219	235	244	247	215	199	198	207	237	217	220	238	250	249	253	223	227	208	199	200	188	189	192	192	214	207	223	248	250	259	257	263	268	271	270	235	237	225	225	
249	254	245	238	262	260	235	273	255	292	257	249	284	242	235	227	224	256	292	237	229	244	253	266	276	270	233	214	245	243	235	235	240	230	257	273	290	276	227	232	268	247	194	209	203	199	197	199	223	237	288	301	286	258	256	253	251	250	250	251	253	254	255	258	261	259	255	241	237	240	237	220	220	206	241	247	256	263	237	220	240	237	240	255	258	254	235	217	239	245	239	211	215	237	252	255	263	220	201	211	249	247	243	201	200	218	214	206	224	247	253	250	251	251	259	272	227	218	238	232	232	
255	252	241	238	242	259	237	259	284	255	262	256	277	248	238	222	231	270	260	253	241	246	267	256	265	269	236	247	236	237	236	264	288	280	254	249	301	248	233	245	258	211	200	201	224	220	215	240	234	278	293	303	271	257	253	251	250	250	250	250	251	252	253	255	259	260	259	249	245	248	245	225	217	227	217	238	248	259	255	218	234	237	245	261	258	253	250	209	231	223	197	208	209	235	254	255	261	217	207	183	176	261	211	205	223	215	214	208	240	246	271	282	269	262	261	263	231	247	243	239	239	
252	248	237	237	240	260	242	250	259	274	255	261	224	239	228	222	256	280	255	241	241	258	246	233	193	255	252	239	232	239	239	272	298	310	265	256	255	251	244	258	261	212	203	228	212	242	241	240	240	281	293	292	278	261	255	251	250	250	250	250	251	252	252	253	255	257	259	248	246	246	242	220	220	235	236	244	241	249	243	229	225	239	256	258	255	254	254	249	219	201	194	210	207	233	246	249	247	210	217	246	250	252	256	254	244	209	213	211	238	242	264	286	279	260	252	227	204	238	232	231	231	
213	242	233	229	234	241	250	257	268	255	229	226	250	242	227	228	271	303	251	245	258	202	200	211	240	243	242	233	234	261	273	277	303	249	272	256	287	254	320	262	210	214	207	219	234	230	233	238	272	296	293	273	277	278	256	253	252	251	251	251	251	251	251	252	253	255	259	259	247	248	239	216	229	245	245	223	230	217	211	212	217	237	251	251	253	252	237	255	254	210	236	216	211	236	247	248	248	254	253	253	252	238	264	204	233	225	212	213	236	250	258	282	248	275	255	210	209	204	231	229	229	
205	214	231	231	249	252	253	260	271	234	258	256	251	244	236	243	266	210	193	194	205	223	216	242	240	243	240	234	257	259	271	278	304	250	240	262	288	271	250	190	203	202	210	235	219	223	253	261	295	288	274	250	247	259	256	259	256	254	252	251	251	251	251	251	252	253	257	259	258	252	234	218	239	251	241	214	206	199	206	205	215	240	253	251	252	253	232	246	251	254	243	220	211	234	247	248	250	257	196	187	180	180	187	183	203	218	210	214	235	247	253	274	245	267	251	208	241	244	241	236	236	
245	241	234	236	249	259	267	257	246	240	253	250	249	247	247	257	238	216	206	206	215	245	243	242	243	248	249	242	253	259	266	282	288	251	249	260	251	199	204	203	207	212	204	224	212	224	264	283	291	214	224	229	237	257	264	255	259	257	254	252	251	251	251	251	251	252	254	257	261	248	237	233	246	246	231	221	209	201	203	205	215	242	253	248	252	261	248	258	242	269	221	222	207	224	239	248	252	239	205	199	200	202	197	190	204	217	210	215	234	246	251	260	248	207	204	206	197	233	235	232	232	
251	248	242	257	263	254	258	274	260	252	261	239	279	253	251	227	223	218	229	247	241	240	241	243	245	276	253	247	247	246	251	263	280	282	294	281	221	210	207	204	202	227	239	221	218	250	268	265	190	183	184	192	203	238	246	253	251	258	258	255	252	251	250	250	250	251	252	255	260	259	251	241	245	241	234	229	211	202	219	206	217	243	256	254	255	260	256	199	189	194	191	213	207	218	246	252	257	269	230	219	184	187	193	215	231	220	212	214	223	251	250	252	247	250	248	197	211	205	223	230	230	
253	248	271	270	264	264	277	257	262	207	202	242	194	188	188	203	210	227	215	239	236	237	242	246	249	289	253	237	246	255	253	244	250	277	291	256	251	196	207	206	227	215	230	226	235	259	254	222	207	217	212	207	187	190	196	228	259	256	262	261	255	252	250	250	250	250	251	253	256	258	254	243	245	243	241	233	210	223	215	207	220	243	256	255	254	257	218	205	193	199	238	222	205	209	239	249	254	239	210	203	195	179	182	216	232	223	215	212	221	256	257	251	243	228	236	237	212	211	222	236	236	
286	250	248	256	262	262	268	202	207	202	213	222	214	206	205	208	222	217	240	234	234	238	264	268	286	299	251	235	241	270	278	260	249	248	234	206	199	203	231	237	218	234	226	235	272	270	261	241	249	216	195	259	239	194	203	252	269	281	259	262	259	253	250	249	249	249	250	251	252	254	256	255	245	245	240	231	211	217	214	212	224	245	254	253	254	256	220	219	239	268	230	222	203	207	240	252	253	223	206	196	189	182	180	213	211	228	220	212	220	249	249	238	222	206	194	187	186	216	224	241	241	
272	254	251	256	251	254	246	217	206	204	207	234	232	229	227	225	248	245	240	234	234	262	271	278	294	257	244	242	246	244	268	285	270	264	227	255	213	203	199	204	236	224	228	268	290	259	259	253	179	309	247	294	263	212	282	280	287	299	281	254	255	252	250	249	249	249	249	249	250	252	254	256	256	248	240	232	215	233	217	218	240	252	254	255	255	250	227	194	204	220	197	213	202	208	238	251	251	249	240	230	199	182	179	208	215	231	225	216	229	246	230	221	221	219	212	219	235	237	242	244	244	
258	251	244	266	267	261	261	216	203	205	228	224	251	253	254	253	250	248	242	232	235	271	275	275	279	243	239	247	250	244	249	278	258	262	216	248	239	234	231	220	228	225	255	270	253	253	326	251	247	243	263	257	239	206	239	283	290	300	251	235	250	248	248	248	248	248	248	248	249	250	252	255	258	249	244	234	228	230	220	226	241	245	245	247	253	240	221	204	202	200	201	209	200	208	236	247	251	257	249	221	187	180	178	201	208	217	228	225	242	247	240	236	236	236	229	240	240	242	243	244	244	
254	247	241	258	256	258	258	226	199	231	220	245	246	251	255	254	254	254	242	228	254	272	277	273	254	242	239	268	248	244	251	255	285	240	216	222	244	252	247	238	228	231	259	281	252	288	248	259	324	349	228	222	234	236	240	288	280	269	258	246	252	248	248	249	249	248	248	248	248	249	250	252	257	258	255	237	222	230	225	232	244	245	246	250	252	220	245	212	220	205	211	207	198	210	238	250	253	250	205	203	187	181	178	198	206	212	230	231	249	259	258	257	256	253	248	242	242	243	242	241	241	
250	246	244	255	257	259	259	215	232	221	241	240	242	247	252	273	277	276	239	226	248	260	274	290	250	237	243	260	243	241	253	256	243	218	209	206	238	244	244	273	231	252	250	281	250	287	286	207	231	226	247	239	234	237	273	301	248	254	273	276	253	251	250	250	250	248	247	247	247	248	249	250	255	258	259	254	243	233	232	246	245	249	253	255	248	207	239	224	241	210	211	206	198	211	241	255	253	234	212	201	190	182	208	200	205	234	232	234	247	256	257	257	257	256	251	247	245	244	241	240	240	
251	245	240	248	267	270	222	241	220	239	235	237	240	261	264	289	295	250	238	231	241	248	255	263	248	238	253	248	242	241	255	268	288	220	244	237	244	241	243	239	237	252	248	262	249	252	244	249	247	245	321	239	240	286	317	189	221	255	260	293	274	250	251	254	252	248	246	246	246	246	247	249	251	253	256	253	244	237	235	246	249	253	254	252	232	244	190	235	243	209	204	204	199	212	242	257	241	220	221	204	194	187	207	201	230	235	236	239	247	252	254	256	258	257	254	252	250	248	243	238	238	
242	241	231	244	252	258	223	228	238	237	238	237	255	274	295	221	236	248	242	237	243	248	252	249	243	243	301	249	245	244	242	249	251	222	242	244	239	242	299	236	241	265	257	260	318	213	237	237	241	322	235	257	308	144	175	188	291	274	260	272	263	275	247	255	254	247	245	245	245	245	246	247	248	249	250	249	245	240	236	240	254	250	245	241	226	199	216	240	226	214	201	205	203	215	245	255	216	209	223	210	198	193	208	228	232	236	239	246	250	249	248	253	256	257	257	253	249	249	243	233	233	
225	242	244	252	257	258	240	240	235	240	247	243	251	269	235	241	234	250	250	240	241	251	252	231	242	248	285	248	245	249	252	246	228	245	243	237	239	258	243	231	255	290	256	253	204	236	227	233	241	234	238	284	162	160	207	309	239	280	254	252	263	256	277	280	247	243	243	243	244	244	245	245	246	246	246	245	245	241	237	242	251	243	239	240	226	228	224	228	237	234	210	208	212	220	249	250	209	198	218	215	205	214	232	233	235	236	241	248	252	245	257	256	259	264	266	263	258	259	255	217	217	
248	250	253	255	257	259	249	233	236	246	296	245	250	266	270	279	296	296	254	235	238	253	248	244	243	258	217	202	230	255	184	258	236	224	242	241	246	248	239	232	271	253	245	228	203	203	194	223	231	233	251	202	247	332	307	299	238	258	225	231	232	269	296	240	236	236	240	242	243	243	244	245	245	245	245	244	243	240	238	245	248	239	242	240	242	248	250	256	255	253	247	234	221	228	256	231	208	198	223	217	223	233	232	235	236	236	256	261	265	262	249	260	272	282	273	241	266	275	241	210	210	
249	255	259	255	258	254	242	229	256	266	263	239	252	269	285	287	296	278	232	226	236	253	258	256	259	268	245	247	248	253	258	256	245	239	239	242	288	247	263	241	266	209	236	211	203	220	190	230	231	240	271	287	305	314	335	122	239	186	204	225	196	158	167	207	232	231	236	240	242	243	244	244	244	244	244	243	242	240	238	244	250	247	246	257	255	252	253	257	258	256	249	238	229	238	250	219	208	216	222	228	240	233	232	234	234	250	268	281	289	231	215	240	275	267	234	221	234	273	275	222	222	
250	262	250	249	263	253	236	228	250	289	253	232	236	266	276	211	192	231	218	224	238	261	253	248	240	230	203	240	245	248	246	248	241	241	243	239	262	244	241	253	244	191	196	191	206	223	236	231	234	240	248	210	213	237	159	182	197	202	240	219	193	174	182	203	233	231	233	238	241	243	243	243	243	243	243	243	242	240	238	242	247	248	257	251	252	251	253	257	260	257	249	241	235	249	247	232	221	239	243	244	240	236	233	234	248	262	273	290	243	225	210	254	279	246	238	225	226	238	233	225	225	
249	203	227	239	269	248	236	233	254	284	249	231	249	250	213	208	229	225	237	229	245	260	264	263	261	244	221	222	214	208	236	242	237	244	241	231	215	239	210	199	196	252	187	178	217	224	237	229	236	250	242	198	198	195	227	244	181	216	226	201	201	183	205	204	236	232	234	239	241	242	243	243	243	243	243	242	242	241	240	241	241	244	252	244	247	249	250	257	263	260	252	246	242	248	240	225	237	237	240	242	243	241	234	250	264	263	279	264	238	222	209	237	281	245	239	229	231	244	236	231	231	
226	242	243	241	251	250	241	241	261	237	246	242	264	226	236	249	251	248	242	238	249	281	264	265	268	269	264	240	226	212	195	238	235	244	247	233	227	218	193	211	232	200	226	239	242	227	239	222	237	248	232	203	194	207	197	181	166	195	218	208	198	190	210	216	236	232	236	240	241	242	242	243	243	243	242	242	242	241	241	241	239	241	247	256	241	243	245	263	270	260	257	252	247	251	231	240	233	236	239	241	262	245	257	263	264	267	287	247	237	221	212	249	265	249	239	232	236	250	238	229	229	
214	237	243	249	249	276	246	247	263	258	243	252	217	254	245	249	254	252	246	244	251	257	256	257	262	269	274	274	268	233	227	203	239	244	245	232	232	236	211	240	245	251	250	236	242	229	242	203	244	242	226	214	198	206	215	202	191	188	208	218	210	195	190	214	234	232	237	241	242	242	242	242	243	242	242	242	242	242	242	241	239	238	238	246	260	246	264	273	271	261	255	255	252	252	247	235	230	232	234	252	271	284	265	261	256	264	292	244	235	221	218	236	250	247	240	237	243	246	238	219	219	
229	233	248	261	250	247	278	257	284	250	242	247	238	239	240	248	250	247	246	248	264	258	252	252	255	261	266	270	271	269	264	256	211	244	256	236	235	238	227	192	239	247	228	231	244	197	239	186	250	232	219	223	210	206	215	211	207	196	221	234	232	224	221	241	239	237	240	242	242	243	242	242	242	242	242	242	242	242	241	240	240	240	236	237	241	249	259	271	260	258	249	242	246	245	237	227	224	243	243	263	274	285	313	232	236	253	294	233	233	220	224	242	258	287	253	284	282	291	229	209	209	
226	237	245	237	239	245	262	208	220	243	240	234	240	236	243	258	255	261	270	271	270	251	251	253	271	285	248	252	258	265	271	270	265	264	268	260	236	234	227	218	216	203	194	178	234	212	193	205	243	234	224	231	223	217	217	217	216	226	244	252	253	252	254	254	250	245	244	243	243	243	242	242	242	242	242	242	242	242	241	240	240	241	238	238	241	241	246	257	251	241	224	222	223	229	225	219	218	239	254	259	272	282	244	316	239	254	297	232	233	217	223	265	268	277	237	249	268	250	226	212	212	
228	238	241	249	248	249	252	253	257	257	252	244	241	244	277	246	256	251	283	262	285	283	255	263	294	254	245	243	249	256	260	264	267	271	278	280	272	240	235	227	226	213	203	167	238	220	229	246	265	274	272	254	250	245	243	257	255	249	248	253	254	254	257	284	256	251	247	244	243	242	242	242	242	242	242	242	242	242	241	240	240	242	240	237	241	240	241	241	204	197	189	205	198	222	218	213	217	243	256	258	265	277	261	237	234	256	293	240	231	214	220	256	289	249	190	232	232	201	229	224	224	
236	245	253	248	250	253	240	216	250	252	249	244	248	264	254	247	240	239	241	278	279	277	251	257	246	247	254	244	272	273	251	253	256	263	270	282	287	277	241	236	232	218	203	189	221	247	243	250	264	274	278	277	272	267	262	260	260	254	250	250	251	267	271	280	286	253	247	242	242	242	242	242	242	242	242	242	242	241	241	241	241	243	242	240	243	241	242	239	214	201	194	204	225	224	216	211	216	252	258	257	255	261	267	237	290	245	295	235	230	215	220	248	288	249	249	185	241	211	203	213	213	
231	241	252	257	266	258	256	260	266	244	241	245	257	254	254	255	254	250	236	233	243	267	243	249	247	257	241	245	287	262	270	273	278	249	256	271	283	289	275	259	227	224	217	204	232	236	240	257	266	275	281	265	267	266	259	254	254	252	265	262	275	278	287	292	279	253	244	239	240	241	242	242	242	242	242	242	242	242	242	241	241	243	242	243	246	243	239	233	218	206	215	225	226	225	216	213	217	245	242	237	229	230	245	253	289	262	292	229	229	222	227	249	262	241	226	240	244	240	233	238	238	
221	234	249	269	254	249	249	251	273	244	276	289	201	243	246	250	257	261	253	236	243	248	243	253	268	238	250	289	195	260	279	274	255	274	277	282	300	280	279	272	267	261	253	244	237	235	248	271	286	295	252	256	280	270	268	257	274	279	278	278	276	280	286	287	269	233	240	236	239	241	241	241	241	242	242	242	242	242	242	241	242	243	243	245	249	246	240	233	222	209	212	227	229	226	216	216	222	240	237	236	240	246	247	261	280	288	249	240	227	224	234	243	255	198	190	235	240	244	241	232	232	
243	254	257	240	233	229	237	236	244	241	236	212	245	238	241	246	246	251	253	244	246	240	214	262	267	286	246	232	247	245	202	199	263	265	280	280	263	250	254	259	254	249	249	248	241	245	265	280	300	247	302	268	279	288	308	276	275	282	281	276	280	290	289	237	209	210	235	234	238	240	241	241	241	241	242	242	242	242	242	242	242	243	243	244	249	255	244	239	232	221	235	232	234	229	220	218	234	245	250	256	267	245	269	261	273	290	236	238	228	227	258	264	288	195	187	197	231	231	231	228	228	
262	265	276	277	270	263	244	233	227	208	252	196	249	242	219	208	194	230	241	238	250	235	218	232	245	238	250	192	189	253	249	243	238	240	196	194	191	203	220	189	231	233	242	257	256	267	270	291	250	234	283	236	280	280	295	284	272	283	279	278	292	292	200	204	196	209	231	231	236	239	240	241	241	241	242	242	241	242	242	242	242	243	243	244	247	252	255	238	249	243	237	234	235	231	226	225	224	226	229	242	256	274	255	264	263	240	242	235	269	230	256	246	200	194	188	193	191	226	226	221	221	
280	277	265	277	275	271	272	266	248	248	209	251	253	255	223	231	224	223	211	240	252	236	229	249	237	245	246	249	250	250	254	192	248	236	207	209	204	199	196	228	222	227	261	274	290	273	273	254	240	280	257	276	278	275	273	288	271	280	289	272	187	190	192	199	196	212	200	228	234	238	239	240	241	241	242	241	241	242	242	242	242	242	243	243	246	249	251	252	249	244	240	237	236	232	230	231	231	226	223	234	244	237	231	237	238	239	236	274	297	230	257	191	197	205	198	236	231	226	226	221	221	
291	278	286	278	260	262	270	274	263	253	221	212	228	260	257	253	253	256	257	257	260	241	243	251	243	242	240	242	247	241	247	252	192	232	204	197	202	229	234	227	225	257	260	280	291	275	273	239	235	228	255	276	233	230	251	281	271	281	180	252	231	250	203	197	191	188	199	228	233	236	238	240	241	241	241	241	241	242	241	242	242	242	242	243	245	246	247	247	246	244	241	240	237	233	232	233	232	231	232	240	240	221	224	234	239	241	235	289	277	305	234	206	206	215	204	188	231	229	223	222	222	
239	242	281	257	248	252	271	266	262	261	260	254	250	254	252	253	253	257	262	269	275	266	245	238	227	225	207	190	189	202	186	242	167	216	212	201	223	236	233	230	242	268	273	243	200	235	224	237	287	261	199	199	217	207	213	219	223	220	193	186	193	195	199	199	189	185	204	228	231	234	237	240	241	242	242	242	241	241	241	241	241	241	242	242	243	244	244	243	243	242	242	242	237	233	235	235	233	229	222	243	247	243	258	263	259	258	239	186	186	205	225	202	197	189	196	188	225	223	222	233	233	
235	238	241	268	246	264	261	253	273	257	254	253	235	238	241	249	250	249	276	264	274	283	271	245	229	226	222	210	202	213	211	202	190	237	243	241	232	232	232	242	268	279	225	219	243	245	224	218	226	198	192	191	206	210	224	223	213	224	211	240	244	247	295	285	256	206	208	227	231	235	239	242	243	242	242	242	241	241	241	241	241	241	241	242	243	243	241	241	241	240	241	240	234	234	236	236	233	228	222	240	246	249	259	258	259	269	244	193	190	235	235	228	200	202	192	229	228	220	224	233	233	
210	229	226	232	224	242	271	246	268	270	249	236	238	231	236	261	270	246	287	269	291	276	284	267	237	226	226	218	207	215	219	215	207	231	244	238	231	232	244	266	270	234	222	250	247	252	248	238	224	211	201	242	243	231	242	231	201	225	235	221	241	268	271	213	183	179	203	227	231	237	242	245	245	244	243	242	242	241	241	241	241	241	241	241	242	243	242	242	241	241	242	239	235	235	237	236	234	229	224	234	239	240	248	266	259	253	211	183	186	184	236	242	219	205	233	226	229	225	231	238	238	
242	252	260	259	253	241	242	248	251	213	238	244	238	237	241	255	260	269	295	232	254	254	270	271	262	259	228	225	220	221	250	244	247	244	243	237	233	245	266	260	234	254	250	253	260	259	254	245	219	211	219	210	192	244	248	250	206	230	241	231	210	198	193	195	192	210	230	229	233	239	244	247	247	245	243	242	241	241	241	241	241	240	241	240	240	242	243	244	243	243	243	240	237	236	237	236	234	231	227	224	240	240	243	251	263	212	229	213	202	236	241	248	245	239	233	230	231	235	238	241	241	
242	248	257	265	268	256	249	251	246	252	247	240	239	261	247	256	284	294	226	194	189	224	245	258	265	261	261	261	262	262	257	252	249	248	244	239	239	248	252	256	256	253	250	256	265	271	267	260	255	249	251	250	246	252	265	269	266	259	246	236	216	214	210	203	212	232	232	233	238	245	249	248	247	244	243	242	241	241	241	240	240	240	240	240	239	239	241	242	242	241	240	239	237	235	236	236	235	232	228	225	238	241	244	249	245	219	199	189	198	236	244	252	251	244	235	231	233	240	235	230	230	
237	259	262	269	264	257	256	256	252	246	244	239	256	257	291	258	212	205	199	198	211	207	237	245	261	266	262	260	263	264	260	254	250	255	253	241	258	258	259	255	253	251	251	254	257	261	267	267	263	257	253	250	249	253	259	264	272	282	272	238	218	214	214	208	231	231	233	236	243	253	258	255	249	244	242	242	241	241	240	240	240	240	240	239	238	238	239	239	239	238	238	238	236	234	235	235	235	233	229	224	241	250	255	258	258	216	227	238	202	233	238	242	241	236	230	231	236	277	232	222	222	
244	244	253	287	253	248	254	263	255	243	252	257	244	216	209	214	214	217	217	220	211	236	234	240	254	259	259	257	256	257	255	255	252	241	248	251	257	281	284	251	249	271	274	278	242	242	247	258	261	257	251	245	249	249	252	255	299	265	275	255	228	238	233	241	234	232	234	239	262	285	284	258	253	247	242	241	241	241	240	240	240	240	240	239	238	238	239	238	238	238	238	239	235	234	235	234	235	232	228	222	223	252	257	262	245	247	240	226	235	232	253	215	229	224	223	230	265	267	231	221	221	
247	248	251	275	249	244	251	277	252	197	231	226	232	232	256	257	258	259	259	255	246	236	232	239	272	269	274	271	281	273	282	288	239	229	235	280	285	279	278	272	248	269	299	254	245	233	237	275	247	247	247	246	275	287	238	186	195	232	258	268	267	262	255	245	236	232	233	252	273	287	288	278	252	246	241	241	241	241	240	240	239	239	239	239	238	238	238	238	237	238	239	239	236	234	233	231	233	231	227	217	240	252	255	263	241	209	243	236	248	207	235	233	227	222	221	248	269	250	229	221	221	
241	280	256	270	245	240	251	255	240	250	254	257	259	257	255	256	260	261	261	257	247	235	236	261	271	286	291	290	249	220	218	212	228	223	263	281	282	281	272	285	277	270	268	250	240	231	239	276	278	275	278	288	181	208	208	236	246	247	251	260	263	259	254	244	231	229	247	266	277	287	275	282	252	244	241	241	242	241	240	240	239	239	239	239	238	238	238	238	238	239	239	238	236	235	233	230	231	230	225	214	213	245	250	256	201	226	231	261	202	236	238	234	228	226	225	228	248	247	230	221	221	
208	217	217	221	221	218	244	247	249	243	251	259	255	247	250	253	254	253	255	249	235	237	263	270	275	290	297	246	220	248	248	239	224	226	265	286	283	290	273	287	287	290	226	241	234	230	259	270	275	291	300	188	200	237	244	244	246	247	260	265	265	263	262	253	220	238	261	266	281	279	250	232	236	240	241	244	243	241	240	239	239	238	239	238	238	238	238	239	240	240	239	237	237	236	234	232	232	230	225	214	214	239	246	247	218	233	230	210	221	229	238	229	224	226	227	228	246	279	230	222	222	
243	248	252	254	259	257	251	251	243	233	258	273	238	234	264	271	274	274	293	240	224	258	268	270	277	290	204	194	215	226	243	231	225	232	258	279	278	289	287	291	198	202	240	237	260	231	234	271	224	186	209	210	235	236	237	239	247	249	279	290	290	287	297	225	215	235	250	263	287	246	197	188	198	238	242	246	245	242	241	240	238	237	238	238	238	237	237	239	240	240	239	238	237	236	235	234	234	231	226	217	215	239	246	252	245	237	240	228	199	237	232	224	220	223	224	224	234	210	230	228	228	
246	250	253	255	261	265	259	252	243	238	253	229	223	231	259	284	274	295	251	235	219	249	272	283	216	212	225	241	240	219	237	227	233	243	249	253	269	273	211	232	247	227	211	234	236	235	232	221	204	203	239	237	235	232	236	243	265	277	298	229	291	305	232	220	219	245	245	260	265	215	186	180	194	250	245	248	245	243	241	239	239	238	238	237	237	237	235	237	241	240	239	238	237	236	235	234	234	231	228	222	218	230	243	247	242	240	243	239	226	219	229	226	222	224	224	225	239	214	216	231	231	
251	251	249	265	266	258	256	252	259	251	238	236	221	235	259	282	289	293	244	229	221	240	264	218	216	251	246	243	244	245	238	228	236	272	250	255	255	238	254	254	256	257	247	228	207	200	214	222	218	210	234	234	233	235	244	241	269	290	245	318	303	206	234	220	220	237	267	270	236	215	186	236	281	283	268	247	242	240	239	238	238	237	237	237	237	236	234	235	240	239	237	237	237	236	235	235	234	231	230	227	222	233	240	241	242	243	245	243	239	225	211	203	228	199	228	226	220	213	237	234	234	
272	274	246	272	278	253	243	249	258	244	247	231	227	251	268	287	261	212	224	225	225	259	264	244	252	246	242	241	242	245	243	231	236	275	274	271	260	255	251	252	256	260	262	256	231	212	244	249	251	251	242	234	233	239	269	271	277	304	232	303	228	236	231	301	227	234	250	260	236	228	249	282	281	283	282	250	235	234	236	235	236	237	237	237	237	237	234	235	239	237	235	236	236	236	235	235	234	232	232	229	226	236	242	245	243	236	246	238	244	240	227	207	234	223	230	219	239	237	241	245	245	
266	264	279	277	281	238	236	248	243	249	240	230	236	259	261	250	239	230	238	227	234	260	264	245	233	242	237	238	240	245	244	236	243	245	256	281	253	244	242	260	247	247	254	263	258	248	240	244	253	252	237	238	239	264	273	272	284	249	315	268	244	237	238	233	254	245	245	254	262	241	259	280	286	287	267	196	231	230	233	232	235	236	236	237	237	237	235	236	239	237	236	236	236	236	235	235	234	233	232	229	227	242	246	254	255	243	247	244	245	241	238	228	236	225	226	236	237	238	243	245	245	
238	240	241	223	233	219	231	225	245	243	237	233	254	258	283	249	254	247	238	234	245	263	220	234	250	241	232	235	238	243	242	235	245	251	254	250	199	238	240	197	201	238	253	247	250	245	236	239	248	280	227	231	263	266	274	276	291	260	302	230	237	262	235	240	290	302	274	269	268	204	253	275	279	276	209	193	201	228	230	230	234	236	236	237	237	237	236	237	239	238	237	237	237	236	235	235	235	233	231	228	225	224	249	261	266	272	248	242	242	239	237	230	202	225	229	235	233	236	240	242	242	
243	214	228	232	245	245	251	241	234	238	236	239	243	256	254	261	249	243	237	238	263	279	260	241	232	238	229	234	236	256	237	231	241	285	263	257	251	225	227	225	218	216	214	207	236	236	234	259	280	241	224	228	252	266	278	244	209	223	222	222	242	279	256	260	285	261	275	254	193	233	192	251	266	233	198	183	202	227	227	229	233	235	236	237	237	237	237	237	238	238	238	237	237	236	234	234	234	232	230	227	221	218	243	259	271	268	245	240	240	238	240	241	201	230	226	231	233	235	256	260	260	
215	215	248	251	251	255	263	261	250	241	241	244	246	267	237	238	241	246	235	255	252	273	226	231	215	240	236	238	240	231	234	229	240	286	250	254	236	255	255	253	251	252	253	248	238	237	243	246	247	239	228	233	239	257	250	193	208	218	216	217	242	280	249	244	207	227	236	198	188	189	229	234	191	201	196	190	204	227	228	229	232	235	236	236	237	237	237	237	237	238	237	237	237	236	235	234	233	231	229	227	219	237	246	254	265	249	228	218	235	235	213	244	234	230	224	228	233	231	258	259	259	
242	241	244	250	254	259	263	261	256	250	247	260	251	252	210	208	209	234	237	224	239	232	214	224	243	241	243	245	246	225	214	233	249	246	245	237	236	250	254	255	252	252	251	245	238	238	275	281	274	240	283	235	264	260	201	210	196	219	215	208	204	196	201	209	236	210	240	195	244	240	233	243	216	199	189	190	208	227	228	229	231	234	235	236	237	237	237	237	237	237	237	237	238	237	236	235	234	231	229	226	218	237	243	251	245	228	211	201	190	229	237	244	242	213	223	231	228	247	241	219	219	
234	237	241	262	262	269	267	246	265	255	260	204	210	236	229	225	227	227	226	222	233	230	204	218	237	237	241	243	246	245	238	249	248	211	214	246	241	238	239	239	238	261	257	235	269	235	263	268	240	237	275	236	268	221	205	192	177	233	221	220	227	212	243	243	238	236	244	246	185	241	170	250	247	209	201	192	212	212	228	227	229	233	236	236	237	237	237	237	237	236	236	237	238	237	236	235	234	231	229	225	216	235	244	249	245	247	243	241	240	231	239	245	243	230	225	228	232	239	224	245	245	
228	259	261	256	266	277	249	245	278	255	245	214	234	224	222	224	250	250	249	230	252	233	228	220	207	209	240	237	238	244	242	251	230	208	236	238	244	228	204	229	249	243	249	262	249	194	222	233	236	232	228	239	210	200	209	204	231	239	239	240	244	243	240	235	230	237	248	251	201	189	170	247	242	204	196	195	188	212	228	227	229	234	236	236	237	237	237	237	237	235	234	236	237	237	235	234	233	232	230	226	217	233	242	247	246	222	230	237	238	236	238	247	240	231	228	229	230	241	222	242	242	
240	246	251	249	257	272	245	286	295	203	233	218	230	222	223	224	247	252	257	257	258	262	261	254	248	245	243	234	234	243	244	247	219	210	239	230	209	205	205	214	208	216	222	202	197	197	235	229	218	205	222	225	212	213	200	240	243	250	255	246	237	230	203	230	225	238	247	249	227	181	246	167	231	209	198	213	213	209	203	230	233	236	236	237	237	237	237	237	236	234	233	235	236	236	235	233	233	232	231	229	222	216	238	242	238	220	206	229	247	234	239	267	233	229	229	232	230	241	222	242	242	
284	282	251	249	257	270	284	288	207	237	251	253	250	247	250	251	250	253	259	259	257	262	266	264	261	256	249	242	242	246	246	243	225	244	231	232	224	219	217	243	217	240	230	215	242	202	238	245	223	239	229	228	218	209	236	237	246	255	264	266	261	249	215	223	232	238	247	238	245	239	239	241	162	216	223	219	240	240	239	237	238	239	237	237	237	237	237	237	236	235	235	236	237	237	235	232	233	233	232	230	227	222	236	242	236	228	210	225	224	248	255	231	228	227	227	231	233	242	225	243	243	
240	284	270	277	260	256	218	243	237	248	248	250	248	246	247	250	248	249	254	252	250	271	254	256	258	254	248	239	249	251	251	253	224	246	250	253	254	252	248	247	247	242	233	218	240	240	237	251	253	242	249	227	244	240	235	237	250	256	261	264	270	266	253	241	241	230	222	219	208	192	186	183	186	213	241	243	242	245	246	243	241	239	238	237	237	237	237	237	237	236	236	236	238	238	236	232	233	234	233	232	232	228	238	241	231	226	218	210	229	242	211	206	189	218	226	228	233	243	225	244	244	
231	226	230	260	277	289	232	243	252	248	245	244	244	243	243	266	246	264	288	244	266	283	253	256	225	240	241	246	251	254	256	257	251	249	249	251	253	258	260	255	248	242	247	246	245	246	248	254	260	257	256	255	245	236	235	247	251	280	250	252	263	266	260	257	250	248	246	228	224	215	209	224	222	238	240	244	246	248	248	245	242	239	236	236	237	237	237	237	237	237	236	236	237	238	236	232	232	234	233	234	235	234	237	237	226	223	219	217	222	223	206	209	200	220	226	225	230	241	225	245	245	
209	236	229	238	247	219	234	249	250	245	242	240	240	239	239	257	262	280	267	272	282	206	192	201	243	240	235	243	252	257	258	258	255	250	247	245	246	251	254	255	253	250	250	251	251	248	247	250	251	250	252	250	238	230	238	267	280	271	246	248	254	255	250	260	266	266	269	272	267	259	252	248	246	243	238	238	259	267	272	263	241	238	235	235	236	237	237	237	237	237	237	237	238	238	235	232	232	234	234	234	235	237	242	250	232	231	226	227	225	224	226	197	197	218	216	224	229	238	225	235	235	
244	252	260	258	240	244	225	244	235	237	235	236	238	257	249	243	262	277	286	304	239	231	199	242	246	239	226	236	250	254	256	257	253	249	246	246	245	246	244	248	250	247	243	244	248	249	244	242	241	238	246	244	234	229	235	267	283	267	271	276	221	224	236	249	256	259	267	273	271	263	254	249	244	239	235	252	275	288	285	250	240	238	234	233	235	237	237	238	238	238	237	238	239	240	237	234	233	234	233	233	235	237	241	246	249	234	234	229	226	227	227	212	196	192	216	223	226	234	239	241	241	
247	255	268	273	263	248	248	235	239	234	216	235	240	242	238	236	238	259	251	254	194	248	239	241	249	235	209	232	264	246	250	250	248	246	244	246	249	249	248	248	246	240	238	245	278	244	238	243	246	249	253	250	240	234	239	263	212	190	204	208	236	225	230	247	251	255	260	268	257	251	245	243	241	236	248	268	279	282	262	239	235	236	233	231	235	238	238	238	238	238	238	238	239	239	238	235	235	235	234	234	236	237	238	241	243	245	232	230	228	229	227	221	209	197	214	224	226	233	236	238	238	
243	279	267	259	263	260	232	237	223	239	233	238	238	243	237	238	241	248	273	233	228	199	237	248	223	226	209	227	253	266	263	241	238	239	243	244	245	247	249	249	240	235	240	269	251	242	235	240	246	251	253	251	245	239	259	264	227	248	246	242	235	227	228	234	268	269	277	273	271	239	248	250	253	279	271	270	283	258	208	182	214	207	231	231	236	239	239	239	239	239	238	238	238	237	237	236	236	237	236	236	236	236	236	238	240	242	245	246	234	237	232	227	215	221	216	228	229	233	235	235	235	
217	232	236	248	245	266	255	243	248	244	236	240	244	244	217	237	242	248	210	246	247	239	241	272	213	225	201	225	248	265	216	235	236	239	245	245	242	243	273	245	230	232	245	284	247	231	225	235	241	245	275	245	241	237	260	283	244	248	244	239	238	241	234	234	254	270	280	210	230	223	241	268	273	280	279	277	276	188	185	176	203	204	230	234	241	243	242	241	240	239	239	238	238	237	237	237	237	237	235	237	238	236	236	237	237	238	241	242	243	240	239	232	217	225	233	230	230	232	233	233	233	
207	219	228	221	246	241	229	238	237	240	238	239	245	246	239	240	241	243	247	252	250	236	267	192	192	210	204	223	241	224	211	232	234	240	246	248	245	260	226	238	223	234	269	229	237	224	223	231	261	275	272	245	239	234	245	252	236	242	236	231	236	242	244	235	237	257	230	240	233	284	268	260	270	282	294	155	193	195	190	186	205	201	230	239	247	249	246	244	242	241	240	239	238	238	237	237	237	237	234	236	238	238	238	237	236	237	239	239	241	239	238	232	219	238	234	231	230	232	233	233	233	
211	231	225	222	225	218	216	205	213	221	238	236	246	230	239	243	246	243	245	206	205	161	189	196	193	210	216	242	255	252	241	233	236	244	245	248	250	253	216	233	226	241	264	248	231	222	227	234	250	266	274	259	238	231	257	261	234	238	228	226	236	276	241	235	238	258	237	236	286	282	275	225	267	300	152	183	192	192	218	211	229	228	233	243	246	245	246	247	245	242	241	240	239	239	238	238	238	237	237	236	237	237	238	238	236	236	237	237	238	241	238	238	230	238	236	233	232	232	232	232	232	
224	230	257	258	236	232	231	217	219	224	237	229	247	229	233	239	255	264	266	222	205	200	200	201	195	225	226	251	261	261	248	239	243	244	269	248	250	250	241	233	238	250	227	243	224	223	234	250	244	243	275	248	237	277	244	266	227	231	223	224	235	285	240	234	238	256	241	226	282	280	274	258	252	187	186	189	188	191	212	233	232	230	237	277	248	237	245	251	249	245	243	241	240	239	239	238	238	238	237	236	236	236	237	237	237	235	236	236	236	238	238	241	235	222	235	233	233	232	233	248	248	
247	258	266	270	273	270	260	252	246	231	238	231	247	246	228	236	260	261	270	215	205	199	229	226	233	227	231	260	257	257	253	252	266	268	272	250	221	240	233	237	244	254	237	236	221	226	239	242	245	247	239	235	238	283	247	229	215	226	267	227	252	290	239	234	237	262	244	229	310	257	225	221	210	202	199	201	224	218	233	232	233	232	270	249	211	233	271	253	253	251	247	243	241	240	239	239	238	238	237	236	236	236	236	236	236	236	236	235	236	237	236	241	237	223	236	233	234	233	235	247	247	
248	255	265	270	275	276	271	265	263	257	247	243	239	242	231	240	255	261	269	210	196	233	216	234	235	232	236	273	251	277	251	251	267	268	276	251	244	230	231	240	268	253	225	229	221	230	256	257	259	266	263	256	250	243	225	246	236	227	227	233	242	282	239	233	267	276	179	176	189	201	208	205	212	211	231	240	243	243	237	231	246	269	304	221	219	264	275	272	253	254	252	247	243	241	240	239	238	238	237	237	236	236	236	236	236	236	236	236	237	237	235	236	238	218	238	255	231	231	251	237	237	
237	268	275	286	295	266	267	267	267	265	260	260	257	244	252	257	256	252	221	207	192	224	224	226	235	247	265	275	280	279	281	292	251	253	228	247	236	225	232	263	273	213	241	222	222	237	246	248	248	252	270	273	292	231	224	239	232	225	227	234	258	281	245	230	279	166	183	187	189	195	205	235	236	236	241	237	240	242	238	247	263	288	210	221	212	240	270	272	270	253	254	250	245	242	241	240	239	238	238	237	236	236	236	235	235	235	234	233	235	235	233	234	236	231	237	241	240	243	238	237	237	
222	250	274	281	280	285	252	252	252	257	258	261	262	253	246	247	257	248	231	200	185	225	213	220	242	243	268	278	282	284	278	283	295	256	253	245	231	229	238	261	255	223	234	220	222	233	267	250	275	247	243	245	200	225	219	232	226	220	225	244	258	278	194	247	250	188	183	184	195	229	239	245	248	247	242	237	237	250	248	245	274	209	222	214	213	237	271	264	265	261	277	248	248	245	242	241	240	240	239	238	237	236	236	235	235	235	233	232	234	235	232	233	230	219	237	241	236	227	239	240	240	
214	242	256	273	257	273	274	236	268	272	246	276	280	251	249	250	261	219	224	204	225	214	206	229	255	264	265	274	279	281	286	267	249	251	252	242	229	234	244	261	215	212	229	222	228	234	254	258	245	279	252	254	208	199	194	231	225	222	229	224	213	212	202	212	209	196	188	189	222	235	241	249	251	245	240	245	262	265	272	283	232	199	222	216	222	242	268	275	247	246	264	262	242	244	245	245	244	242	240	239	238	237	236	235	235	234	234	233	234	235	233	233	234	231	240	245	248	240	232	230	230	
223	250	251	222	233	239	240	237	246	273	276	273	247	246	246	250	261	217	216	201	219	205	204	231	246	249	248	254	269	280	289	252	242	244	246	235	226	237	246	270	228	238	225	223	234	242	248	241	273	245	286	254	198	204	207	205	195	229	227	223	220	222	218	220	216	205	202	221	227	230	237	244	245	251	246	239	266	269	290	176	196	222	221	220	236	265	279	287	215	235	246	222	220	237	247	251	251	247	244	241	239	237	236	235	235	234	234	233	233	235	234	233	233	231	244	245	251	239	239	226	226	
233	260	254	226	232	237	259	269	278	279	287	246	246	247	244	250	261	214	208	204	213	202	208	239	251	244	236	243	256	277	251	237	223	244	244	233	229	241	257	214	219	231	222	224	232	262	270	263	261	257	249	195	194	199	238	237	236	236	244	247	247	247	222	221	219	213	232	227	223	227	239	262	265	272	275	278	278	255	196	199	225	226	222	233	233	268	292	279	243	218	178	178	201	261	247	253	256	254	250	246	242	239	236	235	234	234	234	233	232	234	234	233	232	230	242	241	243	238	228	238	238	
238	264	261	251	219	233	230	254	284	270	289	248	247	266	245	251	236	213	204	198	213	203	210	240	253	240	241	249	254	256	220	228	242	246	246	235	232	245	263	214	240	227	224	232	240	241	251	266	262	272	204	199	208	238	237	239	243	246	249	249	249	251	252	248	244	247	239	228	222	234	235	260	266	272	277	292	159	206	205	234	230	226	233	258	258	269	293	222	178	187	220	228	248	273	265	274	282	254	252	249	245	240	236	235	234	234	233	233	232	233	233	233	232	231	233	234	235	227	235	238	238	
241	264	257	252	244	235	240	240	239	250	242	263	285	251	247	247	233	218	214	204	213	204	209	239	247	237	243	252	252	223	227	225	235	242	244	233	233	257	212	222	235	225	225	237	247	251	248	244	248	224	204	197	239	235	236	240	247	251	251	251	252	254	255	255	253	246	236	227	224	235	257	261	262	274	298	179	198	236	237	234	231	237	265	262	257	256	193	191	202	226	228	268	228	269	277	286	293	276	249	249	244	239	236	234	233	233	233	233	232	232	232	232	233	233	232	234	235	233	249	258	258	
247	251	236	246	245	241	235	230	241	241	233	241	282	245	213	239	242	244	245	223	216	207	209	240	245	239	248	251	238	224	222	222	245	254	241	232	239	250	224	244	232	223	226	236	268	252	255	252	254	215	206	213	234	231	234	241	245	245	245	249	252	252	253	253	255	240	229	227	229	236	254	261	264	277	198	209	232	232	235	236	239	235	269	278	275	211	215	206	233	231	226	224	254	268	271	271	277	271	258	267	235	232	233	232	232	232	232	232	232	232	232	232	233	234	233	234	233	234	244	250	250	
254	254	251	249	248	247	244	240	231	243	243	248	216	234	247	231	244	225	213	200	212	211	211	241	244	240	249	248	226	244	240	229	243	235	239	233	245	252	221	211	229	222	227	235	260	262	247	272	269	207	218	239	232	231	236	242	241	236	240	247	248	249	250	251	244	229	224	229	241	239	251	250	254	207	213	199	222	222	231	268	234	264	272	285	140	213	206	238	234	231	232	255	253	278	267	269	270	253	233	198	201	226	229	227	230	232	232	232	232	232	232	233	235	236	235	235	234	234	245	240	240	
253	250	249	252	254	250	243	247	229	240	252	250	269	246	242	225	245	238	216	207	214	216	213	236	245	240	245	240	226	239	235	243	247	244	235	236	244	218	247	241	229	223	229	248	252	262	243	250	203	224	206	232	230	235	244	234	237	233	239	243	243	241	243	267	231	218	221	230	243	269	262	252	251	212	219	229	206	211	251	272	275	261	273	28	218	204	237	236	231	230	258	258	262	285	267	279	253	171	174	174	193	228	228	225	228	231	231	232	231	231	231	230	233	235	234	235	234	235	245	235	235	
244	242	241	263	251	244	240	248	231	239	248	254	231	220	237	233	240	249	235	221	221	222	217	242	238	241	241	227	243	237	236	256	239	218	234	255	217	211	221	239	231	226	231	240	253	254	272	210	206	213	233	226	230	241	281	241	232	233	238	268	272	273	288	204	219	213	219	237	268	276	281	271	260	212	224	222	199	207	244	269	288	272	279	215	211	231	230	234	232	258	266	266	267	298	192	163	181	198	185	212	223	200	229	225	228	230	230	231	231	231	229	228	231	233	232	233	233	235	243	236	236	
243	237	237	255	244	237	236	247	240	243	249	243	210	221	234	228	234	247	223	220	228	230	228	238	238	243	221	219	230	241	260	239	217	224	227	220	236	238	243	241	233	228	232	250	249	255	264	230	226	240	224	220	233	269	245	231	229	234	257	271	285	184	199	195	221	213	220	237	268	278	285	282	275	205	213	220	201	212	248	261	284	278	296	233	229	219	224	257	267	270	265	268	224	199	216	215	209	235	212	287	289	233	230	226	227	229	230	230	230	230	229	228	231	232	232	233	234	235	241	240	240	
245	241	242	218	241	236	231	244	248	245	246	243	233	206	198	228	233	248	216	214	230	236	239	237	239	245	243	235	241	248	264	218	240	241	231	239	232	239	246	244	235	231	236	243	242	245	250	221	208	230	214	217	256	253	240	228	230	237	258	254	194	189	193	223	223	220	222	256	272	281	284	285	305	217	200	221	210	219	250	263	277	286	210	219	217	213	224	255	282	291	279	243	222	244	245	245	239	255	241	285	277	242	229	222	224	227	229	230	230	230	228	227	229	231	231	232	234	235	241	242	242	
249	248	248	236	224	236	229	242	243	246	230	239	219	250	242	237	237	248	226	203	206	234	236	229	239	243	228	242	246	251	221	246	226	244	224	235	229	239	246	244	234	232	240	246	247	256	248	212	216	224	209	223	257	248	238	229	232	259	260	222	200	201	222	224	227	230	234	253	262	275	284	262	194	204	225	220	223	227	250	256	274	310	203	204	212	213	242	266	284	290	331	218	243	242	242	184	236	234	260	275	258	231	202	215	219	225	227	229	230	229	229	228	229	230	231	231	233	234	238	239	239	
230	251	254	254	248	242	232	242	241	244	241	250	241	239	246	244	244	247	244	209	234	201	229	228	237	241	235	244	261	256	215	237	226	240	243	234	233	250	257	242	234	232	237	239	262	265	253	230	211	220	210	230	260	246	238	232	235	244	202	219	212	229	223	222	229	240	244	247	240	258	288	197	199	233	215	216	258	277	251	250	264	223	197	219	213	218	240	257	281	323	184	236	237	136	237	234	230	253	286	228	186	187	177	213	214	222	226	228	229	229	229	229	229	231	231	231	231	232	234	237	237	
250	250	255	262	261	253	241	246	229	241	242	253	224	212	196	241	253	258	245	233	226	207	236	235	238	239	232	247	255	222	211	232	232	245	245	240	245	249	241	236	233	231	237	240	256	257	209	222	233	219	214	247	270	279	240	279	241	220	207	209	202	226	217	220	255	269	246	237	236	247	211	204	214	223	202	211	260	241	273	246	250	210	209	214	217	252	247	251	282	200	224	236	81	233	232	228	250	312	171	180	183	180	176	218	211	217	223	227	228	229	229	229	230	232	233	232	227	230	232	234	234	
241	239	242	251	259	259	254	250	244	240	245	253	269	246	249	249	250	259	259	250	240	237	237	237	240	237	233	249	236	239	239	237	245	250	250	252	254	264	256	239	229	225	232	263	263	238	249	242	234	222	220	230	260	273	241	237	208	208	205	205	233	219	213	224	253	276	258	233	234	251	216	216	216	217	193	208	253	254	295	267	252	209	221	212	219	251	276	255	247	237	220	231	229	226	245	249	288	159	166	265	264	254	197	189	210	214	221	225	227	228	229	229	229	232	234	234	233	231	232	233	233	
235	235	236	258	263	248	246	237	232	239	248	266	232	238	258	242	246	249	256	253	244	240	231	235	239	235	238	249	242	240	235	241	246	253	252	254	251	267	213	238	231	228	232	249	254	234	243	241	237	222	222	233	250	270	192	177	237	239	241	241	228	216	211	221	255	276	247	232	230	251	247	215	214	213	190	207	249	267	289	280	213	226	215	212	238	266	293	260	301	211	223	252	249	231	237	274	142	154	280	235	242	218	187	194	209	212	219	224	227	228	229	229	229	231	233	234	233	232	232	233	233	
233	235	241	247	231	210	235	227	227	239	258	255	222	197	188	193	237	244	247	243	240	240	243	244	239	236	241	243	247	240	238	248	263	265	267	247	251	209	245	236	234	238	239	247	246	226	239	240	235	218	223	249	250	217	221	235	237	242	244	242	232	216	211	218	251	266	243	235	228	249	247	203	211	212	191	208	249	260	293	198	233	231	216	218	241	258	286	271	279	229	218	180	209	221	224	167	162	161	188	210	179	182	182	176	179	212	218	224	227	228	229	229	228	230	231	232	233	232	231	232	232	
227	232	245	263	229	238	230	228	235	247	254	265	274	246	189	191	201	195	195	223	229	233	244	249	246	238	233	240	240	240	248	264	261	254	244	256	248	247	236	231	235	237	250	247	223	238	238	242	231	214	224	255	232	231	244	236	237	244	247	242	236	223	212	236	238	242	254	234	295	245	215	195	206	214	194	208	243	257	208	236	224	223	219	251	250	258	276	49	189	185	218	164	221	221	221	206	192	185	195	210	205	199	189	184	189	218	220	224	226	228	228	228	228	229	230	232	232	231	231	232	232	
221	232	257	212	216	231	225	228	236	246	265	267	236	230	244	183	247	246	228	237	227	228	249	248	245	238	224	225	244	262	261	249	229	218	227	235	228	237	223	229	236	227	223	223	222	247	249	215	227	216	228	252	237	249	240	231	233	243	250	237	238	236	225	227	234	236	235	232	253	261	197	193	201	219	197	207	247	250	239	239	232	216	219	267	281	259	241	185	189	200	181	228	175	220	225	214	202	196	190	240	215	234	225	235	234	231	226	225	226	227	228	228	229	229	231	233	233	232	232	232	232	
219	239	244	226	206	226	225	234	236	258	273	272	223	213	204	191	228	252	249	241	229	228	247	242	239	236	219	221	246	230	226	225	217	221	242	242	224	232	207	234	224	220	226	226	232	247	217	214	217	218	231	252	246	241	231	224	231	262	216	230	237	241	236	233	236	238	237	234	276	293	194	211	235	224	196	206	243	249	211	233	226	213	231	259	288	267	197	185	176	198	200	179	159	234	222	220	213	240	202	232	249	250	248	246	269	243	230	224	225	226	227	228	227	228	231	233	233	233	233	232	232	
227	246	228	215	232	229	235	243	239	254	270	250	217	208	206	243	248	252	253	243	230	230	251	252	240	235	226	232	241	237	233	222	217	236	251	242	219	227	208	235	223	225	225	224	238	246	213	237	211	213	240	251	210	215	224	220	234	260	234	228	238	254	234	230	236	235	236	244	242	242	194	255	273	224	195	206	245	258	248	240	226	218	236	248	196	193	194	184	166	175	235	206	198	238	251	255	252	244	247	246	263	243	243	254	275	252	225	216	220	224	226	227	226	227	231	232	232	233	232	232	232	
237	226	247	242	236	238	246	243	256	255	255	220	223	247	238	240	242	249	253	239	226	228	252	262	241	235	234	240	245	243	232	232	230	248	254	225	213	227	229	230	228	228	229	232	243	244	214	215	216	207	229	247	213	236	224	224	238	241	233	231	269	207	234	239	243	233	238	241	237	240	269	237	208	221	197	204	239	254	251	237	226	227	245	241	206	198	202	199	190	188	204	239	242	247	255	259	258	253	248	244	237	239	261	264	269	222	195	209	215	221	224	226	225	226	232	233	233	234	232	232	232	
230	246	248	246	245	247	247	247	259	261	252	209	193	193	187	187	216	241	221	229	218	227	251	223	240	237	237	242	245	244	237	233	240	250	252	218	240	235	232	233	238	242	244	246	257	246	221	207	221	207	232	253	226	233	225	230	239	276	260	237	230	236	279	276	238	220	234	247	246	237	258	255	217	222	201	209	238	241	227	234	229	246	247	219	203	189	212	217	214	239	243	243	241	243	245	246	247	243	239	261	256	258	275	264	179	181	194	209	212	218	222	226	225	226	231	233	234	234	233	233	233	
239	243	244	246	252	253	250	251	272	264	244	215	207	240	213	231	229	214	202	227	219	227	250	258	248	242	241	244	246	249	236	239	245	254	252	216	236	236	234	232	235	241	251	262	249	255	215	206	219	214	236	267	250	227	223	229	246	253	254	278	238	231	239	285	234	207	227	243	244	242	200	194	192	223	206	216	237	245	244	235	236	236	168	196	207	198	195	237	241	243	241	237	231	253	248	245	249	246	246	254	255	263	275	198	194	192	199	210	209	214	221	225	225	225	231	234	233	233	233	233	233	
241	254	250	264	244	244	248	280	256	262	261	253	247	248	250	247	249	252	245	235	228	228	246	272	247	241	238	242	248	250	247	245	251	255	238	217	232	238	237	236	240	240	237	239	249	211	244	239	228	224	255	268	243	226	226	231	239	240	246	235	248	229	253	239	230	212	224	242	244	237	247	225	217	226	207	216	255	257	252	262	182	188	182	208	214	242	240	237	238	237	253	267	242	278	174	162	154	217	184	217	221	208	184	178	177	189	182	184	205	211	220	225	225	226	231	235	234	234	233	233	233	
236	273	259	255	249	265	269	279	257	267	233	250	207	247	245	244	249	252	246	242	241	237	241	244	227	234	240	244	247	250	251	251	253	244	247	240	230	239	238	241	247	249	250	250	253	212	237	231	226	243	258	241	218	227	227	234	243	236	232	234	245	235	195	193	230	226	229	242	245	239	219	244	232	228	207	213	249	261	261	246	233	229	196	208	239	242	239	234	250	267	211	221	210	205	205	213	209	201	198	211	216	213	208	199	201	195	185	192	209	213	221	226	226	226	229	232	233	233	232	232	232	
238	268	279	284	287	270	271	284	247	243	238	233	234	233	233	237	243	244	231	244	234	236	251	247	244	231	227	232	243	251	258	265	260	265	258	239	230	241	244	249	254	258	259	261	254	242	237	234	241	269	257	253	207	229	231	246	248	257	252	245	255	278	190	204	227	224	231	256	269	252	242	206	216	222	213	227	255	273	266	241	227	219	234	234	234	233	231	251	259	201	207	199	211	206	239	215	243	206	230	236	221	215	210	200	219	220	228	221	214	216	223	227	229	231	235	237	236	233	232	231	231	
249	267	282	261	277	283	257	282	242	231	218	219	216	223	225	237	257	217	229	258	222	230	257	267	249	247	211	221	239	252	262	274	276	269	260	254	247	244	248	255	260	264	268	273	254	236	230	238	263	281	266	256	243	239	247	265	271	266	262	259	266	292	208	224	234	218	229	262	283	282	258	234	223	218	218	243	266	269	246	241	237	233	231	230	229	249	246	280	237	238	231	232	241	242	245	250	248	245	246	255	259	253	248	241	241	242	233	206	214	217	225	228	231	236	243	246	242	235	231	230	230	
