ncols	121
nrows	160
xllcorner	1648855.938895
yllcorner	466851.943984
cellsize	500.000000
NODATA_value	nan
244	241	255	286	309	262	222	231	227	249	257	262	271	280	232	229	278	259	253	276	303	322	316	323	293	276	262	257	254	252	249	244	231	214	225	212	228	226	231	231	232	239	244	251	246	250	244	259	257	254	262	253	244	244	257	275	297	284	245	235	247	255	256	246	227	242	244	273	246	229	249	241	280	260	269	275	268	232	229	236	233	254	276	288	284	281	270	240	241	221	231	230	228	210	230	231	210	220	240	267	241	221	227	218	223	227	237	236	272	272	252	240	260	287	292	275	240	228	230	235	235	
244	241	255	286	309	262	222	231	227	249	257	262	271	280	232	229	278	259	253	276	303	322	316	323	293	276	262	257	254	252	249	244	231	214	225	212	228	226	231	231	232	239	244	251	246	250	244	259	257	254	262	253	244	244	257	275	297	284	245	235	247	255	256	246	227	242	244	273	246	229	249	241	280	260	269	275	268	232	229	236	233	254	276	288	284	281	270	240	241	221	231	230	228	210	230	231	210	220	240	267	241	221	227	218	223	227	237	236	272	272	252	240	260	287	292	275	240	228	230	235	235	
231	238	250	262	278	263	244	239	237	245	273	260	236	242	256	260	254	254	280	303	307	315	316	298	280	268	261	257	254	251	248	244	234	224	231	223	227	227	258	258	257	265	270	245	252	232	261	253	249	257	260	248	239	262	256	283	277	271	235	231	266	254	257	255	244	243	246	248	243	245	264	258	265	268	267	268	250	230	231	245	242	218	267	283	284	281	267	247	246	249	247	225	235	214	231	238	214	216	249	254	231	226	232	230	228	243	259	262	263	259	238	238	279	283	279	270	253	238	242	245	245	
234	234	247	240	239	264	277	273	256	253	256	225	222	229	248	237	244	279	286	272	267	260	269	272	263	258	258	256	253	251	248	245	240	240	246	238	227	255	261	266	264	262	254	207	217	250	242	243	241	257	254	246	247	252	241	242	261	262	224	230	244	259	267	255	265	259	246	260	255	268	251	219	251	250	295	225	229	231	258	260	255	246	235	257	276	258	253	254	254	238	251	256	238	245	243	237	214	210	234	234	220	234	242	252	254	253	256	247	250	242	226	238	273	261	255	257	268	270	263	255	255	
240	243	250	248	245	270	261	263	266	268	263	229	232	241	233	236	253	283	318	259	246	247	261	262	262	261	258	255	252	251	249	246	243	239	238	233	255	262	264	240	229	225	216	213	214	220	230	228	238	247	252	249	250	254	253	269	274	260	237	237	245	249	260	264	249	260	260	252	247	256	256	266	252	225	212	235	228	237	259	273	269	260	232	213	215	210	228	254	265	256	217	217	258	256	249	229	215	216	215	235	219	231	237	257	266	265	264	243	246	243	232	243	265	241	237	257	254	257	261	254	254	
242	246	251	258	269	263	250	275	283	284	280	244	239	240	225	239	268	296	284	249	237	275	266	256	260	262	259	255	253	252	249	246	243	238	236	253	259	256	230	223	231	230	225	222	225	232	236	231	229	235	243	247	250	252	251	251	258	239	218	230	252	251	251	275	242	246	275	261	260	253	251	277	216	248	238	230	233	252	249	272	237	259	257	252	240	245	249	260	275	273	255	236	258	269	267	237	221	244	221	238	218	229	236	252	254	260	268	256	243	241	234	251	245	229	240	256	236	242	254	257	257	
241	249	257	255	252	238	238	261	262	282	261	272	253	231	222	253	279	283	269	262	309	291	260	269	259	262	258	253	252	250	248	247	244	238	238	255	255	234	245	242	250	252	257	258	260	257	243	244	242	234	229	240	241	246	257	232	224	213	228	241	266	251	243	242	271	263	264	256	276	256	230	222	211	242	234	234	242	250	247	252	236	254	262	258	247	242	250	268	267	271	272	261	232	262	267	260	250	248	234	241	224	232	240	248	247	245	235	216	236	227	236	252	255	254	249	234	237	238	247	248	248	
233	256	259	262	257	246	237	278	280	271	286	263	246	228	225	250	271	257	246	268	283	270	249	266	277	262	255	252	251	250	249	248	245	242	245	248	239	231	254	256	261	263	263	267	271	267	267	273	277	268	237	229	239	243	257	230	246	242	238	254	278	277	252	237	235	234	250	223	236	271	249	231	239	241	243	248	248	245	248	240	248	241	253	248	242	254	261	244	243	254	276	284	266	260	262	261	256	254	251	244	231	235	247	254	242	233	230	225	221	231	227	246	270	245	227	239	232	243	261	239	239	
227	252	280	263	260	218	240	247	250	246	249	259	249	226	234	252	262	237	226	265	277	258	239	282	272	256	249	249	250	249	249	248	247	245	249	253	251	261	249	252	257	260	268	271	276	271	283	275	285	282	271	262	254	253	240	251	242	242	243	268	273	279	276	271	243	237	239	227	262	270	263	248	237	244	254	264	262	255	248	243	234	234	240	243	254	283	229	245	234	261	271	279	274	270	267	262	262	259	253	249	235	238	251	239	258	260	259	258	255	251	250	251	250	249	241	224	226	253	254	235	235	
243	253	249	221	247	249	249	235	248	239	248	249	244	222	240	262	262	250	232	249	261	248	220	183	231	236	240	245	249	249	249	249	248	247	247	255	255	261	248	246	268	272	277	284	297	287	279	277	272	271	268	266	267	269	258	240	233	247	255	288	274	255	271	283	266	255	248	248	252	259	255	243	238	252	256	257	259	265	264	238	232	231	235	241	279	254	250	242	238	242	248	250	278	275	264	263	265	266	262	253	240	243	251	250	255	259	262	262	261	260	263	265	265	260	242	213	226	264	261	234	234	
274	262	264	251	257	255	237	250	246	243	249	229	241	221	240	259	300	251	239	252	249	242	239	209	240	217	235	243	248	249	250	250	250	249	248	245	238	239	240	244	253	263	268	279	277	292	274	290	264	246	279	266	268	269	260	238	233	263	283	269	246	264	294	272	270	256	250	250	246	243	243	241	249	276	235	242	252	261	220	261	237	234	238	245	232	240	239	243	290	242	278	260	265	238	246	255	263	266	266	255	248	246	246	244	245	248	264	252	251	260	260	262	262	247	241	217	235	254	245	237	237	
253	267	260	259	257	255	254	254	252	251	258	255	244	228	243	262	257	251	250	261	229	226	206	207	232	240	236	243	248	249	250	250	250	251	252	251	248	242	239	237	237	241	254	278	267	301	261	287	258	242	242	265	279	259	254	250	247	246	264	251	245	284	252	254	264	265	256	251	229	249	241	243	281	235	215	206	208	234	256	260	264	244	236	231	221	234	252	262	268	257	275	246	231	238	264	272	270	251	257	263	257	246	242	254	256	263	268	267	265	268	269	273	276	255	246	234	257	257	251	243	243	
251	253	239	253	248	241	244	251	253	255	258	255	250	242	253	258	210	253	263	248	236	226	259	170	203	238	239	246	249	250	251	250	250	251	251	250	248	248	248	252	257	257	255	257	248	299	251	277	257	247	245	250	256	249	250	266	263	259	252	257	254	246	246	251	258	270	261	255	262	255	257	281	246	229	250	259	218	229	251	261	274	277	269	244	229	221	220	223	258	282	245	255	242	239	263	241	245	244	252	259	258	245	242	247	257	247	223	222	229	233	227	224	239	253	243	238	258	287	222	246	246	
248	219	256	249	239	236	242	249	246	252	255	251	250	246	260	278	252	249	261	285	276	283	277	268	246	243	245	251	252	251	251	250	250	251	251	250	248	245	249	255	259	260	261	261	254	294	252	259	253	244	252	258	248	261	244	253	261	263	260	246	246	238	240	247	278	266	263	258	250	227	217	222	218	207	211	220	229	242	249	261	275	285	283	270	239	234	233	248	256	278	261	246	242	251	250	250	240	244	279	271	253	236	240	250	262	229	226	234	244	238	222	223	232	227	243	268	287	238	212	242	242	
255	254	254	256	256	247	246	252	253	253	248	253	259	248	248	251	247	265	247	267	266	270	262	255	250	247	248	254	253	251	251	251	251	251	250	250	248	245	250	253	256	260	261	263	247	282	279	285	252	248	297	259	248	261	253	272	261	254	280	246	239	231	236	257	265	255	257	263	230	260	258	255	248	246	244	234	236	240	250	273	282	275	287	284	269	250	242	254	259	242	238	245	282	243	248	258	271	265	273	268	250	223	235	260	241	254	247	243	246	243	247	248	248	248	236	235	227	225	229	233	233	
252	247	244	251	261	257	246	252	258	251	257	260	233	215	256	250	221	217	240	257	248	247	250	260	245	246	266	252	249	250	251	251	251	251	251	251	248	245	253	257	261	263	258	249	252	268	268	267	245	238	242	248	247	238	234	223	262	253	244	229	231	232	241	248	279	247	250	258	256	220	252	252	252	263	255	240	234	246	266	281	265	274	269	280	284	270	245	246	234	216	226	223	243	243	240	276	267	260	282	261	240	212	236	251	255	247	253	264	265	260	252	259	255	260	261	250	240	249	241	228	228	
250	200	241	249	257	253	250	244	248	260	270	234	228	222	248	264	247	234	242	242	233	227	238	239	233	246	240	248	244	249	251	251	251	251	251	251	250	249	251	253	252	243	233	235	237	228	225	221	209	206	208	215	214	216	223	223	224	218	214	239	228	230	246	263	256	238	212	217	219	241	241	248	258	280	243	230	252	280	278	246	269	263	269	265	283	291	269	254	235	234	228	245	244	243	242	282	241	244	286	230	207	214	241	255	252	246	254	265	267	262	261	264	257	264	265	254	243	241	232	224	224	
235	247	246	247	229	244	245	247	244	237	230	222	234	253	259	264	264	260	259	244	229	221	212	213	235	195	222	246	243	249	251	251	251	252	252	252	252	254	257	253	246	235	233	246	242	229	230	226	216	213	216	220	222	226	229	238	246	234	226	213	229	233	248	247	228	222	246	239	234	234	242	245	261	249	223	222	270	283	238	274	287	277	265	285	278	292	287	252	235	218	243	249	246	268	260	271	241	250	219	220	221	218	240	252	274	242	271	266	274	258	271	262	273	266	255	220	247	234	227	240	240	
258	258	258	248	227	209	226	234	252	242	245	250	247	252	252	254	260	270	275	270	250	239	234	221	245	261	253	245	246	250	251	251	252	252	252	253	253	256	260	255	252	246	256	261	239	229	231	221	220	215	222	250	251	252	256	264	267	267	261	251	241	250	258	259	229	254	251	249	241	241	244	253	242	244	216	223	266	257	262	281	280	261	278	287	264	272	293	274	241	245	264	254	262	275	266	209	194	207	221	218	212	217	238	270	275	263	258	270	276	266	267	261	283	275	225	222	221	225	212	241	241	
261	263	268	243	240	233	205	238	247	249	252	254	259	240	245	246	251	261	270	270	263	253	251	270	270	283	267	249	250	252	251	252	252	252	252	253	254	256	259	259	255	260	265	260	232	227	228	224	217	245	249	251	252	253	260	266	266	270	269	261	256	260	274	273	232	237	247	242	234	242	245	252	260	245	225	238	260	253	247	243	235	239	242	281	259	256	270	270	248	242	249	259	251	218	210	204	205	213	224	230	209	217	235	269	275	282	253	247	265	277	286	286	213	212	216	222	219	232	234	249	249	
258	255	234	261	260	259	257	256	261	253	243	233	229	215	243	252	255	276	258	255	266	245	246	273	255	240	244	253	254	253	252	253	253	252	252	253	254	256	257	256	255	254	257	252	233	246	245	248	246	249	252	253	252	251	277	283	271	281	261	265	269	287	288	218	223	214	237	235	231	247	255	259	250	245	234	250	269	252	271	253	247	242	241	272	261	253	251	248	242	242	246	252	259	256	247	211	212	213	240	223	211	224	238	266	278	254	281	268	252	274	253	208	210	207	221	223	233	225	235	253	253	
224	231	247	249	253	257	265	276	284	278	247	233	234	231	245	277	213	212	231	229	241	237	250	257	242	218	197	251	256	255	254	253	253	252	253	253	254	255	255	256	261	254	254	244	226	242	244	243	246	254	254	254	279	272	282	280	276	281	279	281	292	291	213	213	216	242	229	229	230	255	262	267	256	246	246	252	296	270	243	242	243	245	242	245	234	235	231	236	225	238	252	254	227	230	233	229	215	216	204	221	214	232	262	264	274	246	285	262	269	238	219	221	209	198	223	223	242	224	243	255	255	
222	246	241	246	250	254	280	277	295	292	275	240	240	237	230	216	218	233	222	242	237	241	267	249	230	188	220	255	259	256	254	253	253	253	253	253	253	253	253	256	260	259	257	233	234	235	239	245	257	254	271	276	284	282	280	291	290	276	280	293	264	219	209	214	216	230	234	232	237	260	274	259	258	293	268	237	225	224	218	228	202	244	243	247	217	232	235	232	206	234	250	253	255	255	257	252	252	248	231	215	219	255	266	267	268	281	283	202	222	225	212	218	239	215	224	222	238	228	251	242	242	
249	244	239	246	272	273	286	273	281	293	289	278	246	247	238	224	218	227	238	233	236	249	271	262	254	240	276	262	257	256	255	254	253	253	253	253	253	253	254	256	257	262	248	255	239	235	250	253	274	280	275	272	279	282	280	288	299	269	255	223	213	210	209	236	236	235	228	240	264	254	256	262	253	259	261	260	260	262	260	255	252	231	248	245	236	223	230	229	198	226	253	257	252	226	217	211	217	243	226	207	228	253	260	269	273	246	211	206	210	228	224	211	209	220	243	226	238	236	251	243	243	
248	247	246	268	271	275	288	270	271	282	292	294	282	249	246	231	219	242	229	229	238	259	276	258	243	246	291	254	252	256	258	256	254	254	253	253	253	253	254	254	256	255	237	242	237	251	265	270	276	288	281	264	261	262	264	285	252	260	263	258	256	216	234	242	245	223	227	257	267	272	258	253	234	231	238	252	253	255	260	260	258	258	260	263	248	216	230	227	200	218	255	262	256	230	225	230	221	208	218	204	249	256	258	248	235	217	212	206	201	229	230	217	213	213	237	223	238	242	241	240	240	
249	251	274	272	284	286	289	270	258	259	270	286	294	281	243	236	227	237	222	233	255	260	237	238	230	257	291	267	259	254	260	260	256	254	253	253	253	253	253	254	257	257	246	248	248	249	269	274	276	286	292	281	275	262	259	277	285	253	259	236	224	217	235	237	240	214	226	266	258	264	284	258	230	246	246	249	248	278	255	247	251	254	260	269	273	246	212	230	204	215	253	258	237	224	213	209	213	237	218	208	239	261	241	231	230	220	214	214	206	222	232	229	245	213	238	248	247	250	253	254	254	
252	271	284	288	282	213	207	205	196	212	253	257	278	289	276	245	223	233	224	253	255	245	252	230	251	274	279	262	263	272	257	259	256	254	253	253	253	252	253	254	254	252	242	247	253	257	263	269	272	282	286	283	285	249	253	249	210	247	208	214	222	242	253	251	241	211	226	256	273	284	225	251	245	242	260	251	248	213	250	245	246	249	251	259	270	254	258	237	206	217	254	257	258	233	225	220	218	239	219	213	258	249	221	228	230	230	222	248	220	245	235	251	247	248	251	254	257	262	257	260	260	
293	285	284	307	214	218	218	222	222	220	219	217	246	267	279	264	222	232	227	257	261	258	265	270	264	271	271	255	267	271	264	254	253	253	253	252	252	252	253	252	252	252	244	242	244	245	248	252	247	231	244	228	212	217	228	231	220	209	221	245	246	245	253	249	236	216	241	241	229	226	245	248	245	248	250	255	256	256	248	251	256	255	243	263	265	260	276	241	203	217	251	255	264	257	269	270	248	241	222	226	248	234	226	231	231	254	250	250	251	256	254	250	248	252	254	255	262	268	267	262	262	
299	288	240	221	215	227	221	246	254	258	260	261	258	252	273	274	251	240	239	250	253	263	248	273	269	265	251	244	255	268	249	252	251	252	252	252	252	252	253	252	254	253	247	243	244	249	254	251	234	230	233	222	211	210	228	233	222	213	225	233	208	202	212	216	229	222	251	252	262	257	253	253	253	259	256	247	236	239	244	243	220	239	241	257	269	248	238	229	199	216	249	252	253	241	238	229	226	239	226	238	252	261	259	259	258	260	258	256	258	262	262	250	242	241	264	270	274	273	257	251	251	
210	217	221	224	224	246	246	248	254	260	265	267	265	265	273	277	270	260	257	244	240	246	255	278	266	252	238	234	246	260	251	252	250	250	250	251	252	252	252	253	255	254	251	250	249	254	257	243	228	235	231	223	211	205	229	234	223	216	228	231	222	218	217	209	228	226	244	259	264	259	253	253	255	257	269	242	211	201	203	227	219	240	247	221	209	219	223	223	200	216	247	260	258	226	226	216	215	237	226	230	252	260	263	263	262	263	256	251	254	259	262	257	238	252	266	277	282	252	238	221	221	
250	222	224	233	242	236	241	248	252	259	262	263	264	268	275	276	275	274	277	262	248	247	237	231	223	242	243	240	238	248	254	250	248	248	249	251	252	252	252	253	253	254	255	256	255	255	252	229	228	242	227	219	213	207	227	231	223	222	234	231	223	231	228	240	233	234	243	272	264	257	264	258	254	277	274	240	215	202	203	205	216	247	243	220	233	219	226	221	200	214	258	262	263	255	243	234	223	212	217	214	242	247	254	258	262	283	247	265	264	276	270	246	235	240	250	277	249	242	234	214	214	
227	241	233	229	231	223	237	270	275	272	273	276	276	280	280	281	265	270	283	286	262	249	244	248	263	260	250	239	227	233	242	244	244	245	249	251	251	252	252	252	253	255	256	258	262	255	244	231	242	242	225	221	220	220	227	231	229	232	238	236	232	247	245	242	241	249	255	263	278	250	259	260	257	242	218	212	204	203	204	218	220	255	224	249	234	218	231	224	201	213	255	258	256	230	233	220	215	231	209	206	235	256	265	272	280	271	248	265	268	279	248	240	236	245	255	271	244	239	232	213	213	
256	262	253	242	219	217	255	279	289	277	281	287	291	273	232	239	250	272	283	301	288	250	251	257	265	255	244	224	197	192	211	241	241	245	249	251	251	252	252	253	253	254	255	258	263	266	253	252	248	236	228	241	253	256	260	263	266	269	267	262	255	249	246	242	242	279	295	267	253	278	278	281	211	219	219	214	208	228	206	216	221	226	254	248	250	222	236	232	202	214	252	252	244	224	228	224	218	226	205	206	235	252	257	274	274	269	281	246	260	248	245	239	242	249	254	251	244	238	243	224	224	
215	214	224	230	216	220	254	281	294	278	289	250	240	248	248	248	291	294	301	298	317	270	251	242	241	231	249	248	198	200	235	245	244	248	250	251	251	252	252	253	253	253	254	257	260	258	265	259	248	253	249	249	256	262	263	265	269	273	272	265	255	249	249	248	268	273	259	295	264	259	255	228	216	213	217	215	224	222	246	217	215	254	252	248	250	252	245	239	205	218	251	244	242	238	229	224	219	219	201	209	250	251	249	260	268	268	239	279	262	247	240	258	243	252	256	254	247	239	284	236	236	
231	228	242	227	223	232	259	276	295	279	229	242	246	242	246	276	288	296	287	286	315	304	245	235	241	233	254	260	263	292	261	248	248	251	251	251	252	252	252	252	252	253	254	256	257	257	255	243	247	241	250	251	272	259	276	279	281	265	266	262	253	268	264	271	273	253	266	257	269	270	266	252	222	211	213	228	224	224	221	246	249	252	250	245	248	254	231	224	210	219	252	257	258	246	219	215	213	212	200	215	253	251	246	246	245	244	233	230	241	243	247	274	273	278	281	278	268	262	285	255	255	
257	254	245	233	232	261	264	268	263	256	262	251	240	237	259	278	290	292	273	265	288	306	292	253	249	250	252	236	231	240	245	247	249	252	252	252	252	252	252	252	252	253	254	254	255	260	262	250	239	243	258	274	273	275	275	277	281	283	276	283	284	269	252	275	286	283	253	281	259	264	268	268	259	237	214	251	252	251	249	247	250	251	248	245	252	237	223	209	225	223	252	263	257	231	218	216	212	217	203	223	258	262	261	259	236	238	213	216	238	232	214	236	246	264	241	261	270	281	248	245	245	
257	253	247	243	239	260	271	275	260	257	252	247	240	258	262	292	250	255	255	266	300	304	313	284	256	249	227	208	196	198	210	229	240	247	250	252	252	252	252	252	253	253	253	253	252	253	253	245	255	264	268	274	277	271	267	272	279	277	262	277	256	253	250	248	267	249	283	274	250	252	258	261	264	258	232	228	248	249	249	249	251	250	246	250	261	260	249	253	246	240	258	254	234	227	223	214	229	214	208	240	260	267	272	272	228	239	233	233	243	216	211	228	222	224	227	231	249	271	245	238	238	
250	247	248	251	250	262	264	275	264	250	242	259	244	259	287	234	240	238	206	253	263	292	330	311	255	252	236	223	214	209	208	218	216	246	249	251	252	252	253	253	253	253	252	252	249	245	241	260	265	264	260	259	252	246	247	240	245	268	268	289	253	252	252	253	251	250	271	241	223	212	208	246	252	257	255	251	247	247	248	251	253	250	249	252	262	259	262	263	260	265	265	243	234	230	246	240	232	222	212	237	256	261	262	241	223	225	226	234	246	227	235	229	230	240	243	243	248	263	243	228	228	
246	246	251	287	260	272	263	255	256	246	257	248	251	263	252	229	241	252	249	254	288	292	323	326	297	257	244	233	240	239	235	247	251	257	256	252	252	254	254	254	253	253	252	251	248	242	237	255	260	252	246	242	233	226	230	232	240	244	252	287	257	248	247	254	255	250	251	231	224	245	238	235	217	244	237	252	250	247	246	250	252	252	250	248	251	256	280	264	259	269	277	274	269	262	257	258	257	246	223	237	248	252	245	228	222	214	228	241	236	221	236	246	249	247	249	252	260	257	242	230	230	
242	246	271	290	289	283	270	262	257	247	260	267	268	261	259	242	252	247	244	252	284	269	292	315	298	283	268	258	257	259	256	253	260	270	272	260	258	257	255	254	254	253	253	251	249	243	242	254	252	247	243	241	233	221	228	238	248	256	255	254	252	248	247	255	255	254	254	256	225	218	256	254	235	227	247	248	248	245	243	247	248	249	253	249	246	270	274	254	248	259	270	272	269	262	257	261	274	266	241	242	247	247	240	224	247	236	235	247	252	248	244	245	246	247	262	250	267	253	243	243	243	
240	262	277	291	300	290	285	287	259	253	285	253	236	257	258	253	268	245	243	263	277	261	248	285	284	277	265	257	258	259	256	255	276	285	282	275	269	261	256	255	254	254	253	252	251	247	247	256	252	246	240	239	233	224	229	240	249	254	284	253	252	249	253	258	256	254	256	256	228	241	245	259	257	253	249	246	245	243	244	246	245	245	272	253	249	279	243	232	242	255	263	263	260	251	262	285	296	284	250	252	253	249	236	226	209	235	241	256	261	258	255	256	254	253	253	235	231	246	217	236	236	
236	268	275	292	290	285	296	258	250	286	247	248	248	249	254	244	255	257	243	273	261	240	232	246	272	257	254	262	263	263	262	275	280	265	264	285	276	266	259	256	254	253	253	253	253	251	253	253	248	244	239	239	235	230	238	249	253	254	255	251	250	247	253	258	257	256	255	253	241	249	255	262	258	256	251	246	244	245	245	246	243	260	278	252	272	274	249	251	266	281	265	245	274	270	275	287	293	287	284	263	257	258	235	223	231	232	241	250	258	265	269	264	255	253	243	236	249	248	253	248	248	
224	256	271	288	293	268	211	214	219	222	218	206	198	242	233	237	250	275	258	281	223	215	213	201	247	268	248	272	276	274	276	282	287	256	245	286	271	269	263	256	253	253	253	255	254	255	260	260	246	244	238	241	241	239	247	254	256	256	255	252	250	249	251	254	255	254	253	252	249	249	252	261	253	264	247	242	243	247	246	247	268	258	283	238	270	283	257	277	283	247	241	278	277	267	271	281	276	279	329	283	269	257	231	234	223	228	258	262	268	276	266	274	267	249	256	251	254	259	238	216	216	
224	241	248	239	259	262	232	249	244	243	241	236	224	217	215	229	219	206	225	215	226	230	242	233	197	263	266	270	270	273	282	293	267	241	248	267	276	266	260	254	252	252	253	255	255	256	261	264	261	244	233	239	242	242	248	255	261	263	269	279	251	256	251	253	251	250	251	235	250	249	270	252	252	264	244	238	244	268	244	266	273	268	284	244	269	283	269	275	248	246	280	276	281	283	261	250	244	243	266	296	281	252	242	237	228	240	254	258	268	264	256	259	269	263	257	254	266	228	216	250	250	
238	251	257	259	261	266	265	262	262	264	266	267	241	235	229	237	227	218	233	228	208	226	241	235	225	227	249	259	269	274	282	274	270	264	270	276	266	257	248	249	252	252	253	254	255	256	259	263	266	263	241	243	241	240	247	253	256	256	251	256	274	247	251	250	245	243	246	249	248	251	269	248	263	259	240	236	247	246	239	274	286	284	262	247	284	289	243	245	271	241	241	242	285	299	223	226	211	216	228	265	278	261	246	239	239	251	260	258	262	272	252	249	247	255	258	260	274	248	249	244	244	
242	251	264	279	258	259	255	256	259	260	261	264	266	262	259	259	240	230	236	231	230	221	201	237	230	233	237	240	246	265	273	261	259	256	258	252	239	227	236	245	251	252	253	254	255	256	257	260	264	266	262	244	238	234	241	244	241	234	225	226	233	231	245	238	236	239	246	248	245	250	271	275	279	246	233	233	259	245	236	272	290	284	256	297	248	233	243	267	238	240	291	197	229	228	222	246	241	206	212	236	252	240	234	248	249	249	270	268	263	278	252	243	240	267	253	274	226	232	234	229	229	
246	252	266	263	234	239	249	270	232	211	225	254	260	265	269	268	264	259	258	235	231	248	247	246	240	244	249	246	248	248	211	232	233	225	218	217	223	233	232	244	250	252	254	254	255	256	256	258	261	264	265	265	245	240	239	241	236	228	223	232	236	221	214	235	229	238	245	250	243	262	270	230	219	238	231	230	255	288	254	270	242	244	273	250	244	254	249	243	232	231	230	250	254	255	252	252	249	244	208	220	229	214	224	245	262	264	267	269	261	275	247	242	276	263	282	215	224	217	233	227	227	
255	266	267	261	228	220	217	219	231	248	249	252	257	263	270	273	272	268	265	261	256	253	254	259	264	269	262	247	246	238	229	217	209	213	211	209	213	230	234	246	252	254	255	255	255	255	256	257	259	261	263	268	269	244	246	241	230	226	232	239	230	221	216	207	244	241	239	242	244	236	250	246	241	237	233	233	257	270	260	256	249	227	245	246	243	252	258	261	259	255	251	250	254	258	259	262	265	261	249	212	219	213	221	246	254	246	234	226	234	241	245	246	272	253	215	219	221	233	229	231	231	
268	269	271	269	264	260	258	255	252	247	247	251	255	278	263	267	270	268	264	261	256	253	255	262	273	284	288	275	246	238	235	232	228	221	215	212	220	231	238	250	256	257	256	255	255	255	255	256	257	258	261	265	269	270	270	248	231	236	242	234	225	228	225	221	239	222	220	226	224	228	248	246	246	246	237	236	256	289	277	223	238	223	247	231	245	250	246	253	257	255	251	248	248	251	255	260	265	268	266	258	246	226	226	248	242	229	247	245	238	248	219	229	207	207	213	217	240	231	227	239	239	
264	266	273	268	266	263	258	250	250	249	246	266	270	288	256	278	260	257	256	255	251	249	253	279	289	286	293	292	271	262	259	256	253	232	235	225	239	238	245	256	263	262	259	257	256	255	255	255	256	257	258	261	263	269	273	269	260	245	239	228	231	250	249	250	227	224	226	235	234	236	242	254	247	250	257	241	250	288	255	255	245	238	249	221	214	229	229	242	236	239	239	240	258	258	258	257	247	252	254	264	259	237	235	251	247	244	237	250	258	260	222	212	211	215	209	212	233	225	232	244	244	
256	256	265	259	256	257	253	243	267	252	265	273	285	286	288	285	255	269	249	249	247	269	266	278	269	266	279	283	277	272	271	269	267	260	250	242	241	243	251	262	267	264	261	259	256	254	254	255	255	255	256	258	260	263	268	270	267	245	241	241	252	260	244	221	220	240	242	249	255	249	255	260	242	268	252	250	254	230	217	246	241	236	249	246	227	257	254	247	243	242	240	234	225	231	216	203	211	231	254	255	246	241	242	247	247	257	251	253	269	251	219	246	218	221	235	234	235	234	246	252	252	
245	276	265	253	257	280	251	237	280	289	265	272	288	285	292	247	244	273	275	277	274	274	268	278	248	234	233	231	249	265	270	272	269	262	253	245	241	260	279	284	272	257	261	259	255	254	254	254	254	254	255	256	258	259	262	265	268	264	255	249	251	250	226	237	220	240	244	258	251	255	258	245	241	240	244	251	261	258	249	231	237	233	253	256	251	243	253	253	257	260	259	255	251	251	231	246	219	239	240	217	236	238	247	246	244	259	269	270	258	227	215	223	227	223	228	235	236	244	253	256	256	
241	238	242	263	251	250	236	243	286	254	246	270	246	252	209	247	251	265	283	275	285	255	255	228	220	218	211	232	241	258	267	269	265	259	254	248	261	279	291	249	238	255	261	259	255	255	254	253	253	254	254	255	256	257	258	260	262	263	261	250	249	245	226	238	228	245	244	238	241	242	251	216	249	240	222	217	253	260	258	233	239	234	250	251	243	246	244	248	255	259	262	264	265	262	257	253	249	251	248	245	211	244	252	258	247	245	240	232	228	223	215	245	225	218	227	230	240	253	250	249	249	
241	242	227	244	249	241	234	251	284	252	265	283	270	254	250	248	286	239	276	287	257	211	225	228	223	237	234	229	238	272	276	269	267	263	263	268	293	224	226	248	249	260	266	263	259	256	253	253	253	254	254	255	255	256	256	257	258	261	264	263	253	239	239	232	236	244	254	252	255	263	259	249	202	253	237	226	246	252	257	255	244	241	245	241	243	243	242	247	264	246	247	257	265	263	258	258	257	256	257	256	255	253	271	268	272	253	241	227	222	231	226	220	217	230	225	231	250	256	270	268	268	
251	251	242	241	211	236	235	272	249	244	276	263	231	240	240	244	198	233	246	214	216	212	255	229	243	235	234	231	261	273	270	268	276	276	283	301	250	246	248	245	272	282	273	273	266	257	253	253	253	254	254	254	255	255	255	256	256	257	260	262	262	245	239	245	260	259	261	257	268	269	265	260	258	206	245	246	247	245	247	250	248	246	246	246	244	249	255	258	243	241	241	268	260	249	252	254	254	251	251	252	256	284	269	269	281	268	252	225	230	244	234	242	236	231	230	242	264	275	276	264	264	
261	262	259	249	239	208	236	229	218	216	222	223	219	211	213	209	212	231	236	223	221	219	245	247	239	235	243	240	264	279	276	277	280	286	294	245	243	238	239	248	270	292	291	288	281	262	256	255	254	255	255	255	255	254	255	255	255	255	256	256	254	261	265	247	254	270	270	270	272	277	264	255	257	250	242	249	235	237	231	246	245	247	248	250	245	207	204	205	238	252	260	258	223	238	246	251	250	249	248	251	283	278	270	263	272	276	254	223	236	253	229	234	225	229	247	250	265	278	275	281	281	
264	268	275	267	252	222	225	236	220	216	242	225	235	233	232	230	222	256	237	235	227	240	240	241	237	239	268	276	267	279	280	283	293	299	234	223	229	223	236	258	282	289	295	290	305	282	265	259	257	257	256	256	255	255	254	254	254	254	254	250	246	254	262	265	264	265	262	264	266	274	244	251	252	252	245	243	237	237	237	226	239	247	257	248	242	235	226	223	228	214	215	238	211	234	265	269	268	245	272	278	285	240	230	240	250	268	267	252	247	250	223	231	226	233	265	269	269	274	244	240	240	
266	262	271	277	268	245	237	238	227	222	252	254	258	262	264	264	263	264	266	261	252	243	237	237	260	266	283	289	270	279	288	274	207	218	222	227	218	219	260	270	279	280	284	281	317	320	282	265	262	261	260	258	256	255	254	254	254	254	253	250	248	249	247	247	245	231	231	244	243	225	218	247	250	253	252	252	243	228	234	235	234	245	259	267	264	259	256	255	253	249	225	215	230	232	256	266	260	269	275	250	225	251	242	209	241	256	263	253	254	245	241	225	230	262	265	255	249	255	245	240	240	
242	241	254	269	272	265	262	248	257	251	249	252	258	262	263	265	265	261	263	263	255	251	243	235	255	265	289	282	275	281	223	218	213	221	211	229	220	226	259	269	275	275	279	274	303	331	303	271	266	267	265	261	257	256	255	254	253	253	253	253	253	253	253	248	232	228	238	240	231	233	228	224	232	249	249	254	248	236	229	229	230	243	250	259	262	262	264	266	269	265	252	238	236	235	232	238	268	280	231	237	252	253	213	243	257	261	248	244	256	237	230	226	255	252	225	241	234	241	223	245	245	
257	255	254	259	267	265	263	262	255	249	251	254	274	257	257	277	253	250	253	257	258	286	253	239	260	266	284	282	278	235	227	219	210	234	234	234	233	251	265	266	274	271	275	262	269	283	290	296	268	269	269	264	259	257	255	254	253	253	254	254	257	258	250	237	226	232	238	238	244	255	232	242	216	234	246	252	255	240	224	227	229	242	242	241	246	253	256	258	264	270	262	248	244	231	231	241	254	227	241	251	270	267	273	245	281	253	233	236	248	243	232	247	242	246	246	249	257	257	238	249	249	
256	263	253	267	255	254	254	255	247	241	261	270	289	285	288	256	239	239	267	271	280	276	245	238	256	265	277	263	259	227	224	218	232	231	235	238	269	283	273	262	276	276	271	256	245	232	236	286	289	286	266	265	262	259	255	254	253	254	254	255	260	265	263	239	233	237	247	254	258	260	221	217	214	225	250	255	255	242	221	227	233	244	228	243	249	253	256	248	269	256	258	251	243	242	248	253	260	249	245	256	263	267	240	245	260	243	224	231	242	240	243	252	258	257	266	252	255	263	241	250	250	
254	259	260	248	246	245	246	252	247	251	272	277	286	291	256	246	231	240	265	282	283	254	248	250	251	255	232	222	228	226	218	229	221	226	239	266	276	301	285	257	276	287	269	248	232	224	244	293	299	276	260	263	267	263	257	254	254	253	253	255	259	264	265	258	239	244	251	251	247	242	235	229	239	240	254	260	259	254	213	218	241	227	220	224	232	239	251	261	242	235	222	235	237	244	257	253	249	246	254	248	230	260	264	225	220	234	218	221	233	238	244	246	258	255	256	269	269	259	255	242	242	
251	249	243	244	243	242	241	266	258	257	250	270	286	277	253	237	226	260	270	292	251	250	255	270	269	251	232	224	227	224	235	230	223	230	262	272	285	263	326	235	274	282	274	218	209	214	225	250	266	261	254	280	266	263	258	255	254	253	253	255	258	260	262	263	258	241	239	239	237	236	229	242	228	250	257	259	230	261	214	221	232	222	222	237	245	249	223	216	213	223	243	222	226	243	252	251	255	229	237	218	208	208	201	203	207	213	216	211	227	251	253	261	259	264	269	273	272	245	242	230	230	
252	256	247	240	260	258	237	272	257	291	260	251	274	252	241	228	225	257	289	252	238	246	257	271	280	272	238	228	247	243	235	235	241	232	259	272	284	266	231	238	267	251	214	218	207	202	198	206	237	261	294	297	277	256	255	254	252	252	253	254	256	258	259	262	265	264	260	243	240	242	239	224	225	219	247	252	264	269	243	226	244	240	243	256	260	256	240	234	247	252	244	216	221	242	254	257	265	241	229	228	255	251	247	210	209	224	215	209	228	250	256	253	253	253	260	273	241	230	243	236	236	
257	254	243	240	244	257	240	260	278	258	265	258	271	251	240	223	233	270	264	254	242	248	266	261	270	272	241	248	236	237	237	264	284	280	256	251	293	251	238	250	259	230	218	217	227	222	218	240	240	286	302	312	289	255	252	252	251	251	253	254	255	256	257	259	263	265	264	252	247	250	247	228	221	230	228	245	254	266	260	223	238	240	248	262	260	255	253	229	244	236	225	212	214	240	256	258	262	238	234	223	215	264	221	215	229	223	216	211	243	249	271	282	271	264	263	265	245	252	248	244	244	
254	250	239	240	242	259	245	252	260	269	258	264	234	244	229	224	258	279	257	244	244	260	251	243	225	258	254	240	233	240	241	272	290	303	266	258	256	253	248	262	263	227	218	234	221	241	241	242	246	287	298	291	298	268	255	250	251	252	253	254	254	255	256	257	260	263	265	251	249	248	244	225	223	237	238	246	244	254	251	236	230	242	257	259	257	256	258	253	226	211	214	213	211	239	248	251	250	226	237	250	254	257	261	261	249	218	217	214	241	246	265	284	280	262	258	235	219	243	238	236	236	
227	244	235	231	236	242	251	258	268	257	250	233	254	244	228	231	272	293	253	247	260	213	213	221	241	245	243	234	235	261	273	276	295	252	272	258	285	256	311	265	223	232	228	230	234	229	234	241	274	288	287	272	308	336	268	254	252	254	255	254	254	255	255	256	257	260	264	264	250	250	242	221	230	246	247	232	238	236	226	219	223	241	253	253	255	255	245	258	257	218	241	219	215	241	250	250	250	255	254	254	252	243	261	243	239	229	216	217	239	252	260	280	255	277	261	225	221	213	236	234	234	
213	220	233	233	251	253	254	261	270	245	260	258	252	245	239	247	267	231	213	207	215	231	224	243	241	245	242	236	258	259	271	277	296	253	245	263	286	269	253	216	216	218	229	236	219	224	254	262	286	256	262	256	270	319	305	273	260	259	257	255	255	255	255	255	256	258	262	264	263	255	238	222	241	252	243	220	218	219	217	209	219	243	255	253	254	255	245	254	255	257	249	226	217	239	249	250	252	258	218	203	198	199	211	209	216	223	216	219	238	249	255	274	251	270	257	224	247	249	245	241	241	
246	242	235	238	250	260	268	259	248	248	255	252	251	250	252	261	241	226	218	218	224	246	244	243	244	249	251	245	254	260	266	280	283	253	254	263	255	215	215	216	217	220	219	225	212	226	264	279	269	241	239	237	238	254	292	287	274	266	260	257	256	255	255	254	255	256	259	263	266	251	241	236	248	248	234	226	220	218	212	207	219	246	255	250	253	261	251	259	247	266	242	228	214	232	244	250	254	243	224	215	212	212	209	204	215	222	216	220	238	249	253	262	253	238	216	214	207	239	240	238	238	
253	249	243	257	263	255	260	275	262	255	255	241	276	256	256	232	230	227	236	248	242	241	242	244	247	275	256	251	251	249	252	263	274	277	293	282	233	221	217	216	215	234	240	221	219	252	268	263	220	212	212	216	231	227	225	260	273	271	265	261	257	255	254	254	255	255	257	260	265	264	255	245	248	244	237	233	222	218	221	208	221	247	258	256	257	261	260	221	206	210	213	225	213	226	249	254	259	269	248	248	228	209	209	225	235	225	218	220	230	254	253	254	251	256	257	209	217	212	229	235	235	
255	250	272	270	264	264	274	260	265	218	209	245	208	210	205	215	220	235	225	239	237	237	243	248	251	287	257	241	250	258	255	246	251	276	288	260	262	222	219	217	234	224	231	227	238	261	256	235	223	228	223	220	202	194	194	233	279	268	270	266	259	255	254	254	254	254	255	257	261	263	260	247	248	246	244	236	221	230	217	210	223	247	258	257	256	259	235	227	211	215	243	232	210	217	244	252	256	243	233	231	230	219	212	228	237	230	222	219	228	260	260	255	247	240	243	245	224	217	228	240	240	
280	253	251	257	262	263	268	222	221	213	220	227	220	214	214	218	230	225	241	235	235	239	264	268	284	291	255	240	245	270	278	261	250	251	239	217	220	227	247	245	229	235	226	237	272	271	263	246	250	227	226	249	237	210	213	254	273	281	266	267	262	257	254	253	253	254	254	255	257	260	262	260	249	247	243	235	220	224	216	215	227	249	256	255	256	257	236	237	248	264	247	232	207	213	245	254	255	230	226	215	212	209	207	226	225	234	229	221	230	253	253	243	228	215	208	201	197	223	229	244	244	
270	257	254	258	254	255	250	229	217	215	217	241	238	234	233	231	249	246	241	235	235	262	271	277	289	261	247	246	251	247	268	284	271	266	235	257	221	212	212	221	237	225	230	269	287	262	261	255	221	286	248	261	250	229	272	278	282	287	273	256	257	256	253	252	253	253	254	254	255	257	260	262	260	252	244	236	223	234	219	221	242	254	256	256	257	253	234	209	224	237	222	225	205	213	244	254	253	251	251	249	235	219	207	221	227	237	234	228	242	251	236	228	229	227	221	226	239	241	246	248	248	
260	253	247	267	268	263	263	235	214	217	236	233	252	254	255	254	250	249	244	233	237	271	274	275	275	250	241	250	256	249	251	277	260	264	234	252	245	239	236	227	229	226	257	270	256	255	304	253	249	245	260	252	240	229	244	285	291	295	257	243	251	252	252	253	253	253	253	253	254	255	257	260	263	253	248	238	234	232	223	229	244	248	247	249	255	244	230	211	210	213	223	222	203	214	241	250	253	259	254	242	222	207	200	213	220	230	237	238	255	254	247	243	242	241	235	243	243	245	247	248	248	
257	249	245	260	259	260	260	243	219	239	229	247	247	252	256	255	255	256	245	230	255	271	277	273	257	244	241	268	254	249	254	256	282	253	239	244	250	254	249	239	229	233	261	280	255	283	251	259	303	298	235	231	235	238	247	285	288	279	280	251	253	251	253	254	253	253	252	252	253	254	255	258	263	263	259	241	229	232	229	237	247	247	248	252	254	228	249	217	224	217	232	220	202	216	243	252	255	252	222	225	214	206	199	211	214	223	237	241	258	265	262	260	259	256	250	245	245	246	246	246	246	
253	248	248	258	259	261	260	232	240	230	243	241	243	249	253	272	276	272	243	230	250	260	273	286	253	238	246	262	248	246	256	258	247	234	226	222	244	247	246	265	233	254	253	279	253	284	281	232	240	234	248	240	236	242	274	288	269	265	270	280	256	255	255	255	255	253	252	252	252	253	253	256	260	262	263	257	245	236	236	249	248	251	255	257	251	220	243	227	244	225	231	218	200	217	246	258	256	239	220	218	212	203	220	212	214	239	237	241	254	260	260	260	260	258	254	250	249	248	247	245	245	
253	247	244	251	268	271	234	247	228	240	237	238	242	261	264	285	284	253	242	237	245	249	256	262	250	240	255	253	246	246	258	268	285	234	248	243	246	242	245	241	240	254	251	262	252	256	250	252	250	247	259	241	244	281	283	232	247	254	265	307	274	256	257	260	258	254	252	251	251	252	252	253	255	258	260	257	247	241	239	249	251	255	256	255	237	249	198	239	247	217	222	214	201	217	247	260	245	227	226	216	209	202	218	211	235	239	240	244	251	255	257	259	260	259	257	255	254	252	249	245	245	
246	244	234	247	255	260	237	236	239	238	239	240	256	273	289	240	244	250	246	243	248	250	253	251	245	246	295	251	248	250	248	252	253	234	246	246	241	244	285	239	244	266	260	262	290	232	243	242	244	282	237	258	288	244	218	236	273	265	255	271	279	272	256	263	262	255	252	251	250	250	251	252	253	254	254	253	249	245	241	244	257	254	249	245	233	213	222	245	230	221	213	213	205	220	250	259	225	218	228	219	211	204	216	231	235	238	242	249	254	252	251	255	259	260	260	257	253	254	250	242	242	
231	244	246	255	259	260	246	241	235	242	249	246	252	269	248	247	242	252	253	246	246	253	254	235	243	250	279	251	251	255	258	249	232	247	245	240	241	259	246	234	257	288	260	257	213	240	232	236	242	237	241	280	231	205	249	279	241	261	240	231	246	267	278	278	258	253	251	249	249	249	249	250	251	251	251	250	249	247	242	247	254	248	243	243	233	236	231	233	244	239	217	215	214	225	254	254	221	209	224	222	216	222	235	235	237	238	243	251	256	250	259	257	261	265	267	265	261	262	258	231	231	
250	252	255	257	259	261	251	234	237	249	291	249	252	266	267	270	286	287	258	240	244	255	250	247	244	258	232	219	239	259	194	262	238	227	243	243	249	252	242	236	272	258	251	234	212	213	200	226	233	236	253	250	249	292	289	282	239	242	222	215	223	274	291	258	247	246	248	248	248	249	249	250	249	249	249	249	248	246	243	250	251	243	247	244	247	251	254	260	259	256	249	237	225	234	259	237	220	209	230	224	229	235	234	236	238	238	258	263	267	265	253	262	272	278	267	248	268	273	247	224	224	
251	257	261	258	260	257	244	230	257	267	264	243	254	269	277	276	288	271	243	230	242	257	260	257	260	268	248	250	251	256	263	262	249	241	241	244	283	250	261	246	267	231	246	218	211	230	196	233	233	242	269	271	283	291	293	208	240	201	213	222	214	194	201	230	240	240	243	246	247	248	249	249	249	249	248	248	248	246	244	250	253	250	249	260	258	254	256	260	261	259	253	242	234	246	253	228	219	225	228	233	241	234	233	235	236	253	270	280	280	239	223	245	275	268	242	228	239	273	267	234	234	
252	263	253	252	264	255	238	230	252	285	256	236	241	267	270	236	211	238	229	226	242	263	256	251	242	233	217	242	247	252	254	254	248	243	245	242	259	246	246	258	249	204	219	201	212	233	240	236	238	242	250	237	246	241	199	197	205	208	237	230	222	198	200	219	239	237	239	244	247	248	248	248	248	248	248	247	247	246	245	248	250	251	259	254	255	254	256	260	263	261	253	246	243	253	251	241	230	242	245	246	242	238	235	236	251	264	274	285	250	232	217	258	278	252	244	232	234	244	240	233	233	
251	212	231	242	269	251	238	236	256	279	252	235	254	253	224	216	234	231	239	231	249	264	267	266	263	248	226	225	219	223	242	246	245	249	244	233	219	242	229	216	206	255	202	189	221	235	242	234	240	252	244	208	206	204	235	247	194	219	228	217	225	215	222	220	241	237	240	244	246	247	247	247	248	247	247	247	247	246	246	247	246	247	254	248	250	252	254	261	267	265	257	252	250	255	245	235	240	239	242	243	245	243	237	252	266	266	279	267	245	229	216	244	280	250	245	237	240	251	244	239	239	
232	244	245	243	252	252	244	245	262	246	248	246	267	235	241	251	253	250	243	240	252	280	267	267	270	271	266	244	230	217	206	241	242	251	250	236	230	222	207	229	241	210	235	243	246	238	244	228	242	251	236	213	204	213	206	202	194	203	222	215	212	211	222	230	241	237	241	245	246	247	247	247	247	247	247	247	247	247	247	247	244	244	248	256	245	247	249	265	270	267	264	259	255	258	238	244	235	238	240	243	262	249	260	265	266	270	285	256	244	229	220	253	266	254	245	238	244	256	246	238	238	
218	239	245	251	251	270	248	251	265	260	246	256	233	256	246	251	256	253	247	247	254	259	259	259	265	272	276	276	270	238	231	211	244	251	248	235	234	238	217	244	248	255	254	240	245	239	247	208	250	245	230	220	207	212	220	210	207	203	215	223	216	206	203	224	237	236	242	245	246	247	247	247	247	247	247	247	247	247	247	247	245	243	241	248	260	249	265	271	266	262	263	264	261	259	251	238	232	234	236	254	271	281	269	264	259	266	287	253	241	228	227	244	253	252	244	242	250	253	247	230	230	
232	235	249	262	251	248	271	260	283	253	245	251	245	239	242	250	252	250	249	251	265	260	254	255	258	263	269	273	274	271	266	258	220	251	261	240	237	240	230	203	242	250	241	236	248	213	244	194	257	237	225	227	217	213	220	218	216	211	229	239	236	229	226	243	241	240	243	246	246	247	247	247	247	247	247	247	247	247	247	246	246	246	241	240	243	251	260	269	258	254	251	252	256	254	243	231	227	245	246	265	274	281	299	243	244	256	288	245	239	226	231	249	260	282	254	277	281	285	238	219	219	
229	240	248	239	240	246	262	221	228	247	244	239	241	237	246	259	255	260	268	271	270	254	253	256	271	278	255	255	260	268	273	272	268	269	273	265	239	237	230	222	220	214	221	186	238	220	210	215	250	239	229	235	228	223	223	224	223	232	246	254	254	254	255	255	251	247	246	247	247	247	247	247	247	247	247	247	247	247	246	246	246	248	245	242	243	243	248	258	252	245	236	233	238	237	232	224	222	242	256	261	271	280	250	311	248	257	290	244	238	223	229	268	271	277	246	254	269	257	232	220	220	
232	240	243	250	250	251	254	255	259	259	254	246	242	246	276	249	255	252	277	262	282	280	257	264	283	257	248	245	252	259	263	267	270	275	283	284	275	242	238	230	230	220	225	193	245	227	234	247	267	275	273	257	254	249	247	258	256	250	249	255	256	256	261	282	257	251	249	248	247	247	247	247	247	247	247	247	247	247	247	246	246	249	248	244	245	243	244	243	215	213	207	215	210	228	223	218	222	246	259	260	266	275	262	245	244	259	289	249	237	220	227	259	287	256	206	241	240	209	234	230	230	
239	248	255	250	252	255	243	224	252	255	250	246	251	265	257	250	243	242	243	274	276	275	254	261	251	249	253	246	270	270	254	257	260	267	276	289	294	278	241	238	235	223	216	213	230	248	244	251	265	275	278	278	273	268	262	260	261	255	251	252	254	270	276	284	286	253	250	248	247	247	247	247	247	247	247	247	247	247	247	246	247	249	250	249	247	245	245	242	221	213	208	213	229	228	221	215	221	256	261	259	257	261	266	243	290	252	291	245	236	222	228	252	286	256	257	200	249	218	210	217	217	
234	244	254	258	266	259	257	261	263	246	243	248	260	257	257	258	258	254	239	236	245	266	251	253	249	254	244	249	280	260	267	270	273	254	263	280	299	302	273	260	234	229	223	213	233	237	241	258	267	274	278	267	268	267	260	255	256	254	264	263	275	279	287	286	273	259	252	247	247	248	247	247	247	247	247	247	247	247	247	247	247	249	249	252	254	247	243	237	224	216	222	228	230	229	220	217	224	249	245	240	232	233	247	254	287	266	286	241	235	229	236	254	264	251	244	249	253	248	240	243	243	
225	237	251	268	255	250	251	253	269	246	274	285	210	246	248	254	261	265	256	238	245	250	248	254	260	241	252	277	228	258	270	266	256	270	275	282	293	311	287	274	270	263	254	245	237	236	250	272	283	275	253	257	276	269	268	258	272	275	276	276	276	279	282	264	261	263	253	247	247	248	247	247	247	247	247	247	247	247	247	247	248	249	249	252	257	251	244	237	228	218	220	231	233	230	220	221	229	245	240	239	242	248	248	262	279	287	260	245	232	230	242	252	258	223	217	242	248	252	247	237	237	
247	257	260	243	236	232	239	238	246	244	241	219	247	241	244	249	249	255	257	248	248	242	219	258	261	272	250	238	250	248	209	206	258	264	276	271	249	243	267	268	262	252	250	249	243	247	266	280	287	250	283	269	276	276	294	276	274	276	278	275	279	284	263	247	239	233	250	247	247	248	247	247	247	247	247	247	247	247	247	248	248	249	249	251	256	261	249	244	238	228	238	236	238	233	225	225	238	248	252	258	268	249	270	262	274	284	246	243	233	234	263	268	287	222	212	220	239	241	238	235	235	
263	267	277	279	272	264	247	236	230	219	254	212	252	245	224	215	206	237	245	244	253	238	222	234	248	244	253	206	205	256	253	247	242	244	208	207	205	200	235	220	237	235	243	257	258	269	271	287	255	236	279	240	278	268	276	283	272	278	277	278	285	271	230	223	219	223	243	244	246	247	246	246	246	247	247	247	247	247	247	247	248	248	249	250	253	258	261	243	253	247	241	238	239	236	232	233	232	230	232	244	258	274	259	266	265	250	247	240	267	239	262	255	214	210	204	208	205	234	232	227	227	
276	276	268	279	277	272	273	267	250	250	225	254	257	258	229	237	230	228	220	244	256	239	231	250	240	247	248	252	253	254	258	205	252	240	218	216	208	203	202	231	224	228	263	273	287	276	274	259	242	267	258	277	277	266	261	284	272	279	286	272	208	210	211	217	217	224	224	238	243	245	245	246	246	247	247	247	247	247	247	247	247	248	249	250	251	254	257	256	253	248	244	242	241	238	236	239	240	231	228	237	247	240	234	240	241	244	241	270	292	239	262	217	215	220	214	243	239	234	232	227	227	
286	277	282	275	264	264	272	276	265	255	231	230	240	263	260	255	255	258	259	260	263	243	245	252	244	244	243	245	249	245	251	257	202	236	216	213	210	232	235	228	226	259	262	279	285	277	274	244	237	231	258	276	236	234	249	277	272	280	201	257	239	252	213	210	211	214	218	235	240	243	245	246	246	247	247	247	247	247	247	247	247	248	248	249	251	252	252	252	250	248	246	246	243	238	238	240	240	240	236	243	243	226	228	237	242	245	241	284	277	300	242	233	237	239	232	221	238	235	229	228	228	
242	244	278	257	251	255	271	269	264	262	261	257	256	257	254	254	255	258	264	272	278	269	248	241	230	228	213	203	199	208	204	246	197	222	219	214	227	236	234	232	245	271	275	246	206	238	228	240	276	262	208	208	223	212	216	222	226	224	214	217	219	216	217	218	211	212	222	234	238	240	243	246	247	247	247	247	247	247	247	247	247	247	248	248	249	250	249	248	248	247	247	247	243	239	241	241	240	237	232	248	250	245	259	264	260	260	246	200	200	215	231	211	220	217	217	208	232	228	228	239	239	
238	242	243	263	247	264	262	256	274	259	256	256	243	240	242	250	252	251	274	268	279	287	275	248	233	230	227	217	210	219	218	212	207	242	246	242	233	232	233	245	270	280	233	229	248	249	228	221	229	208	210	209	214	215	227	228	218	227	217	243	248	250	279	268	254	233	224	232	236	240	244	247	248	248	247	247	247	247	247	247	247	247	247	248	249	249	247	246	246	246	247	245	240	240	243	242	241	237	232	245	249	251	260	260	262	271	254	210	209	244	243	234	212	218	209	235	233	225	230	240	240	
215	232	229	234	226	244	267	249	269	271	253	241	240	233	238	262	268	249	283	268	282	282	289	270	242	231	231	224	215	221	225	223	217	236	245	239	232	233	246	268	272	241	233	254	252	256	252	241	229	219	211	246	248	238	247	235	208	228	237	225	243	259	262	237	216	205	216	231	236	241	247	250	250	249	248	247	247	247	246	246	246	246	247	247	248	248	248	247	246	246	247	244	240	242	243	243	241	238	234	239	242	242	250	267	263	258	238	206	209	202	245	249	226	217	238	231	233	231	238	245	245	
245	255	261	260	255	243	244	250	255	227	245	245	239	240	244	256	260	269	288	246	256	259	277	275	265	262	234	232	226	226	252	247	248	245	244	239	235	247	268	262	240	256	252	256	263	264	258	248	226	221	225	219	207	249	253	254	213	235	244	235	216	207	209	214	207	219	232	232	237	243	248	252	253	251	249	247	247	247	246	246	246	246	246	246	246	247	249	249	248	248	247	245	243	243	243	243	242	240	236	234	244	243	246	254	265	228	241	229	220	244	249	255	251	243	237	234	235	241	246	249	249	
244	250	259	267	271	259	250	253	250	255	249	241	241	261	251	258	281	286	243	218	208	236	249	262	268	263	263	263	263	262	258	253	250	249	246	242	242	251	255	259	258	254	252	258	268	275	271	264	258	252	254	252	248	255	268	271	269	265	250	240	223	221	219	218	221	234	234	235	241	249	253	253	252	250	249	248	247	246	246	246	246	246	246	245	244	245	247	248	248	247	245	245	244	242	243	243	242	240	236	234	243	244	247	251	249	239	227	216	219	242	251	259	257	248	238	234	238	246	244	241	241	
240	260	262	269	267	261	258	258	253	248	246	241	257	259	286	260	219	213	210	215	221	217	239	247	263	267	263	261	264	265	261	255	252	256	254	244	259	260	261	257	254	253	254	257	260	266	271	270	265	258	254	252	251	256	262	267	276	288	277	243	226	222	222	219	232	233	235	239	246	257	263	260	254	251	249	248	247	247	246	246	246	246	246	245	243	244	244	244	245	244	244	244	243	241	242	243	242	240	236	233	246	253	257	260	260	237	238	243	222	239	246	250	249	242	234	235	242	277	241	233	233	
247	247	255	283	256	253	257	264	256	246	253	259	247	222	217	220	221	222	222	226	218	238	235	242	256	261	260	258	258	258	258	258	255	245	249	253	258	280	282	254	251	271	274	276	252	246	250	260	264	259	253	248	252	252	256	260	284	273	281	260	234	242	237	242	235	234	236	241	263	282	280	264	259	253	249	247	247	247	246	246	246	245	245	245	244	244	244	243	243	244	244	245	242	241	242	242	241	239	236	230	230	256	260	264	249	251	244	237	241	239	260	236	236	229	228	236	267	268	240	232	232	
249	250	254	274	252	248	254	276	255	208	237	233	238	238	258	258	259	260	260	255	247	236	233	240	271	266	272	270	277	271	278	275	243	232	238	278	283	278	277	272	252	270	291	257	249	236	240	272	251	251	250	250	275	284	253	208	213	241	262	270	268	263	256	246	238	234	235	254	273	281	273	276	259	254	248	248	248	247	246	246	245	245	245	245	244	244	244	243	243	244	245	245	242	241	241	239	240	238	235	225	245	256	259	265	248	224	246	241	254	252	243	240	233	228	227	252	270	256	238	231	231	
244	278	258	269	247	243	255	258	247	253	256	259	261	258	256	257	261	262	262	258	248	237	238	262	271	280	285	287	258	231	228	224	230	225	264	279	280	280	272	282	276	271	268	253	244	234	242	273	274	274	277	285	211	219	218	240	247	248	253	262	265	261	256	246	234	232	249	268	277	278	266	270	263	253	249	249	248	247	246	246	245	245	245	245	244	244	244	243	244	245	245	244	242	241	240	238	239	238	233	222	222	249	255	259	213	231	236	261	225	243	245	239	233	233	233	236	251	252	238	231	231	
213	221	221	225	224	222	248	251	251	245	252	261	257	249	251	255	255	255	257	251	237	239	264	270	274	285	283	250	232	251	251	241	225	229	266	283	282	288	273	285	283	286	242	244	238	234	261	269	272	287	290	209	218	243	246	245	246	249	261	266	265	264	262	253	224	241	262	267	279	271	256	253	251	249	250	251	249	248	247	246	245	244	245	244	244	244	244	244	245	245	245	243	242	242	241	239	240	238	233	223	224	244	250	250	230	240	235	217	231	239	247	235	231	234	236	237	251	276	237	231	231	
246	251	254	255	259	258	253	253	245	235	258	265	240	236	264	270	272	273	283	243	227	260	268	271	277	279	222	209	225	235	245	233	227	235	259	277	278	287	287	289	207	211	243	240	258	236	240	271	245	204	219	221	239	237	239	240	249	252	277	278	280	283	275	231	222	239	252	264	283	256	234	226	234	245	250	254	252	249	247	246	245	244	244	244	244	243	243	244	246	246	245	244	243	243	241	241	242	239	234	227	226	244	251	255	250	245	247	233	206	244	240	232	228	231	232	233	243	218	237	235	235	
249	252	255	256	262	266	261	253	244	240	255	237	224	233	259	280	272	290	255	238	223	251	273	283	225	224	232	244	243	226	239	229	236	247	251	254	270	273	222	240	250	232	216	237	240	242	236	226	213	217	244	241	237	233	237	245	266	276	288	247	284	293	239	225	224	249	249	262	267	242	218	209	226	254	252	255	253	251	248	246	245	244	244	244	243	243	241	243	246	246	245	244	243	243	241	241	242	239	236	232	229	237	248	250	247	247	251	245	231	224	235	232	230	232	232	233	244	224	223	234	234	
253	254	251	266	266	261	259	254	259	254	244	238	222	238	260	279	282	284	250	233	225	244	265	227	228	254	249	246	246	247	240	230	239	272	254	257	259	246	257	256	259	260	250	231	215	214	222	229	225	218	237	236	234	237	246	244	270	286	255	286	293	233	239	225	225	242	270	272	252	240	223	247	271	274	267	255	252	249	247	245	244	244	244	244	243	243	241	241	245	245	243	243	243	243	242	242	241	239	239	236	233	240	245	244	246	248	253	251	246	230	217	215	236	206	236	232	227	221	243	238	238	
269	272	249	273	277	255	246	252	260	250	249	232	229	253	268	283	262	229	233	227	228	261	266	250	255	249	245	243	244	247	245	234	240	274	273	272	264	257	253	255	259	264	266	260	235	223	248	252	253	252	243	235	236	242	269	272	277	284	247	292	247	242	235	293	234	240	253	262	249	243	246	271	273	274	272	255	246	244	245	243	243	243	243	243	243	243	241	241	245	243	241	242	242	242	242	242	240	239	240	238	236	242	246	248	245	244	252	249	253	246	231	215	240	233	239	226	245	242	245	250	250	
265	263	279	277	277	241	238	251	248	252	242	232	239	260	262	253	245	237	240	229	238	263	265	251	241	245	240	241	242	247	247	240	247	248	257	280	256	247	246	261	251	251	258	268	262	250	242	246	254	254	240	241	242	265	273	273	282	257	286	266	248	240	241	237	258	253	251	256	260	245	251	272	276	275	265	241	239	240	242	240	242	243	243	243	243	243	241	243	245	242	242	242	242	242	241	241	241	240	239	237	236	247	250	257	257	250	253	253	255	249	245	233	242	234	235	242	242	242	247	250	250	
241	243	244	227	238	223	233	229	247	245	239	236	256	260	281	254	256	249	240	236	249	265	231	242	252	244	235	237	240	246	245	239	249	254	256	252	222	244	245	215	221	242	254	251	255	248	238	241	250	270	231	234	264	267	275	276	286	258	282	245	240	254	238	244	287	299	277	271	264	228	250	270	271	267	247	232	226	237	238	238	241	243	243	243	243	243	242	244	245	243	243	243	243	242	241	241	241	240	238	235	232	231	253	264	268	272	254	250	252	251	245	235	215	232	236	241	237	240	244	247	247	
247	219	233	236	247	246	253	243	237	239	238	242	247	258	256	261	252	246	239	242	265	278	263	248	241	242	232	237	239	256	240	234	245	284	266	260	255	232	233	231	225	222	221	218	239	238	237	260	277	245	228	233	254	267	278	250	215	230	235	234	243	270	257	263	282	264	277	257	207	238	198	252	261	247	236	226	224	235	235	237	240	242	242	243	243	243	244	244	244	244	244	243	243	242	241	240	240	239	237	234	228	224	248	263	273	270	251	247	249	251	251	248	211	236	232	236	238	240	259	262	262	
222	222	250	252	252	256	264	262	251	243	243	247	250	268	247	241	243	247	239	257	255	272	241	240	226	244	240	242	243	234	236	232	244	283	254	258	245	258	257	256	253	254	255	250	240	240	247	251	251	242	232	239	245	260	255	210	214	222	222	225	243	273	252	248	217	233	240	211	206	199	234	237	207	224	224	223	223	234	235	237	240	241	242	243	243	243	244	243	243	244	243	243	243	242	241	241	240	238	236	234	225	241	251	259	267	257	242	238	243	244	229	252	241	236	229	234	239	238	262	261	261	
244	243	245	251	255	260	265	263	258	252	250	262	255	255	218	214	214	237	240	229	242	235	228	233	245	244	247	250	249	229	218	236	251	249	248	243	244	253	256	257	254	254	253	247	241	242	274	280	273	244	280	241	268	263	220	229	204	223	219	213	209	202	208	215	241	215	245	209	249	247	242	249	222	210	206	213	222	233	235	237	239	241	242	243	243	243	243	243	243	244	242	243	244	243	242	241	240	238	236	233	225	242	248	255	249	237	225	216	208	238	245	252	249	220	230	237	236	252	245	226	226	
236	239	243	262	263	269	267	249	266	258	262	217	219	242	235	231	231	231	230	228	238	233	214	226	239	240	245	248	250	248	240	251	251	218	219	248	244	241	242	243	241	261	256	239	268	240	264	268	245	242	273	242	270	229	217	210	189	240	225	223	230	218	247	247	242	240	249	251	206	246	186	256	251	218	211	206	222	225	235	235	236	240	242	243	243	243	243	243	244	243	241	243	244	243	242	241	240	238	236	233	224	242	250	253	248	251	247	246	246	239	245	253	252	240	234	236	237	244	229	251	251	
230	260	262	257	266	273	252	248	277	258	249	223	241	233	230	233	253	253	252	235	255	238	232	225	214	215	243	241	242	248	246	254	234	214	238	240	247	238	221	238	251	247	250	262	254	204	227	237	240	236	233	245	219	217	221	214	236	244	244	243	246	245	244	240	234	242	253	255	214	208	194	253	247	216	210	206	204	224	234	233	236	240	242	243	243	243	243	243	243	241	240	243	243	243	242	241	240	239	237	235	227	239	248	251	249	235	240	245	243	242	245	254	251	244	241	237	239	245	228	247	247	
242	248	253	251	258	269	248	285	292	221	238	224	236	228	228	230	249	254	259	259	260	265	263	256	250	248	246	237	238	246	248	250	225	217	243	233	215	211	210	219	213	220	225	209	207	208	241	233	222	210	226	230	221	224	212	243	246	254	259	250	240	234	211	234	229	242	251	253	242	217	250	194	239	217	210	223	222	218	214	234	239	242	243	243	243	243	243	243	243	241	240	242	242	242	242	240	240	239	239	237	232	228	244	246	241	225	221	237	249	240	246	268	247	243	243	245	239	247	228	247	247	
282	281	254	252	258	270	279	283	226	244	255	255	252	249	251	252	251	254	260	260	259	264	269	266	263	258	252	245	246	250	250	246	231	248	235	237	230	224	222	245	223	244	234	223	246	212	244	250	229	243	233	234	228	219	238	239	248	258	268	272	266	254	221	228	236	243	249	245	249	244	244	246	221	228	230	228	244	243	241	241	244	245	244	243	243	243	243	243	243	242	242	243	243	243	241	239	240	240	240	239	238	235	243	247	240	232	215	230	229	250	258	248	239	238	241	245	245	248	231	248	248	
242	281	269	277	261	258	227	248	243	251	250	252	250	247	248	252	250	251	256	254	252	269	258	259	261	258	252	243	253	255	254	256	230	249	253	256	256	254	250	249	250	246	236	225	243	244	242	255	256	246	253	233	247	242	236	239	252	259	266	270	274	269	257	246	247	235	228	224	215	205	203	201	206	225	245	246	244	248	249	248	247	246	245	244	243	243	243	243	243	243	243	243	244	244	242	239	240	241	240	241	242	241	246	246	236	230	222	214	232	244	229	228	218	232	238	241	245	252	230	249	249	
234	229	233	260	277	286	246	248	254	250	248	246	246	244	245	265	249	265	281	247	266	277	256	258	240	245	245	249	254	257	259	259	253	251	251	253	255	261	262	258	252	247	250	249	248	248	250	256	262	260	259	257	247	237	237	249	254	276	255	257	267	270	265	263	255	254	252	233	229	222	217	230	228	240	242	245	248	252	253	251	248	246	244	243	243	243	243	243	243	243	243	243	244	244	242	238	239	241	241	242	244	246	252	245	232	228	223	221	226	227	213	226	223	231	236	237	242	250	230	249	249	
213	239	231	240	249	230	244	252	252	247	244	242	242	242	242	258	262	279	266	271	280	229	209	212	246	243	239	246	255	260	261	261	257	252	249	248	249	253	258	259	256	252	252	253	252	251	250	253	254	254	255	253	241	233	240	267	278	267	249	252	258	261	257	264	269	268	271	274	269	261	254	250	248	244	240	241	260	267	271	267	248	245	243	242	243	243	243	244	243	243	243	244	244	245	242	239	239	241	241	242	244	247	254	260	240	237	230	231	229	228	229	210	215	228	229	234	239	246	230	240	240	
247	255	263	261	243	246	233	248	243	239	237	238	241	258	250	245	262	275	279	295	247	240	213	244	248	242	229	239	252	257	259	259	256	252	250	249	249	249	247	252	253	249	245	247	250	253	248	246	245	242	249	247	237	232	239	268	278	263	268	272	243	234	242	253	260	262	269	275	272	264	256	250	246	241	238	254	274	278	273	260	248	246	243	241	242	243	244	244	244	244	244	244	246	246	244	241	240	241	241	241	243	246	250	255	257	241	240	234	230	231	231	218	208	207	226	231	235	242	246	247	247	
249	258	271	276	265	250	250	239	241	237	219	238	243	245	242	239	241	260	253	263	222	249	240	244	253	238	213	234	263	249	253	254	252	250	249	250	252	251	250	251	250	244	241	248	276	249	243	246	249	251	255	253	243	239	243	264	233	211	216	221	240	229	233	249	254	258	262	268	262	255	249	246	244	240	251	269	278	272	259	255	249	244	242	239	242	244	244	244	244	244	244	244	245	245	244	242	243	243	241	241	243	244	246	249	252	254	239	237	233	233	232	226	216	208	223	231	233	240	243	244	244	
245	277	266	263	267	263	236	243	230	241	235	241	240	246	240	241	244	251	271	250	236	212	238	250	240	232	212	230	254	265	262	245	242	243	246	247	247	249	252	252	244	238	243	270	255	245	237	242	248	253	255	255	250	244	261	265	240	252	250	245	238	231	232	238	267	269	274	264	260	245	250	252	255	277	272	271	280	259	239	226	232	230	239	239	243	245	245	245	244	244	244	244	244	244	243	243	244	245	244	243	243	243	243	246	249	250	253	254	240	242	236	232	222	229	225	233	235	240	241	242	242	
223	235	239	250	249	267	257	248	250	247	239	243	247	246	221	241	245	250	222	255	251	239	244	269	236	229	203	229	250	265	228	239	239	242	247	248	244	247	272	248	233	235	249	282	251	234	227	237	244	248	272	249	247	243	263	281	254	252	248	242	240	244	239	238	255	270	272	230	235	229	244	267	272	278	280	278	270	218	216	206	220	223	236	240	247	249	247	246	245	245	244	244	244	243	243	243	244	244	244	246	246	243	243	244	245	246	248	250	251	245	242	236	224	232	238	235	236	239	240	240	240	
211	222	231	224	247	244	238	241	240	243	242	243	248	249	242	244	244	245	249	253	239	239	268	220	215	218	207	229	244	228	220	234	236	242	248	251	249	262	236	241	226	237	269	243	241	227	226	234	261	272	269	249	245	240	250	256	247	246	239	235	239	246	249	241	242	258	242	243	236	271	268	262	271	279	291	198	211	209	205	203	216	215	235	244	253	255	251	249	247	245	244	244	244	244	244	244	244	244	243	245	246	245	245	244	243	244	246	247	248	245	243	236	225	243	239	237	236	238	240	240	240	
219	233	228	225	228	222	220	211	218	227	241	239	249	237	242	247	249	245	246	219	214	183	206	211	208	217	220	248	258	254	242	234	238	246	248	251	254	257	226	235	229	245	265	251	234	225	230	238	252	266	268	259	244	238	260	263	244	242	231	230	239	273	246	242	244	259	246	240	273	276	274	232	269	287	208	206	212	208	227	219	231	232	237	248	254	253	253	253	249	246	244	244	244	244	244	244	244	244	244	244	244	245	246	245	243	243	244	245	245	248	243	243	235	243	241	238	237	237	239	240	240	
231	233	259	260	240	236	234	222	222	227	239	232	249	236	235	242	258	266	267	227	212	209	209	209	206	226	229	253	262	262	249	241	245	247	269	252	254	254	244	236	241	254	238	246	226	226	238	252	247	245	272	250	242	278	249	266	238	235	226	228	239	280	246	240	243	258	248	243	276	276	275	262	256	205	204	204	206	208	221	235	233	233	242	275	258	246	252	256	252	247	246	245	245	244	244	244	244	244	244	243	243	244	245	245	244	243	242	243	243	245	245	245	240	228	240	239	239	239	240	253	253	
251	260	267	271	274	271	262	254	248	234	240	233	249	248	230	239	261	263	272	233	221	211	233	229	233	228	233	260	259	259	255	254	266	269	272	254	233	243	236	240	248	258	248	239	223	230	243	247	249	249	241	239	242	281	252	237	225	230	258	231	254	284	243	240	243	264	252	234	284	259	233	226	218	214	212	211	230	225	234	234	234	236	272	259	230	241	275	259	254	251	249	247	246	245	245	245	245	244	244	243	243	243	243	244	244	244	243	242	243	244	243	246	241	228	239	238	239	240	243	252	252	
250	257	266	271	277	277	272	267	264	258	248	245	241	244	233	243	257	263	270	239	218	239	222	235	236	233	237	273	254	276	254	255	268	268	275	254	247	233	233	243	269	257	240	231	224	234	258	258	260	266	263	257	253	249	237	250	239	229	230	237	246	279	243	238	269	276	206	190	200	209	215	214	220	221	237	242	244	244	238	232	249	271	292	234	225	268	280	282	263	256	254	250	247	246	246	246	245	244	244	243	243	243	243	243	243	244	243	242	243	243	242	243	243	225	241	257	237	238	255	244	244	
240	268	273	283	287	269	269	269	268	266	262	262	259	247	253	258	258	255	240	233	216	230	224	227	235	248	266	275	279	278	277	288	256	256	235	250	239	228	235	264	273	231	244	224	224	240	250	252	250	254	269	272	285	247	237	244	235	228	231	238	260	278	249	236	278	217	206	201	201	206	214	241	242	241	242	239	241	243	240	249	266	285	239	227	218	247	274	269	284	272	260	255	252	250	248	247	246	245	244	244	243	243	243	242	242	243	242	240	242	242	240	241	241	238	241	244	243	246	241	243	243	
225	252	273	275	273	278	255	255	255	260	260	263	264	256	249	251	259	252	247	230	208	225	213	221	243	245	269	277	279	281	276	280	291	259	256	247	234	232	242	262	261	235	237	222	225	236	267	254	276	252	246	249	212	233	229	236	230	225	230	248	260	274	213	250	254	215	207	199	205	235	243	248	250	248	243	239	239	251	251	250	276	242	231	218	220	244	270	264	264	281	293	260	257	255	251	249	247	246	245	244	243	243	242	242	242	242	241	240	241	241	239	241	235	225	241	244	240	232	245	246	246	
218	244	256	267	253	267	264	239	268	269	249	275	276	256	253	254	262	228	241	229	231	214	207	231	255	264	265	272	276	278	283	267	253	254	255	245	232	238	248	263	230	225	231	224	231	238	256	259	249	279	257	258	219	209	203	235	230	228	236	228	218	217	209	217	215	210	207	204	229	238	243	251	252	247	242	247	263	266	272	283	268	219	225	219	228	247	265	263	238	239	263	280	260	257	255	253	251	248	246	245	244	243	242	242	242	241	241	241	242	242	240	241	241	237	243	248	251	246	237	236	236	
227	252	253	230	237	242	243	239	248	270	274	271	250	250	251	254	263	229	233	225	225	205	206	233	248	250	249	254	267	278	283	256	249	248	249	239	230	241	250	270	239	240	227	225	238	247	250	243	271	249	285	259	220	217	215	213	203	235	232	229	226	227	224	226	222	214	214	226	230	232	238	246	248	253	249	244	267	270	284	205	212	227	223	223	240	265	274	245	225	225	243	242	256	252	257	259	257	253	250	247	245	244	243	242	241	241	241	241	241	242	241	240	239	237	247	248	253	245	245	231	231	
236	262	256	230	235	238	255	268	276	276	284	251	248	250	249	255	263	231	225	223	219	203	210	241	252	246	237	244	256	275	254	244	233	247	247	237	233	245	259	230	232	234	225	227	236	263	270	264	262	259	254	215	215	214	243	242	240	241	249	252	251	251	228	227	226	221	236	229	225	229	241	262	264	270	275	278	279	258	211	213	229	227	224	236	237	267	280	256	234	220	195	196	218	269	257	262	262	259	254	250	247	245	243	242	241	241	241	240	240	241	241	240	238	237	246	245	246	243	233	243	243	
242	265	263	253	222	234	232	255	278	268	283	250	250	266	250	256	240	228	220	216	219	203	212	243	255	242	242	250	255	257	231	235	244	249	249	239	236	249	264	230	243	230	226	235	244	243	252	266	263	272	229	218	222	242	241	243	247	250	253	253	253	254	255	252	249	249	240	229	224	235	238	260	265	270	276	289	205	219	217	236	231	229	236	260	260	269	272	236	210	204	221	227	251	276	269	277	283	262	256	252	251	247	244	242	241	241	240	240	240	240	240	240	239	239	238	239	239	232	240	243	243	
244	265	259	255	246	237	241	242	241	251	244	262	281	254	252	251	237	233	234	225	221	205	212	242	248	239	244	253	254	228	231	230	237	245	247	237	237	259	223	233	238	227	227	240	250	255	251	247	251	230	219	217	242	238	239	244	250	254	254	254	255	257	258	258	255	248	238	229	227	237	258	262	263	273	290	207	215	241	239	235	233	240	266	264	259	257	212	207	215	229	227	259	232	274	276	285	294	283	260	256	253	248	245	243	241	240	240	240	240	239	239	239	240	241	241	239	239	237	251	260	260	
250	254	243	249	247	244	237	232	243	243	236	243	278	251	227	242	243	248	249	239	224	208	213	243	246	241	249	253	241	229	226	225	245	254	244	235	244	254	233	247	234	225	229	239	268	255	259	256	258	226	220	225	236	234	237	244	249	249	249	252	254	255	256	257	258	243	232	230	232	240	256	262	266	276	223	228	236	234	237	238	242	240	270	278	276	222	226	217	235	231	227	227	257	271	266	249	283	260	260	276	251	245	245	242	239	239	239	240	239	239	239	240	240	241	241	241	238	239	247	253	253	
257	256	253	250	251	250	246	242	235	246	246	250	228	245	250	235	247	229	228	223	220	212	216	244	246	242	250	250	231	246	241	231	245	239	242	237	249	255	230	222	232	224	230	238	261	263	252	273	270	227	230	241	233	233	239	246	245	240	243	250	251	252	254	256	250	233	227	232	244	244	253	252	256	221	235	223	223	223	234	267	239	266	273	284	261	229	219	241	235	231	234	256	256	274	242	234	268	245	236	238	237	240	240	236	237	239	239	239	239	239	239	240	241	243	243	243	242	240	249	244	244	
255	252	250	254	257	254	246	248	232	242	253	253	268	254	246	230	248	240	228	227	222	218	218	241	247	243	247	243	231	241	237	245	250	246	237	239	248	231	249	244	232	226	232	250	254	263	247	255	223	237	219	234	231	237	248	248	240	236	242	247	247	246	248	265	238	222	224	234	247	269	264	254	253	230	239	233	207	213	253	270	272	263	274	298	235	220	239	238	233	232	258	259	263	276	253	264	247	200	186	184	207	238	236	232	236	238	238	239	238	239	238	238	240	242	242	243	242	242	249	240	240	
248	244	243	262	255	249	243	250	235	242	249	256	243	238	240	237	244	251	243	238	228	226	222	244	241	244	243	231	246	239	238	257	241	222	236	255	226	221	230	242	233	230	235	243	255	256	271	233	225	227	235	227	232	244	278	245	235	236	242	267	271	273	277	224	224	215	222	240	269	276	281	272	262	223	236	224	199	210	246	268	281	273	278	244	231	234	231	236	235	259	265	267	268	283	234	197	205	213	237	219	236	220	233	231	236	238	238	238	238	238	237	236	238	240	240	241	241	243	247	241	241	
246	239	240	255	247	241	240	250	243	246	251	245	223	232	237	232	238	249	234	234	233	235	234	243	243	245	225	223	232	243	261	242	223	226	229	226	238	240	245	243	236	232	236	252	251	256	264	245	241	243	226	222	236	269	249	235	232	238	259	270	279	222	213	208	223	215	223	240	269	278	283	282	275	219	224	222	202	216	250	262	279	277	291	244	233	221	226	258	266	270	266	269	233	212	226	226	224	237	235	287	289	251	231	232	236	237	238	238	238	238	236	236	238	240	239	240	242	244	246	244	244	
247	244	244	223	243	238	234	247	250	248	249	246	239	219	214	231	237	250	222	227	234	239	244	244	245	248	245	237	243	251	265	227	243	244	234	241	234	241	247	247	239	235	241	247	245	247	252	237	229	233	216	220	258	256	243	231	234	242	261	257	217	211	208	226	225	221	225	258	272	279	283	284	290	233	211	222	211	224	253	264	275	284	241	232	220	215	227	256	278	286	279	251	234	249	249	248	241	250	248	287	286	269	236	234	236	237	238	238	238	238	236	236	237	238	239	240	242	243	247	246	246	
251	250	250	238	229	238	233	245	245	249	234	242	231	252	245	240	241	251	230	214	219	237	240	237	246	245	231	244	249	254	229	250	230	247	229	237	231	241	248	247	238	236	244	250	251	258	251	226	227	226	211	226	259	251	241	233	237	262	262	228	214	215	226	225	228	233	238	255	263	274	282	266	224	221	228	221	225	233	252	258	273	299	231	218	214	216	244	266	278	286	315	238	249	246	246	244	238	240	264	274	251	243	216	231	236	238	238	238	238	237	237	236	237	237	238	239	241	242	245	244	244	
238	254	257	256	249	243	235	245	243	246	243	252	248	246	249	248	248	249	247	216	235	214	235	235	243	243	237	246	262	258	225	239	229	242	246	236	235	251	257	245	237	236	241	243	263	266	256	239	224	222	212	234	261	249	242	237	242	249	212	227	224	232	224	223	231	243	250	251	243	259	285	226	222	236	216	217	260	277	254	252	265	244	222	221	215	222	243	259	276	301	220	242	241	201	240	237	235	257	276	242	218	207	207	217	232	236	237	237	237	237	237	237	237	238	239	238	238	240	242	244	244	
252	252	258	264	262	254	244	249	232	242	244	255	236	230	215	246	257	260	248	236	229	213	240	240	243	243	236	249	257	228	220	234	234	247	247	243	248	250	243	240	235	235	242	244	258	259	221	230	235	221	217	249	269	272	244	274	247	229	219	220	218	228	219	222	256	269	252	246	242	250	222	226	231	226	203	214	261	247	275	251	254	230	221	215	219	255	251	254	279	226	234	240	230	237	236	234	254	288	203	222	204	191	187	214	224	232	235	237	237	237	237	237	237	239	240	239	236	238	240	242	242	
243	242	245	253	261	261	257	253	246	242	247	255	266	251	251	252	253	261	261	251	242	238	239	240	244	242	238	252	239	243	240	238	246	251	252	254	256	265	257	241	232	228	236	264	265	245	252	245	236	224	224	235	261	268	245	243	218	220	217	218	236	221	215	226	254	275	260	242	242	254	235	238	232	220	194	212	254	255	292	269	257	230	222	213	223	254	276	258	252	243	229	236	234	232	248	253	281	208	221	259	262	260	231	213	219	229	234	235	236	236	237	237	237	239	241	241	240	239	240	241	241	
238	237	238	257	261	251	249	240	235	241	249	266	244	244	253	244	248	252	258	256	247	242	233	238	242	241	244	252	246	241	236	242	247	255	255	257	255	268	219	241	233	231	235	251	256	242	246	244	239	226	226	237	252	267	220	197	242	243	244	244	232	218	214	224	257	275	252	239	239	254	251	236	229	215	190	211	251	267	285	280	223	235	216	213	241	267	288	263	292	232	230	252	249	235	242	271	243	211	246	242	248	237	233	216	216	227	231	233	235	236	237	236	236	238	240	240	240	240	240	240	240	
236	238	242	248	241	223	237	229	230	241	259	256	238	213	203	212	239	246	250	247	243	243	245	246	243	240	246	246	248	241	239	249	264	266	267	250	256	217	248	239	237	240	242	249	249	235	241	243	239	223	228	251	253	224	230	239	240	245	247	245	235	219	214	222	252	265	247	241	236	253	251	226	225	215	192	213	251	261	288	215	241	234	217	222	245	260	282	272	275	235	226	188	214	225	231	240	196	184	198	217	205	209	209	205	183	223	228	232	235	236	236	236	236	237	238	239	240	239	239	239	239	
229	235	247	263	238	239	231	230	238	250	255	264	267	255	210	202	208	203	211	230	231	235	246	251	249	241	238	242	242	241	249	265	262	255	245	257	252	251	239	234	237	240	251	248	227	241	241	247	235	217	227	257	237	239	247	238	240	247	250	245	239	228	218	239	240	244	253	238	292	251	225	216	219	217	195	214	246	259	224	243	233	226	221	254	255	261	275	332	201	197	227	178	229	226	226	214	205	200	206	218	214	207	197	188	190	223	226	230	233	235	236	236	236	237	237	239	239	239	239	239	239	
224	235	258	222	227	232	226	230	239	249	265	267	247	240	247	208	250	248	233	239	229	230	251	251	249	241	226	227	246	263	261	250	232	221	229	237	238	240	226	232	240	230	226	226	224	247	251	229	230	218	232	254	244	252	244	233	236	246	252	241	242	242	235	237	237	239	237	236	255	264	224	211	215	222	199	213	250	252	248	245	236	218	222	267	280	262	248	204	200	208	196	234	186	227	230	221	213	208	206	246	225	237	227	235	235	231	226	228	233	236	236	236	236	236	238	240	239	239	240	240	240	
223	243	246	233	215	227	227	236	238	258	273	272	238	225	217	210	236	254	251	243	231	231	249	245	244	238	222	224	247	232	229	228	221	224	243	244	234	235	211	237	228	224	229	229	233	248	229	230	220	221	235	254	249	244	235	227	235	261	231	233	241	246	247	248	244	241	239	237	274	281	220	224	238	229	199	213	247	251	228	240	230	216	235	261	283	268	210	207	192	207	208	196	179	243	230	228	222	244	216	239	250	250	250	251	278	255	230	229	234	236	235	236	236	235	239	240	240	240	240	239	239	
233	249	233	222	233	230	236	245	242	255	269	256	238	234	229	247	250	254	254	246	233	233	253	254	246	237	228	236	243	240	235	226	221	238	253	244	231	231	212	238	227	228	228	227	240	248	224	239	214	218	242	253	219	224	227	223	237	259	237	232	242	255	241	243	247	241	239	246	245	246	215	253	263	230	198	212	248	260	251	243	229	223	242	251	206	203	205	203	191	193	241	216	209	243	255	258	255	249	249	247	253	244	247	261	282	264	221	227	235	236	236	236	235	234	238	239	239	240	239	238	238	
242	229	249	243	236	239	248	246	256	256	256	235	234	245	240	241	243	250	254	243	229	232	254	263	246	238	236	244	249	245	235	235	232	249	255	231	225	231	232	233	231	231	231	234	244	246	221	226	219	210	234	249	224	238	227	227	241	245	236	235	268	224	238	247	255	242	241	244	240	246	260	241	235	226	199	209	243	255	254	241	230	233	251	248	215	209	210	208	202	200	214	242	244	249	257	261	260	256	249	245	239	243	263	266	266	232	192	213	233	235	235	236	234	234	239	240	240	241	239	238	238	
233	247	249	247	245	248	249	249	259	262	254	221	204	201	203	205	226	242	233	231	221	231	252	233	246	239	240	245	249	247	240	235	243	252	253	227	244	237	234	236	242	245	247	248	258	249	226	216	224	210	237	255	238	235	229	233	242	270	256	241	240	239	275	270	250	235	242	249	247	240	255	255	230	225	204	215	242	243	231	237	233	252	254	225	212	206	223	225	221	241	244	244	243	246	249	250	250	247	243	258	255	259	272	262	224	200	192	207	228	232	234	235	233	233	238	240	241	240	239	239	239	
241	243	245	247	253	254	252	253	273	265	248	224	216	241	218	234	231	218	213	229	222	231	251	259	252	245	244	247	250	252	239	241	247	255	254	226	240	239	237	236	239	243	252	262	252	259	223	214	222	216	240	267	253	230	227	233	248	253	253	269	241	235	243	272	243	221	237	246	246	244	212	210	211	226	208	221	243	248	245	238	240	243	197	206	214	209	206	239	243	244	243	240	235	255	250	247	249	247	247	254	255	262	263	231	225	229	206	208	223	228	232	234	233	233	238	240	240	240	240	240	240	
243	255	251	264	246	246	250	279	258	264	262	254	248	249	250	247	250	252	246	236	230	231	247	270	249	244	243	246	251	253	250	247	252	257	242	225	236	241	239	240	243	242	239	241	252	222	248	241	230	227	257	268	246	230	231	236	242	242	247	241	247	233	255	246	236	221	237	246	247	240	249	231	226	229	210	221	258	259	254	262	199	202	202	219	223	245	242	239	240	240	255	266	246	273	185	174	200	223	191	220	225	214	198	195	198	207	203	190	215	222	229	233	233	234	239	241	241	241	240	239	239	
238	272	260	257	250	264	268	276	259	267	246	252	224	247	246	245	250	253	247	243	243	241	244	245	235	239	243	247	250	252	254	255	256	247	250	243	235	241	241	244	250	251	252	253	255	224	242	234	229	247	260	245	229	230	232	240	248	239	235	237	245	239	217	215	234	233	243	252	248	242	232	247	238	232	211	219	252	263	264	251	240	235	208	217	242	244	241	237	253	267	248	228	217	213	212	218	216	209	204	216	221	220	216	208	207	200	190	196	214	220	229	234	234	235	237	239	240	240	239	238	238	
240	268	276	281	285	270	271	281	249	244	239	234	235	233	233	237	244	241	232	244	236	240	255	249	245	233	229	235	246	253	260	268	263	266	260	243	234	243	246	251	257	260	262	262	256	245	239	237	246	271	259	255	216	232	236	250	251	260	255	248	256	274	209	214	229	228	239	264	274	256	244	224	223	225	218	235	259	274	268	247	234	226	236	236	237	236	236	254	261	210	218	208	218	214	243	221	246	214	235	241	226	222	217	208	222	222	226	221	218	222	231	235	237	240	243	245	243	240	238	237	237	
250	267	280	259	274	283	259	280	242	232	222	221	220	224	226	237	250	219	229	252	225	233	260	268	249	242	215	224	242	254	264	276	278	270	262	255	248	245	251	258	263	266	271	274	256	238	232	242	269	282	269	257	244	241	251	269	274	269	265	263	268	283	216	226	234	222	235	268	286	286	261	236	224	221	222	253	271	272	252	245	240	236	233	233	233	251	250	279	243	242	233	234	244	246	249	253	251	247	249	258	261	255	248	240	239	241	233	213	218	223	232	235	239	244	251	253	248	240	237	235	235	
