ncols	121
nrows	160
xllcorner	1648855.938895
yllcorner	466851.943984
cellsize	500.000000
NODATA_value	nan
240	237	246	321	292	264	221	231	225	247	254	257	267	277	202	185	273	255	250	272	300	327	316	346	295	278	263	257	253	250	248	243	229	212	225	208	228	226	231	231	232	238	243	249	244	251	242	256	253	251	258	250	244	241	253	270	297	280	244	235	247	255	255	244	224	241	228	265	245	227	254	223	151	155	261	270	264	229	229	236	230	249	271	283	281	278	266	236	238	214	225	226	225	203	228	227	188	186	187	223	236	218	226	215	219	224	234	200	264	260	247	236	256	283	288	271	235	226	227	232	232	
240	237	246	321	292	264	221	231	225	247	254	257	267	277	202	185	273	255	250	272	300	327	316	346	295	278	263	257	253	250	248	243	229	212	225	208	228	226	231	231	232	238	243	249	244	251	242	256	253	251	258	250	244	241	253	270	297	280	244	235	247	255	255	244	224	241	228	265	245	227	254	223	151	155	261	270	264	229	229	236	230	249	271	283	281	278	266	236	238	214	225	226	225	203	228	227	188	186	187	223	236	218	226	215	219	224	234	200	264	260	247	236	256	283	288	271	235	226	227	232	232	
226	234	244	301	286	262	242	238	236	244	279	257	163	180	235	257	251	250	280	314	5	24	341	322	282	269	261	256	253	250	247	242	232	221	231	219	227	227	259	258	256	265	273	242	254	228	262	250	245	255	258	244	236	262	252	311	269	264	236	233	274	256	257	252	240	238	243	246	241	241	263	249	261	263	263	265	246	227	228	244	240	185	269	308	289	285	260	241	243	245	242	221	231	207	228	235	193	190	228	248	226	222	230	227	225	243	258	257	255	254	233	233	282	308	273	265	247	232	239	242	242	
229	230	245	234	253	272	270	270	253	252	254	203	201	196	245	235	240	279	286	181	175	136	220	275	266	260	258	255	252	249	246	243	238	237	244	237	226	254	261	265	264	262	254	199	213	250	239	241	238	255	251	241	241	249	235	208	251	250	231	231	244	261	271	251	260	256	245	264	256	266	191	189	256	246	321	177	226	228	256	259	253	243	208	266	304	253	246	244	248	232	247	250	232	241	241	232	197	194	221	230	216	228	238	251	253	252	254	228	244	238	222	232	275	265	252	251	259	260	258	251	251	
235	240	249	249	247	303	253	283	263	266	261	204	205	227	231	233	247	282	359	191	175	136	254	268	266	262	258	254	251	249	246	244	240	236	236	231	255	261	264	237	225	220	209	206	209	217	228	225	236	244	250	246	244	250	250	280	293	256	236	227	240	249	261	277	245	257	258	249	244	254	252	277	248	155	183	232	226	233	256	274	269	256	225	194	186	189	210	248	259	252	207	197	254	252	244	221	202	208	197	232	215	226	232	257	266	265	264	226	241	239	226	236	265	211	228	260	246	245	254	249	249	
239	243	249	259	290	277	247	277	286	286	282	215	203	238	223	234	265	305	184	175	157	44	292	262	263	263	258	253	251	249	246	244	240	235	233	252	258	254	223	214	225	223	217	216	220	228	232	228	226	233	240	244	245	247	248	248	271	204	228	218	238	248	250	283	239	242	277	257	257	250	249	302	169	242	236	228	230	250	245	273	179	253	252	248	233	244	248	257	269	267	251	232	255	265	264	229	211	241	213	235	215	224	231	250	253	259	268	257	241	238	227	244	240	200	236	261	218	235	247	252	252	
238	245	255	254	251	226	236	261	286	286	258	290	248	228	219	250	282	324	201	125	330	323	355	320	260	262	256	251	249	247	246	244	240	235	234	254	252	228	239	236	245	248	256	257	259	254	240	240	238	231	226	238	237	242	254	216	202	185	230	232	253	247	239	240	279	266	265	251	277	252	223	199	185	240	232	231	237	247	243	248	216	247	259	256	246	241	247	272	258	262	265	259	220	260	264	257	246	245	228	238	220	226	234	245	244	242	231	206	233	212	234	248	251	251	244	221	234	234	241	241	241	
230	255	256	260	255	244	236	283	286	272	320	267	205	225	220	247	273	236	197	295	284	311	349	298	315	258	250	248	248	247	246	245	241	237	241	245	235	224	253	255	260	262	262	266	270	267	267	272	276	268	233	224	237	239	254	206	243	241	238	250	272	271	246	234	232	231	249	196	214	268	242	218	238	239	239	242	242	240	243	236	245	216	250	245	240	252	259	198	238	246	267	276	265	259	258	257	252	250	248	241	226	229	241	251	238	227	223	219	215	227	223	245	284	226	187	236	230	239	265	230	230	
225	250	283	260	257	211	238	244	247	243	247	264	245	224	229	248	262	179	129	272	299	316	30	18	15	250	243	244	247	247	246	245	243	241	245	250	248	262	247	250	256	258	268	271	276	270	284	273	283	281	270	261	253	250	232	250	242	241	241	270	267	273	272	268	240	233	236	217	256	266	260	246	235	242	250	258	256	249	242	238	231	221	238	241	253	288	203	243	231	260	273	267	268	266	262	258	257	255	249	246	231	232	245	234	254	257	257	256	254	249	246	248	248	245	230	221	224	252	253	226	226	
239	249	246	203	240	246	247	230	246	235	246	238	240	220	235	260	262	248	229	245	297	271	105	113	129	176	233	240	245	246	246	245	244	242	242	254	255	262	248	245	271	276	279	289	312	289	279	281	268	267	265	265	266	267	255	239	232	246	254	297	315	249	266	278	262	252	246	246	244	258	250	240	236	249	252	251	253	259	258	232	229	228	232	238	290	249	248	240	233	238	289	248	278	289	257	258	261	262	258	249	235	237	246	247	252	257	260	261	259	258	261	262	265	260	239	211	222	265	275	227	227	
278	259	262	244	254	251	232	247	244	241	247	212	240	219	235	256	325	249	234	250	242	204	140	133	200	175	232	239	245	246	246	246	246	245	243	240	236	237	239	244	253	266	270	287	294	294	273	300	265	240	281	265	267	266	257	236	230	264	293	280	241	265	303	264	263	252	248	248	240	232	241	238	245	277	190	231	246	255	187	254	232	231	236	244	221	237	237	239	309	239	289	289	324	185	240	249	258	260	261	249	242	240	241	241	242	244	264	248	247	258	257	259	258	230	238	214	229	253	241	232	232	
250	267	257	257	251	251	251	252	251	249	257	254	241	225	238	262	254	248	245	260	198	188	154	132	139	241	233	241	245	246	246	246	246	246	247	246	243	240	237	235	236	240	254	284	286	307	258	292	254	235	237	266	283	256	251	246	242	243	265	249	242	289	247	249	258	260	253	249	220	247	238	238	284	167	185	170	174	209	250	253	258	239	232	227	215	231	257	277	285	254	305	242	221	236	271	278	282	244	252	258	250	240	236	253	255	263	269	269	266	270	271	279	292	251	243	230	253	254	246	238	238	
248	250	200	249	240	238	242	249	250	252	256	254	248	238	248	255	166	248	256	229	201	187	166	161	155	240	237	244	245	246	247	247	247	246	247	245	243	246	246	251	257	256	254	257	246	312	246	279	253	240	239	247	256	246	249	268	259	255	250	259	250	241	243	249	254	263	257	252	264	257	263	288	170	180	246	252	170	208	247	256	269	273	265	240	225	216	215	219	261	287	217	252	242	236	262	182	240	239	248	254	249	236	236	241	255	243	216	217	226	229	221	219	236	259	241	231	252	291	197	241	241	
242	208	254	244	228	234	238	247	245	252	255	249	248	242	258	281	248	243	253	316	237	177	128	98	241	245	242	247	247	246	247	247	247	246	246	244	242	240	247	254	258	260	260	261	254	306	248	256	237	240	245	254	246	273	241	250	257	259	257	234	242	235	238	244	291	260	257	255	247	221	205	208	205	191	181	192	215	239	247	258	271	281	279	267	234	229	230	247	256	288	266	281	238	243	238	247	237	240	285	282	244	226	233	244	259	218	218	230	241	233	214	218	229	223	244	272	291	211	186	237	237	
253	252	252	255	254	242	242	250	251	251	246	252	261	243	243	246	243	66	240	270	289	298	310	318	8	244	242	248	247	246	246	247	247	246	246	245	242	239	248	252	255	259	260	263	244	289	282	294	249	245	302	254	244	263	254	284	269	248	282	227	236	228	233	256	269	250	251	259	220	257	256	252	243	242	238	225	235	238	247	279	294	269	282	281	266	247	241	253	260	239	279	261	307	170	243	276	287	265	278	274	242	215	225	257	235	250	242	239	241	237	245	245	245	245	232	229	206	200	214	229	229	
249	244	241	249	260	251	240	251	259	249	254	257	221	194	251	245	211	207	235	260	270	272	320	118	117	208	302	242	241	244	246	247	247	247	246	246	242	239	250	256	260	262	256	247	251	270	269	280	241	233	236	243	243	235	232	219	274	253	209	203	228	228	237	245	292	243	244	253	252	193	250	247	243	260	253	239	233	243	267	313	269	285	262	275	280	265	242	243	229	208	224	215	238	238	236	299	284	258	291	269	234	208	225	246	252	245	250	261	263	257	250	259	252	258	260	246	212	239	236	223	223	
248	186	238	247	261	249	241	240	247	261	272	208	203	188	236	261	241	227	239	240	187	196	189	238	66	90	165	239	236	242	246	246	247	247	247	246	244	242	249	250	249	240	229	232	234	223	220	213	199	197	200	209	207	209	217	218	219	211	201	235	224	226	243	262	254	221	195	207	209	238	239	246	257	324	240	228	250	284	313	180	277	266	279	258	275	283	262	251	229	229	225	244	242	214	238	308	235	237	310	188	173	210	233	251	249	244	252	262	264	260	257	263	255	263	265	249	222	234	227	218	218	
226	244	243	245	205	241	237	239	241	233	225	214	209	248	256	261	262	257	258	241	221	189	176	179	169	140	171	240	237	242	246	246	247	247	247	247	247	247	250	249	242	230	230	243	238	222	224	217	204	205	209	213	214	218	223	233	243	229	221	200	227	229	246	244	219	199	239	230	228	230	240	242	266	245	220	219	270	310	182	314	302	306	269	296	297	277	276	248	230	211	241	248	244	288	258	283	235	243	192	190	220	216	236	249	277	238	272	267	276	252	270	256	272	265	249	209	243	229	223	238	238	
256	256	255	244	221	189	205	227	247	240	244	249	235	250	249	251	258	268	275	270	246	233	225	195	189	147	248	239	239	243	246	246	247	247	248	248	248	250	254	251	249	244	254	260	233	222	226	209	207	206	214	248	249	251	256	264	267	267	260	250	240	247	255	256	219	250	247	244	237	238	241	252	228	240	214	218	265	244	13	314	317	292	285	301	268	259	279	266	237	244	265	252	263	287	274	167	168	187	195	191	211	215	235	272	277	262	257	272	284	265	265	256	284	275	216	213	203	215	208	239	239	
259	261	265	235	233	224	188	234	242	247	251	253	265	223	240	244	248	258	267	269	262	252	192	278	279	82	155	240	241	245	246	246	247	248	248	248	249	250	253	254	252	259	264	258	220	218	221	214	207	244	249	251	251	253	259	265	265	269	268	260	254	257	272	272	223	210	243	238	230	239	242	251	263	242	221	231	258	249	241	235	226	235	237	293	265	277	255	254	240	239	248	259	247	204	192	185	193	197	206	228	208	215	232	270	277	284	247	243	266	283	292	289	197	199	207	213	200	228	231	246	246	
254	249	200	258	258	258	255	254	257	251	240	229	224	197	240	253	254	297	258	251	64	242	243	293	267	199	206	238	240	245	246	247	248	248	248	249	249	250	251	250	253	252	255	248	214	238	240	248	245	249	251	252	251	249	278	286	271	287	259	264	267	288	293	198	212	196	228	232	228	244	252	258	248	243	230	244	268	248	327	248	242	237	236	278	274	254	241	229	229	235	244	249	255	250	239	196	201	200	238	221	210	221	234	266	283	248	283	267	247	276	246	190	192	194	214	214	221	222	232	251	251	
203	214	244	247	251	256	263	273	281	275	243	229	231	228	244	290	193	192	218	216	238	234	249	288	221	165	136	237	240	245	247	247	248	248	248	249	249	249	249	250	257	251	252	240	207	241	243	242	246	254	253	252	281	273	285	286	277	285	285	284	299	298	193	193	197	234	218	227	227	254	260	266	253	244	243	245	310	312	228	237	238	239	237	241	208	192	181	224	213	231	249	251	205	195	193	193	194	201	189	220	213	228	261	263	277	240	290	256	267	232	192	194	185	184	216	214	238	221	239	252	252	
203	245	239	244	248	251	287	273	290	290	271	235	236	234	226	206	200	221	207	239	235	239	269	222	200	170	201	245	245	246	248	248	248	248	248	248	248	248	248	251	255	256	254	227	229	234	239	244	257	253	272	278	288	284	282	300	292	277	283	304	252	180	189	201	198	218	232	230	233	259	276	256	255	307	269	228	210	213	205	219	188	239	236	243	204	196	204	224	201	227	247	250	252	253	255	247	224	241	224	213	216	253	265	267	269	286	288	185	214	218	197	191	225	191	216	213	234	225	249	236	236	
247	243	238	244	276	275	295	289	274	288	286	274	242	243	235	217	201	213	236	230	234	246	273	234	191	150	335	272	248	248	249	249	249	249	248	248	248	249	249	250	252	259	244	253	238	234	250	252	275	282	276	273	282	285	282	295	310	269	250	205	189	181	185	224	224	233	227	238	263	251	255	264	248	254	256	257	257	259	258	251	249	219	242	240	231	194	186	224	197	218	250	255	249	194	183	178	170	237	222	205	224	251	259	269	274	242	192	187	200	222	216	195	186	197	236	217	234	231	247	238	238	
247	246	244	269	275	279	297	289	297	277	286	292	280	245	243	225	203	240	228	226	235	258	303	265	255	357	51	123	247	251	254	252	250	249	248	248	248	249	249	248	251	252	231	240	235	251	265	271	277	292	282	264	260	262	264	290	248	255	260	255	253	188	221	231	242	221	225	256	267	271	254	249	226	185	192	246	249	252	256	256	255	254	255	258	243	203	209	223	199	212	252	261	253	199	189	204	186	173	215	202	246	253	256	245	229	200	195	190	187	224	224	204	199	194	231	215	232	236	236	234	234	
247	249	276	273	290	294	302	299	283	293	265	281	291	278	239	231	215	235	220	231	255	260	206	212	177	137	341	266	285	250	254	254	251	249	248	248	249	249	249	249	252	253	244	249	247	248	268	274	277	292	298	281	276	261	258	280	298	248	241	182	189	179	222	223	236	212	223	265	256	261	285	254	221	243	243	245	243	291	251	238	246	250	255	265	269	238	194	226	203	210	249	256	228	197	186	182	179	230	214	203	233	258	235	224	222	206	199	202	193	214	225	218	242	197	232	244	243	245	249	251	251	
250	273	288	293	286	199	186	188	175	164	264	253	273	285	273	241	211	231	222	252	254	241	253	203	257	303	310	326	284	305	250	252	250	248	248	248	248	248	249	249	250	249	238	246	252	256	263	270	273	288	292	284	288	244	251	246	194	243	196	189	192	232	247	242	236	208	220	254	276	292	212	247	241	239	264	247	240	200	246	241	241	244	246	254	266	214	254	229	204	211	251	255	255	204	193	196	191	230	214	207	254	245	210	220	221	219	210	244	206	239	228	248	244	245	248	252	255	257	253	258	258	
303	289	288	341	194	205	202	212	214	213	211	204	199	262	274	261	212	229	225	257	262	258	269	295	292	299	304	323	60	291	249	246	246	247	248	248	248	248	249	248	248	247	238	240	242	244	246	251	244	227	241	223	201	211	224	226	210	197	215	242	243	241	251	242	231	209	231	237	222	218	241	245	242	247	247	250	241	253	243	249	256	255	238	263	266	254	308	229	201	210	248	253	265	255	290	301	203	232	216	216	243	225	217	222	220	251	246	246	248	252	251	248	247	250	251	252	259	262	259	255	255	
314	293	233	191	190	212	207	243	253	257	259	260	256	244	269	272	245	236	236	249	253	266	246	297	298	304	287	238	86	214	181	244	243	246	247	247	248	248	248	248	249	248	241	237	242	247	252	249	229	225	229	213	197	202	223	229	215	204	221	229	194	183	183	183	225	217	244	247	260	255	251	251	250	257	255	234	185	175	238	237	209	235	236	255	280	199	198	218	198	208	246	250	251	216	201	179	186	230	220	229	245	258	257	256	257	258	256	255	256	260	260	248	240	238	265	271	276	285	245	239	239	
173	203	206	201	203	243	244	247	254	260	265	266	264	263	270	275	267	256	253	241	238	245	255	305	296	273	218	182	122	102	176	245	244	244	246	247	248	248	248	248	250	249	245	244	246	251	254	239	223	231	226	215	198	194	224	229	215	209	224	226	213	209	206	193	226	223	241	257	262	257	250	250	251	252	269	217	180	183	186	213	205	235	243	211	189	188	188	214	199	209	242	259	256	206	197	184	179	227	221	224	249	258	262	261	260	260	253	249	252	256	258	253	233	250	267	282	296	237	229	212	212	
244	206	210	215	239	235	240	247	251	258	261	262	262	268	276	272	271	270	274	258	246	245	234	226	210	220	229	194	142	113	218	244	242	243	245	247	247	248	248	248	249	250	249	249	248	252	249	223	223	239	219	211	202	197	223	226	215	216	230	225	212	222	219	239	232	232	239	272	265	253	263	255	249	278	276	209	179	179	187	191	203	241	236	209	225	196	193	211	200	209	255	261	261	240	209	201	174	169	214	211	240	246	252	256	258	296	242	264	265	283	279	237	227	233	248	283	227	224	227	207	207	
211	223	213	204	230	223	236	274	279	275	281	283	283	293	299	320	258	265	278	283	259	247	241	247	265	273	238	185	149	124	225	239	238	241	244	246	247	248	248	248	249	250	250	251	254	251	241	225	239	238	215	212	212	212	220	224	222	226	232	230	224	245	243	241	239	245	250	262	282	246	255	255	251	235	203	189	180	181	185	203	207	249	212	245	229	200	201	212	199	207	251	255	254	203	199	180	177	224	208	203	231	257	266	276	289	283	241	264	268	294	235	233	228	237	252	273	222	229	226	206	206	
254	266	243	239	218	216	255	285	299	280	291	299	314	349	171	196	245	270	282	296	284	248	250	256	266	235	197	175	163	162	160	239	237	241	244	246	247	248	248	249	249	249	250	252	257	262	249	249	244	227	219	237	253	256	259	262	265	267	266	261	254	248	244	241	240	281	300	266	248	282	281	286	188	203	206	199	192	216	186	200	207	212	249	244	247	210	210	221	200	206	249	249	240	213	200	186	181	218	204	204	231	251	257	280	287	285	299	236	257	228	241	234	234	240	250	247	236	235	244	217	217	
197	192	207	228	215	219	253	287	311	280	297	166	226	246	246	245	304	299	330	289	312	266	248	238	237	206	203	184	165	169	211	243	239	242	245	246	247	248	248	249	249	249	250	252	254	253	262	257	241	252	249	249	256	261	262	264	268	272	270	263	253	247	247	245	268	274	256	299	258	254	249	217	196	192	202	200	211	209	242	201	195	249	247	244	246	249	228	231	201	208	247	240	238	233	201	187	184	209	201	206	249	249	247	261	279	285	231	282	261	240	236	263	236	245	251	250	241	235	297	230	230	
222	219	241	227	222	230	259	279	317	280	215	231	245	241	244	284	298	305	311	282	306	302	240	230	237	224	230	256	307	325	263	243	242	244	246	247	248	248	248	248	248	249	250	251	251	250	251	237	245	239	249	249	273	258	278	281	286	262	262	258	249	269	265	273	273	248	268	252	264	265	262	246	211	190	187	210	210	213	209	242	245	247	245	240	244	250	199	178	206	209	247	254	256	241	199	190	185	202	199	211	251	249	243	244	242	238	226	223	235	237	248	284	282	283	284	280	283	267	294	253	253	
255	252	244	232	230	260	264	268	254	247	260	249	239	235	260	286	309	314	301	259	276	301	292	252	249	249	267	255	257	263	223	227	238	243	246	247	248	248	249	248	249	249	249	250	250	255	259	249	237	241	257	273	273	278	278	281	288	294	284	289	288	268	249	279	293	285	249	285	255	259	264	264	255	228	189	246	247	247	244	243	246	246	243	238	247	226	200	184	221	214	246	260	253	222	202	195	187	217	203	219	257	261	259	257	228	225	201	211	234	224	205	234	244	267	237	262	282	291	240	238	238	
255	251	245	240	236	259	271	276	252	252	250	245	238	258	261	326	131	169	219	283	338	299	306	291	257	248	221	188	177	176	173	203	208	239	243	247	249	249	249	249	249	249	249	248	247	249	250	243	255	262	268	275	279	272	268	275	287	291	264	283	250	246	245	245	269	245	286	275	246	247	254	256	259	254	222	210	243	244	244	244	247	246	240	245	257	257	242	250	240	227	251	249	224	216	212	201	223	214	207	237	259	267	271	271	207	221	227	227	239	206	203	224	217	216	222	228	248	280	234	231	231	
248	244	245	249	246	260	263	278	266	246	240	263	240	258	293	164	225	221	174	173	191	271	301	310	254	249	229	214	207	202	194	202	198	241	245	249	250	250	250	249	249	249	248	247	245	240	238	259	264	263	259	258	250	244	245	238	244	282	283	302	248	245	245	248	246	247	272	234	207	196	182	239	247	252	251	247	243	243	244	247	249	247	246	249	259	255	261	261	252	251	258	235	223	219	240	236	226	221	210	233	255	260	260	234	206	206	221	228	241	215	230	224	223	237	240	241	247	267	236	222	222	
244	244	249	295	256	271	262	253	254	244	261	245	247	262	246	199	227	249	246	185	303	311	284	309	299	251	235	221	234	234	226	242	246	252	254	253	252	251	250	250	249	249	248	247	244	237	233	253	259	250	243	239	229	221	226	228	238	242	250	302	254	241	240	248	250	245	247	219	195	236	230	228	183	230	207	248	246	243	242	246	249	249	247	245	248	252	289	260	251	260	273	272	266	259	255	256	256	245	223	235	247	250	240	213	207	195	224	235	229	209	232	242	246	244	246	247	258	255	236	225	225	
240	243	274	299	293	284	269	261	255	245	262	269	268	258	257	233	250	244	242	248	296	303	278	289	298	283	267	257	256	258	254	248	253	262	266	262	257	253	251	250	249	249	248	247	244	237	235	251	249	244	240	238	229	215	224	236	247	255	254	251	248	243	241	251	250	249	250	252	198	188	251	250	226	213	242	244	244	242	240	243	245	246	249	244	242	273	294	246	242	253	265	269	266	259	254	257	273	263	244	240	245	244	233	200	242	230	230	242	248	245	241	242	243	242	260	244	265	250	239	240	240	
238	262	280	302	310	293	287	292	258	252	297	249	191	255	255	251	316	242	239	265	297	298	292	281	277	275	264	256	258	259	253	249	271	284	268	270	265	256	252	250	249	249	248	248	246	240	240	252	249	243	237	235	228	219	225	239	248	254	296	250	248	245	247	253	251	249	251	253	207	226	223	255	254	249	245	243	241	240	240	242	241	241	277	247	243	283	206	196	240	251	258	260	259	246	257	284	303	277	250	249	250	245	229	207	193	231	239	254	259	255	251	254	252	251	250	230	224	241	204	229	229	
233	268	277	302	299	288	303	254	246	301	244	245	245	246	254	241	257	262	239	280	305	258	269	289	306	249	250	263	265	267	263	276	285	298	282	304	265	258	253	250	249	248	248	248	247	244	245	249	244	240	235	236	232	227	236	248	252	253	254	247	246	243	248	252	253	252	250	249	213	246	251	258	254	252	247	243	241	241	241	242	238	260	286	245	273	278	247	277	271	289	294	239	279	271	274	288	302	263	250	251	251	252	226	204	229	229	239	247	255	261	262	256	248	247	236	227	245	242	248	244	244	
221	256	273	296	301	268	182	192	209	214	210	195	180	238	213	234	251	298	260	334	200	194	183	139	266	281	246	275	287	284	281	291	312	314	12	10	255	257	253	249	248	248	248	251	249	248	252	253	241	240	234	238	238	237	246	253	255	255	254	249	246	244	246	249	250	249	248	248	246	239	248	261	249	268	243	238	240	243	242	243	270	256	290	134	273	293	276	291	291	241	236	293	280	266	270	287	273	250	247	251	253	248	221	225	221	226	258	263	270	282	258	264	259	243	252	246	251	254	226	207	207	
220	237	246	233	256	258	220	243	236	236	235	231	219	208	209	226	212	192	219	199	202	219	243	233	119	268	269	273	280	280	291	321	341	172	100	269	285	251	247	246	247	247	248	250	250	251	255	257	255	240	229	237	239	240	247	254	260	263	271	289	249	255	246	248	246	245	247	231	247	246	288	248	248	267	239	234	240	274	239	267	277	267	296	234	273	291	304	5	242	242	303	281	286	286	257	242	217	229	239	246	254	240	233	234	224	237	253	258	269	266	249	249	263	257	252	248	263	208	200	246	246	
234	248	255	258	259	264	263	260	260	262	264	264	235	228	222	232	220	208	228	222	188	213	240	234	223	224	249	261	275	281	301	313	317	315	319	320	338	192	236	241	246	247	248	249	250	251	254	257	260	258	236	239	238	237	245	251	255	255	250	257	283	243	247	244	240	239	242	245	244	248	285	244	264	259	233	231	243	241	234	277	293	288	261	242	292	304	231	240	323	237	235	234	290	339	210	215	196	202	210	236	242	246	239	234	234	248	258	257	262	282	246	240	238	248	251	252	273	223	242	239	239	
239	247	263	282	255	257	252	254	256	257	257	261	263	260	256	257	235	223	230	226	220	209	185	235	227	229	234	238	246	268	295	295	304	299	316	129	158	181	227	238	245	247	248	250	251	251	253	255	259	261	256	239	234	231	238	241	238	230	220	222	230	228	240	230	232	236	242	243	240	247	281	286	299	237	227	226	257	240	231	273	302	290	253	324	236	221	239	305	232	234	306	170	216	213	205	244	243	197	197	188	226	220	224	244	246	244	269	268	262	286	244	236	232	264	244	272	196	206	226	225	225	
243	249	266	262	195	207	247	291	181	180	208	251	257	263	267	266	262	257	256	228	222	247	245	244	236	240	245	244	247	246	194	190	176	161	165	169	174	229	226	237	245	247	249	250	251	251	252	253	256	259	260	259	240	235	235	237	231	222	219	230	233	215	204	233	226	234	241	246	237	262	288	199	192	227	226	224	253	313	251	270	184	237	276	242	228	249	244	238	226	221	215	244	248	252	250	250	249	245	197	189	221	204	213	240	260	262	265	269	260	281	240	235	278	259	284	193	197	193	228	223	223	
252	264	264	258	218	208	205	206	221	247	247	251	255	262	269	272	270	267	263	259	255	251	252	257	261	266	259	244	242	233	221	206	194	188	184	183	182	227	229	240	247	249	250	251	251	251	252	253	254	257	259	263	265	237	240	236	224	221	229	236	225	215	209	200	244	237	236	240	242	232	247	241	232	227	229	227	255	272	256	251	243	219	240	239	232	247	253	255	253	251	248	247	250	256	258	261	264	260	245	197	206	207	210	239	250	242	229	221	230	238	240	241	273	244	196	202	203	227	225	227	227	
266	268	269	268	263	259	257	254	251	247	246	249	252	285	261	265	267	266	262	259	254	251	252	258	269	280	287	272	239	229	226	223	219	207	196	194	207	229	234	246	252	253	252	252	251	251	252	252	253	254	256	260	265	266	266	242	225	233	239	229	219	224	220	217	235	216	215	222	218	223	245	241	239	242	233	231	252	297	277	206	226	216	243	202	240	248	240	246	251	251	248	245	245	247	251	257	262	266	264	255	241	218	213	240	236	221	240	239	235	245	208	192	166	185	193	196	233	227	223	235	235	
263	264	275	266	264	262	257	249	249	247	244	268	274	303	253	286	257	254	253	252	248	246	249	281	299	277	288	291	264	257	254	251	249	222	227	216	238	236	242	253	259	258	255	253	253	252	252	252	252	253	254	256	259	264	270	265	256	241	234	223	229	249	247	246	221	217	222	231	229	232	239	252	243	248	258	233	244	297	246	249	240	232	245	202	189	218	219	236	220	234	234	235	260	260	261	264	241	247	248	262	252	225	220	244	239	237	232	247	256	257	210	201	191	188	195	197	227	221	227	240	240	
255	254	266	256	253	255	250	241	270	249	267	276	294	302	300	308	250	284	246	246	244	270	267	286	277	298	273	277	273	270	269	268	266	259	249	242	240	241	248	258	262	258	257	256	253	252	252	252	252	252	253	254	255	259	264	265	262	240	236	238	251	259	241	212	213	237	239	245	254	246	253	261	238	280	248	241	246	221	197	241	235	230	244	238	191	251	249	243	238	236	234	229	217	225	206	174	170	195	264	264	235	227	224	236	240	254	245	245	266	246	201	241	206	188	225	227	232	230	242	247	247	
242	282	279	252	256	308	316	234	285	317	266	273	299	312	321	239	241	282	282	286	277	276	269	288	243	183	135	139	221	262	269	271	268	261	252	244	240	260	282	302	279	250	256	256	253	253	253	253	252	252	252	253	254	255	257	261	264	260	250	246	249	247	216	232	215	239	240	257	249	254	257	238	237	236	238	244	254	253	245	221	232	227	249	253	242	219	248	249	252	255	253	250	246	246	222	242	209	234	235	188	227	229	231	232	238	256	268	268	253	216	195	216	219	199	219	232	233	240	248	251	251	
236	235	240	278	249	247	235	240	293	251	241	270	221	246	188	245	258	269	292	282	290	250	251	220	200	202	191	230	238	255	265	267	264	258	253	246	261	281	307	190	208	249	256	256	254	254	254	253	253	252	252	252	252	253	254	255	257	258	255	246	246	241	217	236	226	244	242	233	236	238	247	200	244	235	215	191	247	254	253	223	234	228	247	247	233	242	240	243	250	253	256	260	260	257	253	248	244	247	243	240	190	237	241	239	231	240	234	225	220	214	196	236	215	201	225	228	236	251	246	245	245	
236	238	223	243	249	239	232	248	294	250	265	286	287	250	247	245	302	235	282	302	253	188	215	219	205	235	233	228	236	274	287	273	272	267	264	268	297	194	201	244	244	255	261	260	259	258	256	255	253	253	252	252	252	252	252	252	253	255	257	257	248	234	234	228	234	241	251	250	253	261	256	237	188	247	232	220	242	246	251	249	238	234	240	236	237	239	236	241	264	229	242	252	260	258	255	254	254	253	254	253	252	247	268	250	245	244	235	218	213	226	217	198	203	224	224	229	248	253	271	269	269	
247	248	239	239	196	234	231	274	246	240	279	263	200	235	234	240	184	229	244	186	186	188	253	219	242	236	234	230	259	276	290	296	292	283	291	324	158	231	245	241	273	282	263	265	267	265	260	257	255	253	252	252	251	251	251	251	251	252	254	256	258	241	235	244	260	258	260	254	267	268	261	251	252	194	240	243	243	236	241	244	240	238	241	243	240	249	254	257	228	236	235	271	262	243	247	250	250	247	247	248	253	297	263	253	252	251	245	214	222	241	226	234	233	230	228	240	264	280	278	263	263	
258	258	255	246	236	198	233	222	204	204	213	213	207	200	203	196	198	226	232	214	202	200	242	246	239	235	243	238	263	285	303	308	291	292	335	179	229	234	235	243	266	299	282	265	272	273	267	261	257	255	253	252	251	251	250	250	250	250	250	250	250	260	266	244	252	269	270	269	271	278	259	243	251	241	234	245	230	225	215	240	238	239	242	246	241	189	185	190	229	254	260	260	172	233	241	246	245	244	243	245	293	293	287	250	248	255	246	214	229	249	219	226	223	227	246	247	265	282	281	287	287	
261	264	271	263	248	213	220	231	202	194	230	213	226	225	223	222	212	253	231	228	215	238	239	240	237	239	271	279	267	285	301	305	308	15	187	186	226	220	231	254	288	297	295	283	270	275	273	267	261	257	254	252	251	250	250	250	249	249	247	243	240	252	262	264	262	264	261	264	265	275	220	242	238	242	234	238	232	227	222	208	234	240	249	242	234	226	215	216	222	207	207	234	176	230	268	275	278	240	273	284	313	180	174	187	237	249	257	244	239	246	209	228	224	230	263	268	269	277	238	231	231	
267	259	267	272	266	238	231	233	216	205	250	252	257	261	263	263	262	262	264	260	252	243	236	236	261	267	291	296	270	283	307	319	167	189	197	220	216	215	260	273	289	288	286	294	308	307	274	271	265	260	257	254	252	251	250	249	249	248	247	243	240	246	244	245	241	227	228	242	239	218	197	239	238	244	237	243	239	222	221	230	229	240	252	261	260	256	252	250	247	244	216	207	228	228	256	276	266	272	276	156	196	244	234	180	226	244	250	240	249	237	237	223	227	261	263	253	247	254	239	233	233	
217	210	243	265	269	263	260	242	256	250	248	251	257	260	261	264	263	260	262	261	254	250	241	233	255	266	301	286	275	284	188	186	190	203	193	228	219	222	259	272	284	284	286	296	312	325	316	266	264	263	261	255	252	251	250	249	249	248	247	246	244	249	250	244	226	223	235	237	226	228	222	198	198	242	235	242	243	231	216	225	226	239	245	254	259	259	260	262	265	261	247	233	231	231	228	233	275	289	189	214	246	249	178	234	253	251	233	228	249	226	226	221	252	249	217	234	229	237	212	240	240	
255	253	251	257	264	263	261	261	254	249	249	252	278	254	254	291	250	248	251	255	255	296	250	235	259	266	291	285	279	194	195	192	191	232	234	233	232	251	267	269	285	282	288	290	303	311	330	312	258	262	262	257	254	252	250	249	249	248	248	248	248	249	244	231	219	228	235	235	241	253	224	232	192	210	237	238	247	234	210	223	224	237	237	236	241	247	250	252	258	264	254	240	237	226	227	239	252	185	222	212	311	301	299	238	296	238	219	222	243	238	226	243	238	239	242	245	255	254	227	244	244	
255	265	251	271	251	251	252	253	246	240	262	272	301	296	301	240	236	236	271	274	285	287	238	231	254	264	280	262	254	200	193	196	232	231	235	237	272	290	277	264	289	294	286	285	293	307	318	338	302	305	255	256	256	254	251	250	249	249	248	249	252	257	257	232	227	234	245	252	257	259	199	195	193	201	243	243	245	237	204	223	227	241	223	242	249	253	255	241	274	247	246	239	236	237	246	251	259	230	240	257	286	293	232	237	254	224	214	221	235	234	237	247	254	255	267	248	250	257	220	243	243	
252	259	262	241	244	242	243	249	243	250	274	298	301	305	252	244	229	236	266	285	304	238	241	240	247	253	223	208	219	209	198	226	222	226	238	267	279	326	291	257	285	321	283	288	263	289	299	349	16	250	247	255	261	258	253	250	249	249	248	249	253	257	258	252	234	240	249	248	244	238	226	205	222	215	248	249	246	248	195	210	238	221	215	221	229	236	248	261	197	202	162	224	228	238	255	250	246	241	251	224	181	282	288	168	179	219	213	214	227	233	237	240	255	251	251	268	267	252	247	233	233	
246	244	236	241	241	239	239	268	254	252	248	289	303	318	250	235	224	260	270	298	240	247	249	261	262	247	222	201	213	212	234	230	224	229	261	274	291	267	338	229	278	339	289	181	178	260	237	217	140	209	242	288	261	260	255	251	250	248	248	250	252	254	256	255	250	235	234	235	233	232	224	239	207	247	254	250	199	253	201	211	227	216	218	234	243	246	210	189	189	196	234	215	218	236	249	248	252	220	222	202	194	196	181	181	183	181	212	207	221	248	250	260	257	263	269	271	270	229	235	223	223	
247	253	245	238	264	264	235	274	254	295	256	249	297	232	231	226	223	256	295	221	223	244	252	264	273	269	230	206	244	243	235	235	240	229	257	274	295	288	224	230	268	90	180	199	196	191	186	188	220	237	293	312	295	255	253	251	249	248	248	249	251	251	252	255	257	255	252	239	236	238	236	217	217	197	238	245	251	259	233	215	238	235	239	255	258	253	231	202	231	239	236	209	213	235	252	255	264	200	184	201	247	245	242	196	195	214	213	205	222	247	253	249	250	251	259	272	219	212	237	230	230	
254	251	240	237	241	262	236	260	289	255	261	255	285	247	237	221	230	270	257	252	240	245	269	254	263	267	233	247	236	237	236	265	292	281	254	249	308	247	231	242	258	194	186	187	217	214	209	240	233	282	298	321	272	254	250	249	248	248	248	249	249	250	250	252	255	257	256	247	244	247	244	222	215	225	207	231	246	255	252	213	232	235	244	261	258	252	249	190	214	212	180	206	207	233	254	255	261	199	187	161	158	259	204	199	219	211	213	208	240	246	272	284	270	262	260	263	221	245	241	237	237	
251	247	236	237	240	262	242	250	260	279	254	261	217	237	227	222	256	281	253	238	240	259	243	226	172	253	252	239	232	239	239	273	305	315	265	256	254	250	243	256	260	200	192	221	204	242	241	240	239	285	301	309	283	258	252	248	248	248	249	249	249	249	250	250	252	254	255	246	244	245	240	217	218	234	234	242	239	246	238	225	222	238	255	258	255	253	253	247	214	194	183	209	205	232	245	248	246	199	198	245	248	250	254	250	242	203	212	210	237	242	265	290	281	259	249	223	197	237	230	229	229	
204	242	233	228	233	241	251	257	269	254	196	222	249	242	226	227	271	311	250	244	259	195	193	205	239	242	241	233	233	262	275	278	310	247	272	256	290	253	327	260	201	198	190	210	234	230	233	237	274	304	308	286	307	294	253	251	250	249	249	249	249	249	249	249	250	252	255	256	245	246	237	213	228	245	245	213	222	197	203	209	215	236	250	250	252	251	231	254	252	204	233	214	209	234	247	247	247	254	254	254	254	235	270	158	230	223	210	212	235	250	259	286	246	275	252	202	202	199	229	227	227	
201	210	231	230	249	252	253	261	271	226	258	256	250	243	236	242	266	193	181	186	199	219	212	241	240	243	240	234	258	260	272	279	310	249	238	262	291	274	248	173	195	190	196	234	219	223	254	261	302	320	311	242	237	260	254	256	254	252	250	249	249	249	249	249	249	251	254	255	255	250	232	216	239	250	240	210	196	186	200	204	213	239	253	251	251	252	219	236	250	253	239	217	208	232	246	247	249	257	182	177	171	169	174	170	196	216	209	213	234	247	253	276	242	267	248	199	239	242	239	235	235	
244	241	234	236	248	258	267	256	245	234	252	250	249	246	246	256	236	209	199	199	211	244	243	242	243	247	248	241	253	260	267	284	294	249	247	258	249	189	197	195	200	206	195	224	212	223	264	286	327	163	164	206	229	269	269	252	256	255	252	250	249	249	248	248	249	250	251	254	257	245	234	232	245	245	229	218	201	190	197	204	214	241	253	248	251	261	247	260	240	279	197	219	204	222	238	247	252	237	194	191	194	197	191	181	197	216	209	213	233	246	250	261	246	188	198	202	191	231	233	230	230	
251	248	242	257	263	254	257	274	260	252	269	238	283	252	250	224	219	212	224	246	241	240	241	243	245	278	252	246	246	245	251	264	285	287	296	282	214	203	200	196	195	221	239	221	217	250	268	58	172	167	167	172	176	232	248	254	248	255	256	253	250	249	248	248	248	248	249	252	257	257	249	240	244	240	232	226	203	192	218	205	216	243	256	254	255	260	254	185	178	184	178	207	204	215	246	252	256	270	211	181	158	175	184	209	229	218	210	212	221	250	249	251	245	248	245	191	207	202	220	229	229	
253	248	272	270	264	264	279	256	261	201	198	241	185	176	178	196	204	222	209	238	236	236	241	246	248	292	252	236	245	254	252	244	250	279	294	255	212	179	199	199	221	209	230	226	234	259	253	214	196	209	204	197	174	175	175	219	262	254	260	259	253	250	248	248	248	248	248	250	253	255	252	241	243	242	240	231	202	219	215	207	218	242	256	255	254	257	205	191	182	188	235	216	203	207	237	249	254	237	192	180	168	154	163	208	230	221	213	210	219	256	256	250	242	220	233	234	206	208	219	235	235	
291	250	247	255	262	262	269	190	199	197	210	219	210	202	200	202	218	213	240	234	233	237	265	269	288	307	250	234	240	271	279	260	248	247	231	200	184	181	199	230	210	233	226	235	273	270	260	237	248	207	161	277	142	161	173	254	275	288	257	259	256	251	248	247	247	247	248	248	250	252	253	252	243	243	239	228	205	213	213	211	222	244	254	253	253	255	206	203	229	277	205	217	201	205	239	251	252	220	194	186	177	166	164	205	202	225	217	209	217	248	248	235	219	201	187	180	181	213	221	240	240	
275	254	250	255	251	253	245	210	200	198	201	231	228	226	224	221	248	244	240	233	234	263	272	280	298	256	244	241	244	243	269	287	270	263	222	254	208	197	190	191	235	224	228	269	294	257	258	253	146	325	246	310	296	149	295	287	296	314	288	251	252	250	247	247	247	247	247	247	248	249	252	253	253	246	238	230	209	232	216	217	239	251	254	255	255	249	222	185	185	204	180	207	201	206	237	250	250	248	227	200	164	158	162	201	208	228	222	213	224	244	227	217	217	216	207	216	234	236	240	243	243	
257	250	243	267	267	261	261	204	196	198	223	220	250	253	254	252	249	248	242	232	234	272	276	276	286	240	238	246	249	243	249	279	256	261	202	245	236	230	227	216	228	224	256	271	252	252	342	250	246	242	265	277	238	123	239	288	302	340	239	208	247	245	246	246	246	246	246	246	247	247	250	252	255	247	242	232	223	229	219	224	240	245	245	247	252	239	216	200	197	191	187	203	198	206	235	247	250	257	246	197	164	165	166	194	201	210	226	221	237	244	236	232	232	233	225	239	239	240	241	242	242	
254	246	240	258	256	258	257	212	188	226	216	245	245	250	255	254	253	254	242	227	254	273	279	274	253	241	238	270	247	242	251	255	287	224	192	192	240	251	246	237	228	230	260	283	251	293	247	259	338	20	224	216	233	235	239	293	294	285	251	215	250	245	246	247	246	246	246	245	246	246	248	250	255	256	253	234	217	228	224	231	244	244	245	249	251	215	243	209	217	196	196	200	197	208	237	249	252	249	194	188	172	168	167	192	201	205	228	228	245	257	257	256	255	252	247	241	240	241	240	239	239	
249	245	244	254	256	259	258	204	228	216	241	240	242	247	251	275	280	282	238	225	248	260	275	293	249	236	242	260	242	240	252	255	242	207	196	195	235	244	243	284	230	252	250	284	249	290	293	185	226	220	246	238	234	236	276	316	242	254	311	289	250	248	248	248	247	246	245	245	245	245	246	248	252	255	257	252	242	232	230	246	244	248	252	255	246	200	238	223	240	198	197	200	197	209	240	255	252	232	207	190	177	171	202	193	200	232	230	232	245	254	256	256	256	255	250	246	244	242	239	237	237	
250	244	240	247	268	270	215	239	215	238	235	236	240	262	265	294	307	249	237	230	240	248	256	265	248	237	253	246	241	240	255	268	291	210	242	234	243	240	243	238	236	252	247	262	248	250	241	248	246	244	40	238	239	291	355	167	196	259	272	359	287	247	248	251	250	246	244	244	244	244	245	246	248	251	254	251	243	235	233	246	248	252	253	251	229	241	186	233	241	204	192	199	198	210	240	256	238	216	218	198	185	178	202	195	228	233	235	238	245	250	252	255	257	255	253	251	248	246	241	236	236	
241	241	230	243	252	258	216	223	238	237	237	237	256	276	300	206	232	247	242	236	242	248	252	249	243	243	307	248	243	242	241	249	250	213	240	244	238	241	313	235	240	266	257	260	359	198	234	235	240	354	234	258	316	107	154	137	303	286	268	310	268	291	244	252	251	244	243	243	243	243	244	245	246	247	248	246	243	238	234	238	254	249	244	239	222	191	213	238	223	211	195	201	202	213	243	254	211	204	220	205	191	186	203	226	231	234	238	245	249	247	247	251	255	256	255	251	247	247	240	228	228	
223	242	243	252	257	258	238	240	234	240	246	242	251	270	226	237	229	250	249	238	240	251	252	230	241	247	293	247	244	248	250	245	227	244	243	236	238	258	242	230	255	293	255	252	198	234	225	232	241	234	236	288	126	140	78	327	237	291	259	262	302	262	282	287	244	240	241	241	242	242	242	243	244	244	244	243	242	239	235	240	250	241	237	237	222	224	220	225	233	230	205	204	211	218	248	249	201	192	215	210	198	210	231	232	234	235	240	247	250	243	258	256	260	264	266	264	259	260	255	212	212	
247	249	253	255	257	259	249	233	236	246	301	245	250	267	276	294	305	303	253	233	237	253	247	243	242	258	206	191	225	255	179	257	235	222	241	240	245	247	238	231	272	251	243	225	197	198	190	222	230	232	251	114	246	357	318	308	236	270	208	218	210	317	319	232	233	233	238	240	241	241	242	243	243	242	242	242	241	238	235	243	247	236	240	237	239	246	248	255	254	252	245	233	220	226	255	228	201	191	220	214	218	233	232	234	236	235	256	260	266	263	249	260	274	286	289	241	268	279	239	205	205	
249	255	259	255	257	253	242	228	256	267	264	239	252	270	293	298	304	293	226	226	235	253	258	256	260	270	244	246	247	252	256	254	244	239	239	241	294	246	266	240	266	193	231	207	198	215	187	229	230	240	275	316	324	332	1	102	238	176	185	205	160	136	152	196	230	229	233	237	240	241	242	242	242	242	242	241	240	238	236	242	249	246	244	255	254	251	252	256	256	254	248	237	227	236	248	214	201	211	219	224	239	232	231	233	233	250	269	284	300	227	213	239	277	274	230	219	232	276	288	219	219	
250	263	249	248	264	252	236	227	250	293	253	231	236	267	288	184	181	229	213	224	237	261	252	247	239	228	193	240	244	248	243	246	240	240	243	238	267	243	240	252	241	184	182	186	201	216	234	230	233	240	248	153	86	235	140	175	192	198	230	199	172	160	172	194	232	229	231	236	239	241	241	241	241	241	241	240	240	238	236	240	246	248	257	249	250	250	251	256	258	255	247	239	232	247	244	226	215	237	241	243	240	236	233	233	248	262	274	297	240	222	208	253	281	244	236	223	223	236	230	222	222	
249	199	225	239	271	248	236	232	254	291	249	231	249	249	207	204	227	223	237	229	244	260	264	263	260	243	219	220	211	197	233	240	235	243	241	230	213	238	194	189	190	252	179	171	214	216	235	227	234	250	240	192	194	190	223	243	173	214	224	188	185	165	194	193	235	231	233	237	239	240	241	241	241	241	240	240	239	238	237	238	238	243	252	243	245	247	249	256	261	258	249	243	239	244	237	219	236	236	239	241	243	240	233	250	265	263	280	267	235	220	207	235	284	243	236	226	227	242	233	229	229	
224	242	243	240	251	250	241	240	261	232	246	241	263	221	234	249	251	248	241	238	249	282	264	264	267	268	264	238	224	209	188	237	234	243	246	232	225	216	185	198	227	194	220	238	241	219	237	220	236	247	231	198	188	204	192	167	151	190	214	203	187	176	201	205	235	230	234	238	239	240	240	241	241	241	240	240	240	239	238	238	236	240	246	256	240	242	244	264	271	258	255	249	243	248	227	239	232	235	238	240	262	244	257	263	264	268	291	240	234	219	209	248	266	247	237	229	232	248	233	226	226	
212	237	243	248	249	281	246	246	264	258	243	252	209	254	245	249	254	251	246	244	250	256	256	256	262	269	273	273	267	231	225	199	239	243	244	231	231	236	208	238	244	250	249	234	240	221	240	201	243	240	223	211	192	202	211	196	182	180	204	214	204	188	181	205	232	230	235	239	240	240	240	240	241	240	240	240	240	240	239	238	236	235	237	246	261	246	266	276	277	262	252	252	248	249	245	233	229	232	233	252	272	288	266	261	256	264	298	238	232	218	215	234	250	245	238	234	241	243	234	215	215	
229	233	248	263	250	247	284	257	286	250	242	246	236	238	240	248	249	247	246	248	265	258	251	251	255	260	266	269	271	269	264	255	206	243	255	235	234	238	226	185	238	245	221	229	242	187	237	182	248	230	216	220	206	202	211	206	201	188	216	230	229	221	217	240	238	235	238	240	240	241	240	240	240	240	240	240	240	240	239	238	237	237	233	236	241	250	260	274	264	264	247	239	242	242	235	225	223	244	243	264	276	290	326	228	233	252	302	224	231	218	222	240	258	292	255	293	285	299	226	205	205	
226	237	245	237	239	245	263	201	216	242	238	232	240	236	243	259	257	263	273	273	272	251	250	252	272	297	245	252	257	265	270	269	264	263	267	260	234	233	225	216	213	196	180	173	232	208	184	200	240	231	220	228	219	213	212	212	211	222	243	251	252	252	253	253	249	244	242	241	240	241	240	240	240	240	240	240	240	240	239	237	237	238	235	237	240	241	246	258	252	239	210	217	215	226	223	218	217	239	254	260	274	287	242	322	236	253	304	223	231	215	221	266	269	279	233	249	270	251	223	209	209	
228	238	241	249	248	249	252	253	257	257	251	244	241	243	279	245	258	252	289	264	289	287	256	264	318	254	245	243	249	255	259	263	266	270	277	279	272	238	233	225	224	208	189	156	234	216	226	245	264	273	271	251	248	242	240	257	255	249	247	253	254	253	257	288	255	249	245	241	240	240	240	240	240	240	240	240	240	240	239	238	237	239	236	233	239	239	240	240	197	186	178	199	191	220	216	212	216	242	256	258	266	281	264	234	230	255	298	234	229	212	218	256	291	246	182	229	230	196	227	222	222	
236	245	253	248	249	253	239	212	250	252	248	244	248	265	254	247	240	239	241	283	283	280	251	258	244	247	258	243	275	279	250	252	255	262	270	282	287	277	239	233	229	214	195	175	216	246	243	250	264	274	277	277	272	267	262	260	260	254	250	250	251	269	273	284	293	251	244	239	239	240	240	240	240	240	240	240	240	239	239	238	238	240	239	236	241	240	241	238	209	194	186	199	224	222	215	210	215	252	258	257	255	262	272	235	292	242	300	228	228	213	218	247	292	246	246	179	238	207	199	210	210	
231	241	252	257	266	258	256	261	270	244	240	245	258	253	254	255	254	250	235	233	244	268	240	248	247	261	241	245	294	266	275	278	286	248	256	271	283	288	275	257	224	221	213	198	232	236	239	257	266	277	284	264	266	265	259	254	254	252	266	263	278	281	292	303	285	250	241	236	238	239	240	240	240	240	240	240	240	240	239	239	239	240	239	239	242	241	237	231	213	200	210	223	224	223	214	212	215	245	241	236	228	229	245	255	293	262	302	222	227	220	224	248	262	237	214	236	241	237	231	236	236	
222	235	250	270	254	249	249	251	279	245	279	294	196	243	245	250	257	261	253	236	243	248	242	256	279	238	250	311	161	277	292	288	259	281	282	288	312	279	278	272	267	261	253	244	237	235	249	272	290	313	253	257	284	271	270	258	277	284	282	281	279	284	293	302	300	207	237	233	236	239	239	239	239	240	240	240	240	240	240	239	240	240	240	242	246	243	238	230	218	204	208	226	228	224	215	214	220	239	236	235	239	245	246	262	283	290	239	238	225	222	231	240	254	183	176	232	236	241	238	229	229	
244	254	258	240	233	229	237	236	244	241	234	209	245	237	240	246	246	251	252	244	246	239	211	270	277	345	246	229	247	245	199	195	280	269	285	288	270	249	253	258	253	249	249	248	241	246	265	282	314	246	320	270	282	297	320	279	277	289	285	279	283	295	309	208	174	192	232	231	235	238	239	239	239	240	240	240	240	240	240	240	240	240	240	242	246	252	242	236	229	217	234	230	232	227	218	216	233	244	250	257	268	243	270	261	275	299	231	236	226	224	258	263	291	180	173	182	228	228	228	226	226	
263	265	276	277	271	263	244	232	226	202	252	188	249	242	217	204	188	228	241	238	250	234	216	231	245	235	250	183	180	253	249	243	238	239	190	188	178	184	190	174	231	232	242	257	257	267	270	295	248	234	290	236	283	292	311	288	273	289	283	281	298	341	175	183	173	196	229	229	233	237	238	239	239	239	240	240	240	240	240	240	240	240	241	241	244	250	253	235	248	242	236	233	233	229	223	222	221	225	229	242	256	276	256	264	264	232	240	233	275	227	255	242	193	185	180	186	184	223	223	218	218	
284	279	265	277	275	271	272	266	248	248	200	251	253	255	221	228	222	220	207	240	252	235	228	249	236	245	245	249	249	250	254	186	248	234	202	204	200	194	191	228	222	226	262	277	295	274	273	252	239	297	259	279	281	289	287	295	273	283	294	273	177	179	180	182	176	201	185	226	231	236	237	238	239	239	240	240	240	240	240	240	240	240	241	241	243	246	249	250	247	243	238	235	234	230	228	228	228	224	222	233	243	236	230	236	236	237	234	284	304	226	256	177	187	197	190	233	228	222	224	218	218	
296	281	290	282	260	262	270	274	263	253	216	201	223	260	257	253	253	256	257	257	260	240	243	251	242	242	240	242	248	241	247	252	187	230	198	189	197	228	234	227	225	257	260	284	298	277	275	236	234	227	256	279	232	229	290	288	274	285	169	251	226	250	197	187	177	168	186	226	231	234	236	238	239	239	240	240	240	240	239	240	240	240	240	240	242	244	245	246	244	242	239	238	235	230	230	230	229	228	231	239	239	219	223	232	238	239	233	299	284	312	231	183	176	193	181	167	227	227	221	220	220	
239	242	284	258	248	252	273	266	262	261	261	254	248	253	252	253	253	256	261	269	275	266	245	238	225	224	204	183	184	198	177	242	154	213	208	195	220	236	233	230	242	269	274	243	196	235	222	236	302	264	194	195	214	205	211	217	221	217	179	168	178	182	188	185	174	167	191	226	230	232	235	238	240	240	240	240	240	239	239	239	239	239	240	240	241	242	242	241	241	240	240	239	234	231	232	232	230	226	220	242	246	242	258	263	258	258	235	178	179	200	222	197	180	172	184	177	222	221	220	231	231	
235	239	241	275	248	265	262	253	275	257	254	255	233	238	241	249	250	249	279	264	274	283	271	244	227	224	220	207	198	210	208	196	182	235	242	241	232	231	232	242	268	280	222	214	243	244	222	216	224	193	183	182	202	207	222	221	210	223	208	239	243	245	310	305	270	172	196	225	229	233	237	240	241	240	240	240	240	239	239	239	239	239	239	240	241	241	239	239	239	238	239	237	232	231	234	233	231	225	219	239	245	249	259	258	258	270	239	184	181	232	232	226	193	193	183	226	226	218	221	231	231	
208	228	225	231	223	242	277	246	270	272	248	234	239	231	236	263	273	246	291	273	300	275	284	267	236	223	224	215	203	212	215	211	202	229	244	238	231	232	244	267	271	230	217	250	246	251	248	237	221	207	195	241	241	228	241	229	197	224	234	219	241	282	289	179	163	164	194	226	230	235	240	243	243	242	241	240	240	239	239	239	239	239	239	239	240	241	240	240	239	239	240	237	232	233	235	234	231	227	221	233	238	239	247	267	259	250	192	172	175	175	233	240	215	198	231	223	227	223	228	236	236	
242	253	260	259	253	241	242	249	252	206	236	244	238	238	241	256	263	271	303	220	256	253	270	271	262	259	225	222	217	218	249	243	247	244	243	237	232	245	267	260	232	253	250	253	259	259	253	244	215	206	216	205	184	243	245	248	203	228	240	230	207	192	183	184	184	205	229	228	232	238	242	245	245	243	241	240	239	239	239	239	239	238	238	238	238	240	241	242	241	241	241	238	235	233	234	233	231	228	223	221	239	239	242	251	264	202	223	205	193	234	237	245	243	237	231	229	230	233	235	238	238	
242	248	257	265	268	257	249	251	245	253	247	240	239	262	247	257	289	303	211	179	178	218	245	257	264	260	261	261	262	261	257	252	249	248	244	239	238	248	251	256	256	252	250	255	265	270	266	260	255	249	251	250	246	252	265	268	265	257	245	234	212	210	205	194	207	231	231	232	237	244	247	246	245	242	240	240	239	239	238	238	238	238	238	238	237	237	239	240	240	239	238	237	234	232	233	233	232	230	225	221	237	240	243	248	244	204	181	174	186	234	241	250	249	242	234	230	231	237	231	226	226	
238	261	263	271	264	257	256	256	252	246	244	239	257	258	297	259	209	202	194	189	206	202	237	244	261	265	262	260	263	264	259	254	249	256	255	241	259	258	259	255	252	250	250	253	256	260	266	267	263	256	252	250	249	253	258	263	271	281	270	236	214	209	210	202	230	231	233	236	243	252	257	253	247	242	240	239	239	239	238	238	238	238	238	237	236	236	237	236	237	236	235	236	233	231	232	233	232	230	226	221	240	250	254	257	257	198	221	235	189	231	235	239	238	234	228	230	234	281	228	218	218	
245	244	254	291	253	249	255	264	255	243	253	260	244	214	206	211	211	214	214	218	207	237	234	240	254	259	260	257	256	257	255	255	253	241	250	252	258	284	287	251	248	272	276	282	237	241	246	257	261	257	250	245	249	248	251	255	315	262	273	252	223	235	230	240	234	232	234	238	263	290	289	256	251	244	239	239	239	238	238	238	238	238	238	237	236	236	236	235	236	235	235	236	233	231	232	232	232	230	225	219	220	252	256	261	243	245	239	218	233	228	253	200	226	221	221	228	266	270	227	218	218	
247	248	251	277	250	244	251	279	252	192	229	224	230	230	256	257	258	259	259	255	246	236	232	239	275	273	279	273	287	278	287	303	239	229	235	283	289	281	280	274	248	270	310	253	245	233	236	280	246	247	246	245	277	293	225	175	185	227	257	267	267	262	254	244	236	232	232	252	275	294	304	287	249	243	238	238	239	238	238	237	237	237	238	237	236	236	236	235	235	236	237	237	233	231	231	229	230	228	224	214	239	251	254	262	238	198	243	233	248	142	232	231	225	220	218	248	271	249	226	217	217	
241	282	258	272	246	240	251	255	239	251	254	258	259	257	255	256	260	261	261	257	247	235	235	262	273	293	299	294	266	214	214	206	228	223	264	285	285	283	273	289	280	271	277	249	240	231	238	281	286	280	283	294	165	203	203	234	245	246	251	260	263	258	253	243	231	229	247	268	280	298	295	334	246	241	237	239	239	238	238	237	237	237	237	237	236	235	235	235	236	237	236	236	234	232	231	227	228	227	222	211	210	243	249	255	194	223	229	266	186	233	236	232	226	224	221	225	247	246	227	217	217	
207	216	215	220	220	216	245	247	249	243	251	259	255	247	250	253	254	253	255	249	236	237	264	271	277	295	316	246	215	248	248	239	224	226	267	290	287	294	274	291	293	296	214	241	234	229	260	273	281	298	315	177	192	235	244	244	245	247	260	266	267	265	264	256	219	239	263	268	284	292	241	160	225	237	238	241	240	239	238	237	236	235	236	236	235	235	235	236	237	238	237	235	234	234	232	229	229	227	222	211	211	238	245	246	211	230	228	207	216	223	234	226	221	223	223	224	245	285	227	219	219	
244	249	252	254	259	257	252	251	243	234	259	282	238	234	266	274	278	278	304	240	225	260	269	271	279	315	194	185	210	221	243	231	225	232	259	283	281	293	290	295	193	198	240	237	269	230	233	274	191	177	205	204	233	235	237	238	247	249	282	303	302	293	327	224	214	235	250	264	292	231	167	158	165	236	239	243	241	240	238	237	236	234	235	235	235	235	234	236	238	238	237	236	235	234	233	231	231	228	223	213	212	238	245	251	242	233	237	226	195	235	229	221	217	220	221	221	231	206	228	226	226	
247	251	254	255	261	265	259	252	243	238	253	227	224	231	260	288	278	301	252	235	220	250	274	285	212	207	222	241	241	215	237	227	233	243	249	253	271	275	207	230	247	225	208	233	235	235	231	219	198	197	238	236	235	232	235	244	267	279	311	199	301	318	228	219	218	245	244	261	271	193	167	163	165	251	243	245	242	240	238	237	236	236	235	235	235	234	233	235	238	238	237	236	235	234	232	231	231	228	225	218	214	228	242	246	240	237	240	236	224	217	227	223	218	220	222	222	237	209	213	229	229	
252	252	249	266	267	259	257	253	262	252	236	236	221	235	260	286	296	302	244	230	222	240	264	214	210	252	247	244	244	245	238	228	236	275	250	255	255	236	255	254	256	257	247	226	204	193	211	219	214	206	234	234	233	234	244	240	271	295	233	352	313	182	233	220	219	236	268	271	217	194	158	149	296	294	273	244	238	236	237	236	235	235	235	235	234	234	231	233	237	237	235	235	234	234	232	232	231	229	227	223	218	231	238	239	241	241	242	239	236	223	208	197	225	196	225	224	216	208	235	233	233	
275	277	247	274	280	254	244	250	259	244	247	231	228	252	269	291	271	203	221	225	225	260	265	242	253	246	242	241	242	245	243	231	236	277	277	272	261	255	251	252	255	260	262	256	229	206	243	248	251	251	241	234	233	239	271	273	279	335	212	316	204	234	230	311	226	233	250	260	220	208	269	296	291	296	297	248	232	231	233	233	234	234	234	234	234	234	231	232	237	235	233	234	234	234	232	232	231	230	229	226	222	235	240	244	242	231	243	232	241	237	224	203	231	220	227	216	236	235	239	243	243	
269	267	283	278	289	239	236	249	242	250	240	231	237	260	262	249	238	228	239	228	235	261	265	243	230	242	237	239	240	245	244	236	243	245	257	284	253	244	242	262	247	247	254	263	258	247	240	244	252	251	237	238	239	266	276	273	287	246	350	309	243	236	238	232	254	243	244	254	270	239	275	291	300	311	318	152	228	227	230	230	232	234	234	234	234	234	232	233	237	235	233	234	234	234	232	232	232	230	229	226	224	241	245	253	255	238	244	240	241	237	235	225	233	221	223	233	235	237	241	243	243	
239	241	242	222	233	218	231	224	246	244	237	234	255	259	285	248	254	248	238	235	245	264	216	231	250	241	232	235	238	243	242	235	245	251	254	250	184	240	241	186	186	238	256	246	249	245	236	238	247	292	226	230	265	268	277	278	297	275	328	214	236	279	235	240	294	307	275	270	288	177	270	284	291	308	148	163	184	226	227	228	231	233	234	234	234	234	233	234	236	236	235	235	234	234	232	232	232	230	228	225	222	221	248	260	266	273	245	239	238	234	233	228	194	221	227	233	231	234	238	240	240	
244	212	227	231	246	245	252	241	233	238	236	240	244	256	254	266	250	244	237	239	264	281	262	239	229	239	229	234	236	257	237	231	241	288	264	257	252	224	225	222	215	213	211	201	236	235	234	260	284	240	223	227	253	267	281	242	206	219	210	212	248	293	259	263	291	265	277	253	186	232	188	252	277	213	161	155	188	225	225	226	231	233	234	234	234	234	235	235	235	236	235	235	235	234	232	231	231	229	227	225	219	216	242	258	271	269	243	237	235	233	235	238	196	228	224	229	231	233	255	260	260	
213	213	249	251	251	255	263	261	251	242	241	245	247	268	234	238	242	249	236	257	253	275	218	230	210	241	236	239	240	231	234	229	240	290	250	254	232	255	255	254	251	252	253	248	238	237	243	246	247	238	228	233	238	258	249	186	206	216	213	213	249	293	251	245	202	225	235	191	179	183	227	233	180	184	175	168	193	225	225	227	230	233	233	234	234	235	235	234	234	235	235	235	235	234	232	232	231	229	227	224	216	236	244	253	265	244	219	203	232	231	206	241	230	228	222	226	231	228	258	258	258	
242	241	244	250	254	259	263	262	257	251	247	262	252	253	207	206	207	235	237	223	239	231	207	221	243	242	243	246	246	224	212	233	249	246	245	235	232	250	254	255	252	251	251	245	238	237	279	284	277	240	291	234	265	260	192	201	193	217	213	206	202	192	198	206	235	208	239	186	243	238	230	241	213	192	180	176	199	225	226	227	229	232	233	234	234	234	235	234	234	235	234	235	235	234	233	232	231	228	226	223	215	236	242	249	244	222	204	193	180	225	233	240	239	209	220	228	226	246	239	215	215	
234	238	242	263	263	271	270	247	267	256	262	198	206	235	227	223	226	227	225	220	233	229	200	214	237	238	242	244	246	245	238	249	249	208	212	247	241	238	239	239	238	264	261	235	273	234	266	273	240	237	280	235	269	218	200	184	172	232	218	218	225	209	242	241	236	234	243	245	174	239	163	248	245	203	195	183	205	203	226	225	227	231	233	234	234	234	234	234	235	234	233	235	236	235	233	232	231	228	226	222	214	234	243	248	243	245	241	239	238	227	236	242	239	226	221	225	231	238	221	243	243	
229	260	263	257	267	283	250	245	280	256	245	211	231	221	219	220	251	250	250	228	252	232	226	218	204	207	241	238	239	245	242	252	229	205	236	238	246	226	191	228	253	246	254	266	252	189	222	233	235	232	227	238	206	192	204	198	229	238	238	239	243	243	238	234	228	236	247	250	194	179	159	245	240	197	188	189	178	205	226	225	227	232	234	234	234	234	234	234	234	232	231	234	235	234	233	231	231	229	227	223	214	231	241	245	245	210	223	232	236	234	235	243	235	225	223	226	227	239	219	240	240	
241	246	252	250	258	277	246	288	299	196	232	217	228	219	221	222	247	252	257	257	258	263	262	254	249	246	244	234	235	243	244	247	216	207	239	229	206	202	202	213	206	214	221	198	192	192	234	228	216	202	221	223	208	207	193	240	243	249	254	244	235	229	198	229	224	236	245	247	215	159	244	155	226	204	190	207	208	204	196	228	231	234	234	234	234	234	234	234	234	232	231	233	234	234	232	230	230	229	228	225	218	212	237	240	236	218	196	225	248	232	236	272	227	224	223	227	227	238	219	239	239	
288	284	252	250	258	272	290	297	198	235	253	254	250	248	250	251	250	253	259	259	257	262	267	265	261	256	249	243	242	246	246	242	222	245	230	230	222	217	215	243	215	240	229	211	242	197	238	245	221	239	227	225	214	204	236	237	245	254	263	265	260	248	211	221	231	236	247	234	245	238	237	239	135	210	219	213	239	239	238	236	236	236	235	235	235	234	234	234	234	233	232	234	234	235	232	229	230	230	229	227	223	217	233	240	234	226	207	224	222	248	255	215	223	222	221	225	228	239	222	241	241	
241	289	273	279	260	256	214	243	236	249	249	251	249	246	248	251	249	249	254	252	250	275	255	256	258	255	249	238	250	252	251	254	221	246	250	253	254	252	248	247	247	241	232	214	239	239	236	251	253	241	249	224	243	239	235	237	250	255	261	263	269	265	252	240	240	228	220	216	205	185	176	173	174	206	240	242	241	244	245	242	239	237	235	234	235	234	234	234	234	234	233	233	235	236	233	229	230	231	229	229	228	223	235	238	229	224	215	208	228	241	198	192	173	212	221	222	228	239	222	242	242	
232	227	231	261	279	291	225	242	253	249	246	245	244	243	243	269	246	266	295	245	268	291	258	261	219	241	242	246	251	254	256	257	250	249	249	251	253	258	260	255	248	242	246	245	245	246	247	253	259	257	256	255	245	235	235	247	250	289	249	251	262	265	259	256	247	245	244	225	221	211	204	221	219	237	239	243	245	247	246	243	239	236	234	233	234	234	235	235	235	234	234	233	234	235	233	229	229	231	230	231	231	229	231	234	223	220	216	216	221	221	202	198	184	214	222	221	226	237	222	242	242	
209	237	229	239	248	214	229	249	251	246	242	240	240	240	240	260	265	283	270	275	284	194	184	197	244	241	236	243	253	257	258	259	255	250	247	245	246	250	254	255	253	250	250	251	250	248	246	250	251	249	251	250	238	230	238	268	283	279	245	248	253	255	249	258	265	265	269	272	267	259	252	248	246	242	237	238	260	269	276	265	238	235	232	232	234	234	235	235	235	235	234	234	234	235	233	229	229	231	231	231	232	233	237	244	229	227	223	225	223	222	224	189	186	214	210	220	225	234	222	232	232	
245	253	261	259	240	245	221	247	234	237	235	236	239	259	250	245	265	281	295	314	237	228	192	242	246	240	226	236	250	254	256	257	253	249	246	246	245	246	244	248	250	247	242	244	247	249	243	241	241	237	245	243	234	229	235	268	290	274	277	283	198	221	235	248	255	258	266	273	270	262	254	248	244	238	234	252	277	298	311	246	237	235	232	230	233	234	235	235	235	235	235	235	236	237	234	231	230	231	230	230	232	234	236	241	244	231	231	227	224	225	225	209	190	183	211	220	223	230	236	238	238	
248	256	269	274	264	249	249	234	240	235	215	236	241	242	239	237	239	260	251	257	179	248	239	242	251	236	209	232	266	246	250	250	248	247	244	246	249	249	248	248	246	240	237	245	281	244	237	243	246	249	253	249	239	234	238	263	197	177	199	201	235	225	229	247	252	255	260	269	256	250	244	242	240	235	249	269	283	294	281	136	225	233	230	228	232	235	236	236	236	235	235	235	236	236	235	232	232	232	231	231	232	233	234	236	239	240	228	227	225	227	224	218	204	191	209	222	223	229	233	235	235	
243	282	270	260	264	261	230	236	221	240	233	239	238	244	238	238	241	248	281	226	225	190	237	248	214	226	210	227	254	270	269	241	238	240	243	244	245	247	249	249	240	235	240	271	251	241	235	240	246	251	253	252	245	239	260	264	220	247	245	241	235	227	227	234	272	272	283	283	293	239	249	251	254	283	272	271	288	265	173	149	201	194	228	228	233	237	237	237	236	236	235	235	235	234	234	233	233	234	233	233	233	232	233	235	236	238	241	242	231	234	230	224	211	217	212	225	226	229	231	232	232	
216	232	237	250	245	267	255	243	249	245	237	240	245	244	216	238	243	248	206	245	248	239	241	278	202	226	201	225	249	267	210	235	236	239	245	245	242	243	276	245	230	232	245	288	247	231	225	234	240	244	280	244	241	237	261	286	239	248	244	238	237	241	233	233	255	272	297	196	228	220	242	270	277	284	281	279	341	170	167	160	194	194	227	232	239	240	239	238	237	237	236	235	235	234	234	233	233	233	231	234	235	233	232	233	234	234	237	238	239	238	237	229	214	221	231	227	227	229	230	230	230	
207	219	228	220	247	242	226	238	237	241	239	240	246	247	240	241	241	243	247	255	255	236	270	180	183	209	205	223	241	222	207	232	234	240	246	248	245	261	222	238	223	234	270	222	237	224	223	231	263	279	277	244	239	233	244	252	231	241	235	231	236	242	244	233	236	257	222	239	232	306	272	261	273	287	299	139	184	188	182	177	199	193	229	237	245	246	243	241	239	238	237	236	235	235	234	234	234	233	230	232	235	234	234	233	232	233	235	236	237	237	236	229	216	235	232	229	228	230	230	229	229	
214	231	224	221	224	217	215	202	211	219	239	237	247	228	239	244	246	243	245	196	190	142	184	190	187	208	216	243	255	252	242	233	236	244	245	248	250	254	211	233	226	241	265	248	231	222	227	234	251	268	281	262	237	230	257	262	228	237	227	226	235	280	240	233	236	258	233	235	304	292	279	223	268	316	132	172	181	183	213	206	227	227	232	241	243	242	243	244	242	239	238	237	236	235	235	235	235	234	233	233	233	233	235	234	232	232	234	234	234	237	236	236	227	236	233	231	229	229	229	229	229	
226	230	257	258	235	231	230	216	218	223	238	230	247	227	233	240	256	264	267	219	201	196	196	197	190	225	227	251	260	261	248	239	244	244	271	248	250	251	241	234	237	250	222	243	224	223	234	251	245	244	280	249	236	281	243	276	222	230	222	223	234	291	239	232	236	257	238	77	291	288	279	258	251	177	177	180	179	182	206	232	231	229	236	282	246	234	242	248	245	242	239	238	237	236	235	235	235	234	234	233	232	232	233	234	233	232	232	232	233	234	235	239	233	219	233	231	231	229	229	247	247	
248	259	266	270	274	270	261	253	247	231	239	232	248	246	229	236	261	261	270	206	199	194	228	225	233	227	232	261	257	257	253	252	267	270	274	250	216	240	233	237	244	254	231	236	221	226	239	242	245	246	239	233	238	288	246	226	210	226	292	226	252	297	238	233	235	262	240	227	349	261	222	219	206	196	193	195	221	215	232	232	232	231	271	244	203	231	275	250	249	247	243	240	238	237	236	235	235	234	234	233	232	232	232	232	233	233	232	232	233	234	233	240	235	220	234	230	231	230	232	246	246	
248	255	265	270	275	276	271	266	263	258	247	243	239	243	231	240	256	263	279	195	187	231	213	235	236	232	236	275	252	280	251	252	268	269	280	251	245	231	231	240	270	253	218	229	221	230	257	257	260	267	264	257	251	242	220	246	235	226	226	232	241	287	238	231	269	278	165	168	184	198	205	201	208	206	228	239	242	242	236	230	246	270	320	216	218	267	280	276	250	250	248	243	239	237	236	236	235	235	234	233	233	232	232	232	232	232	232	232	233	233	231	232	236	215	237	255	228	228	250	233	233	
238	269	277	289	300	266	267	267	267	265	261	261	258	245	253	258	257	252	211	195	182	223	224	226	235	249	267	278	283	282	287	296	251	253	226	247	237	226	233	265	275	204	241	222	222	237	246	248	248	252	272	275	299	220	219	239	231	224	227	233	259	285	245	228	282	141	171	180	183	190	200	232	234	234	240	237	239	241	237	247	264	293	191	220	212	239	274	280	274	249	250	245	241	239	237	236	236	235	234	234	233	232	232	232	232	232	230	230	232	232	229	230	234	228	236	240	238	242	236	234	234	
223	251	277	287	287	292	253	253	253	258	259	261	263	254	246	248	258	247	223	186	176	226	214	220	243	244	270	281	286	287	282	288	299	256	253	245	232	229	238	262	259	218	235	220	222	232	269	250	277	247	243	245	195	222	215	232	225	219	224	245	260	286	183	248	251	173	171	176	189	227	238	244	247	246	241	237	237	250	248	243	275	179	218	214	213	236	274	271	274	263	286	243	243	241	239	238	237	236	235	234	233	233	232	232	231	231	229	228	230	231	229	229	228	216	235	239	234	224	236	238	238	
215	243	257	280	268	281	293	237	270	277	247	279	287	252	250	251	261	215	215	193	224	215	207	231	257	266	267	276	284	284	289	270	249	251	253	243	229	234	245	262	208	207	229	222	227	234	255	260	244	281	252	253	203	194	189	230	225	221	228	222	211	209	199	210	205	188	178	181	220	235	240	249	250	245	239	245	263	266	275	287	91	189	221	215	221	241	269	284	248	249	282	265	237	239	241	241	240	239	237	236	234	233	232	231	231	230	230	229	230	232	230	230	231	228	238	243	247	237	229	226	226	
224	251	252	219	233	241	241	238	247	279	280	277	248	247	248	251	262	212	207	191	217	206	205	232	248	250	249	255	271	284	295	254	242	245	246	236	227	237	246	273	224	238	225	223	234	242	248	240	275	244	288	254	186	198	204	202	190	229	226	220	217	219	215	217	213	200	195	218	227	230	236	243	244	252	246	238	267	270	297	162	188	219	220	219	235	266	281	304	188	226	251	194	206	234	244	248	247	244	240	238	235	234	232	231	231	230	230	229	229	231	231	230	229	228	242	243	250	236	236	223	223	
234	262	254	225	232	238	267	272	281	283	290	248	247	248	245	251	261	206	200	195	211	203	209	240	252	245	237	243	257	279	253	236	220	244	244	234	229	241	258	206	214	232	223	224	232	264	272	264	262	258	249	185	184	192	237	237	235	235	243	246	246	246	219	218	216	208	231	227	223	226	239	264	268	276	279	280	279	255	189	192	223	225	221	233	231	268	298	304	236	174	158	165	191	265	245	250	252	250	246	242	238	234	232	231	231	230	230	229	228	230	230	229	228	226	240	239	241	235	225	235	235	
240	265	262	252	218	234	231	257	292	274	295	249	248	271	246	253	235	206	197	190	211	204	211	242	254	241	241	250	254	257	215	226	242	246	246	236	232	245	264	205	241	228	224	232	240	241	252	268	263	274	189	190	201	238	236	239	242	245	248	248	248	250	251	246	243	247	238	227	221	233	234	261	268	276	280	297	142	200	199	234	229	226	232	259	258	270	314	166	154	175	216	227	252	276	267	278	288	250	247	245	240	235	232	231	230	230	229	229	228	229	229	229	228	227	231	232	232	224	232	235	235	
242	266	258	254	246	236	241	241	240	252	243	268	290	252	249	249	232	211	203	194	210	205	210	240	247	237	244	253	253	222	226	223	235	242	244	234	233	257	207	218	236	225	225	237	247	251	248	243	247	221	197	188	238	234	236	240	246	250	250	250	251	253	255	254	252	245	235	227	223	234	258	262	263	276	307	168	190	234	237	233	230	237	266	263	257	256	181	182	194	224	227	278	227	271	285	298	303	281	244	243	238	233	231	230	229	229	229	229	228	228	228	228	229	229	228	231	233	231	248	258	258	
248	252	234	248	246	243	236	230	242	242	234	243	289	246	210	240	242	244	246	213	214	208	210	241	245	239	249	252	238	222	222	221	246	256	242	232	239	251	220	244	232	223	226	236	270	252	255	252	254	210	200	207	233	231	234	240	245	244	245	248	251	252	252	252	255	238	228	226	228	235	255	262	265	278	184	199	230	231	235	235	239	233	270	279	275	205	208	200	232	230	225	223	254	270	280	282	285	281	258	268	228	226	228	227	227	228	228	228	228	227	227	228	229	230	229	229	231	232	242	249	249	
255	255	252	250	249	249	245	241	231	244	244	249	211	232	249	232	245	224	206	190	209	212	212	242	244	240	250	248	225	245	240	229	244	234	240	234	245	252	218	205	229	222	227	235	262	264	247	273	269	196	212	239	231	231	236	242	240	236	239	246	247	248	249	250	243	228	223	228	240	238	251	249	254	200	199	187	220	221	231	270	232	265	273	287	107	204	199	237	233	230	231	256	253	281	281	279	277	258	207	153	180	220	224	222	225	227	228	228	228	227	227	228	231	232	231	231	230	230	243	238	238	
254	251	249	253	255	251	244	247	228	241	253	251	274	245	244	225	246	237	211	197	212	217	214	237	245	240	245	240	225	240	236	243	248	244	235	236	245	213	247	241	229	223	229	249	253	264	243	250	193	219	200	232	230	235	244	221	236	233	239	242	242	240	242	277	228	217	220	229	242	270	262	251	250	200	204	227	206	211	252	275	280	262	274	59	209	196	236	235	230	229	260	259	262	290	282	289	308	156	164	164	181	223	223	220	224	227	227	227	227	227	226	226	229	230	230	231	229	230	243	231	231	
245	243	241	267	252	246	241	249	231	240	249	255	227	212	238	234	241	249	231	212	219	223	218	242	238	242	241	227	244	237	236	256	239	217	234	258	213	207	216	239	231	226	231	240	254	255	274	196	197	206	232	226	230	240	285	240	231	232	237	270	275	277	307	193	217	212	218	237	270	278	283	272	259	207	218	220	198	206	244	271	297	274	280	188	200	229	229	233	230	259	267	267	268	309	124	147	170	189	177	202	207	176	224	220	223	225	226	227	227	227	225	224	226	228	228	229	228	230	240	233	233	
244	238	238	261	245	239	237	248	240	244	250	243	205	217	235	229	235	247	218	213	227	231	230	239	239	243	220	218	229	242	261	239	215	223	226	218	236	238	243	241	233	228	232	251	250	255	265	220	219	239	224	220	232	270	244	231	228	233	258	273	293	162	192	188	220	213	220	236	269	280	287	284	275	197	206	218	200	211	247	262	289	279	301	226	227	217	223	259	269	272	265	269	218	193	211	209	202	234	172	298	311	203	223	220	222	224	225	226	226	226	224	223	226	228	228	228	229	230	239	237	237	
246	242	243	216	242	237	232	245	249	246	247	242	231	200	191	229	234	249	214	206	230	236	240	239	240	245	244	235	241	249	265	214	241	241	230	240	232	239	246	244	235	231	236	243	242	245	250	210	196	230	214	217	256	253	239	227	230	236	259	255	182	179	187	221	223	219	221	257	273	283	287	286	331	209	193	220	209	218	250	264	280	289	181	211	216	212	222	255	286	296	280	238	215	241	243	244	238	279	240	293	297	228	221	215	218	222	224	225	226	225	224	223	225	226	227	228	230	230	237	239	239	
250	249	249	236	222	237	231	243	243	247	230	239	213	250	242	238	238	249	225	197	198	234	237	231	240	243	228	243	247	251	218	246	225	244	222	235	229	239	246	244	234	232	240	246	247	256	248	205	211	224	209	223	258	247	237	228	231	260	261	220	194	195	221	224	226	229	233	252	263	277	287	262	178	195	224	220	222	225	250	257	276	320	185	197	211	212	241	267	289	295	343	205	240	240	241	149	234	233	260	283	263	207	178	208	213	220	223	224	225	225	224	223	224	225	226	227	229	230	234	236	236	
228	252	255	255	248	243	234	243	241	245	241	251	239	237	247	245	246	247	245	206	234	193	228	229	238	241	235	244	261	257	210	237	226	240	243	234	233	250	259	242	234	232	237	239	263	266	252	225	205	220	210	229	260	245	237	231	234	243	197	215	206	227	223	222	228	239	242	247	240	258	292	180	187	231	214	215	259	279	250	249	265	201	184	218	212	216	239	257	285	341	165	233	234	114	235	232	227	252	296	168	161	165	155	208	208	216	221	223	224	225	224	224	224	226	227	226	225	228	230	233	233	
251	250	256	263	261	253	242	247	228	241	242	254	218	204	188	241	254	259	245	232	225	204	235	236	239	240	233	247	255	220	208	232	232	245	246	240	246	249	241	235	233	231	237	240	257	258	203	218	233	219	214	247	272	288	239	289	239	216	201	204	195	226	217	220	256	271	244	234	234	246	206	192	204	221	202	210	260	239	274	244	249	198	202	213	215	252	246	250	285	185	217	234	76	230	229	226	249	331	160	170	171	166	157	213	205	212	218	222	224	224	225	225	225	227	228	227	221	225	227	230	230	
241	240	243	252	259	259	255	251	244	241	245	254	274	246	249	250	251	260	260	250	240	237	237	238	241	238	234	250	235	238	239	237	245	250	250	252	254	265	256	239	230	225	232	264	264	236	249	242	234	221	220	230	261	279	240	236	203	203	199	198	232	219	212	224	253	278	259	230	231	250	203	196	206	215	193	207	253	254	299	266	249	197	219	211	218	250	277	254	245	233	213	229	226	224	244	248	294	142	139	314	292	229	142	171	205	209	216	221	223	224	225	225	225	227	230	230	228	226	227	229	229	
236	235	237	261	267	249	247	238	232	240	248	268	227	238	267	243	248	249	256	254	245	240	230	236	240	237	239	249	242	240	235	241	246	254	252	254	251	268	211	239	231	228	232	250	254	231	243	241	236	222	222	232	250	276	177	168	236	238	240	240	226	215	211	220	255	278	246	230	228	250	246	196	204	212	189	205	248	269	293	281	207	222	214	210	237	267	297	260	308	192	219	255	252	229	235	277	101	132	311	232	242	194	157	180	205	207	214	219	223	224	225	225	225	227	229	229	229	228	227	228	228	
234	236	241	247	227	205	236	228	228	239	259	255	213	190	182	183	238	245	249	244	241	241	244	244	239	237	242	243	247	240	239	248	265	266	269	247	251	206	245	236	234	238	239	248	246	221	239	240	235	218	223	249	250	214	218	235	236	241	244	241	231	215	210	217	250	267	242	233	225	248	245	186	202	211	190	206	249	260	298	189	229	230	215	217	240	258	290	271	287	225	213	176	207	218	221	105	148	153	185	207	167	168	168	163	168	207	213	219	222	224	224	224	224	226	227	228	228	227	227	227	227	
227	233	246	264	227	238	231	229	236	248	254	266	281	245	180	187	198	191	189	222	230	233	244	250	247	239	235	240	240	240	248	266	262	255	244	259	248	247	236	231	235	237	251	247	221	238	238	242	231	214	223	255	231	227	244	235	236	243	247	241	235	222	210	235	238	242	256	233	298	243	209	183	198	213	193	206	241	257	198	232	219	222	218	251	249	258	277	61	184	178	211	158	216	217	219	202	185	179	190	206	201	193	182	175	180	214	216	219	222	223	224	224	224	225	226	228	228	227	227	227	227	
222	233	257	208	213	232	225	229	237	247	266	268	231	227	245	173	248	247	227	238	228	228	250	249	245	239	225	225	245	264	262	250	229	217	227	235	224	237	223	229	236	227	223	222	221	247	250	209	227	216	227	253	233	248	240	230	232	242	250	236	238	234	222	224	233	236	234	231	254	261	182	183	194	217	195	205	246	250	230	235	230	214	217	267	283	258	237	177	183	196	173	225	170	217	222	209	197	189	183	235	210	231	222	234	232	227	221	219	221	223	223	224	224	225	227	229	228	228	228	228	228	
220	241	244	224	202	226	226	235	237	259	274	274	218	209	199	182	226	253	250	241	230	229	248	242	239	237	220	222	247	230	226	224	215	220	242	242	220	232	207	234	224	219	225	225	231	247	210	208	217	217	230	252	245	240	231	223	231	264	207	229	236	240	233	230	234	237	236	233	279	307	180	204	233	222	195	204	242	249	200	229	224	212	230	259	293	267	190	175	168	194	195	170	150	229	218	216	208	238	195	227	248	249	248	245	273	238	223	217	219	221	222	223	223	223	227	229	229	229	228	228	228	
229	247	227	212	232	230	235	244	240	255	271	249	206	193	192	243	248	253	253	244	231	231	252	252	239	236	227	233	241	237	232	221	216	236	252	241	214	226	207	235	223	224	224	224	238	246	208	237	211	213	240	251	206	211	223	220	233	266	234	227	237	257	232	227	233	232	236	244	242	240	183	258	287	222	194	204	244	258	246	238	224	216	234	247	191	187	188	174	155	167	232	200	192	235	249	253	250	242	246	245	293	242	242	253	280	248	218	209	215	219	221	223	222	222	227	228	228	229	228	227	227	
239	226	248	242	236	239	247	244	257	256	256	213	217	251	238	241	243	251	255	240	227	229	253	266	241	237	235	242	246	243	232	231	229	248	254	223	208	226	229	230	228	228	228	232	242	244	211	211	216	206	229	246	209	235	224	224	237	240	233	230	271	198	233	237	239	229	237	241	236	236	280	235	178	219	195	202	238	253	250	235	224	224	242	238	202	192	197	194	183	182	198	238	240	245	253	258	256	251	246	243	235	238	261	266	277	189	179	203	210	217	220	222	221	222	228	228	229	230	228	228	228	
230	246	249	246	245	247	248	248	260	262	253	205	188	189	179	178	212	246	216	230	219	228	251	219	240	239	239	243	246	244	236	232	241	251	252	214	240	235	232	233	239	242	244	246	257	246	219	203	221	207	232	252	221	232	225	229	238	282	265	236	225	235	283	284	234	216	231	246	245	236	261	262	210	220	200	206	237	240	224	233	227	244	243	215	198	180	206	212	209	238	241	242	240	241	243	243	244	241	237	263	258	257	278	288	154	162	182	205	207	213	218	221	221	221	227	229	229	229	229	228	228	
240	243	245	246	253	254	251	252	273	265	244	212	204	241	212	232	229	213	197	228	220	228	251	259	249	244	243	245	248	249	235	239	245	254	252	211	235	237	235	233	236	241	252	264	250	255	212	203	219	214	236	267	249	226	223	228	246	254	256	289	237	231	238	299	231	203	224	242	244	242	193	185	181	221	204	214	234	244	243	233	233	233	156	191	202	193	189	235	240	242	240	235	228	252	248	245	249	246	246	255	256	264	287	164	168	170	187	206	205	209	216	221	221	221	227	230	229	229	229	229	229	
242	256	251	266	245	245	248	283	257	263	262	254	248	249	250	247	249	252	246	236	229	229	247	275	248	242	240	243	249	252	248	245	251	255	238	213	231	239	237	236	240	239	237	239	249	207	243	239	228	224	255	269	243	226	225	230	239	240	247	233	251	228	254	237	229	209	220	241	243	235	246	221	212	224	206	214	254	256	252	262	174	182	173	201	209	240	239	237	237	235	253	269	241	283	168	156	128	214	181	216	220	206	177	171	168	176	169	176	202	208	216	221	221	222	227	231	230	229	229	229	229	
238	274	260	256	250	267	270	282	258	270	228	251	198	248	246	244	250	253	246	243	242	238	242	244	224	234	241	244	248	251	252	253	254	244	247	239	228	239	238	241	247	249	250	250	253	207	236	232	226	243	258	241	212	226	226	234	243	235	231	234	246	234	182	181	229	224	226	239	243	238	210	242	228	226	205	211	248	261	260	243	230	225	190	203	237	241	239	233	250	268	120	217	206	201	201	210	205	197	195	208	213	209	204	195	198	190	178	186	207	210	218	222	222	222	225	228	229	229	228	228	228	
240	269	282	288	290	272	272	287	248	243	240	234	235	234	236	238	245	251	232	246	235	238	252	247	244	231	227	232	244	252	259	267	261	265	259	238	229	242	244	249	254	258	259	261	254	242	237	234	241	269	257	253	203	228	230	245	247	256	251	244	256	282	180	198	226	223	228	253	267	251	241	191	211	221	212	224	253	273	266	238	224	214	233	233	233	231	229	251	259	196	201	194	206	201	236	211	241	201	227	232	217	210	206	195	215	217	227	219	213	213	220	223	225	226	230	233	232	229	227	227	227	
252	269	285	265	283	285	258	285	244	233	218	220	216	224	227	239	264	218	231	265	223	231	258	267	249	252	211	221	240	253	263	275	277	269	261	254	247	244	248	255	260	264	268	274	254	235	231	239	263	281	266	256	243	238	247	264	270	265	261	258	267	299	204	224	237	217	227	259	281	281	257	233	222	217	216	239	264	269	243	239	236	232	230	229	227	249	245	283	233	237	230	230	239	241	243	249	247	243	244	253	257	252	246	240	240	242	232	200	212	215	221	224	227	231	238	242	238	231	227	225	225	
