ncols	121
nrows	160
xllcorner	1648855.938895
yllcorner	466851.943984
cellsize	500.000000
NODATA_value	nan
241	238	248	277	299	264	221	230	226	247	254	258	268	277	216	205	272	254	250	272	300	322	316	334	294	277	263	256	253	250	247	242	229	211	224	209	227	226	230	231	231	238	243	249	244	249	242	256	253	251	258	249	243	241	253	270	294	280	243	235	246	254	255	243	224	239	232	265	244	227	254	230	230	201	262	270	263	229	227	234	230	249	271	283	281	278	265	235	237	216	226	226	225	206	228	228	198	200	210	241	235	217	225	215	220	224	235	218	265	262	246	235	256	283	288	270	234	225	227	232	232	
241	238	248	277	299	264	221	230	226	247	254	258	268	277	216	205	272	254	250	272	300	322	316	334	294	277	263	256	253	250	247	242	229	211	224	209	227	226	230	231	231	238	243	249	244	249	242	256	253	251	258	249	243	241	253	270	294	280	243	235	246	254	255	243	224	239	232	265	244	227	254	230	230	201	262	270	263	229	227	234	230	249	271	283	281	278	265	235	237	216	226	226	225	206	228	228	198	200	210	241	235	217	225	215	220	224	235	218	265	262	246	235	256	283	288	270	234	225	227	232	232	
227	235	245	257	280	261	240	237	236	244	274	257	206	215	245	257	251	250	278	305	328	345	324	304	281	268	260	256	252	249	246	242	232	220	230	221	226	226	258	258	256	264	270	242	251	228	260	250	245	254	257	244	235	260	252	281	269	263	235	233	269	253	256	251	239	237	243	246	241	241	263	251	261	263	263	263	245	226	228	243	240	202	264	287	282	279	260	240	243	245	241	222	231	210	228	235	202	202	236	246	225	221	230	227	225	242	257	255	256	253	233	233	279	289	273	264	246	232	239	243	243	
229	231	244	237	244	262	269	269	254	251	254	215	212	214	245	235	241	277	284	251	240	200	262	274	265	259	257	255	252	249	246	242	237	236	244	237	226	254	260	264	262	260	252	202	214	249	239	241	238	254	251	241	240	248	237	226	252	249	229	230	243	259	267	251	259	255	245	261	253	264	228	204	246	246	301	203	226	227	255	258	252	244	223	254	277	251	245	242	247	233	246	250	233	240	241	233	205	202	227	230	215	228	237	251	252	252	254	237	244	237	221	232	272	257	249	250	259	259	258	252	252	
235	240	249	248	246	277	253	257	263	266	261	219	220	234	231	233	248	279	328	232	217	211	264	267	265	261	257	253	251	248	246	243	239	236	236	231	254	261	263	237	226	221	212	208	210	217	228	226	235	244	249	245	244	249	250	271	276	253	234	226	240	248	259	265	244	256	257	249	243	253	252	266	248	193	197	232	225	233	255	272	268	255	228	203	200	199	218	247	258	251	211	206	253	251	244	224	208	211	206	231	214	225	232	256	264	263	263	234	241	238	225	236	263	228	230	253	245	244	254	250	250	
239	242	248	258	271	265	246	274	283	284	280	233	225	238	223	235	264	297	254	212	201	267	273	261	262	262	258	253	250	248	246	243	240	235	233	251	257	254	225	217	227	226	221	218	221	229	233	228	226	233	240	243	245	247	248	248	259	231	227	217	238	248	249	277	238	242	274	257	256	249	248	280	192	242	235	228	229	248	245	271	210	253	252	249	235	243	248	257	269	266	251	233	255	265	263	232	215	241	217	234	214	223	230	249	252	258	266	252	240	237	227	244	241	216	235	246	225	235	247	252	252	
238	245	255	254	251	232	236	259	260	283	259	272	249	228	219	250	279	287	248	206	303	288	293	288	260	261	256	251	249	247	246	244	240	234	234	253	252	230	241	238	247	249	256	257	258	255	241	241	239	231	227	237	237	242	254	224	214	202	230	231	253	247	239	240	273	262	262	251	275	252	225	210	198	239	232	230	237	245	242	248	225	249	259	256	246	241	247	266	258	262	265	258	226	259	263	257	246	245	230	237	219	225	234	245	244	242	232	210	232	218	231	247	251	248	243	226	233	234	241	241	241	
230	253	256	260	255	244	235	278	280	270	293	261	233	225	220	247	271	250	237	271	275	280	281	276	287	258	250	248	247	247	246	244	241	237	241	245	236	227	253	255	260	262	262	266	270	267	267	273	276	267	235	226	236	239	254	218	244	241	238	250	272	271	246	234	232	231	248	209	223	267	244	224	238	239	239	241	242	239	243	236	245	230	249	245	240	251	257	225	238	246	267	276	265	258	257	257	252	249	248	241	225	229	241	250	238	228	225	221	217	227	223	244	270	234	209	236	230	239	258	229	229	
225	249	279	260	257	214	238	244	246	243	247	258	246	224	229	248	261	218	208	265	282	273	264	309	287	250	243	244	246	246	246	245	243	240	245	249	248	261	248	250	256	259	267	270	275	269	283	273	283	281	270	261	252	250	235	249	241	241	241	267	267	273	272	267	240	234	237	222	256	266	260	246	235	242	250	257	256	248	242	238	232	227	237	240	251	283	216	242	230	257	268	268	268	266	262	257	256	254	249	246	230	231	245	235	254	256	257	256	253	249	246	247	247	246	234	221	224	250	249	225	225	
238	249	247	213	242	246	246	232	246	236	246	243	241	220	235	260	262	248	229	245	273	257	213	154	173	208	233	240	245	246	246	245	244	242	242	253	253	260	247	244	268	272	276	284	301	287	278	277	268	267	266	265	266	267	256	239	232	245	253	290	280	249	266	278	262	252	246	246	247	255	250	240	236	249	252	251	253	259	257	233	229	229	232	237	280	249	248	239	233	238	277	249	272	276	257	257	261	261	257	248	234	236	246	247	252	257	260	261	259	257	260	262	264	256	238	210	222	262	258	226	226	
273	259	262	247	254	250	234	248	244	240	248	222	239	219	236	256	310	249	234	250	250	238	203	177	221	197	232	239	245	246	246	246	246	244	243	240	236	237	238	243	252	263	268	281	282	292	273	293	261	240	279	264	266	266	257	235	230	262	285	267	241	261	295	264	262	252	248	248	242	237	241	238	245	275	216	234	245	254	200	253	232	231	236	243	225	237	237	239	296	239	282	267	257	217	240	249	257	259	261	250	242	240	241	241	242	244	262	248	247	257	256	258	257	237	237	213	229	252	240	232	232	
250	265	257	257	252	250	251	252	251	249	257	254	241	225	238	261	254	247	245	260	218	218	197	190	201	240	234	241	245	246	246	246	246	246	247	246	243	240	237	235	236	240	253	279	270	302	258	288	254	235	236	264	279	256	251	246	242	243	263	249	242	285	247	249	257	259	253	249	225	247	238	238	280	205	201	188	190	220	250	253	257	239	232	228	218	231	251	263	270	253	293	243	226	235	264	270	266	244	252	258	249	239	236	252	253	261	266	265	263	265	266	272	276	251	242	229	252	253	246	238	238	
248	250	224	250	243	238	242	249	250	252	256	254	248	238	248	255	189	248	257	237	221	211	193	183	190	240	237	244	245	246	246	247	247	246	246	245	243	246	246	251	256	256	254	256	245	302	246	277	253	240	239	247	255	246	248	264	258	255	250	255	244	241	243	248	254	263	257	252	262	254	256	281	222	209	246	249	195	218	247	256	269	272	264	241	226	218	217	220	257	281	229	252	241	236	259	215	239	239	247	253	248	235	235	241	254	243	218	218	226	230	222	221	236	252	239	231	251	287	208	240	240	
244	213	253	246	234	233	238	247	245	251	254	249	248	242	257	278	249	244	254	282	257	243	230	246	249	245	242	247	247	246	247	247	247	246	246	244	242	240	247	253	257	259	260	261	252	298	248	256	245	239	245	254	246	262	241	250	257	259	257	239	242	234	238	244	280	259	257	254	247	223	210	214	211	199	197	206	221	239	247	258	271	281	278	266	235	230	231	247	255	279	257	260	238	243	240	246	236	239	278	267	243	224	232	244	259	221	220	231	241	234	217	219	229	224	239	264	285	222	198	237	237	
253	252	252	255	254	242	242	250	251	251	246	252	257	243	243	247	243	86	241	264	268	264	268	271	266	243	243	248	247	246	246	247	247	247	246	245	242	239	247	252	255	259	260	263	244	284	279	287	249	243	297	254	245	261	251	274	261	249	279	236	235	228	233	255	264	250	251	258	224	257	256	252	244	243	240	228	235	238	247	273	284	269	282	280	265	246	240	252	258	239	267	249	279	210	243	255	272	262	271	263	241	213	224	256	237	249	242	239	242	238	244	244	245	244	233	230	215	211	220	229	229	
249	244	241	249	258	251	240	251	257	249	255	257	227	205	251	245	215	211	236	257	256	251	254	239	222	232	260	243	241	244	246	247	247	247	246	246	242	239	250	255	260	262	256	247	251	267	267	267	239	233	236	243	242	235	232	221	262	250	228	216	228	228	237	245	281	243	243	252	252	206	250	248	247	260	253	238	233	243	264	285	262	274	263	275	279	264	241	243	230	211	225	219	238	238	236	280	264	256	282	254	232	207	225	247	251	244	250	261	262	257	250	258	251	257	259	247	227	242	236	223	223	
248	194	238	247	255	249	241	240	246	260	270	223	217	207	241	261	242	230	239	241	206	223	228	245	245	183	199	239	236	243	246	247	247	247	247	246	244	242	248	250	249	240	230	233	234	225	222	217	204	201	203	211	210	211	219	219	221	214	208	236	224	226	242	261	254	228	202	211	213	238	239	246	256	289	240	228	250	280	281	227	269	260	268	258	275	282	260	250	231	231	226	243	242	232	238	285	235	237	288	210	190	209	233	251	249	244	252	263	264	260	257	262	255	262	263	249	232	235	227	218	218	
230	244	243	245	220	241	237	239	241	234	227	218	224	250	256	261	262	257	258	243	225	203	201	218	219	182	195	240	237	242	246	247	247	247	247	247	247	247	250	250	243	232	231	244	239	225	226	221	209	209	212	216	218	222	226	235	244	231	223	207	227	229	246	244	223	210	241	233	230	231	240	242	261	245	220	219	269	287	218	279	290	280	262	285	279	277	275	248	232	214	241	248	244	270	255	269	235	243	204	205	219	215	235	248	273	238	270	263	272	253	268	256	271	264	249	213	242	229	223	236	236	
256	256	255	245	224	201	216	227	247	240	244	249	242	250	250	252	258	268	274	270	248	236	230	213	224	215	248	240	239	244	246	247	247	247	248	248	248	250	254	252	250	244	255	260	236	225	228	215	213	210	218	248	249	251	256	264	267	266	260	250	240	247	255	256	223	250	247	245	237	238	241	252	235	241	213	218	264	248	255	285	285	257	278	289	258	259	279	265	238	243	264	251	261	275	261	189	181	196	208	205	211	215	235	269	274	260	256	269	276	262	263	255	280	273	219	217	212	219	210	238	238	
259	261	265	238	236	228	197	234	242	247	251	253	259	233	241	244	249	258	267	269	262	252	207	265	262	253	225	241	241	245	246	247	247	248	248	248	249	250	252	254	253	259	264	259	226	222	224	219	212	244	249	251	251	253	259	265	265	269	268	260	254	257	271	272	227	225	243	238	230	238	242	250	258	241	220	231	258	249	241	237	229	235	238	283	256	259	255	254	240	239	247	258	248	210	200	195	199	204	215	228	208	215	231	268	273	280	247	243	264	276	285	284	203	204	211	217	209	228	231	246	246	
254	250	219	258	258	258	255	254	257	251	241	231	226	208	240	251	253	280	255	252	316	243	244	279	257	242	234	239	240	245	246	247	248	248	248	249	249	250	251	251	253	253	255	249	224	241	242	247	245	249	252	252	251	249	277	283	270	282	259	263	266	286	288	207	217	205	231	232	228	244	252	257	248	242	230	244	267	248	271	248	242	237	236	273	261	247	240	229	229	235	244	249	256	251	242	203	206	206	237	221	210	221	234	264	277	248	279	266	247	273	246	198	199	200	217	217	226	222	232	251	251	
215	223	244	247	251	256	263	273	281	275	244	231	232	229	243	279	204	202	224	222	238	234	249	272	242	215	190	238	240	245	247	247	248	248	249	249	249	249	249	251	257	251	252	242	217	241	243	243	246	254	253	253	279	272	282	281	276	282	279	280	293	291	203	203	206	237	223	227	228	253	259	265	253	243	242	246	299	269	234	237	238	240	237	242	223	218	208	223	214	231	249	252	217	215	215	213	204	209	198	219	212	228	259	262	274	241	284	255	266	233	205	207	196	190	219	218	238	221	239	252	252	
214	244	240	244	248	252	281	274	291	290	272	237	237	235	228	211	210	227	214	239	235	239	268	243	226	198	222	246	245	246	248	248	249	249	249	249	248	249	249	251	255	256	254	230	231	234	239	244	256	253	271	276	285	282	280	293	290	276	280	296	254	199	199	207	207	223	232	231	234	258	273	256	255	296	267	231	217	218	211	222	195	239	237	243	210	218	221	224	201	227	247	251	252	252	253	247	239	242	226	213	216	252	264	265	267	280	281	192	216	221	204	205	230	202	219	217	234	225	248	238	238	
247	243	238	244	272	272	288	277	275	289	286	274	243	244	236	221	210	220	236	230	234	247	271	252	231	223	280	258	248	248	250	249	249	249	249	249	249	249	249	250	252	260	245	253	238	234	249	252	273	280	274	271	279	282	280	289	302	268	251	214	201	196	198	229	229	233	227	238	261	251	255	261	248	254	256	257	257	259	258	251	249	224	242	241	233	212	212	223	197	219	250	255	250	211	201	196	196	237	222	205	224	250	258	267	272	242	200	195	204	224	219	203	198	208	237	221	234	231	247	239	239	
247	246	244	267	271	275	290	272	276	276	287	291	279	246	244	228	212	239	228	226	235	258	291	259	249	259	269	230	248	251	254	252	250	249	249	249	249	249	249	249	252	252	234	240	235	250	264	270	276	288	281	263	260	261	263	286	248	256	260	255	253	203	227	236	242	221	225	255	265	270	255	249	229	212	222	248	250	252	257	256	255	254	255	258	244	210	220	223	199	212	252	260	253	216	209	219	205	192	214	201	246	252	255	245	231	207	203	198	194	226	226	210	206	204	231	218	233	237	237	236	236	
247	249	273	271	285	288	292	274	261	268	265	282	291	278	240	234	221	235	221	231	254	259	226	233	225	238	270	260	263	250	255	254	251	249	249	249	249	249	249	249	252	253	244	247	247	248	268	273	275	287	293	280	274	260	258	277	287	249	249	216	208	200	229	230	236	212	223	264	255	260	283	254	225	243	243	245	244	280	249	241	247	251	256	265	270	241	204	227	202	210	249	256	232	211	200	197	198	231	214	203	233	258	236	226	225	212	206	207	199	217	228	223	242	205	234	244	243	245	249	251	251	
250	270	284	289	282	206	198	198	187	198	251	253	274	286	273	243	217	231	222	252	254	243	253	223	250	273	280	279	265	276	250	252	250	249	249	249	249	249	249	249	250	249	239	245	251	255	262	268	271	283	286	282	285	244	251	246	202	243	202	203	209	237	249	245	236	208	221	254	272	285	218	247	241	240	259	247	242	207	247	242	242	245	247	255	267	240	255	231	204	212	251	255	255	220	210	209	205	232	214	208	254	246	215	223	225	224	216	244	212	240	231	248	244	245	248	252	255	258	253	258	258	
295	285	284	316	205	212	211	217	218	217	215	211	231	262	274	261	218	229	225	257	261	257	267	279	271	275	274	264	260	260	250	247	247	248	248	248	248	248	249	248	248	247	238	240	242	244	246	250	245	229	242	225	206	213	225	228	215	203	218	242	243	242	250	243	232	210	232	238	225	222	242	245	242	247	247	250	247	252	244	247	253	252	239	261	262	255	279	232	201	210	248	253	264	254	271	270	233	234	216	217	244	228	221	226	225	251	247	246	248	253	251	248	247	251	252	253	260	263	260	256	256	
303	288	236	208	203	220	215	245	253	256	259	260	256	247	269	272	247	236	236	249	252	263	246	285	277	274	260	250	241	243	219	244	244	246	247	248	248	249	249	248	249	248	241	238	242	247	252	249	231	227	230	217	204	206	225	231	218	208	222	230	201	194	200	202	225	217	245	249	260	255	252	251	251	257	255	240	219	219	239	238	214	235	237	254	268	233	220	221	198	208	246	250	251	230	223	210	209	232	220	229	247	258	257	257	257	258	256	255	257	260	260	248	240	239	262	268	272	273	247	240	240	
193	210	214	214	215	243	245	248	254	260	265	266	264	264	270	275	267	256	253	242	238	245	254	287	274	258	243	238	228	196	221	245	244	245	246	247	248	248	249	249	251	250	246	244	246	251	255	240	225	232	228	219	205	200	226	231	219	212	226	228	217	213	212	202	226	223	241	258	262	257	251	250	251	253	268	231	196	192	195	219	212	236	243	216	199	205	207	217	199	210	242	259	256	216	213	202	199	230	221	225	249	258	262	262	260	260	254	249	252	256	258	251	233	249	264	276	283	242	229	212	212	
246	215	218	226	240	235	240	248	251	257	261	262	262	267	274	273	272	270	274	259	246	246	235	228	218	238	246	239	222	225	240	245	243	243	245	247	248	248	249	249	250	250	250	249	248	252	250	226	225	240	223	215	208	202	224	228	219	219	231	228	218	226	224	239	232	232	239	271	263	254	262	254	250	275	273	226	199	191	195	198	209	242	238	214	229	209	212	215	200	209	255	260	261	247	230	220	204	194	214	211	240	245	252	256	259	285	243	263	263	276	267	237	227	234	247	277	237	232	227	207	207	
220	234	225	219	230	223	236	270	275	271	274	277	277	282	284	292	259	266	279	283	259	247	242	247	263	261	248	231	213	224	235	240	239	241	245	247	248	248	249	249	250	250	251	252	255	252	242	228	240	240	220	216	216	216	223	227	225	229	235	233	228	245	244	241	240	246	250	261	278	247	255	256	252	237	210	201	193	192	195	210	213	250	218	246	231	210	219	217	199	207	251	255	254	218	219	203	198	226	207	203	231	255	263	271	281	271	241	263	266	280	239	233	228	238	252	270	233	232	226	206	206	
254	262	248	239	218	216	254	280	291	277	283	289	297	277	214	225	246	269	280	297	284	248	250	256	265	245	226	207	189	183	192	239	238	241	245	247	248	248	249	249	249	250	251	253	258	262	250	250	246	231	224	239	253	256	259	262	265	268	266	261	254	248	245	241	240	278	295	266	249	278	277	280	200	210	213	207	201	221	196	208	214	219	250	244	247	216	225	225	200	207	249	249	241	219	216	208	202	221	204	204	231	250	256	274	275	269	280	238	257	237	241	234	234	241	249	247	238	235	237	216	216	
207	205	217	228	215	219	253	282	298	278	290	233	233	246	246	246	293	294	308	291	313	267	249	239	238	218	225	215	196	194	228	244	240	243	245	247	248	248	249	249	249	250	250	253	254	253	263	257	244	252	249	249	256	261	262	264	269	272	270	263	253	248	247	245	266	272	256	295	259	255	250	222	206	203	210	208	218	216	242	209	206	250	248	244	247	249	237	233	200	209	248	241	239	235	218	209	203	213	201	207	248	249	247	259	268	268	232	277	259	242	236	256	237	245	251	250	242	235	286	230	230	
227	224	241	227	222	230	258	276	300	278	222	236	244	241	244	278	290	297	290	280	308	303	242	232	238	227	241	251	266	285	257	244	243	245	246	247	248	249	249	249	249	250	250	252	251	251	252	240	245	239	249	249	272	258	276	279	282	263	263	258	250	267	263	270	271	249	266	252	265	266	262	248	217	202	201	219	217	218	215	243	246	248	246	241	244	251	218	204	206	210	247	254	256	243	210	204	200	207	199	211	251	248	243	244	242	238	226	224	236	238	243	274	271	277	279	277	267	260	286	249	249	
255	252	244	232	230	259	263	267	257	251	260	249	239	236	258	279	295	297	274	259	278	303	292	253	249	249	256	245	242	244	237	233	239	244	246	248	248	249	249	249	249	250	250	250	251	256	259	249	237	241	257	273	272	275	275	277	282	285	276	283	283	267	249	275	287	283	250	281	256	260	265	265	256	232	203	247	248	248	245	243	246	247	243	239	248	231	213	198	221	215	246	260	254	226	210	207	201	216	202	220	256	260	259	257	231	230	206	213	234	226	208	233	242	262	236	259	270	281	241	238	238	
255	251	245	240	236	258	270	274	255	253	250	245	238	256	260	299	229	240	244	261	303	294	308	291	258	249	225	202	194	197	200	215	221	239	244	248	249	249	249	250	250	250	249	249	248	249	251	244	254	262	267	273	276	270	266	272	280	279	259	277	251	247	245	245	267	246	283	273	247	248	254	257	260	254	227	220	244	245	245	245	248	246	242	246	257	258	245	250	241	228	252	250	228	221	218	208	226	214	207	237	258	265	270	270	217	229	228	227	240	210	207	225	219	219	223	228	247	270	237	231	231	
248	244	245	249	246	260	263	275	262	247	240	258	241	257	288	202	233	229	192	192	231	271	304	310	255	250	233	221	213	209	204	210	207	241	245	249	251	250	250	250	250	250	249	248	245	241	238	258	264	262	259	257	250	244	245	239	244	269	268	291	249	246	247	249	247	247	270	237	215	204	197	241	248	253	252	247	244	243	244	248	250	248	246	250	260	256	260	260	253	253	259	238	228	224	243	238	229	221	211	234	254	259	260	236	214	215	222	228	242	220	231	225	226	237	240	241	246	261	237	222	222	
244	244	249	288	256	270	261	253	254	244	256	245	247	261	248	217	234	249	246	211	286	286	286	310	300	254	240	228	237	237	231	243	246	253	255	254	253	252	251	250	250	250	249	248	244	237	233	253	258	250	243	240	231	223	228	230	239	242	249	290	253	242	241	249	251	246	248	225	211	240	233	231	203	236	224	249	247	244	243	247	250	249	248	245	249	253	281	260	253	262	274	272	266	260	255	257	256	245	223	235	247	250	242	219	214	205	224	236	232	214	232	243	247	244	246	247	258	255	237	225	225	
240	244	271	292	288	282	269	261	255	245	259	265	266	258	257	237	250	245	242	248	286	283	275	291	298	283	268	257	257	259	254	249	253	263	267	263	257	254	252	251	250	250	249	248	245	238	236	251	249	245	241	239	231	218	226	237	247	255	253	251	249	244	242	251	251	250	251	253	213	204	252	251	231	220	243	245	245	242	241	244	245	247	250	245	242	269	276	249	243	254	266	269	267	259	255	257	271	264	247	241	246	244	236	212	243	231	231	243	249	245	241	243	243	243	259	245	264	250	239	239	239	
238	260	277	293	302	290	285	288	257	251	287	250	221	255	256	252	274	243	240	263	285	274	267	274	278	276	264	256	258	259	253	250	270	278	269	270	266	257	253	251	250	250	249	248	247	241	241	253	250	244	238	237	230	221	227	239	248	253	286	250	249	245	249	254	252	250	252	254	219	234	235	256	254	250	246	244	242	241	241	243	242	242	272	248	245	279	231	221	239	251	258	258	257	247	257	280	290	273	255	252	251	246	232	216	201	232	239	254	259	256	251	253	251	250	250	231	226	242	211	231	231	
233	267	275	294	291	285	297	255	246	288	244	245	245	247	252	242	255	257	240	276	273	250	250	257	274	250	250	262	263	263	260	273	280	280	270	286	266	259	254	251	250	249	249	249	248	245	246	250	245	241	236	237	233	228	236	248	252	253	254	248	247	244	249	254	254	253	251	250	231	246	251	258	255	253	248	244	242	242	242	243	239	258	279	247	270	274	247	251	265	280	262	239	273	268	271	282	283	263	254	256	252	253	230	213	229	230	239	248	255	262	263	257	249	248	238	230	246	244	249	244	244	
221	255	270	289	294	266	199	204	214	218	214	202	191	239	226	235	249	279	257	296	216	212	212	188	239	266	245	272	279	277	277	285	299	276	262	274	257	259	254	250	249	249	249	252	250	250	254	254	242	241	235	239	239	237	245	253	255	255	254	250	247	245	248	250	251	250	249	249	246	244	249	258	250	261	244	239	240	244	243	244	267	256	284	210	269	285	258	279	283	242	236	279	276	264	268	279	262	253	250	257	256	250	225	229	221	226	257	261	266	276	260	266	260	245	252	247	251	254	231	211	211	
220	237	246	236	256	259	226	245	240	239	238	233	222	213	212	227	216	200	222	208	219	228	243	233	182	262	264	269	273	275	285	304	283	245	251	261	269	253	249	247	248	248	249	251	251	252	257	259	256	241	231	237	240	240	247	254	260	262	269	281	249	254	247	249	247	246	248	233	247	247	271	249	249	261	240	235	241	267	240	265	273	266	286	238	268	284	270	276	243	242	284	276	281	282	256	243	232	238	242	251	259	243	236	234	225	237	252	257	267	262	251	251	263	258	253	249	263	218	208	246	246	
234	248	255	258	259	264	263	260	260	262	264	265	238	231	225	234	224	213	230	225	201	222	240	234	223	224	247	258	270	276	288	286	284	278	282	284	267	231	238	243	247	248	249	250	251	252	255	259	262	259	238	240	238	238	245	251	255	255	250	256	275	244	248	245	241	240	243	246	245	249	271	245	261	256	235	232	243	242	235	274	287	284	259	243	285	292	236	241	274	238	236	236	285	311	214	219	204	219	228	239	246	248	240	235	235	248	258	256	261	273	247	241	240	249	252	254	271	236	244	240	240	
239	247	262	279	256	257	252	254	257	257	258	261	264	260	256	257	238	227	233	229	226	216	195	235	227	230	234	238	245	265	279	269	269	265	265	239	209	205	229	239	246	248	249	250	252	252	254	256	260	262	258	241	236	232	239	242	238	232	222	224	231	229	241	233	233	237	243	244	241	248	272	276	281	240	228	228	256	241	232	270	292	285	252	303	240	226	239	268	233	235	292	184	221	220	212	245	243	205	215	219	228	222	225	244	246	244	268	266	261	278	245	237	233	263	247	270	211	219	229	226	226	
243	249	265	262	221	229	246	270	216	199	218	251	258	263	267	266	262	257	256	232	227	247	245	244	237	241	246	244	247	246	204	222	223	207	198	198	202	229	227	239	246	248	250	251	252	252	253	254	257	261	261	261	242	237	236	238	233	225	221	231	234	218	210	233	227	235	242	246	239	261	270	218	208	232	227	226	252	292	251	268	222	239	272	244	235	250	245	238	228	225	222	245	249	253	251	251	250	246	206	210	221	204	214	240	259	261	264	267	259	275	242	236	273	258	280	203	210	206	229	224	224	
252	264	264	258	224	215	212	213	227	247	247	251	256	262	269	272	271	267	263	259	255	251	252	257	262	267	260	245	244	235	225	212	203	203	200	198	201	227	230	241	248	250	251	252	252	252	253	254	256	258	260	265	266	239	242	238	226	223	230	237	227	218	213	204	243	237	237	240	242	234	247	243	236	232	230	228	254	268	256	252	245	222	242	242	237	248	254	256	255	251	249	247	251	256	258	262	264	261	247	206	213	208	211	240	250	242	230	223	231	239	241	240	267	246	205	210	212	229	226	228	228	
266	268	269	267	262	258	257	254	251	247	246	249	253	279	261	265	268	267	262	259	254	251	253	259	269	281	287	273	242	233	231	228	224	215	207	205	215	229	235	247	253	253	253	252	252	252	253	253	254	255	257	262	266	267	267	244	228	234	240	231	222	226	223	219	236	219	218	224	221	225	246	243	242	243	234	232	252	290	276	215	231	219	244	220	241	247	241	248	252	252	249	246	246	248	253	258	264	267	264	256	242	219	215	241	237	224	241	240	236	245	213	214	188	196	203	207	235	228	224	236	236	
263	264	272	266	265	262	257	250	249	247	244	265	270	291	254	279	258	254	253	252	249	247	250	277	286	278	290	291	267	259	257	254	251	228	232	222	238	236	243	254	260	259	256	254	253	253	253	253	253	254	255	257	261	266	271	266	257	243	236	226	230	249	248	247	224	221	224	233	231	233	240	251	244	247	254	235	246	289	249	251	241	233	246	213	203	223	223	237	227	235	236	236	256	256	257	257	243	248	250	260	253	227	222	245	241	239	234	248	256	257	216	207	202	201	202	205	229	222	228	241	241	
254	254	264	257	254	255	250	241	266	250	264	273	287	289	290	289	250	269	246	247	244	268	265	279	269	278	272	278	274	270	270	268	266	259	249	242	240	241	249	259	263	260	258	257	254	253	253	253	253	253	254	255	257	260	265	266	264	242	238	239	251	259	242	217	216	237	240	246	254	247	253	257	239	268	248	243	248	225	208	242	237	231	246	242	212	252	250	244	239	237	235	231	221	227	211	191	196	218	252	252	238	229	227	238	242	254	247	247	266	248	210	242	212	206	229	230	232	230	243	249	249	
242	277	267	251	255	285	247	235	280	295	263	271	290	289	297	242	241	274	275	278	273	273	267	281	247	227	199	189	237	263	270	271	268	261	252	244	240	259	278	287	269	252	257	257	254	253	253	253	253	253	253	254	255	256	258	262	265	261	252	247	249	248	222	234	217	239	241	256	249	254	257	240	238	237	240	246	256	254	245	226	233	228	250	253	246	233	249	250	253	256	255	251	247	247	227	243	214	235	236	205	230	230	233	235	239	256	266	267	254	221	205	219	223	212	223	232	234	241	250	253	253	
237	236	240	265	249	247	235	241	287	251	242	269	236	248	200	245	249	265	284	275	285	251	252	224	213	213	204	230	239	256	266	268	264	259	253	247	259	278	293	229	224	250	257	257	255	255	255	254	254	253	253	253	254	254	255	257	259	260	257	247	247	243	222	237	227	244	242	235	238	240	249	209	245	236	219	206	249	256	254	228	235	230	247	248	238	243	241	245	251	255	257	261	261	258	254	249	246	248	244	241	202	238	243	244	235	241	236	228	223	219	206	239	220	210	226	228	237	251	247	245	245	
236	239	225	243	247	239	232	249	285	249	263	282	270	250	248	244	288	236	276	289	253	201	220	224	216	236	233	228	237	271	279	269	268	264	262	266	293	210	214	244	245	256	262	261	260	259	257	256	254	254	253	253	253	253	253	254	255	257	259	258	250	237	236	230	235	242	252	250	254	261	257	243	196	248	234	223	243	248	252	251	240	236	242	238	240	240	238	243	261	238	243	253	262	259	256	255	254	254	255	254	252	248	264	254	252	246	237	222	217	228	221	210	211	226	224	230	248	252	268	267	267	
247	248	240	240	205	234	231	271	246	241	275	261	219	237	236	240	192	230	244	204	204	202	253	225	243	235	234	230	259	272	277	277	280	277	284	307	215	238	245	242	269	276	264	266	268	265	261	257	255	254	253	253	252	252	252	252	253	254	256	258	260	243	237	244	259	258	260	255	267	268	262	255	254	200	241	244	244	240	243	246	242	240	242	243	241	247	252	254	236	237	237	266	257	244	248	251	251	248	248	249	253	285	262	257	259	255	248	219	225	241	230	238	234	230	229	240	263	274	274	262	262	
258	258	255	247	237	204	234	225	212	210	217	218	214	206	209	204	206	227	233	219	213	211	243	246	239	235	242	238	263	280	282	284	281	286	304	220	236	235	236	243	264	287	275	267	274	273	267	261	258	256	254	253	252	252	252	252	252	252	251	251	251	260	265	245	252	268	269	268	271	276	260	249	253	244	236	246	233	231	223	242	240	241	243	247	242	199	195	198	232	249	257	254	206	234	243	247	246	245	244	247	284	278	267	252	254	261	249	218	231	250	224	230	223	227	245	247	263	277	274	281	281	
262	265	271	263	249	218	222	233	213	206	236	220	231	230	228	226	218	253	234	232	222	238	239	240	237	239	268	275	266	280	285	287	295	315	214	207	227	220	232	254	280	284	282	275	272	277	274	268	261	258	255	254	253	252	251	251	251	251	249	245	242	252	261	263	262	263	260	263	265	273	235	246	245	245	237	239	234	232	230	218	236	242	251	244	237	230	220	219	224	210	211	235	199	231	264	269	267	241	270	277	286	218	209	221	240	254	260	246	241	247	217	229	224	231	263	266	267	273	239	233	233	
265	259	267	272	266	241	233	235	222	215	250	252	257	261	263	263	262	263	264	260	252	243	237	236	259	265	284	289	269	279	292	275	190	205	211	224	216	215	258	269	279	277	277	278	282	291	276	272	266	261	258	255	253	252	251	251	251	250	249	245	243	246	245	245	242	228	229	242	240	222	210	243	244	246	242	246	240	225	228	232	231	241	254	263	261	257	253	251	249	245	220	211	228	229	254	266	258	267	273	223	211	246	237	197	232	247	254	243	250	240	238	223	228	260	262	252	246	253	240	234	234	
233	231	247	265	270	263	260	245	256	250	248	251	257	261	262	264	263	260	262	262	255	250	241	233	254	264	291	282	274	281	209	205	203	213	204	228	219	222	258	269	277	276	278	279	283	288	295	268	266	265	262	257	254	253	252	251	250	250	249	248	247	250	251	245	229	225	236	238	229	230	225	214	220	244	239	245	245	233	223	226	227	240	247	255	260	260	261	263	266	262	248	234	233	232	230	234	268	280	213	226	248	250	199	238	252	253	236	231	251	232	227	222	252	249	220	236	230	238	217	241	241	
255	253	252	257	265	263	261	261	255	249	249	252	274	254	255	280	250	248	251	255	256	287	249	235	258	265	285	281	277	220	214	207	202	233	234	233	232	250	265	266	278	276	281	271	273	273	282	291	261	264	264	259	255	253	252	251	250	250	250	250	251	252	246	234	222	229	236	236	242	254	228	237	206	224	240	242	250	236	219	224	226	239	239	238	242	249	252	253	260	266	257	242	239	228	228	240	252	211	233	241	272	268	276	240	282	244	222	225	244	239	227	243	239	241	243	246	255	255	233	245	245	
255	262	251	266	252	251	252	253	246	240	260	269	291	287	291	249	236	237	267	270	280	275	239	232	254	263	277	262	255	216	211	209	232	231	235	237	269	285	274	263	282	286	280	266	263	267	267	293	285	287	258	259	258	255	253	251	251	251	251	251	255	260	258	235	230	235	246	253	257	259	212	208	206	216	245	247	248	239	214	224	229	242	225	241	247	251	252	243	268	250	250	243	238	239	246	251	259	241	241	254	264	269	235	239	251	232	216	223	237	236	238	248	255	255	266	249	251	259	231	244	244	
252	257	258	244	244	242	243	250	244	249	271	280	289	294	253	244	229	237	264	281	285	246	242	241	248	253	227	215	224	219	209	227	222	226	237	265	276	309	287	257	281	306	278	267	249	257	259	275	293	255	250	257	263	260	255	252	251	251	251	252	256	260	261	254	236	241	249	249	245	240	231	220	233	231	250	253	250	251	206	214	239	224	217	222	230	237	248	257	227	221	196	228	231	240	254	251	247	243	250	238	215	257	260	203	203	226	214	216	229	234	239	242	255	252	252	267	266	254	249	235	235	
247	246	239	241	241	239	239	265	254	252	248	273	289	280	250	235	225	258	268	293	245	247	250	262	263	248	228	214	220	220	235	230	224	228	260	271	285	262	330	231	276	309	285	210	215	243	238	238	224	227	244	280	263	262	258	253	251	250	250	252	255	257	258	258	253	237	236	236	235	234	227	240	221	247	253	252	214	256	208	216	229	219	220	235	244	247	217	204	203	212	237	217	220	238	250	249	253	224	229	210	201	202	192	193	197	200	213	207	223	247	249	259	257	262	267	270	270	236	237	225	225	
249	253	245	238	259	256	235	271	254	290	256	249	276	244	236	226	223	255	290	242	232	244	253	265	275	270	234	219	245	243	235	235	239	229	257	272	286	268	226	232	267	249	201	213	206	203	204	205	224	236	286	294	280	258	256	253	251	250	250	251	253	254	255	258	261	258	255	241	237	240	237	221	221	210	242	248	256	263	238	221	240	237	240	255	258	254	236	222	240	246	239	211	215	237	252	255	263	227	211	215	249	247	243	204	203	219	213	206	224	247	252	249	251	251	258	271	230	221	238	232	232	
254	251	240	237	241	256	237	259	280	255	261	256	271	248	237	221	231	269	259	252	240	245	264	256	265	268	238	247	236	237	236	264	285	279	254	249	296	247	232	244	258	218	207	208	227	223	218	240	234	275	290	293	268	256	253	251	250	249	250	250	251	252	253	255	259	260	259	249	245	248	245	225	218	227	220	240	248	259	255	219	234	237	245	261	258	253	250	216	233	226	207	207	209	235	254	255	261	224	217	197	189	261	214	208	224	217	214	208	240	246	270	280	269	261	261	263	234	247	243	239	239	
251	247	236	237	240	258	242	249	259	270	254	261	227	240	227	222	256	278	254	241	241	257	245	235	205	254	252	239	232	239	239	271	294	305	264	256	254	251	244	258	261	218	209	231	216	242	241	240	240	280	287	281	274	260	254	250	250	250	250	250	251	252	252	253	255	257	259	248	246	246	242	221	221	235	236	243	241	248	243	229	225	239	255	258	255	254	254	249	220	204	201	210	207	233	246	249	248	216	225	247	250	253	257	255	244	211	213	211	238	242	263	284	278	260	252	228	209	238	233	231	231	
218	242	233	229	234	241	249	256	268	255	235	228	251	242	226	228	270	297	251	244	257	205	205	214	239	243	242	233	234	260	272	276	298	248	271	256	286	254	316	261	214	221	215	223	234	230	233	238	271	290	285	266	266	271	256	253	252	251	251	251	251	251	252	252	253	255	259	259	247	248	239	217	229	245	245	226	232	223	214	212	217	237	251	251	253	252	239	255	254	213	237	216	211	236	247	248	248	253	252	251	249	238	259	220	233	225	212	213	236	249	258	280	249	275	255	214	212	207	231	229	229	
207	216	231	231	249	252	252	260	270	237	258	256	250	243	236	243	265	218	201	198	208	225	219	241	240	243	240	234	256	258	270	276	299	250	240	262	286	268	249	199	208	208	217	235	219	223	253	260	291	275	265	249	247	256	257	259	257	254	252	251	251	251	251	251	252	253	257	259	258	252	235	219	239	251	241	216	210	206	208	205	215	240	253	251	252	253	236	247	252	254	243	220	211	234	247	248	250	256	204	192	186	186	195	192	207	218	210	215	234	247	253	273	245	267	251	213	242	244	241	237	237	
244	240	233	236	249	258	266	257	246	242	253	250	249	247	247	256	238	220	211	210	218	244	243	242	243	248	248	241	253	259	265	280	284	250	248	259	251	204	207	207	210	214	209	224	212	224	263	281	277	227	232	234	238	250	258	255	259	257	254	252	251	251	251	251	251	252	254	257	261	248	237	233	246	246	232	222	213	207	205	205	215	242	253	248	252	260	249	257	242	264	228	222	207	224	239	248	252	240	211	204	204	205	201	195	207	218	211	216	234	246	251	260	248	216	207	208	200	234	236	233	233	
251	247	242	256	262	253	258	273	260	252	255	239	276	252	251	228	225	221	231	246	241	240	241	243	245	274	253	247	247	245	251	262	275	278	292	280	225	213	210	208	207	229	239	221	218	250	267	259	200	193	194	203	213	237	243	250	251	258	258	255	253	251	250	250	250	251	252	255	260	259	251	241	246	241	234	230	215	207	219	206	217	243	256	254	255	259	255	207	195	200	199	216	207	218	246	252	257	268	237	231	201	195	199	219	231	220	212	215	224	251	250	252	247	251	250	200	212	207	224	231	231	
252	247	270	268	263	263	274	257	262	211	204	241	199	197	194	207	214	229	219	238	236	236	242	246	249	287	253	237	246	254	253	244	249	275	289	256	253	206	211	210	229	218	230	226	235	259	254	226	212	221	216	213	195	198	207	231	256	256	263	261	255	252	250	250	250	250	251	253	256	258	254	243	245	244	241	234	214	225	215	207	220	243	256	255	254	257	224	213	200	205	238	224	205	210	239	249	254	240	219	214	209	195	194	220	233	224	216	213	222	256	257	252	244	231	236	238	215	213	224	236	236	
281	249	247	255	261	261	267	210	212	207	215	223	216	209	208	211	225	220	240	234	234	238	263	267	284	294	251	235	241	269	277	260	249	248	235	210	207	213	237	239	222	233	226	235	270	269	261	242	249	220	210	255	244	209	215	251	266	277	260	262	259	254	250	249	249	250	250	251	252	255	256	255	246	245	241	232	214	219	214	212	224	245	254	253	254	255	225	225	241	263	235	224	203	207	241	252	253	225	213	203	198	192	191	217	215	228	221	212	221	250	249	238	224	209	198	191	190	218	225	241	241	
269	253	250	255	251	253	247	221	210	208	210	236	233	230	229	227	248	244	240	233	234	261	270	277	291	257	244	241	245	243	267	284	269	263	229	254	216	206	204	210	235	224	228	268	288	259	259	253	198	299	247	285	256	224	274	276	280	290	275	254	255	253	250	249	249	249	249	250	250	252	255	256	256	249	241	233	218	232	217	218	239	252	254	255	255	251	228	200	211	225	206	216	202	208	239	251	251	249	244	237	214	197	190	212	218	231	226	217	230	247	231	223	223	221	215	221	236	238	242	245	245	
257	250	243	265	266	261	261	223	207	209	230	227	250	253	254	252	250	248	242	232	235	270	274	274	275	244	238	247	250	244	249	276	257	262	222	249	241	235	232	223	228	225	255	269	253	253	315	251	247	243	261	252	239	217	239	280	282	283	253	240	250	249	248	249	248	248	248	249	249	250	252	255	258	249	245	235	230	230	220	226	241	245	245	247	253	241	223	207	205	204	209	213	200	209	237	247	251	257	250	229	200	190	186	205	212	221	229	226	244	248	241	238	237	237	231	240	241	242	243	244	244	
254	246	241	258	256	258	258	232	207	233	223	245	246	251	255	254	254	254	242	227	253	271	276	272	254	241	238	266	248	243	251	255	283	243	225	231	245	251	247	237	228	231	259	279	252	285	248	257	314	324	230	225	233	235	240	284	273	264	258	249	252	248	249	249	249	248	248	248	248	249	250	253	258	258	255	238	224	230	226	233	244	245	246	250	252	222	245	213	221	209	219	211	198	210	238	250	253	250	211	212	198	190	186	202	208	216	231	232	250	260	259	257	256	254	248	242	242	243	242	242	242	
250	245	244	254	256	259	258	222	234	224	241	240	242	247	251	271	275	271	238	225	247	259	272	287	250	236	243	258	243	241	252	255	244	224	215	212	239	244	244	267	231	251	250	279	250	285	282	216	233	228	247	239	234	238	271	293	249	252	262	270	253	251	251	251	250	248	247	247	247	248	249	251	255	258	259	254	243	233	232	246	245	249	253	255	248	211	239	225	242	215	219	209	198	212	241	255	253	235	214	207	198	190	212	204	208	235	233	235	248	257	257	257	258	256	252	248	246	244	242	240	240	
250	244	240	247	266	269	226	243	222	238	235	237	240	260	262	286	287	249	237	230	241	248	255	261	248	238	253	248	242	241	255	267	286	225	245	238	244	240	243	239	237	252	248	261	249	252	245	249	247	245	269	239	241	283	297	202	229	253	255	271	268	250	252	254	252	248	247	246	247	247	248	249	251	254	257	253	244	237	235	246	249	253	254	252	233	244	193	235	244	212	210	207	199	213	242	257	242	222	222	209	199	193	211	204	231	235	237	240	247	252	254	257	258	257	255	253	250	249	244	239	239	
242	241	231	244	252	258	228	230	238	237	237	237	254	273	291	227	238	247	242	236	243	248	252	249	243	243	297	248	244	244	242	249	250	226	243	244	239	242	290	236	241	264	257	260	297	220	238	238	241	299	235	256	303	190	189	210	285	268	255	259	259	267	248	256	254	248	246	245	245	246	246	247	248	249	250	249	246	241	237	241	254	251	246	242	228	204	217	240	227	216	206	208	204	215	245	256	219	212	224	213	203	197	210	228	233	236	240	246	251	249	249	253	257	257	257	253	249	250	244	234	234	
227	242	243	252	257	258	242	240	234	240	246	242	250	268	239	242	236	250	249	239	240	251	252	232	241	247	280	248	245	249	251	246	229	245	243	237	238	256	243	231	254	288	256	253	207	236	228	233	240	235	238	281	193	176	238	298	239	273	250	246	251	251	273	275	248	244	244	244	244	245	245	246	246	246	246	246	245	242	238	243	251	244	240	240	228	230	225	229	239	235	212	211	212	220	250	251	213	202	220	217	209	217	232	233	236	236	241	249	253	246	257	255	259	263	264	261	258	259	254	219	219	
247	249	253	255	257	259	249	233	236	246	292	245	249	266	267	271	289	290	252	234	237	253	248	244	243	257	222	208	232	255	187	257	236	225	242	241	246	248	239	232	270	253	246	229	206	207	196	224	231	233	251	228	247	314	300	293	239	253	229	233	232	252	283	241	237	236	241	242	243	244	244	245	245	245	245	245	244	241	238	245	248	240	243	240	243	248	250	257	256	253	247	235	222	229	256	233	212	202	225	220	225	234	232	235	237	236	256	261	264	260	249	260	270	278	265	241	266	272	241	211	211	
249	255	259	255	258	254	242	228	255	265	262	239	251	269	279	279	290	270	234	226	236	253	258	256	259	267	245	247	248	253	257	255	244	239	239	242	284	247	260	241	265	216	238	213	206	223	193	230	231	240	269	275	293	303	316	150	240	192	212	230	211	176	178	213	232	232	236	240	242	243	244	245	244	244	244	244	243	241	239	245	250	248	246	257	255	252	254	258	258	256	250	239	230	239	250	222	212	219	224	230	240	233	232	234	235	251	268	280	282	232	216	241	274	263	235	222	234	271	267	223	223	
249	261	249	249	262	252	236	227	249	286	253	231	236	266	269	221	200	233	222	223	238	261	253	248	240	230	208	239	244	248	246	248	241	241	243	239	258	243	241	253	244	196	204	195	208	226	236	232	234	240	248	222	229	237	173	187	200	205	240	226	207	184	189	208	234	231	234	239	242	243	244	244	244	244	244	243	243	241	239	242	247	249	257	251	252	252	253	258	260	257	250	242	237	249	248	235	224	239	243	244	240	237	234	234	248	262	273	286	244	226	211	255	277	247	239	227	227	239	234	226	226	
248	206	227	239	268	248	236	232	253	279	248	230	249	250	217	211	230	227	237	229	245	260	264	263	260	245	222	222	215	213	237	241	236	244	241	231	216	239	216	205	200	252	192	182	218	227	237	229	236	250	242	202	201	198	229	244	186	217	227	208	211	196	211	210	237	233	235	239	241	243	243	243	243	243	243	243	242	242	241	241	241	244	252	245	247	249	251	258	263	261	253	247	243	249	241	228	238	237	241	242	244	241	234	250	264	264	278	262	239	223	210	238	280	246	240	231	232	245	238	232	232	
227	242	243	241	251	250	241	240	261	240	245	241	263	228	237	249	251	248	241	238	249	279	264	264	268	269	264	240	227	214	199	238	235	243	247	233	227	219	199	217	235	203	228	239	242	231	239	222	238	249	233	207	198	209	201	189	177	198	219	211	204	199	215	221	237	233	236	240	242	243	243	243	243	243	243	243	242	242	242	242	240	241	247	255	242	244	246	263	269	261	258	253	248	252	233	241	234	237	239	242	261	246	257	263	264	267	285	249	238	222	213	250	264	249	240	233	237	251	239	231	231	
215	237	243	249	249	271	246	247	263	258	243	252	223	254	245	249	254	251	245	244	251	257	256	257	262	269	274	274	267	234	228	206	239	243	245	233	232	237	214	241	245	251	251	236	242	232	242	204	245	242	227	216	201	208	216	205	197	193	211	220	212	200	196	218	234	233	238	241	242	243	243	243	243	243	243	243	242	242	242	242	240	238	238	246	259	246	263	271	266	260	256	257	254	253	247	235	230	233	234	252	270	281	265	261	256	264	288	246	236	222	220	238	251	247	240	237	244	248	239	221	221	
228	232	247	260	249	246	273	256	283	250	242	247	240	238	240	248	249	247	246	248	264	257	251	252	255	261	267	270	271	269	264	255	214	244	256	237	235	239	228	197	239	247	232	231	244	203	239	188	251	233	221	224	212	209	216	213	210	202	223	235	233	226	223	241	239	237	240	242	243	243	243	243	243	243	243	243	243	242	242	241	241	241	236	237	242	249	258	269	257	254	248	244	248	247	238	228	224	243	243	263	273	282	304	234	237	253	290	237	234	221	225	244	258	283	251	278	279	286	231	210	210	
225	236	244	237	239	244	261	212	222	243	240	235	240	236	243	257	253	259	267	270	268	251	251	252	269	279	249	252	258	265	271	270	265	264	268	260	236	235	228	220	217	207	204	181	234	215	200	208	245	236	225	232	225	219	219	219	218	228	244	252	253	252	254	254	250	246	244	244	243	243	243	243	243	243	243	243	242	242	242	241	241	242	239	239	241	241	246	257	250	241	228	225	226	230	227	220	219	240	254	259	270	280	245	313	241	255	293	236	234	218	224	265	268	276	239	248	266	249	227	213	213	
227	238	241	249	248	249	252	253	257	256	251	244	240	243	275	245	254	250	278	260	283	281	255	262	283	254	245	243	249	256	260	264	267	271	278	280	272	241	236	228	228	216	212	176	240	223	231	246	266	274	272	255	251	246	245	257	255	249	248	254	255	254	258	281	257	252	248	245	243	243	243	243	243	243	242	242	242	242	242	241	241	243	241	238	241	240	242	241	208	204	196	208	202	223	219	214	218	243	256	258	264	275	259	238	236	257	290	242	232	215	222	256	287	250	196	233	234	203	230	225	225	
235	245	252	248	249	253	241	219	250	252	248	244	248	263	254	247	239	239	240	274	276	275	251	255	247	247	252	244	269	270	251	253	256	263	270	282	288	277	242	236	233	220	208	198	224	247	243	250	264	274	278	277	272	268	262	260	260	254	250	250	251	267	270	277	281	254	247	243	243	243	243	242	242	243	243	243	243	242	242	242	242	244	243	241	243	242	242	240	216	206	199	207	226	224	217	212	217	253	258	257	255	260	264	238	288	246	292	238	231	217	222	248	286	251	250	190	243	213	206	214	214	
230	241	251	257	265	258	256	260	262	244	240	245	257	253	254	254	254	250	236	233	243	265	245	249	247	253	241	245	282	259	267	269	273	249	256	271	284	289	275	259	229	225	219	207	232	236	240	257	265	274	279	265	267	266	259	254	255	253	264	261	274	277	284	284	275	254	245	240	241	242	242	242	242	242	242	243	243	242	242	242	242	243	243	244	247	243	240	234	220	210	217	225	227	225	216	214	219	246	242	237	230	231	245	252	287	263	286	233	230	224	229	250	262	244	232	242	246	242	235	239	239	
220	233	248	267	253	248	248	251	269	243	273	285	204	243	245	250	257	261	253	236	243	248	244	251	261	238	249	277	209	253	271	266	252	269	273	278	291	281	279	272	267	261	253	244	237	235	248	270	284	283	251	256	277	268	267	256	272	276	276	276	275	278	282	277	261	240	241	237	240	242	242	242	242	242	242	242	242	242	242	242	243	243	244	246	251	247	241	234	224	213	215	228	230	227	217	217	223	241	238	237	240	246	247	261	278	286	252	241	228	226	236	245	256	208	201	237	242	246	242	233	233	
242	253	257	240	233	230	237	236	244	241	236	214	244	238	241	245	246	251	252	244	246	240	215	257	261	267	246	233	247	245	205	201	255	262	277	274	257	249	254	260	255	249	249	248	241	245	265	279	292	247	290	267	276	281	300	275	273	278	278	275	279	286	280	244	226	220	236	235	239	241	242	242	242	242	242	242	242	242	243	243	243	244	244	246	250	256	246	240	234	223	236	233	234	229	221	219	234	245	250	256	267	246	269	261	273	285	239	239	229	228	258	264	286	206	197	206	233	234	233	230	230	
261	265	276	277	270	262	244	234	228	212	251	202	249	242	220	210	198	231	240	237	249	235	219	232	245	239	250	197	195	253	249	243	238	240	199	199	199	211	225	199	231	233	242	256	256	266	269	288	250	234	279	237	278	273	284	282	271	279	276	277	288	277	214	216	212	216	232	233	237	240	241	242	242	242	242	242	242	242	243	243	243	244	244	245	248	253	256	239	250	244	238	235	236	232	227	226	226	227	230	242	256	273	255	264	263	243	243	236	265	232	257	248	205	200	194	199	196	229	227	222	222	
277	275	265	277	275	271	272	265	248	248	216	251	253	255	225	232	226	224	214	239	251	237	229	249	238	245	246	249	250	250	254	196	248	236	211	212	207	202	199	228	222	227	261	272	287	273	272	254	240	270	255	275	276	267	263	283	270	278	286	271	194	197	201	210	208	217	208	229	235	239	240	241	242	242	242	242	242	242	242	243	243	243	244	244	247	250	252	253	249	245	241	238	237	233	231	233	233	227	224	234	244	238	231	238	238	240	237	269	293	232	258	201	204	211	205	237	233	228	228	222	222	
286	276	283	275	260	262	270	274	263	253	225	219	232	259	257	253	253	256	256	257	259	241	243	250	243	241	240	242	246	241	247	252	195	233	209	204	205	230	234	227	225	257	259	278	285	274	272	240	235	228	255	274	233	231	242	276	270	280	187	253	233	250	207	203	201	200	206	229	234	237	239	241	242	242	242	242	242	242	242	243	243	243	243	244	246	247	248	248	247	244	242	241	238	234	233	234	234	233	233	241	241	223	225	234	239	242	237	284	274	300	236	218	221	225	216	202	233	231	225	223	223	
238	241	278	255	247	252	270	266	261	260	259	254	250	253	252	253	253	257	262	269	275	265	245	239	228	226	209	195	193	204	193	242	178	218	214	206	224	236	233	230	242	268	272	243	202	235	225	237	278	259	202	202	218	209	213	219	223	221	201	198	204	204	207	208	199	197	211	229	232	235	238	241	242	242	242	242	242	242	242	242	242	243	243	243	244	245	245	244	244	243	243	243	238	234	236	236	234	231	224	244	248	243	258	263	259	258	241	191	191	208	227	205	207	201	204	196	227	225	223	234	234	
234	238	240	262	244	262	260	253	272	256	253	252	237	238	241	249	250	249	273	264	274	283	270	245	230	227	224	213	205	215	214	206	197	238	243	240	232	231	232	242	267	278	227	221	243	245	225	219	226	202	199	198	209	212	224	224	214	225	213	240	245	247	286	275	252	219	214	228	232	236	240	243	243	243	243	243	242	242	242	242	242	242	243	243	244	244	243	242	242	242	243	241	235	235	238	237	235	230	224	241	247	250	259	258	259	269	247	199	197	237	237	230	205	208	199	231	230	221	225	235	235	
210	229	226	232	224	241	267	245	267	269	249	237	238	231	236	260	267	246	283	266	284	276	284	266	238	227	228	220	210	217	221	218	211	232	244	238	231	232	243	266	270	235	225	250	247	252	249	239	225	214	205	242	243	232	243	232	203	225	235	222	241	261	263	224	197	190	208	227	232	237	243	246	246	245	243	243	243	242	242	242	242	242	242	242	243	244	243	243	242	242	243	240	236	236	238	238	235	231	226	235	240	240	248	265	260	254	222	192	195	191	239	244	222	210	234	228	230	226	233	240	240	
241	252	260	259	252	241	242	248	251	217	240	244	238	237	241	254	258	267	290	236	252	254	271	271	262	259	230	227	222	223	250	244	247	244	243	237	233	244	266	259	236	254	250	254	260	260	254	246	221	214	221	214	198	244	249	250	209	231	242	232	212	201	199	202	198	213	230	229	234	240	244	248	248	246	244	243	242	242	242	242	242	242	242	241	241	243	245	245	244	244	244	241	238	238	238	238	236	233	228	226	241	240	243	252	263	219	234	219	209	239	243	250	247	240	234	231	232	236	241	244	244	
241	248	257	265	268	256	248	250	246	252	247	239	239	259	247	255	281	287	231	204	196	228	245	258	265	261	261	261	262	262	257	252	249	248	244	239	239	248	252	256	256	253	251	256	265	271	268	261	255	250	252	250	246	253	266	269	266	260	247	237	219	216	214	209	215	232	232	233	239	246	249	249	248	245	244	243	242	242	242	242	242	241	241	241	240	240	242	243	243	243	242	240	238	237	237	238	236	234	230	226	239	242	245	249	246	228	212	201	207	238	246	254	253	245	236	232	235	242	238	233	233	
237	258	261	268	263	256	256	256	251	246	244	238	254	256	286	257	214	207	203	205	214	210	237	245	261	266	262	260	263	264	260	254	250	254	252	241	257	258	259	255	253	251	251	254	257	262	268	268	264	257	253	251	249	254	260	265	273	283	273	239	221	217	218	212	231	232	234	237	244	254	259	256	250	246	243	243	242	242	242	241	241	241	241	240	239	240	240	240	240	240	239	240	238	236	237	237	236	234	230	226	242	251	255	258	258	225	231	239	211	235	241	245	243	238	231	233	238	275	235	225	225	
244	243	253	284	253	248	254	262	254	243	250	255	243	217	211	215	216	218	218	222	213	236	234	240	254	259	259	257	256	257	255	255	252	241	247	251	256	280	282	251	249	269	272	275	244	242	247	258	261	257	251	246	250	249	252	255	289	266	276	256	230	239	235	241	235	233	234	239	261	282	280	259	254	248	243	242	242	242	242	241	241	241	241	240	239	239	240	239	239	239	240	240	237	236	237	236	236	234	230	224	224	253	257	262	246	248	241	231	237	234	255	224	231	225	224	232	265	265	233	224	224	
247	247	251	274	249	243	250	276	251	201	232	227	233	234	255	256	258	259	258	254	246	235	232	239	270	266	271	269	277	270	278	278	239	229	235	278	283	277	276	270	248	268	293	254	245	233	237	272	247	247	247	246	274	284	241	195	202	235	259	268	267	262	255	245	237	232	233	252	272	283	279	274	254	248	242	242	242	242	242	241	241	241	241	240	239	239	240	239	239	240	241	240	237	236	235	234	235	233	229	219	241	252	256	263	244	215	244	237	249	229	237	236	229	224	223	249	268	251	232	224	224	
241	277	255	269	244	239	250	254	241	250	254	257	259	256	255	256	260	261	261	257	247	235	235	260	270	281	286	287	247	222	221	216	228	223	262	279	279	279	271	282	274	269	265	250	241	231	239	273	273	273	276	285	192	211	212	237	246	247	252	261	264	259	254	244	232	230	247	266	276	281	267	270	254	246	242	243	243	242	242	241	241	240	240	240	240	239	239	239	239	240	240	240	238	237	235	232	233	232	227	216	215	246	251	256	206	228	233	259	212	238	240	236	230	228	227	231	248	248	232	224	224	
209	218	217	222	222	219	244	248	249	243	251	259	255	247	250	253	254	253	255	249	235	236	262	269	273	286	286	246	223	247	248	239	224	226	264	283	281	288	272	285	283	287	231	241	234	230	258	267	271	287	291	196	206	239	244	244	246	247	259	264	263	262	261	251	220	238	261	265	279	273	251	241	240	242	243	245	244	243	242	241	240	240	240	240	239	239	239	240	241	241	240	239	238	237	236	234	234	232	227	216	217	241	247	248	223	235	232	213	225	232	241	231	226	229	230	231	247	276	232	225	225	
242	248	251	253	258	256	251	251	243	233	257	266	237	234	263	269	272	272	285	239	224	257	267	269	276	278	210	199	218	229	243	231	225	232	257	276	277	286	285	289	201	205	240	237	255	231	235	269	232	193	212	214	236	236	238	239	247	250	277	281	282	283	281	226	216	235	250	263	284	249	215	206	215	239	244	248	246	244	242	241	240	239	240	239	239	239	238	240	242	242	241	239	239	238	237	235	236	233	228	219	218	240	248	253	246	239	242	230	202	239	235	226	222	226	226	227	237	213	232	230	230	
246	250	253	254	261	264	258	252	242	237	252	231	223	231	258	280	271	291	251	234	219	248	271	281	218	216	227	241	240	221	237	226	233	243	248	252	268	272	214	234	247	228	212	234	236	236	232	223	207	208	240	238	235	232	236	243	264	275	291	236	285	296	233	221	220	245	246	261	264	227	200	193	209	249	246	249	247	245	242	241	240	239	239	239	239	238	237	239	242	242	240	239	239	238	236	236	236	234	230	225	221	232	245	248	244	242	245	241	228	221	231	228	224	226	227	227	240	217	219	232	232	
251	251	248	264	265	258	256	252	257	251	239	235	221	235	258	279	284	287	244	228	221	240	263	221	220	251	246	243	244	245	238	228	236	271	250	255	255	240	254	254	256	257	247	228	210	205	217	224	220	213	235	235	233	235	243	241	269	287	248	295	296	217	235	221	221	238	267	270	243	227	204	240	273	276	265	249	244	242	241	240	239	239	239	239	239	238	236	237	241	241	239	239	238	238	236	236	236	234	233	229	225	234	242	242	243	244	248	245	241	227	214	208	231	202	230	228	222	216	239	235	235	
269	271	246	272	277	252	243	249	257	244	246	230	227	251	267	284	257	218	226	224	224	258	264	245	252	245	242	241	242	245	242	231	236	273	272	270	261	255	251	253	256	260	262	256	232	216	244	249	252	251	242	234	234	239	268	270	276	289	237	295	235	238	231	294	229	235	251	260	242	235	245	274	275	276	273	250	238	236	238	237	238	238	238	238	238	238	236	236	241	239	237	238	238	238	237	237	236	234	234	231	228	238	243	246	244	239	247	242	247	242	228	210	236	226	233	222	241	238	242	247	247	
263	261	277	275	275	237	235	248	243	249	239	230	236	258	260	250	240	232	238	226	234	260	263	246	234	241	237	238	240	244	244	236	243	245	255	279	253	244	243	259	247	248	255	264	259	248	240	245	253	252	237	238	239	263	272	271	282	250	294	261	245	237	237	234	254	247	247	255	259	242	251	274	278	276	260	219	232	232	235	234	236	238	238	238	238	238	236	237	241	238	237	238	238	238	237	237	236	235	234	231	229	243	247	255	256	246	249	247	248	243	240	230	238	228	229	238	239	239	244	247	247	
237	239	240	223	234	219	231	226	245	243	236	233	253	257	281	250	253	247	237	234	244	263	224	236	249	240	232	235	237	243	242	235	246	251	254	250	208	239	241	204	209	239	251	247	251	245	236	239	248	272	227	231	263	265	273	275	287	255	287	235	237	254	235	240	287	299	274	269	262	215	247	270	272	266	229	211	211	230	232	232	235	237	238	238	238	238	237	238	240	239	239	239	238	238	236	236	236	235	233	230	227	225	250	262	267	271	250	244	245	243	240	232	207	227	232	237	234	237	241	244	244	
242	215	229	233	245	244	251	241	234	237	235	239	243	255	253	258	249	243	236	238	262	277	259	242	234	238	229	233	236	254	237	231	241	283	263	257	251	227	229	226	221	218	217	211	236	236	234	258	277	241	224	229	252	265	277	244	211	225	227	226	240	271	254	259	281	259	274	254	199	234	194	250	261	238	217	203	211	229	229	231	234	237	238	238	238	238	239	239	239	240	239	239	239	238	236	236	236	234	232	229	223	220	244	260	271	268	247	242	243	242	244	243	205	232	228	233	234	237	256	260	260	
217	217	248	251	251	255	262	260	250	241	240	244	246	266	239	237	240	244	235	253	251	271	231	233	219	240	235	238	240	232	234	229	240	283	250	254	239	255	255	254	251	252	253	248	238	237	244	247	248	239	228	234	240	257	251	199	210	219	218	220	239	272	248	244	210	228	237	203	195	193	230	234	198	212	208	204	211	228	229	231	234	236	237	238	238	238	239	239	239	239	239	239	239	238	236	236	235	233	231	229	220	238	247	256	265	252	233	226	238	238	219	247	236	232	226	230	235	233	259	259	259	
241	241	244	250	254	259	263	261	256	250	247	259	250	252	213	210	210	234	236	225	239	232	219	227	242	241	242	245	246	226	215	233	249	246	245	238	238	250	254	255	252	252	251	245	238	238	273	279	272	240	279	236	264	260	208	216	199	220	216	210	206	198	204	211	237	212	241	201	245	242	235	244	218	203	197	200	213	228	230	231	233	236	237	238	238	238	239	238	239	239	238	239	239	238	237	237	235	233	231	228	220	238	244	252	246	231	217	207	198	232	240	247	244	216	225	233	231	248	242	222	222	
233	237	241	261	261	268	265	246	263	254	259	208	213	237	231	226	227	228	227	223	234	230	208	220	236	237	241	243	246	245	238	248	248	213	215	245	241	238	239	239	238	259	254	235	266	235	261	266	241	238	271	237	267	223	210	199	182	234	222	221	228	214	244	243	238	236	245	247	194	242	176	251	248	213	205	198	216	217	229	229	231	235	237	238	238	238	238	238	239	238	237	239	240	239	238	237	236	233	231	227	218	236	245	250	246	248	244	243	242	234	241	248	246	233	227	231	234	241	226	247	247	
227	258	260	255	265	273	249	244	276	254	245	217	235	227	224	226	250	249	249	231	252	234	229	221	209	211	240	237	238	244	242	251	231	210	236	238	244	229	210	229	247	242	247	259	248	197	223	234	236	232	228	239	213	206	214	208	232	240	240	241	244	243	240	236	230	238	249	252	206	197	180	248	244	209	202	200	195	217	229	228	231	235	237	238	238	238	238	238	238	236	236	238	239	239	237	236	235	234	232	229	220	234	244	248	247	228	234	240	240	238	240	249	244	235	232	232	233	242	225	243	243	
239	245	250	249	257	269	245	284	292	209	233	220	231	223	224	226	247	252	257	257	258	262	261	253	247	245	243	234	234	243	244	247	221	212	239	231	211	207	206	216	210	217	223	204	201	201	235	230	219	207	223	226	215	217	204	240	244	251	255	246	237	231	206	230	226	238	247	249	233	198	247	178	233	212	203	217	216	213	208	231	234	237	238	238	238	238	238	238	238	236	235	237	238	238	237	235	235	234	233	231	225	219	240	243	239	222	213	232	246	236	241	265	238	234	233	236	233	243	224	243	243	
281	280	251	248	256	269	279	282	213	238	251	252	249	247	249	251	250	253	259	258	257	262	266	264	261	256	248	242	241	246	246	243	227	244	232	233	226	220	218	243	219	240	231	218	242	206	239	246	225	240	230	230	221	213	237	237	246	255	264	267	261	250	217	224	232	239	247	239	245	240	240	242	188	220	225	222	241	241	239	238	240	240	239	239	238	238	238	238	238	237	237	238	239	239	237	234	235	235	234	233	230	225	238	243	237	229	212	227	226	248	254	239	232	231	231	235	237	244	227	244	244	
239	281	267	276	259	256	220	243	238	247	247	250	248	245	247	250	248	248	253	251	250	269	254	256	258	254	248	239	249	251	251	253	226	246	250	253	254	252	248	247	247	242	234	220	240	240	238	252	253	243	250	229	244	240	235	237	250	256	262	265	271	266	254	242	242	231	224	220	211	197	193	191	194	217	242	244	243	246	247	245	243	241	239	239	239	239	238	238	238	238	238	238	240	240	238	234	235	236	235	235	235	232	240	242	233	228	219	211	230	242	219	216	202	224	230	232	237	246	227	246	246	
230	226	229	258	276	286	236	244	251	248	245	244	244	243	243	265	246	263	282	244	265	278	251	252	229	240	241	245	250	254	256	256	251	249	249	251	253	259	260	255	249	243	247	246	245	246	248	254	260	258	257	255	245	236	235	247	251	276	251	253	264	267	261	258	251	249	248	230	226	218	212	226	224	238	241	244	246	249	250	247	243	241	238	238	238	238	239	239	239	239	238	238	239	240	238	234	234	236	236	236	237	238	242	240	228	225	221	219	224	224	210	217	211	224	230	229	234	244	227	246	246	
210	235	229	238	247	223	237	249	250	245	241	239	239	239	239	256	260	278	264	269	280	214	198	205	243	240	235	243	252	257	258	258	255	250	247	245	246	251	254	256	253	250	250	251	251	249	247	250	251	250	252	251	239	230	238	266	278	267	246	249	254	256	251	261	266	266	270	273	268	259	252	249	247	243	238	239	259	265	269	262	243	240	237	237	238	238	239	239	239	239	239	239	240	240	238	234	234	236	236	237	238	240	246	253	235	233	227	229	226	226	227	204	205	222	221	227	232	241	227	237	237	
244	252	260	258	241	244	227	243	235	236	234	235	238	255	247	242	261	274	280	297	241	234	205	242	246	239	225	236	250	254	256	256	253	249	246	246	245	246	244	248	250	247	243	245	248	249	244	242	241	239	246	244	234	230	236	267	279	263	267	271	230	227	237	250	257	260	267	274	271	263	255	249	245	240	236	252	273	281	275	252	242	240	237	235	237	239	239	239	239	239	239	240	241	242	239	236	236	236	236	236	238	240	244	249	251	237	236	231	228	228	229	215	202	199	220	226	229	237	241	243	243	
247	255	268	273	263	248	248	236	238	234	216	234	240	241	238	236	238	258	250	254	205	247	239	241	247	234	209	231	262	246	249	250	247	246	244	246	249	249	248	248	247	240	238	245	275	245	239	243	247	250	253	250	240	235	239	262	221	198	208	213	236	226	230	247	251	255	260	267	258	252	246	244	242	237	248	267	277	275	257	244	240	238	235	233	237	239	240	240	240	240	240	240	241	241	240	238	238	238	236	236	238	239	240	243	246	248	235	233	230	231	229	223	212	202	218	226	229	235	239	240	240	
242	276	264	259	263	260	233	238	225	238	232	237	237	242	236	237	240	247	268	238	231	205	237	247	228	226	209	227	252	264	259	241	238	239	243	244	245	247	249	249	240	235	240	269	251	242	235	240	246	252	253	251	245	239	259	264	232	248	246	242	236	228	229	235	266	268	274	266	261	240	247	250	253	276	270	269	280	256	223	204	221	217	233	233	238	240	241	241	241	240	240	240	240	240	239	239	239	240	239	238	239	238	239	241	243	245	248	248	237	239	234	229	218	225	220	230	231	235	237	237	237	
218	231	235	247	244	265	254	244	247	243	235	239	244	243	218	237	242	247	214	246	247	239	241	268	221	224	201	225	248	264	220	235	235	239	245	245	242	243	271	245	230	232	245	281	247	231	225	235	241	245	272	245	242	238	260	281	247	249	245	239	238	241	235	234	253	269	272	218	231	224	241	266	271	277	277	276	266	202	199	189	210	212	231	236	242	244	243	242	242	241	241	240	240	240	239	239	239	239	239	240	241	239	238	239	240	241	243	245	246	242	240	233	220	228	235	232	232	235	236	236	236	
207	219	228	221	245	241	231	238	236	239	238	239	245	246	238	240	240	243	247	250	246	235	264	201	200	212	204	222	241	225	214	232	234	240	246	248	245	259	229	238	223	234	268	233	238	224	223	232	260	272	269	245	240	235	246	253	240	243	236	232	237	243	245	236	238	257	235	240	233	272	266	259	269	278	290	172	200	201	196	193	210	207	232	240	249	250	247	245	244	242	241	241	240	240	240	239	239	239	237	239	241	241	240	239	238	239	241	242	243	241	240	233	222	239	236	233	233	235	235	235	235	
210	231	225	222	225	219	217	207	214	222	237	235	246	232	238	243	246	243	245	212	212	175	194	201	199	212	216	242	255	252	241	233	236	244	245	248	250	253	219	232	226	241	263	248	231	222	227	234	250	265	269	256	238	232	257	260	237	238	228	227	236	273	242	236	239	258	240	236	276	276	272	227	266	289	175	192	200	199	222	214	229	229	234	244	249	248	248	249	247	244	243	242	241	241	240	240	240	240	239	239	240	240	241	241	238	238	239	240	240	243	240	240	232	240	238	235	234	234	234	235	235	
222	230	256	257	237	233	231	219	220	224	236	229	246	231	232	239	255	264	266	224	208	203	203	204	200	225	226	250	261	260	248	239	243	244	268	248	250	250	241	233	238	250	230	243	224	223	234	250	244	243	272	247	237	275	245	262	231	231	223	225	235	280	241	235	239	256	243	233	276	275	272	257	252	194	193	195	196	198	215	233	232	231	238	273	250	239	247	253	251	247	245	243	242	241	240	240	240	240	239	239	239	239	240	240	239	238	238	238	239	240	241	242	237	225	237	235	235	235	235	249	249	
246	258	266	270	273	269	260	252	246	232	237	230	246	245	227	236	259	260	270	222	211	204	230	227	232	227	231	259	257	257	253	251	265	267	270	250	225	240	233	237	244	254	240	236	221	226	239	243	246	247	239	235	238	280	248	231	218	227	256	227	252	285	240	235	238	261	245	230	285	255	226	222	213	207	204	205	226	221	233	233	233	233	269	250	217	234	270	255	255	253	249	245	243	242	241	240	240	240	239	239	238	238	239	239	239	239	238	238	239	239	239	243	238	225	237	235	236	236	238	249	249	
248	255	265	270	275	276	270	265	262	256	246	242	239	241	230	239	255	261	266	221	204	234	218	234	235	232	235	272	251	275	250	251	266	267	274	251	244	230	230	240	267	253	230	229	221	230	256	256	259	265	262	256	250	244	229	246	236	227	227	234	242	280	240	234	266	274	190	182	193	204	210	209	216	215	233	241	243	243	237	231	246	268	295	225	220	263	271	269	256	257	255	249	245	243	242	241	240	240	239	239	239	238	238	238	238	239	239	238	239	239	237	238	240	221	239	255	233	234	252	239	239	
237	267	273	283	290	265	266	267	266	265	260	260	256	244	251	256	256	252	228	217	201	226	223	226	234	247	264	274	278	277	277	288	251	252	230	247	236	225	232	262	271	219	241	222	222	237	247	248	248	252	268	271	287	236	229	240	232	225	228	234	257	277	245	231	277	188	192	193	193	199	208	237	238	238	241	238	240	242	238	247	263	285	222	222	213	240	267	266	267	256	257	253	247	245	243	242	241	240	240	239	239	238	238	238	238	238	237	236	237	238	235	236	238	233	238	242	241	244	239	239	239	
222	250	272	276	274	279	251	251	252	257	258	260	262	252	245	247	257	248	237	212	194	224	213	220	241	243	267	276	279	281	276	280	291	256	253	244	231	229	238	260	254	227	234	220	222	233	266	250	275	248	243	245	205	227	222	232	226	221	225	244	257	273	202	245	250	200	193	190	199	231	240	246	249	247	242	237	238	250	248	246	274	224	224	215	214	238	269	260	257	259	272	251	251	248	245	243	243	242	241	240	239	239	238	238	237	237	236	234	236	237	235	236	232	221	238	242	237	229	241	242	242	
214	242	255	268	251	266	263	235	266	268	245	274	275	250	248	250	260	222	230	213	226	213	206	229	254	262	263	271	276	278	283	265	249	251	252	242	229	234	244	260	220	217	229	222	228	234	254	257	245	277	253	254	212	203	198	231	226	223	230	225	215	213	205	213	211	202	196	195	224	236	241	250	251	246	240	245	261	264	270	281	249	207	222	216	223	243	267	270	246	244	256	259	245	247	247	247	246	244	243	241	240	239	238	238	237	237	236	236	237	238	236	236	237	233	241	246	249	242	234	232	232	
222	249	251	225	233	238	239	236	245	269	273	269	246	246	246	250	261	221	222	210	219	204	204	230	246	248	247	253	267	278	284	251	242	244	246	235	226	237	246	269	232	237	224	223	234	243	248	241	271	245	284	255	206	209	210	208	198	230	229	225	222	223	220	222	218	208	207	222	228	231	237	244	246	251	246	240	265	268	284	187	202	224	221	220	237	265	277	278	226	236	243	230	228	240	249	253	253	250	246	244	242	240	239	238	237	236	236	236	236	237	237	236	235	233	245	246	251	241	241	228	228	
232	260	253	227	232	236	254	267	275	276	284	246	245	246	243	250	260	220	214	211	214	202	208	238	250	244	236	242	255	275	251	238	226	244	244	233	229	241	256	220	223	231	222	224	232	261	269	263	260	256	250	202	202	205	238	238	236	237	245	248	247	247	224	223	222	216	233	228	224	227	240	261	263	269	273	277	276	255	202	204	226	226	222	234	234	267	287	269	243	227	193	190	207	259	249	255	258	256	252	248	245	241	239	238	237	236	236	236	235	236	236	235	234	232	243	242	244	240	230	240	240	
238	263	260	250	220	232	230	253	279	267	284	247	247	263	244	251	237	219	210	205	214	202	209	240	252	240	240	249	253	256	223	230	241	246	246	235	232	245	262	220	240	227	223	232	240	241	251	265	261	271	214	206	213	238	237	240	243	247	249	249	250	251	252	249	245	248	239	228	222	234	235	259	264	270	275	289	176	211	210	235	230	227	233	258	258	269	281	233	197	196	223	228	246	271	263	271	279	257	255	252	248	243	239	237	237	236	236	236	235	235	236	235	235	234	235	236	236	229	237	240	240	
240	263	256	251	243	234	239	239	238	248	241	260	281	250	246	246	234	224	222	212	215	203	209	239	246	237	242	251	252	224	228	226	235	242	244	233	233	256	216	226	235	224	225	237	247	252	248	244	248	226	210	205	239	235	237	241	247	251	251	251	253	254	256	255	253	246	236	228	225	235	257	260	261	272	292	190	205	238	238	234	231	238	264	262	257	256	202	198	209	228	228	262	229	268	272	277	286	272	252	252	248	242	239	237	236	236	235	235	235	234	234	235	235	235	235	236	236	235	249	258	258	
246	250	237	245	244	240	235	230	240	240	233	240	277	244	216	237	241	244	245	228	217	205	208	240	244	239	247	251	238	225	223	222	244	252	241	232	239	250	227	244	231	223	226	236	267	252	255	252	254	218	211	217	234	231	234	241	246	245	246	249	252	253	254	254	255	240	229	228	229	237	254	261	264	275	208	216	233	233	236	236	240	236	268	277	275	215	219	211	234	231	226	225	254	267	264	263	272	261	256	264	240	236	237	235	235	235	235	235	235	234	234	235	236	236	236	237	235	236	245	251	251	
253	253	251	248	247	246	243	240	232	243	243	248	219	236	246	230	243	226	219	209	213	209	210	241	244	239	248	247	227	243	239	229	243	236	239	233	245	252	224	215	229	222	227	235	259	261	248	271	268	214	222	239	232	231	236	243	242	237	240	247	248	249	250	252	245	230	224	229	241	240	251	250	254	213	222	209	222	222	232	266	235	263	271	283	218	220	211	239	234	231	232	254	253	275	259	262	265	248	235	220	214	229	233	231	233	234	234	235	234	234	234	235	237	238	238	238	237	236	246	242	242	
252	250	248	252	253	249	242	246	230	239	251	250	266	246	241	224	245	238	221	214	216	215	212	235	244	239	245	240	227	239	235	242	247	243	234	235	244	222	247	241	229	222	228	247	252	261	244	250	210	228	211	233	230	235	245	238	237	233	240	244	243	242	244	262	232	219	221	231	243	268	262	252	251	220	227	230	207	212	251	269	271	261	272	323	225	211	238	236	232	231	257	257	261	280	259	272	249	186	183	184	202	231	231	228	231	234	234	234	234	234	233	233	235	237	237	238	237	237	246	237	237	
244	241	240	261	250	243	239	247	232	239	247	253	234	226	235	231	239	249	238	227	222	221	216	241	237	241	241	228	243	236	235	255	239	219	234	253	219	214	224	239	230	226	231	240	253	254	270	219	213	218	233	226	230	241	277	241	232	233	238	266	269	271	277	212	220	213	220	238	267	274	280	271	260	216	228	222	199	208	244	267	282	271	277	228	219	232	230	234	233	258	264	265	267	289	219	178	192	206	193	218	232	216	232	228	231	233	233	233	233	233	232	231	234	235	235	236	236	238	244	239	239	
243	236	237	252	244	236	235	247	240	242	248	243	215	224	233	227	233	246	227	225	228	229	227	237	237	243	222	220	230	241	259	239	218	224	227	221	236	238	243	241	233	228	231	250	249	254	263	235	231	239	224	220	233	267	245	232	229	234	256	269	279	199	204	200	221	214	221	237	267	277	282	281	274	210	217	220	201	213	248	261	280	276	292	237	230	219	225	256	265	268	264	268	227	204	220	220	216	235	225	280	278	243	233	229	231	232	232	233	233	233	231	231	234	235	235	236	237	238	243	242	242	
244	240	241	219	240	234	229	243	248	244	246	243	235	211	203	227	232	247	218	219	230	235	238	236	238	245	243	235	241	248	264	220	240	240	231	239	232	239	245	244	235	230	236	243	242	245	250	227	216	230	214	218	255	252	240	228	231	237	258	254	203	197	199	223	223	220	222	256	271	279	282	283	292	223	204	221	210	220	251	263	275	284	224	224	218	214	225	254	278	287	278	245	226	245	246	246	240	249	242	279	269	246	233	227	228	230	231	232	233	233	231	230	232	234	234	235	237	238	243	243	243	
248	247	247	236	225	235	228	241	243	245	231	240	223	249	241	236	235	247	227	207	211	233	235	228	238	243	229	242	246	250	223	246	226	244	225	235	229	239	245	244	234	232	240	246	247	256	249	217	220	224	209	223	257	248	238	229	232	258	259	224	205	206	223	224	227	231	234	252	261	273	282	262	206	210	226	220	223	228	250	256	272	303	215	210	213	214	242	265	279	286	322	226	244	243	243	207	236	235	259	269	253	236	217	219	223	229	230	232	232	232	232	231	232	233	233	234	236	237	240	241	241	
232	251	253	253	247	241	231	240	241	244	240	250	242	240	245	243	242	246	244	211	233	206	229	227	236	240	234	243	260	256	218	236	226	240	243	233	232	249	256	242	234	232	237	239	261	264	252	232	215	220	210	230	259	246	238	232	236	244	205	221	216	229	223	222	229	240	244	247	240	257	285	208	208	233	215	216	258	275	251	250	264	232	207	220	214	218	240	257	276	308	200	238	238	166	238	235	231	253	279	238	205	204	198	216	218	225	229	231	232	232	232	232	232	234	234	234	234	235	237	240	240	
250	249	255	262	260	252	240	244	229	240	241	253	228	219	203	240	252	257	245	233	226	209	236	234	237	239	232	246	254	223	214	231	232	245	245	240	245	249	241	236	232	230	237	240	256	257	213	224	233	219	214	247	268	273	240	272	241	222	211	213	209	226	217	221	255	268	247	239	237	247	215	213	221	223	202	212	259	242	272	247	251	218	213	214	217	252	247	251	279	211	227	237	109	234	233	230	251	298	182	190	195	193	195	220	214	221	227	230	231	232	232	232	233	235	236	235	231	233	235	237	237	
240	239	242	251	258	258	253	249	243	240	244	253	266	246	248	248	249	258	258	249	239	236	236	236	238	236	232	248	236	239	238	237	244	250	250	251	253	264	255	239	229	225	232	261	262	239	249	242	234	221	220	231	259	269	241	238	211	212	209	210	233	219	213	224	252	274	256	234	235	251	224	226	223	217	193	209	252	253	292	267	253	218	221	212	220	251	274	255	248	239	223	232	230	228	245	249	283	178	193	258	258	251	223	203	213	217	224	228	230	231	232	232	232	234	237	237	235	234	235	236	236	
234	234	236	256	260	247	245	236	231	239	247	265	235	238	252	241	245	248	255	252	243	239	231	235	238	234	237	248	243	239	235	241	245	253	252	254	250	266	214	237	231	228	231	248	253	236	243	241	236	222	222	233	250	266	203	184	237	239	241	241	228	216	211	221	255	274	247	233	231	251	248	225	219	213	190	207	249	266	285	279	217	229	215	212	238	265	289	260	295	221	225	248	245	231	238	270	214	180	263	236	241	226	210	205	212	215	222	227	230	231	232	231	231	233	235	236	236	235	235	236	236	
232	235	240	246	232	214	234	226	226	238	257	254	228	203	194	200	235	242	245	242	238	240	243	243	239	234	239	243	246	240	238	247	262	264	265	246	250	211	244	236	234	237	238	247	246	229	239	240	235	218	223	249	250	219	224	235	237	242	244	242	232	216	211	218	250	264	243	235	229	250	247	213	216	212	191	209	249	260	289	204	235	232	216	219	241	258	282	270	274	230	221	184	211	222	226	218	177	170	192	212	189	195	196	190	188	214	221	227	230	231	231	231	231	232	233	235	236	235	234	235	235	
226	231	244	261	231	236	229	227	235	246	253	263	268	246	196	195	203	198	200	223	228	232	243	249	245	236	232	239	239	239	247	263	259	253	243	254	247	246	235	231	234	237	249	246	224	238	238	241	231	214	224	254	234	233	244	236	237	244	247	242	236	223	212	235	238	242	251	234	291	246	218	204	211	214	194	209	243	257	214	238	228	224	219	251	251	258	274	29	194	190	221	171	223	222	223	209	197	191	199	213	209	203	195	191	195	220	223	227	229	230	231	231	231	231	233	235	235	234	234	235	235	
220	231	256	215	219	230	224	228	236	245	264	266	238	232	243	192	246	245	228	236	226	227	248	248	244	236	222	224	243	261	259	248	229	218	227	235	230	236	222	229	236	227	224	223	222	246	248	219	226	216	228	252	239	249	240	231	233	243	248	237	239	236	225	228	234	237	235	233	252	261	208	200	207	219	197	208	247	251	242	240	233	216	220	265	278	259	243	193	194	204	188	230	180	222	227	217	207	201	196	242	220	236	228	236	235	233	229	228	229	230	230	231	231	231	233	235	235	235	235	235	235	
217	238	244	228	209	225	225	233	235	256	271	271	228	217	208	198	230	251	249	240	228	227	246	242	239	234	218	220	245	230	226	225	217	222	241	243	227	231	208	233	225	220	226	226	231	246	221	219	217	218	231	251	246	241	231	224	231	259	222	230	238	242	237	234	237	238	237	234	274	283	205	217	235	225	197	207	243	250	218	235	227	214	232	258	283	266	202	195	183	202	203	187	168	236	225	223	217	241	208	235	250	250	249	247	266	245	234	227	228	229	229	230	230	230	234	235	235	236	235	234	234	
225	245	229	217	231	229	234	242	238	253	268	250	225	219	215	243	247	252	252	242	229	229	250	251	240	233	224	230	240	237	233	223	218	236	251	242	223	226	208	234	224	225	225	225	238	246	217	236	210	213	240	250	213	218	224	220	234	256	234	228	238	251	234	231	237	235	237	244	243	243	204	252	263	225	195	207	245	258	248	240	226	219	237	248	200	197	199	193	177	183	237	210	203	240	252	256	253	246	248	246	256	243	244	254	271	251	229	220	224	227	228	230	228	229	234	235	235	236	235	234	234	
235	226	247	241	236	237	245	242	254	254	255	225	226	243	237	238	241	247	250	237	224	227	251	259	241	233	232	238	244	242	232	232	230	248	253	226	217	227	228	230	228	229	229	232	242	244	217	219	216	206	229	247	217	235	224	224	238	242	233	231	266	213	234	240	244	233	239	242	238	242	262	237	220	222	197	205	240	253	251	238	227	228	246	243	210	202	205	203	195	194	209	240	242	247	256	260	258	253	248	244	237	240	259	261	262	231	207	212	218	224	227	228	227	228	234	235	235	236	235	234	234	
229	245	248	245	244	246	246	246	258	260	251	213	196	195	193	194	217	237	223	227	217	226	250	225	240	235	235	240	243	244	237	233	240	250	252	220	240	234	231	232	238	242	244	245	256	246	222	210	221	207	232	253	230	232	225	230	239	271	255	237	232	236	275	269	239	221	234	247	246	238	254	249	221	222	201	210	239	241	228	235	230	247	248	221	207	196	216	220	217	240	243	243	242	244	246	247	247	244	240	258	254	257	271	257	200	198	203	211	214	221	225	228	227	228	234	236	236	236	235	235	235	
238	242	244	245	251	251	249	250	271	264	244	217	210	238	214	231	228	215	206	226	218	226	249	257	248	241	239	242	245	247	235	238	244	253	252	219	236	236	234	232	235	240	250	261	249	254	218	209	220	214	236	266	250	226	223	229	246	251	252	270	238	232	239	274	234	207	228	243	244	242	205	201	200	223	206	217	238	246	244	235	236	237	180	200	209	203	199	237	241	243	242	238	232	252	247	244	247	244	244	252	253	261	266	214	210	208	207	212	211	216	223	227	227	228	233	236	236	236	236	236	236	
240	253	249	263	243	243	247	278	255	261	260	252	246	247	249	246	248	251	244	234	226	227	245	270	246	239	237	241	246	249	246	244	250	255	239	219	232	238	236	235	239	239	237	239	248	214	244	238	228	224	255	267	243	226	225	231	239	240	246	235	244	229	252	240	230	212	225	242	244	238	247	227	221	226	207	216	255	257	252	261	189	194	190	212	217	242	240	238	239	238	252	264	242	272	179	168	178	219	187	218	222	210	189	185	186	200	193	191	207	213	222	227	228	228	234	237	237	236	235	235	235	
235	271	258	254	248	263	267	276	256	265	237	250	213	246	244	243	249	252	245	241	239	235	240	243	229	234	239	242	245	248	250	250	252	244	247	240	231	238	238	240	247	249	249	250	252	216	237	231	226	243	258	242	221	226	227	234	243	236	232	234	243	235	204	202	230	226	230	243	245	240	225	244	233	228	207	214	249	260	261	246	235	230	201	212	240	242	240	235	250	265	228	223	212	208	208	214	212	204	201	213	218	216	212	203	204	198	190	196	211	214	223	228	229	229	232	234	235	235	234	234	234	
237	266	276	281	284	269	269	281	246	242	236	232	233	231	231	235	242	239	230	241	233	235	250	246	243	230	226	230	241	249	256	264	260	264	257	239	231	241	243	248	253	257	258	260	253	242	237	233	241	268	257	253	211	229	231	246	248	257	252	245	254	275	198	208	227	224	232	257	269	253	242	214	218	223	214	228	255	272	265	243	229	221	234	234	235	234	232	251	259	205	211	202	214	209	239	218	244	209	232	238	223	218	214	204	221	222	228	221	215	217	225	229	231	233	237	240	238	235	234	233	233	
247	265	279	256	271	281	255	279	239	228	218	218	216	222	224	235	250	217	227	252	221	229	256	266	248	242	211	220	238	251	261	273	276	268	260	253	246	243	248	254	260	263	268	272	253	235	230	238	262	280	266	255	243	238	247	265	271	266	262	259	266	285	210	224	231	219	229	263	283	282	258	234	223	219	218	244	267	269	247	241	238	234	231	231	230	248	246	277	238	239	232	232	241	243	245	251	249	245	247	256	259	254	248	241	241	243	233	210	215	219	226	230	234	238	246	249	244	237	233	232	232	
