ncols	121
nrows	160
xllcorner	1648855.938895
yllcorner	466851.943984
cellsize	500.000000
NODATA_value	nan
4.33	4.71	5.45	5.36	3.81	2.50	3.86	8.83	9.85	5.15	4.48	4.63	4.71	4.46	3.26	2.42	3.39	3.42	4.61	5.36	5.32	4.88	4.73	2.21	3.79	3.55	3.98	4.28	4.39	4.50	4.58	4.62	4.76	5.46	8.22	9.74	5.80	5.85	5.85	5.43	5.59	5.55	5.07	4.88	4.28	7.76	6.09	5.00	3.54	4.65	3.93	3.29	5.51	5.41	5.08	5.00	3.27	3.34	3.40	5.10	5.35	4.63	4.58	4.05	4.60	8.76	4.96	4.02	3.50	4.77	9.35	4.84	0.79	0.88	2.95	3.32	3.38	3.91	6.52	9.56	10.63	5.87	5.12	4.42	4.13	4.47	3.50	3.85	6.90	8.00	5.60	5.35	10.27	9.59	9.90	10.58	5.47	3.68	2.53	1.74	3.56	5.48	8.18	11.23	7.30	6.61	11.43	2.91	4.13	2.81	3.50	4.94	5.80	5.11	4.30	3.71	3.72	7.07	10.45	11.02	11.02	
4.33	4.71	5.45	5.36	3.81	2.50	3.86	8.83	9.85	5.15	4.48	4.63	4.71	4.46	3.26	2.42	3.39	3.42	4.61	5.36	5.32	4.88	4.73	2.21	3.79	3.55	3.98	4.28	4.39	4.50	4.58	4.62	4.76	5.46	8.22	9.74	5.80	5.85	5.85	5.43	5.59	5.55	5.07	4.88	4.28	7.76	6.09	5.00	3.54	4.65	3.93	3.29	5.51	5.41	5.08	5.00	3.27	3.34	3.40	5.10	5.35	4.63	4.58	4.05	4.60	8.76	4.96	4.02	3.50	4.77	9.35	4.84	0.79	0.88	2.95	3.32	3.38	3.91	6.52	9.56	10.63	5.87	5.12	4.42	4.13	4.47	3.50	3.85	6.90	8.00	5.60	5.35	10.27	9.59	9.90	10.58	5.47	3.68	2.53	1.74	3.56	5.48	8.18	11.23	7.30	6.61	11.43	2.91	4.13	2.81	3.50	4.94	5.80	5.11	4.30	3.71	3.72	7.07	10.45	11.02	11.02	
4.39	4.75	5.95	6.17	2.86	2.11	2.47	4.60	8.26	9.45	4.46	4.85	1.48	1.90	2.88	3.52	3.62	3.69	6.46	5.39	2.69	2.29	2.23	1.17	3.23	3.28	3.82	4.15	4.30	4.41	4.47	4.44	4.18	4.03	7.27	7.15	5.74	5.82	6.72	6.29	6.50	6.31	5.61	5.24	3.96	4.39	8.71	5.39	3.56	5.04	4.46	3.07	3.81	8.11	5.81	1.82	3.15	2.92	2.69	4.53	6.29	5.01	5.08	3.90	3.02	4.74	6.13	5.15	3.65	4.23	9.31	4.77	4.34	3.31	3.97	3.65	3.16	3.37	4.41	8.73	10.00	3.15	3.91	2.59	3.25	3.76	3.17	2.88	6.49	5.15	4.28	8.04	6.45	8.87	6.53	10.77	5.74	4.66	3.64	3.34	3.13	4.37	7.59	8.13	10.01	9.87	10.68	2.77	4.06	3.83	3.31	4.65	7.48	3.58	3.83	3.34	2.78	3.13	7.38	10.97	10.97	
2.69	4.86	6.36	3.13	2.53	1.68	1.88	2.57	4.42	4.98	5.87	4.44	4.62	3.46	3.80	3.72	4.17	5.28	7.24	1.57	1.55	0.73	0.95	2.56	2.68	2.99	3.57	3.89	4.09	4.21	4.23	4.13	3.63	3.13	4.00	5.04	5.27	7.12	7.04	7.22	8.34	9.99	11.30	8.93	9.97	10.50	6.64	6.71	4.47	5.22	5.15	3.18	2.88	5.35	8.54	3.15	3.59	2.93	1.70	2.97	8.93	8.41	6.65	4.96	2.44	3.11	5.37	7.88	4.65	5.53	1.73	3.73	1.50	4.29	2.41	2.20	3.41	3.10	4.95	8.13	9.08	10.23	2.96	2.79	2.09	3.74	3.46	2.30	3.93	6.39	4.41	3.48	5.74	4.47	8.63	10.16	6.82	6.46	4.74	3.81	2.74	3.35	4.41	7.79	7.07	9.11	11.72	3.68	4.75	3.92	3.09	4.19	9.11	3.21	2.70	3.42	2.43	2.01	4.13	8.22	8.22	
2.47	2.78	5.55	10.93	5.68	2.19	2.33	2.50	3.49	4.24	5.94	4.06	3.44	3.53	3.79	4.00	4.63	6.01	2.48	2.33	2.01	0.92	1.06	2.49	2.44	2.78	3.34	3.67	3.91	4.04	4.04	3.95	3.63	3.37	3.87	4.30	6.92	8.29	9.58	10.47	9.25	9.41	8.57	8.08	8.36	9.20	10.69	11.86	6.38	5.98	5.33	3.90	2.85	4.26	6.52	4.26	3.29	2.60	1.49	1.68	5.39	9.63	10.26	3.55	3.61	3.21	4.01	4.47	6.27	10.43	6.08	2.54	4.94	1.78	3.60	4.05	3.74	3.71	4.89	7.41	8.76	5.34	7.64	5.81	4.23	4.74	3.79	3.10	3.03	4.42	6.79	3.54	3.59	3.67	6.14	8.69	7.17	8.49	5.78	4.53	2.93	3.43	4.33	8.47	8.27	8.05	10.79	4.69	5.02	4.01	2.83	3.91	9.75	3.44	3.43	3.27	3.40	2.20	3.65	7.85	7.85	
2.76	2.86	4.00	9.77	6.09	3.28	2.67	3.22	6.79	7.73	9.20	2.79	2.62	3.67	3.65	4.51	6.03	5.66	1.77	2.32	1.78	1.03	1.63	2.58	2.47	2.59	2.97	3.41	3.72	3.88	3.90	3.83	3.58	3.30	3.51	5.53	7.44	9.89	8.62	6.69	6.76	7.34	6.37	6.46	6.58	6.67	8.18	9.50	10.79	11.99	6.76	4.66	3.41	3.63	5.85	6.66	2.52	2.04	2.04	1.41	2.58	8.37	10.65	6.49	5.33	4.16	4.65	3.96	4.20	6.04	6.29	2.71	2.75	4.36	4.03	4.04	3.94	4.58	4.84	8.14	1.84	4.60	4.83	5.93	5.35	4.94	5.07	4.25	3.12	3.06	4.23	6.85	4.24	3.40	4.04	6.59	6.09	5.20	8.66	5.06	3.17	3.50	4.06	8.73	9.22	9.56	10.47	4.20	5.83	3.93	3.16	4.11	10.15	3.90	4.79	1.70	3.15	3.21	3.68	4.62	4.62	
2.96	3.19	4.62	8.79	10.84	3.94	4.11	3.53	4.52	6.99	5.88	2.24	4.06	3.04	3.28	5.54	8.29	2.59	2.27	1.03	2.49	2.45	1.38	1.37	2.66	2.48	2.57	3.13	3.57	3.75	3.81	3.74	3.49	3.17	3.26	5.67	8.42	8.97	5.30	4.76	5.04	5.20	4.37	3.89	3.67	3.96	7.01	6.29	5.98	9.36	11.14	6.58	5.03	3.91	5.46	5.13	4.36	3.60	2.98	1.70	2.13	7.27	8.52	10.92	6.14	5.16	5.21	4.79	7.59	4.81	9.26	5.26	4.77	4.34	3.69	3.73	4.02	4.66	5.06	5.90	4.48	4.43	4.49	5.03	5.07	5.07	5.52	4.44	3.41	2.76	3.17	4.49	4.67	3.94	3.63	4.50	4.35	4.69	8.51	5.29	3.16	3.33	3.87	7.30	9.62	10.16	11.71	9.02	7.11	3.77	3.99	5.71	7.16	2.42	4.44	4.30	4.80	4.50	4.03	3.64	3.64	
2.89	4.48	4.16	5.06	5.57	5.75	4.45	5.95	5.00	7.02	2.54	2.73	2.06	2.63	2.76	5.46	9.97	2.68	2.35	2.86	4.66	3.39	1.57	1.64	1.49	2.41	2.24	2.87	3.43	3.66	3.73	3.68	3.38	3.03	3.08	6.03	8.26	7.91	5.11	4.72	4.87	4.82	4.44	4.16	3.64	7.93	5.04	4.75	3.97	3.87	8.34	9.63	5.91	5.27	5.96	4.41	5.14	4.94	3.86	2.71	2.43	2.80	4.11	8.04	10.22	10.33	10.73	3.83	3.50	3.85	6.09	5.81	5.23	4.85	3.63	3.27	4.29	3.68	4.95	9.30	6.85	2.72	3.73	4.74	4.69	5.22	5.67	2.44	4.10	3.82	3.84	3.75	4.73	4.48	3.62	3.71	3.76	4.19	5.89	5.51	3.27	3.14	3.88	7.44	8.93	9.18	8.32	8.74	8.97	6.69	6.36	11.35	3.59	3.12	2.71	4.45	4.72	5.25	3.33	3.11	3.11	
2.55	4.66	7.00	4.54	4.57	7.57	4.80	5.26	5.00	4.88	6.45	3.30	3.95	2.60	2.64	4.16	10.95	2.85	1.43	5.19	4.65	2.81	1.10	0.82	0.87	2.46	2.05	2.69	3.32	3.58	3.67	3.64	3.35	3.01	3.20	3.67	4.43	7.26	5.47	5.36	5.38	4.88	4.84	4.80	3.73	3.44	6.34	5.35	3.95	3.23	3.88	4.91	4.98	5.98	7.23	5.36	4.97	5.11	4.44	3.99	3.09	2.56	2.71	2.84	7.83	8.08	9.98	7.71	2.13	3.78	4.70	4.75	4.91	5.53	4.23	3.18	3.22	3.08	4.73	5.65	10.23	3.88	5.46	5.29	4.89	6.27	4.20	5.24	4.74	5.07	4.48	3.68	4.22	4.46	3.43	3.37	3.57	3.59	5.18	5.35	3.38	3.18	4.14	8.38	4.76	4.90	5.03	5.14	5.32	5.22	4.58	5.00	7.45	7.11	4.20	4.10	4.99	6.04	3.83	3.10	3.10	
2.47	3.39	8.53	4.75	3.78	3.74	4.85	8.86	5.01	4.88	6.25	3.59	4.11	2.74	3.20	5.27	10.54	5.95	4.90	6.94	3.91	2.54	0.81	1.00	1.21	1.42	2.19	2.67	3.29	3.53	3.64	3.62	3.39	3.03	3.21	5.86	6.08	8.21	6.25	6.46	6.74	5.71	6.14	5.82	3.57	5.11	8.07	5.72	3.88	2.82	3.60	4.62	4.78	6.48	5.85	4.75	4.94	5.47	4.73	5.07	1.69	2.77	3.14	2.53	3.08	4.82	8.43	11.40	3.25	2.58	3.70	3.76	4.29	5.93	5.18	3.60	3.20	3.00	3.05	5.08	8.81	11.24	6.84	6.44	4.86	5.31	5.10	4.80	4.51	5.40	4.35	4.40	3.84	3.30	3.27	3.29	3.61	3.22	3.93	4.77	3.39	3.23	4.30	4.99	5.21	5.18	5.15	5.03	4.98	4.96	4.67	4.56	9.86	3.93	4.81	3.53	4.73	8.17	2.80	3.60	3.60	
3.11	3.69	4.97	4.71	3.75	3.12	7.54	5.18	4.74	4.29	10.05	5.76	4.61	2.80	3.69	5.64	4.44	5.24	3.95	6.70	3.22	2.93	1.47	1.28	1.90	1.82	2.30	2.72	3.25	3.48	3.62	3.61	3.46	3.08	2.97	3.21	6.03	8.45	9.54	10.56	11.32	8.47	7.96	6.47	3.20	4.46	9.03	6.43	3.25	2.86	5.95	5.28	5.49	5.48	4.83	3.99	4.57	7.37	5.46	2.35	3.64	3.44	4.20	2.68	2.09	4.30	8.13	10.43	6.86	4.47	4.14	3.59	4.06	7.31	2.51	3.32	3.85	3.60	2.21	2.51	5.37	9.09	10.84	11.47	5.96	6.08	5.63	4.99	3.16	4.83	6.36	2.49	1.12	2.21	4.18	3.88	3.98	3.29	3.52	3.79	3.08	3.25	4.07	4.98	5.64	5.80	5.70	5.36	5.19	5.28	5.29	5.25	5.84	3.85	4.73	3.13	3.80	9.51	5.81	4.19	4.19	
4.25	4.56	4.94	5.08	3.20	2.78	3.69	4.79	4.46	5.41	5.49	7.12	4.71	2.79	3.60	8.39	6.41	4.74	3.99	6.34	4.68	3.42	2.12	1.26	1.16	2.34	2.19	2.76	3.21	3.44	3.60	3.62	3.54	3.22	2.89	2.81	2.93	5.92	8.11	8.81	10.50	11.69	12.06	8.62	3.11	4.33	5.52	8.42	4.59	2.39	3.76	8.32	6.46	5.54	4.13	3.31	3.32	5.08	9.51	5.60	4.06	5.37	4.97	3.87	2.25	2.79	4.48	8.26	8.55	6.44	4.44	4.10	5.32	1.69	3.58	2.78	2.85	2.92	3.13	2.36	2.51	5.48	8.15	9.95	10.50	7.16	5.56	3.88	3.17	5.21	4.57	4.90	4.04	5.11	4.28	3.91	2.31	3.88	4.11	3.74	2.54	2.82	3.61	7.48	7.82	8.81	7.96	7.19	7.64	7.26	7.17	6.26	3.59	5.68	4.22	2.95	4.20	5.78	5.48	4.58	4.58	
4.58	4.88	1.80	4.88	3.64	2.85	3.54	4.84	4.68	4.41	5.69	6.78	5.07	2.89	3.33	5.84	3.45	4.76	4.81	5.98	4.53	3.54	2.78	2.71	1.87	2.41	2.04	2.63	3.12	3.39	3.57	3.63	3.59	3.39	3.06	2.75	2.77	5.63	6.19	8.21	9.27	10.07	10.92	13.39	6.22	3.86	4.31	10.62	4.81	2.09	2.57	5.33	10.56	5.43	4.33	3.31	2.83	3.49	8.62	3.65	1.41	4.16	5.05	4.38	3.53	2.44	3.43	5.51	9.99	5.75	4.08	4.54	1.34	2.29	4.16	1.48	2.28	3.31	3.70	2.95	2.58	2.83	3.41	6.27	9.53	9.65	10.37	11.28	7.44	6.95	4.10	5.08	4.23	4.46	5.42	1.96	4.27	4.19	5.00	4.31	2.30	2.13	3.10	4.11	8.81	9.85	8.56	8.76	10.12	10.76	10.16	10.16	7.85	5.06	4.28	3.62	4.29	6.84	4.02	4.35	4.35	
4.83	6.75	4.95	5.32	3.74	2.83	3.40	5.59	9.00	8.89	9.20	6.58	5.81	3.51	3.91	7.47	5.96	5.45	5.97	2.47	2.57	1.82	1.07	0.77	1.70	2.54	2.07	2.40	2.91	3.30	3.54	3.63	3.62	3.50	3.23	2.79	2.63	2.96	5.94	7.88	9.49	9.96	10.64	12.91	5.91	4.92	4.58	6.28	2.74	2.71	2.35	4.68	8.33	3.55	5.75	5.08	3.53	3.04	5.10	4.32	4.33	4.00	4.94	5.75	3.80	2.71	2.62	4.77	7.38	9.58	6.99	5.57	5.95	5.65	3.59	3.79	4.09	4.62	4.55	3.87	3.12	2.86	2.89	3.37	6.12	6.66	9.33	10.11	10.99	5.68	3.54	2.49	4.22	4.39	4.05	5.09	4.11	4.52	5.02	2.49	2.64	1.75	2.75	4.16	8.94	7.06	5.71	6.80	9.22	9.49	8.18	8.61	10.94	11.15	4.55	4.59	5.98	3.46	4.06	3.70	3.70	
5.04	4.68	4.80	5.45	4.35	2.46	2.88	4.37	4.58	4.68	9.40	10.33	3.71	4.45	4.02	5.13	5.57	0.32	6.88	6.26	4.68	3.28	2.66	2.28	1.22	1.07	2.41	2.32	2.59	3.16	3.50	3.63	3.64	3.56	3.35	2.92	2.52	2.63	5.55	7.55	9.01	9.95	10.61	12.35	6.85	6.86	7.59	6.29	4.65	3.19	4.37	4.21	5.19	8.52	6.37	4.80	3.57	3.72	6.21	3.40	3.85	3.89	4.86	7.68	4.65	3.58	2.55	4.42	7.28	4.87	5.46	5.44	4.62	5.08	5.59	5.02	4.78	5.00	5.25	4.04	3.16	3.33	2.71	2.67	2.92	3.68	8.53	10.01	10.98	11.68	4.49	3.79	2.25	1.63	5.34	1.96	2.49	5.16	4.87	2.84	3.07	1.78	2.39	7.41	9.05	4.49	3.79	7.03	6.64	6.25	5.06	4.62	6.16	6.52	9.61	9.01	5.07	4.35	3.55	3.29	3.29	
5.18	4.67	4.97	5.97	4.05	2.25	2.11	5.64	5.33	4.90	5.44	5.58	5.78	4.28	3.63	4.69	7.25	7.23	6.48	8.89	4.60	3.49	1.93	1.38	1.01	1.08	0.92	2.54	2.45	3.03	3.49	3.62	3.65	3.60	3.44	3.10	2.51	2.37	5.20	7.12	8.75	9.95	10.92	12.42	12.82	10.54	11.16	3.28	3.36	4.81	4.26	4.46	4.58	10.21	11.57	11.47	3.59	4.51	2.03	3.60	3.58	3.71	4.31	5.68	4.24	4.71	3.49	4.46	5.15	3.31	5.36	5.08	3.58	4.36	4.72	4.79	4.88	5.30	5.27	1.97	2.93	2.87	3.22	2.63	2.25	2.24	5.57	8.49	10.74	8.17	11.51	7.44	6.06	4.86	5.25	3.18	1.84	5.28	5.20	2.30	3.37	2.23	2.42	7.77	5.52	4.50	3.87	4.30	4.62	4.76	4.48	8.51	5.23	6.03	10.13	9.41	3.66	4.01	3.38	2.83	2.83	
4.89	5.24	4.54	6.71	3.25	2.84	1.47	3.06	8.46	9.02	9.34	3.23	3.73	3.04	3.25	3.56	4.68	4.74	5.34	11.60	5.22	3.75	2.67	2.18	1.47	0.42	1.22	2.74	2.57	2.99	3.46	3.61	3.66	3.64	3.51	3.24	2.61	2.23	4.92	6.93	8.68	10.07	10.13	10.67	11.89	11.34	10.40	9.92	8.43	8.07	8.14	8.52	8.25	7.53	7.87	8.64	9.87	9.79	7.08	5.32	3.53	3.66	4.84	7.96	10.24	3.64	4.20	6.34	6.37	5.12	6.14	6.54	5.31	1.73	3.77	4.40	5.49	6.64	1.97	1.24	3.48	3.48	2.81	3.59	2.60	1.60	1.92	6.07	9.91	5.50	9.33	7.70	7.88	1.46	4.85	2.83	4.04	4.44	2.86	3.26	3.26	2.91	3.09	4.96	5.18	4.72	4.88	4.84	4.38	4.39	4.17	7.90	8.87	8.94	9.44	7.13	3.42	4.55	3.70	3.06	3.06	
4.59	4.07	3.96	6.54	3.44	3.92	1.92	1.66	5.36	9.84	10.03	9.63	3.40	4.39	4.11	3.56	3.54	3.39	3.63	9.13	9.86	6.72	4.09	2.74	2.17	1.39	1.59	2.51	2.64	3.04	3.43	3.60	3.67	3.66	3.57	3.35	2.80	2.27	2.28	5.27	7.84	8.34	8.69	10.03	10.99	9.08	9.24	8.58	6.77	6.64	7.16	6.72	6.47	5.31	5.28	5.51	5.66	8.00	9.06	6.50	3.96	3.36	8.20	9.85	8.73	4.65	3.87	3.97	4.45	6.01	5.94	6.92	4.97	3.92	3.14	4.00	8.22	2.63	1.69	1.63	3.78	2.05	3.74	3.82	2.23	1.48	1.25	5.55	8.72	8.29	7.15	10.79	7.97	3.51	4.65	3.08	4.51	4.62	4.92	4.20	3.73	3.44	4.04	4.98	5.88	5.03	6.68	5.52	4.42	4.29	4.55	3.87	7.74	9.05	5.66	9.16	6.68	5.45	4.76	4.63	4.63	
4.68	3.94	3.52	5.96	8.85	5.11	2.68	1.87	2.70	8.96	10.33	11.41	3.34	4.74	4.66	4.08	3.69	3.58	3.72	4.98	7.22	7.37	6.89	4.90	2.62	1.17	2.37	2.13	2.53	3.06	3.39	3.58	3.67	3.69	3.63	3.46	3.04	2.48	2.30	5.35	6.20	8.29	8.65	10.72	10.62	8.69	10.37	7.53	5.54	6.05	6.49	4.72	4.70	4.32	3.77	4.15	4.86	5.09	5.54	5.59	4.13	3.41	5.36	5.78	8.46	5.13	4.15	3.68	3.41	4.18	5.48	9.89	3.94	4.48	2.68	3.16	9.06	2.04	0.84	1.94	1.74	1.40	5.30	4.24	2.24	2.10	1.17	2.03	6.76	7.76	8.54	6.50	9.41	4.48	2.77	3.11	4.15	5.48	4.66	3.95	3.62	3.94	5.06	6.54	6.11	6.76	9.21	8.27	5.15	4.43	4.82	4.45	6.02	8.68	8.89	9.16	6.13	4.76	8.45	6.46	6.46	
5.44	4.28	3.41	5.50	5.86	6.06	5.09	2.68	2.31	6.49	10.02	11.03	4.04	3.05	4.36	4.70	4.53	4.37	4.01	4.61	5.56	6.37	5.28	4.02	3.27	1.34	0.84	1.89	2.27	2.99	3.34	3.56	3.68	3.72	3.68	3.55	3.25	2.76	2.42	2.76	6.12	8.18	8.84	11.52	7.55	6.89	8.05	6.97	6.45	4.62	4.53	4.67	4.60	4.45	4.21	4.38	5.08	5.22	4.90	4.91	4.13	3.98	4.90	8.45	8.36	2.92	4.45	3.79	3.26	3.94	5.35	9.92	3.80	5.04	2.85	2.87	9.65	5.81	4.39	4.23	4.54	4.97	5.45	4.81	2.97	1.95	1.70	1.39	2.56	6.86	10.10	10.46	11.66	8.28	6.60	5.87	6.86	6.35	5.03	4.78	3.73	4.06	5.32	7.70	5.44	5.06	4.03	6.36	9.94	5.40	4.97	6.38	6.36	7.13	8.14	8.95	5.83	4.28	4.38	7.24	7.24	
4.90	3.56	2.16	3.96	4.41	4.93	4.34	3.01	2.10	5.65	8.94	9.91	11.25	5.72	4.62	4.76	4.92	2.86	3.64	4.84	0.18	5.30	7.41	5.82	4.01	1.99	1.29	1.94	2.09	2.84	3.29	3.53	3.68	3.74	3.72	3.63	3.40	3.03	2.54	2.47	5.55	7.83	9.40	11.68	5.56	4.16	4.91	5.11	5.05	4.99	4.64	4.68	4.64	4.71	5.75	4.95	5.64	5.75	4.51	4.68	4.38	5.83	5.33	4.46	7.19	5.32	4.27	3.84	3.55	4.17	4.32	8.85	9.06	5.80	3.58	3.67	7.98	5.78	1.27	4.18	3.83	4.18	5.34	7.99	3.23	2.11	2.66	1.42	1.75	3.03	8.74	11.83	7.04	5.88	5.26	5.84	6.89	6.58	5.64	4.72	3.91	4.04	4.98	8.69	6.33	4.58	4.74	7.90	6.19	9.32	5.58	5.94	5.72	6.07	8.05	8.84	5.39	4.20	4.61	7.70	7.70	
5.00	4.46	4.37	4.42	4.48	4.94	4.66	3.28	2.28	2.78	6.04	7.77	9.78	11.40	6.05	4.18	4.76	5.03	4.84	5.19	5.21	4.96	6.90	3.66	3.55	2.11	1.35	2.33	2.08	2.64	3.21	3.49	3.67	3.75	3.75	3.69	3.52	3.26	2.71	2.37	3.00	6.00	8.98	11.32	5.62	4.49	4.58	9.05	5.04	5.50	5.17	5.10	5.59	6.03	7.63	4.42	7.26	7.45	5.32	5.77	4.91	3.85	4.92	4.57	4.80	4.77	4.44	3.99	3.93	5.60	5.11	8.10	6.17	5.85	4.13	4.81	4.55	1.53	3.22	4.67	4.08	3.66	4.14	7.18	3.53	2.74	1.88	1.70	1.48	2.63	6.71	12.03	6.13	3.52	2.68	2.59	4.26	5.30	5.45	4.61	4.35	4.71	6.57	8.99	8.80	5.47	5.03	4.26	8.79	11.16	4.73	3.91	4.22	5.52	8.13	8.40	5.32	4.12	5.14	8.29	8.29	
5.55	5.15	4.55	4.86	4.87	5.27	5.27	4.00	2.46	2.49	3.14	6.14	7.80	10.00	10.56	8.39	5.51	4.55	4.64	4.99	5.33	5.28	8.75	3.74	3.52	2.65	1.97	2.78	2.11	2.41	3.08	3.43	3.65	3.73	3.77	3.74	3.60	3.41	2.93	2.52	3.02	6.18	8.84	9.38	5.98	5.20	5.11	5.15	5.45	5.31	6.70	6.79	5.93	6.62	8.08	5.43	6.47	8.18	7.53	5.22	1.96	2.69	4.40	6.22	4.98	4.24	4.32	4.19	3.87	7.93	7.32	4.94	5.42	4.49	8.02	5.91	5.62	6.82	6.72	5.08	5.54	4.14	3.44	6.61	8.46	3.33	2.33	2.18	1.52	2.52	6.67	11.83	7.62	5.82	4.32	4.94	1.87	3.66	3.54	3.75	4.45	6.98	7.96	8.68	9.67	6.98	5.28	5.78	8.51	9.85	7.64	4.16	4.08	3.30	6.33	8.36	5.06	4.12	7.77	10.94	10.94	
5.71	5.03	4.62	5.20	5.55	5.99	5.85	3.50	2.90	2.34	2.33	2.59	6.37	7.30	9.91	9.47	5.97	4.81	4.53	4.66	5.33	6.31	8.20	3.56	2.48	1.37	1.34	1.90	2.28	2.21	2.87	3.33	3.59	3.71	3.76	3.77	3.67	3.53	3.14	2.77	2.97	6.41	8.96	5.52	5.32	5.40	6.01	5.85	7.09	6.80	7.55	8.38	7.08	6.68	7.58	6.44	4.52	9.47	6.80	5.49	4.69	3.83	3.74	4.38	4.18	3.99	4.22	4.57	4.88	5.27	10.33	5.61	5.56	5.52	4.62	4.71	4.76	4.47	4.58	4.38	4.52	4.64	3.37	6.09	10.14	4.20	2.59	2.79	1.81	2.24	6.80	10.79	13.01	4.31	3.96	3.72	2.66	3.95	3.06	3.04	4.26	7.55	9.13	8.86	8.85	11.08	6.12	5.74	6.55	8.78	9.70	7.04	5.23	3.61	3.86	7.22	4.66	4.22	5.97	10.70	10.70	
4.90	4.81	4.55	6.46	5.73	5.75	6.29	2.99	2.25	2.40	2.18	2.20	2.53	7.04	7.92	9.90	6.30	5.10	4.56	4.63	5.26	8.27	6.23	3.79	2.34	1.41	0.61	0.93	2.71	2.27	2.60	3.10	3.46	3.64	3.74	3.79	3.73	3.63	3.32	2.95	3.01	6.59	6.69	4.91	4.97	6.07	7.67	7.92	8.36	7.17	7.72	9.36	10.61	10.35	10.57	8.14	5.11	4.60	5.36	5.44	5.45	3.64	3.82	4.06	4.01	3.52	4.22	6.01	4.81	6.98	4.74	6.01	7.30	2.56	2.13	3.82	4.97	4.86	4.41	4.04	4.28	4.20	3.55	3.51	7.32	8.07	4.07	3.40	2.16	2.36	6.69	10.56	12.56	4.35	3.38	3.32	3.08	2.92	2.96	2.71	6.59	7.67	9.62	10.79	11.01	7.10	6.33	5.94	5.64	8.19	9.69	7.34	6.74	4.82	4.38	6.86	4.36	4.33	8.84	9.33	9.33	
4.47	4.64	5.36	5.92	6.56	5.79	5.14	2.64	2.49	2.22	2.55	2.37	2.46	2.88	7.17	9.50	6.42	4.74	4.62	4.71	7.03	11.14	4.07	3.95	2.27	1.40	1.37	2.20	1.39	2.61	2.55	2.82	3.22	3.53	3.72	3.80	3.79	3.71	3.47	3.09	3.16	4.02	4.46	6.53	5.87	6.07	7.95	8.12	8.31	6.49	5.39	7.62	9.11	10.31	11.08	9.57	4.40	5.28	1.56	1.83	3.13	2.89	3.65	3.84	3.56	3.01	4.10	8.01	5.45	4.25	7.09	5.29	7.20	6.51	6.21	4.37	4.87	3.70	2.07	2.86	4.50	4.51	4.07	3.74	4.54	6.49	5.63	3.71	2.36	2.42	6.74	11.09	10.29	5.04	4.66	4.31	3.46	3.87	2.87	2.57	3.76	7.79	9.59	8.70	9.43	7.55	6.34	7.05	6.22	6.88	9.27	6.77	5.94	5.73	4.66	5.15	4.35	3.85	6.00	7.03	7.03	
4.41	5.20	6.42	6.75	7.71	6.13	4.90	5.67	4.98	2.16	2.28	3.67	2.98	2.35	2.71	8.57	6.74	4.07	3.65	7.46	9.53	11.22	8.64	4.47	2.81	2.77	2.94	2.06	1.59	1.33	2.83	2.70	2.93	3.39	3.69	3.80	3.84	3.77	3.63	3.25	3.26	3.71	3.69	6.02	7.90	9.07	9.54	9.19	9.37	7.01	5.70	7.46	7.99	4.53	10.96	10.09	6.98	5.63	7.16	4.40	3.42	3.78	3.09	2.80	3.12	2.34	3.23	9.56	8.22	5.80	5.48	5.21	5.41	6.39	4.21	5.58	4.05	6.24	5.16	4.71	4.83	5.05	4.75	4.69	4.89	1.98	4.32	2.86	2.16	2.41	6.86	11.17	8.04	4.45	3.66	4.15	3.80	3.53	2.52	2.39	6.66	9.81	7.32	7.83	8.38	7.28	6.36	5.33	5.72	4.25	7.79	5.98	5.59	5.52	4.54	4.84	4.72	3.62	4.58	9.33	9.33	
4.95	6.31	7.21	2.40	4.62	6.11	5.51	5.33	6.28	6.88	6.87	5.38	1.79	2.70	2.19	4.75	6.63	3.59	3.40	7.80	8.73	10.76	10.82	4.67	3.86	3.58	3.00	1.91	0.52	0.94	1.04	2.81	2.82	3.26	3.63	3.79	3.87	3.83	3.77	3.40	3.29	3.42	3.08	5.65	7.67	9.17	11.17	12.00	12.22	11.56	11.69	10.61	7.32	8.42	9.30	10.21	8.99	7.46	9.85	6.70	5.69	5.44	4.65	3.28	3.17	2.11	2.35	9.13	8.29	7.81	5.60	5.02	4.83	9.84	6.91	2.69	1.56	3.30	4.89	3.50	4.36	4.39	5.43	5.28	4.88	4.89	1.99	2.23	1.93	2.33	7.10	11.03	12.19	6.40	3.03	1.89	1.69	3.26	2.34	2.12	7.37	7.63	7.11	7.15	6.95	5.70	5.60	5.55	5.19	4.18	5.14	5.25	5.35	5.66	5.01	4.89	5.37	4.02	3.37	4.54	4.54	
4.31	6.72	7.88	3.94	4.20	4.60	5.00	4.24	4.34	4.63	4.74	5.12	5.17	3.27	2.62	3.48	4.29	2.97	3.58	9.03	10.57	9.30	7.67	5.85	3.73	2.96	2.44	1.92	0.83	1.00	1.15	2.87	2.89	3.18	3.57	3.80	3.90	3.88	3.85	3.53	3.35	3.26	2.73	2.67	5.53	8.11	10.23	11.92	11.37	10.79	11.08	8.81	6.27	6.93	8.41	9.86	9.14	8.29	9.88	11.35	7.22	5.25	3.87	3.49	3.72	2.66	2.91	6.70	5.31	5.25	5.32	4.89	4.43	9.12	11.23	3.80	1.85	1.32	4.95	4.70	5.22	5.22	5.78	6.00	3.60	1.97	2.44	2.55	1.91	2.08	6.88	10.36	12.67	3.75	3.10	2.49	2.65	3.53	2.46	2.21	4.62	4.91	4.98	5.23	5.14	5.16	4.97	5.37	5.38	4.58	4.42	4.27	5.35	6.47	6.06	5.57	5.61	3.39	3.03	2.88	2.88	
3.01	6.17	6.25	4.71	4.03	4.12	4.46	4.51	4.53	4.76	4.87	4.91	4.97	4.34	3.39	3.22	3.04	2.39	2.29	7.08	9.19	11.01	12.27	4.56	3.64	2.84	2.53	1.98	1.14	0.51	1.01	2.76	2.89	3.14	3.51	3.81	3.92	3.94	3.90	3.69	3.49	3.21	2.65	2.45	5.18	7.46	10.28	11.59	10.74	11.36	10.55	9.05	6.64	5.96	8.29	9.52	8.58	8.07	8.95	9.63	8.16	7.91	7.42	5.83	4.34	3.41	3.96	5.36	5.24	4.67	5.02	5.17	4.66	4.71	9.18	3.54	3.60	5.18	5.19	4.22	4.45	4.60	6.60	9.05	6.26	4.38	3.34	2.80	2.09	2.11	3.86	9.60	12.13	6.83	4.56	3.90	3.25	3.47	2.74	2.80	4.42	5.04	5.00	5.04	5.11	5.05	4.37	5.37	5.97	5.37	4.43	3.12	4.22	8.23	8.37	6.35	4.15	3.31	3.44	2.76	2.76	
5.37	5.66	6.01	4.53	4.07	3.98	4.70	5.05	5.02	5.36	5.30	4.90	5.04	4.60	3.84	3.22	2.53	2.40	2.24	3.24	7.32	9.43	11.19	11.46	8.26	3.35	2.60	2.23	1.44	0.89	1.13	2.68	2.81	3.10	3.49	3.82	3.94	4.00	3.95	3.84	3.68	3.31	2.71	2.38	2.44	6.88	9.85	9.93	9.81	11.65	9.54	8.43	7.48	6.69	8.25	8.77	7.86	7.99	9.07	9.05	7.18	5.83	6.23	5.57	4.64	3.78	4.17	8.06	5.48	4.41	5.14	5.41	5.08	6.79	6.60	3.34	3.04	4.07	5.49	5.82	4.65	4.19	6.32	7.25	7.27	5.52	3.40	2.74	2.27	2.39	6.60	9.77	11.90	3.41	3.01	2.88	2.33	2.45	3.01	3.32	5.60	6.20	6.02	5.56	5.50	4.08	3.67	6.52	6.65	5.54	3.33	3.20	2.87	4.52	8.37	8.13	3.10	3.52	3.47	2.62	2.62	
5.79	3.88	3.94	3.51	3.95	4.17	5.41	5.98	5.43	5.94	5.12	4.84	4.91	4.24	3.60	2.26	2.49	2.79	2.64	1.98	3.06	7.80	10.75	11.37	12.70	3.70	2.79	2.41	1.71	1.18	1.88	2.76	2.76	3.12	3.50	3.84	3.97	4.04	4.00	3.95	3.81	3.52	2.95	2.46	2.36	5.32	9.01	9.07	9.36	11.01	8.44	7.60	7.69	7.14	7.30	7.06	6.79	7.08	7.19	7.12	6.68	5.44	5.33	5.24	4.80	4.16	3.74	9.02	7.72	5.12	4.75	5.09	5.02	7.83	7.14	5.46	4.46	4.41	4.63	4.97	5.06	4.32	6.93	4.90	8.14	6.31	3.63	2.65	2.15	2.42	7.16	9.97	11.93	4.64	3.72	3.03	3.04	3.92	3.20	3.34	5.57	8.75	8.08	6.38	5.24	3.40	3.19	7.11	9.31	3.86	3.51	3.57	2.85	3.79	7.71	10.21	3.42	3.67	4.00	2.78	2.78	
6.48	4.10	1.83	4.57	3.88	4.28	7.30	6.62	4.95	7.49	5.78	5.02	3.67	1.26	1.77	1.92	3.20	3.57	3.24	1.86	1.53	6.78	9.73	10.86	12.52	3.79	3.53	3.11	3.00	3.06	2.24	2.96	2.73	3.14	3.52	3.84	3.98	4.07	4.06	4.03	3.91	3.69	3.26	2.73	2.53	3.14	6.75	9.31	10.11	7.93	6.90	5.60	5.29	5.10	4.90	4.93	4.60	4.43	4.86	5.16	5.33	5.24	5.07	4.98	5.09	5.99	5.38	7.62	5.78	7.08	6.05	5.26	4.97	6.11	6.63	6.27	5.72	4.96	4.79	4.55	5.12	5.29	4.78	4.61	5.42	7.98	3.75	2.74	1.88	2.07	7.12	10.10	11.63	9.85	4.55	3.17	3.05	3.75	3.34	3.41	4.98	9.03	10.43	7.53	4.21	3.12	2.06	3.59	7.27	3.16	5.55	4.24	3.26	3.55	6.86	8.40	5.73	5.58	2.75	3.57	3.57	
5.61	5.03	4.61	4.65	3.89	4.01	7.52	7.94	3.87	7.31	6.99	1.38	4.19	4.93	5.18	4.45	3.61	5.31	2.91	1.96	1.08	2.69	8.25	10.16	12.79	7.91	4.63	3.08	2.31	2.50	2.48	2.98	2.62	3.03	3.49	3.83	3.99	4.09	4.11	4.08	3.99	3.83	3.53	3.09	2.71	3.01	6.57	9.92	6.02	5.32	5.34	5.46	5.72	5.45	5.05	5.21	4.98	4.59	4.57	4.56	4.62	5.05	5.01	4.49	7.49	8.34	4.90	5.75	4.67	5.31	5.11	7.16	5.42	4.84	5.66	5.74	5.19	5.39	5.08	4.84	4.41	4.86	4.50	4.41	5.28	6.80	3.52	3.37	1.81	1.79	7.05	9.41	10.80	12.09	4.32	3.26	3.38	3.58	3.34	3.53	7.24	8.90	10.55	11.94	5.04	3.38	4.66	4.85	6.88	4.96	5.60	3.51	4.14	3.81	4.58	6.71	5.77	5.22	3.73	4.33	4.33	
6.21	6.25	5.48	4.42	3.85	3.85	8.21	9.63	3.75	8.43	5.94	4.96	5.09	5.14	5.44	5.05	4.65	5.20	2.77	1.97	1.26	1.81	6.21	7.27	10.80	12.90	4.82	3.24	2.16	1.96	2.33	3.03	2.66	2.85	3.36	3.79	4.00	4.11	4.15	4.12	4.06	3.95	3.74	3.40	2.87	2.74	6.65	6.72	5.43	7.88	5.49	5.44	7.18	6.01	5.88	6.13	5.63	4.96	4.49	4.13	4.08	5.63	5.76	5.10	7.48	5.06	9.71	5.17	4.81	4.65	4.47	5.20	6.80	4.77	3.87	4.18	4.81	5.57	5.73	5.21	5.54	5.20	4.38	4.11	5.20	6.52	3.43	2.70	2.14	1.81	4.31	8.74	10.16	11.75	6.32	5.12	4.31	3.64	3.25	3.41	7.76	9.12	9.64	12.11	13.26	6.52	5.21	5.19	6.49	5.18	3.84	4.59	3.98	4.95	6.03	8.32	3.02	3.96	4.74	3.70	3.70	
5.22	5.03	4.66	3.96	3.82	6.02	8.18	11.33	1.82	3.94	4.90	4.93	4.86	5.18	5.91	5.40	3.99	3.53	2.23	2.94	2.00	2.01	1.98	3.31	8.15	13.84	5.05	4.47	3.53	2.60	2.01	1.95	3.08	2.91	3.19	3.70	4.00	4.12	4.16	4.15	4.12	4.05	3.88	3.62	3.11	2.84	3.99	5.04	5.28	5.83	6.17	6.70	7.40	7.26	6.77	6.73	5.76	4.80	3.73	3.84	4.16	7.35	6.31	7.40	5.63	7.00	5.01	8.54	5.50	4.67	4.45	4.11	4.50	5.92	4.02	5.01	4.49	4.45	4.66	5.01	5.74	5.54	4.54	3.78	5.05	7.13	4.95	3.85	2.50	1.87	4.20	8.87	10.42	9.41	7.39	5.80	4.50	3.79	3.17	3.40	8.07	9.06	8.80	10.64	11.32	5.43	5.05	9.09	8.32	6.64	6.01	7.27	6.14	6.41	6.39	8.88	4.60	4.84	4.83	4.09	4.09	
5.53	4.70	4.22	3.73	3.48	6.24	8.99	10.64	3.38	4.22	4.34	4.51	4.24	5.62	6.30	2.61	1.06	1.33	1.71	2.02	1.81	1.89	1.54	1.80	7.02	11.29	11.97	6.73	5.53	4.45	3.35	3.07	2.14	3.50	3.24	3.61	3.98	4.10	4.15	4.16	4.15	4.11	3.97	3.77	3.40	3.23	3.82	4.23	6.02	7.78	8.05	7.93	8.03	8.68	9.42	8.78	6.23	4.06	3.48	3.90	4.06	2.95	3.84	6.43	9.33	5.46	6.85	9.62	6.30	5.45	4.81	4.24	3.83	4.41	5.79	4.05	4.90	4.53	4.43	4.72	5.66	5.73	4.69	3.80	4.89	6.51	5.07	4.11	2.45	1.61	3.91	9.23	8.45	8.26	7.72	7.30	5.40	3.96	3.38	4.41	7.92	8.56	8.64	10.30	5.96	4.48	3.68	3.77	7.99	8.31	6.70	9.84	9.98	6.75	6.94	10.34	10.93	4.37	3.98	3.39	3.39	
5.40	4.87	4.54	3.79	2.99	5.94	9.93	10.76	3.55	4.27	4.32	4.04	4.03	5.52	7.34	2.17	3.92	4.18	4.07	3.49	1.75	2.59	1.75	1.83	5.64	8.56	9.75	8.08	7.66	7.84	6.14	4.76	4.12	4.25	3.57	3.56	3.90	4.04	4.13	4.16	4.17	4.14	4.01	3.84	3.51	3.39	3.76	5.31	7.04	9.05	10.56	11.34	11.46	11.01	11.45	12.18	12.55	3.45	2.81	4.18	4.59	3.16	3.31	4.47	5.14	9.43	9.74	8.62	6.02	6.20	4.37	4.58	4.46	4.01	4.58	5.18	5.16	4.86	4.52	4.63	5.46	5.64	5.09	4.42	5.13	5.34	4.91	3.76	2.33	1.54	3.96	7.68	6.85	7.11	5.64	6.04	5.53	3.71	3.16	4.64	8.67	9.27	10.27	10.96	7.19	5.01	4.00	3.93	8.50	6.37	4.62	7.57	7.21	5.42	5.16	9.52	11.60	4.78	4.62	3.31	3.31	
4.93	4.94	5.03	4.26	3.18	5.63	9.08	10.64	6.80	5.21	3.60	4.52	4.23	5.73	5.66	3.48	4.11	5.02	5.22	2.51	3.31	2.66	2.41	1.94	2.77	7.21	7.63	6.46	5.60	6.40	6.14	5.18	4.99	4.74	3.69	3.42	3.75	3.94	4.06	4.13	4.15	4.14	4.03	3.87	3.48	3.15	3.42	5.86	8.51	9.60	10.62	11.54	11.28	10.18	10.39	11.09	12.25	12.85	5.16	3.93	3.89	3.74	3.33	4.41	5.68	5.48	6.11	6.79	3.97	4.61	5.35	5.87	3.14	2.89	2.20	4.80	4.99	4.97	4.76	4.85	5.18	5.46	5.18	4.91	5.80	6.12	5.12	3.93	2.49	2.10	3.26	4.57	4.57	4.78	4.97	5.20	4.93	2.95	1.92	4.08	8.76	10.29	10.96	7.57	6.84	5.40	3.74	4.31	8.32	6.31	4.62	4.85	5.27	5.25	5.36	4.87	9.39	11.98	5.23	3.93	3.93	
4.19	4.84	5.91	4.85	4.62	7.14	8.70	6.96	6.23	5.03	4.50	4.19	4.70	5.00	5.49	5.22	5.34	4.74	5.12	6.06	5.48	3.50	2.76	2.16	2.88	4.42	5.71	5.59	5.35	5.66	5.67	5.04	5.33	5.24	3.63	3.05	3.44	3.73	3.94	4.06	4.12	4.12	4.04	3.86	3.45	2.89	2.93	6.13	8.73	9.32	9.85	10.89	11.26	10.01	10.32	10.86	11.75	12.76	5.52	4.89	5.30	3.97	3.41	5.52	4.86	4.59	6.02	6.69	4.50	3.59	4.24	4.85	5.81	4.82	5.00	4.91	4.91	4.90	4.91	5.29	5.35	5.63	5.38	4.53	5.57	6.40	3.44	2.24	3.12	2.98	3.66	4.37	4.17	4.17	4.81	5.38	4.71	2.77	1.05	1.74	7.82	9.96	10.92	5.68	5.38	4.89	3.87	4.69	5.54	4.83	4.29	4.83	5.34	5.26	6.47	5.34	8.55	11.76	6.22	4.97	4.97	
3.64	5.86	7.20	5.20	4.65	6.46	7.74	8.51	5.08	4.88	4.37	4.91	1.83	5.18	5.21	5.29	1.73	4.61	4.78	6.44	5.23	3.29	2.30	2.30	2.94	3.69	4.65	5.26	5.64	5.44	5.17	5.14	5.91	5.13	3.73	2.88	2.95	3.30	3.74	3.94	4.07	4.10	4.05	3.85	3.48	2.78	2.71	6.17	8.62	9.13	9.31	9.96	10.78	10.38	10.54	10.57	11.23	12.87	5.78	5.33	5.52	4.23	3.67	4.28	4.66	4.65	5.30	6.48	4.95	3.73	2.47	4.34	4.84	5.10	4.99	5.02	4.98	4.84	4.95	5.37	5.39	5.82	5.28	4.19	4.58	8.12	2.89	2.34	3.71	4.13	4.11	3.80	3.95	4.25	5.07	6.20	4.19	2.16	0.87	1.26	4.12	9.10	10.67	6.11	5.57	4.91	4.76	4.80	4.99	4.43	4.33	7.66	9.06	9.82	9.96	9.83	9.07	6.97	7.46	6.00	6.00	
3.33	7.13	7.79	5.91	4.77	6.65	6.49	5.23	5.40	3.78	5.57	4.83	5.25	5.54	4.47	5.13	5.05	4.06	4.71	7.56	2.55	2.76	2.67	2.06	2.05	3.66	4.08	5.16	5.65	4.94	4.84	5.62	6.37	4.72	3.38	2.27	2.59	2.76	3.40	3.78	3.99	4.08	4.07	3.89	3.59	2.85	2.65	6.06	6.72	8.98	8.95	9.30	10.10	10.34	10.61	10.39	10.71	12.56	13.08	5.80	5.71	4.74	4.35	4.30	4.43	4.55	5.05	6.27	2.81	5.64	3.80	2.24	4.54	4.73	4.63	4.82	4.95	4.89	4.84	5.22	5.16	6.70	6.02	4.49	5.62	5.98	5.97	1.71	4.66	4.68	1.88	3.55	4.77	5.54	6.47	6.36	3.82	2.63	1.10	1.02	3.63	5.33	9.65	5.87	4.71	4.99	5.77	5.94	5.55	4.61	3.35	2.93	4.01	4.92	7.21	6.26	5.26	7.51	6.23	5.48	5.48	
2.93	7.59	8.59	6.36	5.82	8.93	4.08	4.43	6.21	7.26	7.99	7.19	4.96	5.37	2.33	5.53	5.46	3.00	5.21	2.05	4.23	3.67	2.81	1.93	1.49	3.17	4.44	6.01	5.54	4.98	5.69	6.34	5.44	2.39	1.30	1.07	2.77	2.47	2.91	3.53	3.90	4.04	4.07	3.92	3.74	3.14	2.79	3.17	6.24	8.72	8.92	9.25	9.93	10.17	10.34	10.52	10.84	12.20	13.17	6.77	5.83	5.07	4.91	4.63	4.44	4.51	4.78	5.77	6.45	2.41	5.72	3.07	4.63	2.18	4.21	4.56	5.07	5.01	4.63	5.06	5.59	6.86	7.01	1.22	5.22	5.58	2.57	3.56	5.20	5.36	5.16	3.17	5.63	7.08	8.58	6.35	3.49	1.86	1.68	0.98	1.83	5.13	8.63	5.41	4.68	5.24	7.86	7.89	6.76	4.93	3.92	2.61	3.20	7.24	5.12	4.95	7.76	6.20	5.71	7.96	7.96	
2.27	3.31	9.56	7.79	5.33	5.17	6.18	4.77	4.50	4.78	5.06	5.63	8.51	7.85	8.04	9.69	8.78	6.52	8.90	6.43	3.66	4.19	5.71	4.94	1.06	5.50	6.04	6.79	5.82	5.73	6.45	4.77	1.92	1.66	1.29	2.46	1.92	2.50	2.47	3.24	3.82	3.99	4.05	3.99	3.89	3.54	3.17	2.96	3.24	6.51	8.22	8.98	9.70	9.77	10.00	10.49	10.73	11.51	11.84	5.98	5.80	4.96	5.26	4.96	4.47	4.55	4.83	10.74	5.91	6.41	2.81	3.17	4.95	2.63	3.67	4.18	5.21	4.15	4.65	5.96	5.13	6.43	4.43	3.53	5.01	5.92	1.99	0.88	5.14	5.19	2.58	5.56	5.16	5.80	7.19	7.10	3.67	3.12	2.25	1.29	1.35	4.47	5.90	5.14	4.38	5.44	8.83	9.92	9.66	5.32	4.78	3.19	3.15	4.30	4.69	4.71	8.04	5.80	5.93	4.94	4.94	
2.28	2.94	6.23	6.60	6.11	5.17	4.76	4.63	4.52	4.35	4.11	3.91	6.05	6.19	6.12	6.72	8.44	7.06	6.91	9.22	5.83	4.70	5.77	4.77	4.03	4.81	7.19	8.31	7.44	7.08	5.74	3.54	2.98	2.59	2.30	2.20	1.41	1.16	2.36	3.10	3.77	3.97	4.06	4.05	4.01	3.85	3.59	3.13	3.05	3.67	6.10	6.55	9.28	9.37	9.56	10.44	11.12	11.98	12.95	12.43	6.56	6.23	5.70	5.29	4.51	4.67	5.21	5.38	5.53	6.53	3.18	5.16	4.76	3.25	3.20	3.73	5.19	5.10	4.76	6.83	5.56	6.88	4.91	5.23	5.30	4.38	3.74	5.24	1.45	5.28	4.88	4.74	6.04	2.11	7.38	8.85	8.47	4.01	2.66	2.35	1.40	2.38	4.18	4.90	4.38	4.89	8.73	10.02	11.35	5.28	5.52	3.83	3.47	4.43	4.52	4.77	6.71	3.79	4.08	3.84	3.84	
2.82	3.43	5.97	8.80	6.66	4.86	4.77	4.76	4.72	4.45	4.23	4.01	4.12	4.56	4.34	4.54	7.07	6.55	7.09	8.91	6.60	5.93	5.79	5.07	3.65	3.70	4.58	8.01	10.28	10.77	5.28	3.60	2.86	2.79	2.00	1.34	1.76	1.93	2.60	3.19	3.78	4.00	4.10	4.12	4.12	4.03	3.87	3.51	3.24	3.43	3.30	5.75	8.17	8.66	9.01	10.17	11.00	11.60	11.60	12.35	13.31	13.07	6.78	5.33	4.83	4.94	5.43	5.46	5.35	6.74	5.04	4.05	3.15	3.88	3.29	3.46	6.32	4.75	4.49	7.21	4.40	6.35	5.01	3.04	3.60	4.99	5.64	1.83	5.50	5.49	3.79	4.03	6.06	5.95	5.47	4.75	6.32	8.13	3.87	2.11	2.08	2.03	3.38	5.54	5.26	4.95	7.84	8.62	10.64	6.50	4.44	4.19	3.92	5.77	5.03	6.04	4.52	4.16	3.93	3.50	3.50	
3.13	3.79	8.42	9.86	2.70	2.40	4.33	2.26	1.91	3.37	4.20	4.64	4.40	4.31	4.37	4.48	5.01	5.12	5.01	6.99	6.92	5.76	5.58	5.15	3.71	3.36	3.70	7.36	9.15	11.81	7.87	3.04	2.30	2.51	3.02	3.05	2.88	3.36	2.96	3.41	3.87	4.04	4.15	4.19	4.19	4.14	4.04	3.83	3.57	3.51	3.17	2.96	5.67	5.88	7.94	9.19	10.00	10.09	10.32	11.31	12.69	11.90	8.77	6.22	5.42	5.60	5.75	5.54	5.28	8.33	2.98	3.16	3.85	4.28	3.70	3.48	6.24	2.45	5.19	8.44	1.79	4.97	8.17	5.12	3.92	4.43	4.65	5.00	6.87	6.66	5.48	4.97	4.71	5.32	4.95	4.07	5.13	6.41	6.87	3.43	3.30	2.33	2.86	5.37	7.91	7.69	8.39	8.39	10.53	8.70	5.57	4.68	4.44	5.97	7.44	5.88	4.88	4.57	4.24	3.80	3.80	
3.55	5.30	4.90	5.79	7.07	6.39	6.27	6.10	5.49	5.18	5.09	5.14	4.96	4.58	4.42	4.41	4.66	4.80	4.71	4.96	5.46	5.46	5.31	5.13	3.86	2.69	3.17	6.87	8.39	9.41	10.09	9.72	8.18	6.15	5.14	4.90	4.01	3.84	3.34	3.66	3.95	4.07	4.18	4.22	4.23	4.21	4.15	4.04	3.87	3.73	3.36	3.06	3.16	5.13	5.47	8.12	8.44	8.85	9.99	10.90	11.40	11.09	10.37	8.52	11.04	6.39	12.23	12.32	11.91	12.30	7.14	6.08	4.89	4.32	3.87	3.60	6.07	4.28	5.10	6.12	5.08	5.42	6.67	6.02	4.16	4.73	4.21	4.10	4.40	5.10	5.57	5.37	4.93	5.23	4.88	4.08	4.35	4.90	5.78	5.83	3.62	2.61	2.51	4.86	8.74	9.46	10.24	9.84	11.34	13.63	6.79	4.27	3.79	4.88	6.17	6.44	5.87	5.07	4.52	4.55	4.55	
4.89	5.71	4.92	5.08	5.26	5.30	5.17	4.89	4.94	5.00	5.27	5.46	5.42	4.86	4.77	4.70	4.68	4.45	4.37	4.55	4.91	5.34	5.73	5.76	4.56	3.02	2.66	3.55	6.63	7.27	7.53	8.03	9.02	8.28	6.20	5.62	4.90	4.40	3.89	4.01	3.98	3.99	4.12	4.21	4.24	4.24	4.22	4.17	4.07	3.94	3.68	3.41	3.23	2.92	3.05	5.83	7.12	7.85	9.60	10.06	9.53	10.44	11.33	10.76	7.02	9.62	9.27	10.30	9.67	9.67	7.13	6.37	4.67	4.93	3.90	3.70	5.75	5.30	7.38	6.16	4.32	5.66	7.02	3.50	5.81	4.51	5.22	4.57	4.28	4.74	5.21	5.51	5.60	5.68	5.61	4.73	4.44	4.54	4.51	4.57	3.69	2.45	2.25	4.52	8.53	8.33	4.72	4.77	9.81	12.42	10.30	2.98	3.08	5.31	5.80	5.10	5.17	4.92	4.84	5.76	5.76	
6.16	5.48	2.79	4.92	4.83	5.15	4.86	4.65	4.88	4.60	5.04	5.95	5.67	4.39	5.04	4.34	4.69	4.37	4.51	4.55	4.66	5.28	6.09	6.07	4.08	3.47	2.91	3.27	4.08	4.79	5.36	5.65	6.43	7.81	6.38	5.63	5.45	4.74	4.44	4.52	4.07	3.72	3.92	4.12	4.18	4.23	4.26	4.24	4.19	4.10	3.95	3.76	3.51	3.11	3.09	3.52	3.56	7.63	8.59	8.90	9.76	11.09	11.96	5.48	9.42	6.88	9.17	10.59	9.85	10.14	12.63	3.50	5.36	3.87	3.10	3.70	5.49	5.69	4.59	4.97	4.19	3.85	6.89	5.56	4.47	5.56	6.10	5.61	2.76	5.21	5.51	5.83	5.40	5.44	5.38	4.35	5.43	5.09	4.59	3.70	2.25	2.08	2.02	4.43	5.27	5.31	7.90	7.95	8.99	11.70	9.33	8.62	6.47	4.58	6.54	6.30	5.49	4.71	4.90	6.38	6.38	
6.32	6.08	4.94	4.84	4.80	5.14	4.42	4.34	5.13	4.37	5.35	7.63	6.20	3.99	4.76	3.25	2.33	2.36	4.82	4.63	4.52	5.95	6.75	6.52	4.80	2.94	3.07	3.04	3.30	4.30	5.09	5.22	5.62	6.08	5.91	5.66	5.47	5.13	5.08	5.03	4.10	3.49	3.74	3.95	4.04	4.17	4.26	4.28	4.26	4.20	4.11	3.98	3.81	3.56	3.31	3.22	3.13	5.61	6.34	7.11	9.39	11.24	11.95	7.62	8.25	5.14	5.14	5.89	7.81	6.03	6.76	3.16	5.90	3.91	4.05	3.74	4.38	8.18	5.20	5.33	4.17	3.71	5.52	6.47	3.31	4.28	4.64	5.22	4.94	4.94	5.18	7.99	7.55	8.39	8.82	4.39	2.96	2.54	2.92	2.68	2.88	2.14	1.86	2.95	4.16	5.56	4.75	4.20	8.54	11.90	6.93	5.77	8.73	4.25	4.05	5.10	5.49	4.77	5.86	6.48	6.48	
5.36	7.01	3.92	4.62	4.64	2.60	1.15	4.43	6.44	2.54	4.69	7.88	6.01	2.75	2.55	4.33	4.53	4.16	4.69	4.18	5.04	6.94	8.65	7.33	2.90	2.13	1.50	1.38	1.64	4.62	5.25	5.12	5.26	5.23	5.08	5.11	5.33	5.58	5.84	4.05	2.47	3.63	3.84	3.74	3.86	4.11	4.24	4.29	4.29	4.26	4.20	4.12	4.01	3.88	3.63	3.38	3.09	3.06	3.47	6.47	9.05	11.23	9.05	5.38	8.70	10.37	5.43	11.27	10.42	10.65	12.69	5.88	5.63	6.37	5.72	4.73	4.06	4.65	5.47	5.66	4.58	3.87	6.89	6.30	4.68	2.80	4.21	4.71	4.70	4.18	4.11	4.64	4.84	5.29	7.44	6.05	7.46	6.17	6.61	4.38	4.37	3.12	2.00	2.25	4.89	8.09	8.21	8.25	10.14	9.26	5.80	8.47	10.19	5.57	4.42	4.23	4.89	5.37	5.13	5.15	5.15	
3.73	8.52	6.85	3.50	5.67	4.65	4.14	4.81	6.60	4.19	3.44	8.39	3.21	4.55	4.65	5.09	2.31	4.96	5.11	4.05	6.14	4.42	4.92	9.29	5.81	5.13	4.93	4.61	4.53	5.55	5.66	5.00	4.82	4.66	4.51	4.40	5.08	6.46	4.37	2.22	2.65	4.17	4.16	3.52	3.68	4.05	4.17	4.25	4.27	4.27	4.24	4.21	4.14	4.04	3.88	3.69	3.30	2.84	2.83	5.86	8.31	10.42	8.67	5.27	9.76	10.30	11.26	7.93	7.56	9.66	7.29	6.49	4.49	6.06	9.59	4.47	5.00	4.21	4.43	5.60	4.50	4.10	7.10	7.25	5.57	5.24	4.50	4.84	5.23	4.45	3.97	4.28	4.21	4.80	5.54	5.54	5.25	5.04	5.90	6.39	4.78	4.05	2.71	1.65	2.06	7.68	9.76	9.37	9.50	9.57	6.09	5.10	8.79	6.52	5.58	5.04	4.81	5.97	5.70	4.92	4.92	
3.02	4.95	9.27	10.67	4.18	4.62	3.99	5.56	5.75	4.17	3.95	8.08	2.51	3.81	4.80	2.72	3.35	4.98	6.57	4.05	4.87	4.22	6.55	8.22	6.13	5.39	5.32	5.11	5.58	6.91	5.73	4.56	4.12	4.23	4.39	4.26	5.99	4.05	4.86	5.46	5.03	4.89	4.41	3.36	3.45	3.91	4.05	4.16	4.20	4.24	4.26	4.25	4.21	4.13	4.04	3.89	3.59	3.05	2.73	3.02	6.45	9.36	6.59	6.21	9.35	10.16	5.74	5.51	10.90	11.71	8.12	4.82	5.96	4.06	6.65	10.21	6.52	4.94	4.29	4.27	3.77	3.92	7.18	8.54	5.72	5.67	4.96	5.16	3.97	2.71	4.63	4.98	4.30	4.12	4.98	5.39	4.93	4.66	5.21	5.74	4.09	4.46	2.45	1.81	1.14	4.19	8.66	8.33	7.80	9.92	9.91	5.07	6.41	5.98	5.77	5.95	5.94	5.38	7.42	7.31	7.31	
3.10	3.58	5.57	9.97	6.57	4.95	4.83	8.18	6.09	5.17	6.94	7.55	3.36	4.95	4.45	4.80	5.33	6.84	7.17	3.90	3.85	4.15	4.41	6.77	6.33	5.40	5.05	4.98	7.20	7.75	5.47	3.82	3.80	4.74	5.13	4.02	1.36	4.08	5.17	5.64	5.32	4.87	4.64	3.47	3.31	3.60	3.80	3.98	4.08	4.17	4.22	4.24	4.23	4.19	4.12	4.01	3.79	3.41	2.93	2.90	3.94	7.37	7.28	9.02	8.98	6.26	6.05	5.40	7.08	7.65	6.80	4.27	4.13	5.58	4.08	7.77	7.16	4.62	4.93	4.39	3.37	3.44	4.74	8.55	7.37	5.01	4.61	4.30	3.41	5.20	5.31	4.93	2.81	4.18	5.07	5.59	5.16	4.67	5.31	5.71	5.24	3.87	3.23	2.40	1.06	1.82	5.64	7.26	5.18	9.22	11.01	5.63	4.65	5.20	5.49	6.30	8.37	5.85	6.45	9.00	9.00	
4.14	3.40	3.24	6.02	10.43	7.67	8.82	9.59	6.57	6.60	7.37	7.72	7.03	7.07	7.00	6.45	4.85	6.43	9.09	8.28	5.61	4.65	4.63	5.20	5.67	5.67	5.16	4.51	7.96	8.53	4.00	3.14	4.14	5.56	2.83	2.22	3.54	4.16	5.05	5.88	6.23	4.71	3.97	3.96	3.41	3.30	3.40	3.67	3.88	4.04	4.14	4.19	4.21	4.21	4.17	4.09	3.92	3.65	3.21	3.00	3.73	7.16	6.58	4.78	5.72	7.38	6.91	6.20	7.85	9.52	5.86	4.06	4.24	2.96	3.25	6.99	10.87	5.34	4.04	4.97	3.81	3.26	3.98	7.58	8.26	6.27	5.79	6.60	4.15	4.01	5.50	3.05	2.60	4.90	5.51	5.81	5.50	4.49	5.43	5.92	4.96	3.46	2.29	2.32	1.46	1.33	5.00	7.12	5.53	6.39	9.10	5.86	4.97	5.08	5.91	5.88	8.88	7.07	4.56	4.89	4.89	
5.55	3.89	2.76	3.67	6.39	7.90	7.90	9.88	5.97	4.79	4.63	5.94	5.62	5.78	5.94	6.16	5.59	3.96	6.71	7.51	6.50	5.17	4.89	5.05	5.10	5.82	5.73	4.91	8.36	8.83	4.55	3.82	4.35	1.29	3.31	3.64	4.35	4.49	5.45	6.57	6.23	4.89	4.48	4.21	3.79	3.21	3.06	3.26	3.56	3.83	3.99	4.09	4.16	4.19	4.19	4.13	4.00	3.77	3.39	3.03	3.41	6.62	8.47	8.16	8.90	10.00	10.85	10.54	10.17	10.13	3.83	4.60	3.14	2.75	2.42	6.62	10.77	5.78	4.07	4.02	4.76	3.95	3.59	6.73	7.19	6.85	6.24	7.24	7.87	9.07	9.03	6.76	3.21	5.96	5.73	5.00	3.62	4.76	6.15	5.43	2.50	2.07	2.38	1.96	2.77	1.68	2.64	3.69	4.12	9.37	6.96	5.91	5.58	5.34	7.24	7.14	7.92	7.53	5.94	4.66	4.66	
5.80	4.83	3.13	3.17	4.52	5.59	5.71	9.12	7.60	5.75	4.97	4.89	5.16	5.11	4.78	4.69	4.41	4.13	4.35	5.31	5.88	4.99	4.70	5.17	5.93	7.41	6.20	5.19	8.07	9.25	5.02	1.87	3.26	4.65	4.61	4.71	4.57	4.76	7.32	7.85	6.34	5.59	5.73	4.91	3.66	2.75	2.85	2.89	3.20	3.54	3.76	3.92	4.05	4.14	4.17	4.15	4.05	3.86	3.49	2.92	2.90	6.22	8.54	9.10	10.20	10.96	11.35	12.08	12.94	12.27	6.24	5.12	3.87	3.17	1.83	3.00	8.10	10.89	5.22	4.89	5.30	5.47	4.29	4.33	5.25	5.47	4.90	4.43	4.67	5.19	7.36	8.27	9.73	6.83	6.67	4.64	4.14	4.73	5.98	1.51	4.20	5.43	5.01	3.68	3.06	2.74	2.21	2.52	5.76	6.21	4.84	5.07	5.84	7.22	7.72	9.45	10.93	11.48	5.28	5.48	5.48	
3.40	2.74	2.87	3.48	4.00	4.47	4.37	6.48	6.35	6.03	5.46	5.12	5.57	5.38	4.95	4.78	4.23	4.18	4.46	4.60	5.04	4.79	3.84	4.38	7.16	9.25	5.75	6.11	8.54	10.08	4.05	4.16	4.93	5.37	5.49	4.98	4.15	4.31	7.94	9.07	6.90	6.58	6.89	5.11	3.32	2.51	2.00	2.66	2.99	3.37	3.44	3.61	3.89	4.06	4.13	4.13	4.08	3.90	3.61	2.99	2.67	5.72	7.96	8.71	8.73	9.00	10.33	11.82	11.94	12.43	12.36	4.94	3.41	4.18	2.07	2.19	7.33	10.40	5.99	4.69	5.06	6.64	5.87	4.78	5.08	5.27	4.70	4.28	4.08	4.19	4.55	4.84	5.48	9.34	11.28	7.37	5.81	5.16	3.17	4.53	5.09	5.01	3.08	3.43	3.54	2.26	2.19	2.21	4.18	4.98	4.15	4.25	8.07	10.40	8.31	5.34	8.40	9.58	8.41	6.07	6.07	
6.63	5.90	4.99	4.40	3.99	3.99	4.55	5.39	5.65	5.95	5.88	5.50	5.69	5.40	5.31	3.79	3.97	4.36	5.17	4.76	4.93	4.13	2.81	3.40	6.90	9.61	6.98	6.64	9.56	3.30	4.32	4.51	5.32	5.41	5.68	5.13	3.94	4.12	7.14	8.90	7.18	6.91	7.80	5.25	3.45	2.87	1.94	1.88	2.97	3.37	3.21	3.22	3.64	3.93	4.04	4.09	4.08	3.94	3.73	3.19	2.72	2.90	6.14	8.43	7.80	8.31	9.49	11.04	12.41	13.24	11.67	6.82	5.30	3.51	2.99	2.02	3.75	8.84	6.33	4.56	4.70	6.71	7.03	6.20	5.94	5.92	5.16	4.79	4.65	3.79	3.10	3.37	4.47	8.62	10.33	11.16	8.72	3.36	4.32	2.07	1.87	1.83	2.31	4.94	3.50	2.82	2.26	2.48	5.88	4.63	3.94	5.19	8.90	5.87	5.38	5.08	9.53	11.25	6.86	5.84	5.84	
6.80	4.81	5.17	3.84	4.37	3.96	4.57	5.21	4.90	5.71	6.52	5.47	4.88	4.79	4.78	1.87	3.77	4.55	5.96	5.60	5.30	2.72	2.48	2.88	6.12	9.26	9.32	9.43	6.36	5.36	4.49	4.53	4.53	5.07	5.70	5.52	5.18	4.84	5.92	8.95	7.64	6.50	8.96	4.95	3.30	2.63	2.09	1.61	2.09	2.03	3.22	3.10	3.35	3.69	3.89	4.01	4.05	3.99	3.83	3.45	2.99	2.80	3.25	6.13	6.29	7.95	8.71	10.35	11.70	13.54	6.50	5.90	5.84	4.38	4.01	2.21	2.89	8.66	5.81	4.07	4.58	8.78	11.49	8.79	7.26	6.19	4.35	5.44	3.96	4.34	2.82	2.37	3.96	5.09	8.95	8.98	11.07	2.94	6.86	5.15	2.65	2.41	4.97	5.28	2.20	3.33	2.43	2.66	4.19	4.44	3.96	4.11	4.48	6.44	8.15	5.53	5.72	6.41	4.50	4.83	4.83	
6.56	5.46	4.09	3.55	4.79	4.33	4.63	5.31	4.14	5.86	9.26	3.55	4.08	4.54	4.23	4.56	3.79	4.49	6.53	7.67	3.12	2.48	2.46	2.23	5.82	9.74	9.38	6.41	8.40	6.91	5.76	5.00	4.50	5.07	6.04	6.28	6.42	3.72	4.72	8.29	9.07	4.78	9.39	4.39	3.46	2.81	2.40	1.39	1.00	1.47	3.46	3.51	3.27	3.28	3.60	3.86	4.00	4.01	3.89	3.71	3.40	3.07	3.02	3.27	6.08	6.24	8.53	10.02	11.62	13.91	8.43	4.54	4.13	3.29	4.72	2.60	2.06	4.91	5.44	4.36	8.08	9.66	10.38	11.00	11.81	12.80	5.13	4.13	2.20	2.90	1.86	2.23	2.90	4.75	8.32	10.25	11.67	7.47	5.91	2.26	2.41	2.19	1.95	2.15	3.46	4.05	3.04	2.95	4.11	4.73	4.62	4.61	5.19	5.15	5.02	7.25	8.03	6.74	5.06	3.65	3.65	
5.49	5.50	4.84	5.14	5.09	4.57	4.69	6.04	4.01	3.16	9.79	3.39	4.27	1.89	5.37	4.30	4.04	5.81	6.49	7.73	4.24	4.45	3.24	2.21	2.61	8.58	9.19	5.06	5.94	6.72	6.05	5.24	4.37	4.90	7.47	6.90	6.73	3.75	2.97	3.73	10.43	3.03	9.05	3.74	2.98	2.82	2.88	1.97	1.45	1.84	3.97	3.45	3.46	2.97	3.18	3.61	3.90	3.97	3.96	3.89	3.73	3.47	3.14	2.89	2.99	5.60	7.45	8.83	10.09	12.22	13.57	8.43	4.44	4.38	3.35	3.30	1.51	3.35	6.51	4.13	7.42	9.46	9.66	9.64	10.61	11.99	8.10	4.87	4.87	3.79	3.81	2.51	2.82	4.44	8.84	9.15	10.95	10.90	5.96	6.78	7.08	7.76	6.34	5.56	5.29	4.07	3.83	3.46	4.18	5.86	5.62	7.56	8.93	9.02	8.09	8.20	10.16	5.35	5.38	4.17	4.17	
5.61	5.69	5.04	5.08	4.91	3.02	4.61	7.91	5.28	3.93	4.41	6.75	3.04	2.52	3.85	3.99	4.21	6.29	7.66	2.50	3.70	4.97	4.41	2.88	2.36	4.20	9.17	5.56	4.68	4.99	5.44	5.48	4.39	3.79	8.57	8.98	6.32	2.66	2.29	3.02	10.19	1.11	3.74	5.27	6.70	6.29	5.03	4.61	4.70	2.54	4.65	3.48	2.30	2.96	2.88	3.30	3.74	3.90	3.99	3.98	3.88	3.74	3.48	3.05	2.77	2.73	2.99	7.76	8.90	10.21	12.93	12.42	8.93	5.15	4.81	4.57	2.13	2.44	4.06	3.94	3.39	5.63	6.01	8.77	9.79	11.47	7.93	3.59	2.73	2.59	4.08	2.45	2.85	4.58	8.90	8.71	10.82	3.24	3.41	4.03	4.27	4.82	5.56	7.16	6.98	5.17	4.21	3.77	4.31	6.11	5.97	5.61	8.52	9.36	9.52	9.90	4.93	5.65	5.24	4.89	4.89	
5.80	5.45	4.44	4.82	5.59	3.33	4.26	9.09	5.77	4.97	3.38	5.24	3.23	4.97	4.34	3.79	4.20	9.04	2.56	5.47	4.86	5.45	4.03	3.81	2.69	3.75	7.50	6.36	5.11	4.78	4.90	6.63	4.94	4.97	7.96	10.58	6.16	5.39	2.53	3.04	10.52	3.91	3.92	3.95	4.93	5.97	6.24	6.18	5.67	5.00	5.39	2.68	1.79	2.98	2.75	3.06	3.55	3.82	3.98	4.00	3.92	3.86	3.73	3.43	3.00	2.63	2.74	6.05	8.58	9.92	12.27	11.94	11.50	13.13	5.33	4.07	3.28	2.38	2.69	3.83	3.27	4.18	5.70	8.93	10.17	11.42	7.25	3.04	2.16	3.46	2.88	2.64	2.69	4.64	8.62	8.74	11.43	3.82	3.35	2.32	2.00	3.98	5.29	5.17	5.20	4.84	4.15	3.87	5.58	6.19	7.43	6.24	7.58	8.62	9.61	11.52	4.36	5.12	4.42	4.31	4.31	
5.99	5.23	4.15	4.64	5.53	4.71	4.57	6.30	10.34	4.30	3.88	4.65	5.40	5.15	4.25	3.94	5.72	9.01	5.57	3.42	4.77	5.58	3.90	3.00	1.71	3.66	5.51	5.66	5.54	5.44	4.99	7.40	4.95	3.15	7.17	6.90	7.68	5.88	3.19	3.76	6.67	4.87	4.61	4.61	4.64	5.84	6.11	6.04	5.82	6.25	5.07	3.17	2.12	2.79	2.56	2.81	3.35	3.71	3.93	4.00	3.96	3.94	3.87	3.70	3.35	2.81	2.63	5.58	6.21	9.19	11.44	10.65	10.93	12.77	14.14	4.89	4.95	2.52	2.34	2.34	3.09	4.92	8.66	10.05	10.46	11.49	6.91	5.90	6.52	6.67	3.99	3.02	2.70	4.39	8.86	10.29	12.27	5.56	3.24	5.56	4.60	4.11	4.31	2.54	3.70	3.91	3.95	3.91	5.78	6.43	8.55	5.89	6.53	8.25	5.61	8.89	5.91	5.79	4.52	3.93	3.93	
4.32	5.18	4.22	6.80	9.37	9.90	6.04	6.20	9.61	6.76	1.44	6.37	5.74	4.96	4.00	4.00	8.80	4.65	5.81	4.98	4.66	5.84	5.30	4.86	4.59	4.17	4.75	5.12	5.60	6.55	6.87	8.49	5.21	3.58	6.51	6.36	9.36	5.81	4.64	4.94	5.38	3.68	3.28	4.05	4.99	5.77	6.54	6.64	6.47	5.17	3.73	3.36	2.07	1.30	2.38	2.50	3.10	3.57	3.83	3.98	3.99	3.99	3.96	3.84	3.62	3.18	2.74	2.83	5.72	8.25	10.45	9.47	10.44	12.17	13.70	4.61	3.79	2.39	2.24	2.34	2.84	4.89	9.31	10.46	10.77	11.92	5.86	5.47	4.79	6.65	4.45	2.75	2.58	4.29	8.72	10.13	12.05	6.50	5.60	4.83	3.69	5.15	2.80	1.45	3.51	3.57	3.62	3.86	5.68	8.36	9.66	6.51	4.37	7.69	5.98	5.92	5.69	6.80	5.14	4.51	4.51	
6.68	5.49	4.67	7.63	5.34	7.31	8.80	9.19	9.73	4.35	4.95	5.16	5.51	4.59	3.55	3.94	9.53	3.13	3.48	4.89	5.91	5.62	5.83	5.38	4.92	4.63	4.07	4.30	6.79	7.21	8.61	8.69	5.62	4.05	2.78	8.39	9.03	4.06	5.14	2.70	5.26	4.53	3.82	4.83	4.58	5.64	7.04	7.07	6.01	2.38	2.03	2.96	2.51	2.04	2.53	2.28	2.72	3.32	3.68	3.90	3.98	4.01	4.00	3.94	3.81	3.53	3.09	2.71	3.00	6.57	9.18	8.89	9.46	11.80	13.06	10.62	5.88	3.98	3.23	2.79	2.90	4.78	9.15	10.36	10.87	12.34	3.71	2.63	4.75	4.71	3.55	2.31	2.31	4.19	8.70	10.28	11.44	12.39	4.18	5.51	5.04	4.54	4.11	3.42	3.20	3.37	3.26	3.62	5.60	8.37	10.20	9.20	5.57	9.07	5.78	5.00	5.29	4.86	4.56	4.31	4.31	
4.13	4.57	4.69	5.12	6.17	5.47	5.70	4.84	9.90	4.50	5.00	4.80	5.35	4.57	3.68	4.27	9.82	6.40	5.62	5.22	5.24	5.36	5.58	5.26	5.02	5.03	3.87	3.26	6.86	8.79	8.84	8.57	5.15	4.61	3.01	5.03	7.25	4.77	5.73	5.15	5.56	6.52	5.06	4.84	4.52	5.39	8.10	7.83	2.27	2.03	1.83	2.77	2.93	2.54	2.23	2.47	2.50	2.95	3.44	3.77	3.92	4.00	4.01	3.99	3.94	3.76	3.47	2.89	2.88	6.23	6.89	6.84	8.67	11.65	12.17	11.31	6.61	4.66	3.69	3.25	3.27	4.96	9.41	10.45	10.76	11.99	7.68	4.52	5.48	2.55	1.99	2.54	2.04	2.95	5.23	10.11	11.00	12.37	5.33	5.44	6.27	6.81	6.13	4.63	3.65	3.39	3.05	3.29	5.36	8.23	10.12	11.40	6.86	2.64	6.33	8.04	6.83	5.48	4.80	4.18	4.18	
3.68	3.72	4.00	6.75	9.77	6.68	4.96	5.55	6.25	4.08	2.77	5.29	5.11	4.39	4.28	7.30	7.05	6.29	5.20	4.98	4.76	5.13	5.66	5.57	5.32	5.93	4.16	2.82	3.71	4.46	9.76	11.18	5.08	4.64	6.36	7.85	5.73	5.58	5.95	5.21	4.89	5.10	5.40	4.51	4.26	6.30	9.59	1.58	3.63	3.77	3.52	3.32	2.67	2.46	2.35	1.99	2.79	2.80	3.13	3.52	3.75	3.92	4.00	4.02	4.02	3.92	3.75	3.33	3.08	3.40	4.03	6.47	8.33	10.75	11.70	12.10	6.88	4.78	4.01	3.46	3.63	5.39	9.19	9.80	10.26	11.96	3.30	3.83	4.54	4.48	3.27	2.56	1.91	2.41	7.70	9.87	10.93	11.71	3.22	2.04	1.87	3.39	4.20	4.03	4.17	3.39	2.96	3.10	3.59	7.84	9.74	11.88	7.88	5.99	3.88	5.08	7.59	8.43	5.33	4.75	4.75	
4.33	3.53	5.51	6.66	9.53	10.69	6.30	5.33	5.74	5.65	7.13	5.69	4.80	3.31	3.73	4.79	5.47	5.25	4.95	4.94	4.71	5.04	5.87	5.84	5.44	6.52	4.21	2.72	3.79	4.23	6.00	10.04	10.94	8.51	7.82	6.20	1.63	2.65	4.65	5.08	4.73	4.77	5.04	4.56	4.05	6.39	10.85	5.51	4.71	4.90	5.03	4.45	3.98	3.69	2.80	2.69	1.79	3.18	3.04	3.14	3.41	3.74	3.93	4.02	4.06	4.02	3.93	3.73	3.42	3.17	3.31	6.09	6.59	9.68	11.40	12.17	6.90	5.19	4.18	3.68	3.83	5.79	9.51	9.87	10.10	12.18	4.44	3.83	4.25	3.85	4.27	2.81	2.16	2.28	4.70	9.55	11.39	12.83	3.74	2.93	2.38	1.92	2.28	3.26	4.05	3.33	2.84	2.86	3.46	8.20	9.12	10.88	13.31	4.75	5.15	4.10	3.79	7.41	5.93	5.39	5.39	
3.49	3.49	3.41	6.02	9.01	10.33	11.26	3.57	4.72	5.23	6.59	7.70	7.61	6.83	6.31	5.67	5.27	5.45	5.34	4.98	4.91	5.17	7.02	6.57	6.98	4.01	3.98	2.65	3.65	8.29	7.77	8.66	9.90	8.37	7.38	6.15	3.52	2.41	1.63	3.43	3.86	4.65	4.84	5.10	5.50	6.72	6.31	6.05	6.17	4.41	2.03	1.79	1.42	1.91	2.10	3.23	3.17	2.88	3.30	2.96	2.99	3.39	3.77	3.99	4.08	4.09	4.06	3.97	3.76	3.38	3.10	3.30	6.35	8.82	10.45	11.22	8.03	5.51	4.50	4.05	4.06	6.00	9.61	9.88	10.13	12.19	4.13	3.28	2.23	2.44	1.81	3.25	2.60	2.57	4.57	9.10	11.40	11.19	5.06	4.91	3.95	2.92	2.65	3.22	2.87	3.39	2.71	2.44	2.94	8.70	10.10	10.50	10.90	9.31	6.87	5.70	5.52	5.60	6.34	5.86	5.86	
3.99	3.50	2.87	4.40	6.24	9.44	9.59	5.53	5.34	5.00	5.40	4.95	5.30	5.87	6.23	5.99	5.43	5.09	4.90	4.74	5.08	6.44	7.72	8.13	6.65	4.29	3.83	2.96	2.91	4.45	8.89	8.14	9.19	6.21	6.45	5.74	6.38	5.84	4.67	3.71	4.54	4.26	4.71	7.56	6.47	5.39	5.95	6.06	1.74	3.10	6.34	3.56	1.95	1.50	3.05	4.57	3.84	2.67	2.25	3.14	2.85	3.02	3.53	3.91	4.08	4.12	4.13	4.10	3.99	3.71	3.32	3.12	3.50	6.97	9.34	10.11	7.67	5.35	4.33	4.19	5.69	8.52	9.77	10.05	10.41	12.37	7.48	5.34	2.90	2.74	3.09	3.09	2.61	2.82	4.75	9.27	11.29	13.39	3.55	2.26	1.88	2.15	2.60	3.32	2.96	3.81	2.78	2.14	2.37	8.10	9.24	8.44	8.29	8.82	7.46	5.77	5.18	5.09	5.43	5.90	5.90	
4.67	3.62	2.79	5.72	6.03	6.76	7.40	3.46	4.54	4.77	4.55	4.76	4.89	5.12	5.48	5.62	5.28	4.80	4.39	4.20	5.02	7.69	8.05	9.55	3.77	3.76	3.92	3.80	2.68	3.16	6.55	9.16	6.11	6.26	3.32	4.79	4.83	5.05	5.62	5.03	4.69	4.25	5.93	8.53	5.97	5.78	3.00	5.66	5.67	5.81	5.46	2.11	5.68	1.23	5.62	6.03	3.91	1.76	1.64	1.30	2.99	2.81	3.30	3.80	4.05	4.15	4.16	4.18	4.14	3.97	3.70	3.26	3.34	6.68	7.59	9.68	6.36	4.94	4.12	4.08	6.01	8.81	10.64	10.70	10.94	12.16	6.85	9.02	8.65	5.79	3.80	2.91	2.47	2.71	4.87	9.33	10.70	12.86	3.95	2.80	2.56	3.18	3.37	3.61	3.45	3.05	3.19	2.23	2.46	5.86	6.02	5.89	6.14	6.81	6.42	5.30	4.99	5.14	5.39	5.68	5.68	
5.00	3.83	2.90	5.93	5.73	9.46	7.50	2.96	3.06	4.44	4.54	4.97	5.31	5.50	5.48	5.30	5.30	4.65	3.59	3.64	6.50	8.52	8.29	10.41	6.49	4.57	4.18	3.86	2.81	2.54	5.68	10.66	9.35	2.54	2.22	1.71	3.74	4.61	5.02	5.09	4.67	4.50	6.23	8.04	5.75	5.86	6.11	4.93	2.99	1.11	5.39	5.28	5.83	5.11	5.91	6.38	3.76	2.30	1.70	1.12	3.02	2.70	3.09	3.64	3.95	4.11	4.17	4.22	4.24	4.14	4.01	3.63	3.54	3.91	4.74	7.91	6.12	4.84	4.18	4.12	6.31	8.77	10.14	10.87	11.69	9.22	5.85	9.10	10.46	5.81	3.61	2.93	2.56	2.69	4.84	8.95	10.31	12.77	5.85	4.36	3.55	3.46	3.57	3.74	4.95	3.84	3.97	2.84	3.01	4.30	4.96	5.01	5.18	5.66	5.95	5.41	5.03	5.11	5.31	5.44	5.44	
5.59	4.31	3.24	4.52	4.74	5.60	7.39	3.94	4.27	4.44	4.81	5.02	5.53	6.04	5.80	5.27	5.18	2.86	2.90	2.90	6.41	9.85	9.21	8.63	5.93	4.58	4.81	4.11	3.06	2.66	4.10	6.50	9.98	4.05	3.31	3.56	4.50	4.68	4.75	2.23	4.31	5.56	6.31	7.55	5.69	6.70	4.44	2.56	4.21	4.82	5.81	6.03	6.02	5.72	5.86	3.71	3.10	3.13	1.72	1.46	2.97	2.62	2.86	3.44	3.79	3.98	4.14	4.24	4.31	4.27	4.21	4.02	3.91	3.83	4.28	5.47	5.45	4.66	4.24	6.63	6.74	8.38	9.64	10.77	12.05	6.85	5.03	9.19	6.95	4.34	3.90	3.27	2.82	2.94	4.84	8.62	10.42	11.73	10.00	5.76	4.47	4.14	4.04	3.74	4.81	5.02	4.66	3.80	3.76	4.46	4.86	5.00	5.05	5.17	5.33	5.24	4.99	4.93	5.08	5.18	5.18	
6.13	4.73	3.84	4.76	5.83	6.76	5.20	5.07	4.55	5.02	4.94	5.08	5.59	6.62	6.00	5.32	2.94	4.45	2.73	2.31	3.76	9.48	11.49	4.43	5.82	4.58	5.70	4.22	3.35	2.91	4.96	9.16	9.39	4.33	5.11	4.86	5.08	4.97	4.81	3.96	3.95	5.61	6.21	10.29	6.49	5.48	5.08	5.68	5.42	5.27	0.67	5.60	5.70	5.37	1.62	2.81	2.77	3.35	2.55	1.17	1.46	2.70	2.74	3.26	3.48	3.72	4.05	4.22	4.35	4.37	4.36	4.31	4.26	4.13	4.26	4.76	4.76	4.41	4.22	6.85	6.81	8.09	9.50	11.04	11.33	6.05	6.28	4.95	6.73	9.01	4.98	3.84	3.15	3.22	5.08	9.24	10.70	9.27	10.74	7.94	5.86	5.07	4.62	4.48	4.80	5.02	4.94	4.54	4.41	4.66	4.94	5.16	5.06	4.89	4.89	4.92	4.80	4.65	4.57	4.53	4.53	
5.26	4.94	5.91	4.84	6.13	6.86	4.79	4.42	4.68	4.96	4.89	4.85	6.40	8.34	6.01	2.67	4.11	4.64	3.11	2.12	3.10	6.60	11.09	7.94	6.05	4.94	5.57	5.11	3.82	3.02	3.45	8.99	7.34	4.23	5.20	5.30	4.93	5.18	2.63	3.92	4.10	5.35	5.43	9.38	1.58	3.28	4.51	4.45	5.62	1.36	5.51	5.72	4.92	0.76	2.54	1.50	4.43	4.28	3.41	1.83	1.90	1.35	2.97	3.32	3.09	3.30	3.91	4.18	4.37	4.44	4.47	4.49	4.48	4.44	4.45	4.43	4.31	4.05	3.98	4.56	6.96	6.66	9.27	10.68	9.53	5.92	5.20	5.74	9.76	9.29	6.94	4.67	3.54	3.41	5.41	10.11	8.30	7.00	9.81	8.58	6.55	6.16	5.50	5.11	5.13	5.21	5.21	5.05	4.65	4.57	5.09	5.54	5.22	4.87	4.71	4.54	4.68	4.68	3.96	3.46	3.46	
5.39	4.76	4.55	4.76	5.70	7.11	5.63	4.74	4.59	4.99	4.79	4.09	6.57	9.99	3.18	4.33	3.43	4.81	3.56	2.05	2.59	6.29	10.67	10.45	6.45	5.98	3.81	5.15	3.76	3.33	2.69	5.53	10.72	7.27	6.16	4.00	5.16	5.33	4.75	4.04	5.17	5.78	4.80	5.60	7.82	5.87	5.66	6.24	4.89	5.51	5.51	6.26	1.31	2.11	0.70	2.81	6.61	4.64	3.99	2.77	1.73	1.81	2.54	2.36	2.93	2.96	3.70	4.13	4.37	4.48	4.56	4.62	4.61	4.58	4.58	4.46	4.26	3.85	3.65	4.44	7.45	6.91	8.35	9.81	8.85	5.43	5.22	7.81	5.89	6.43	7.77	5.27	3.82	3.52	5.91	10.65	6.55	5.81	8.17	8.70	6.63	5.65	5.31	5.19	5.22	5.33	5.69	5.69	4.79	4.03	5.21	6.17	5.67	5.06	4.16	3.47	4.70	4.71	2.84	2.79	2.79	
4.69	4.61	4.63	4.96	7.61	6.91	5.88	4.64	4.74	5.26	4.71	3.32	5.87	10.82	3.40	2.24	3.48	3.91	2.37	2.08	2.35	6.16	9.86	7.12	10.73	11.13	3.55	3.43	3.67	3.84	4.02	3.10	9.29	10.89	6.80	5.30	5.43	4.88	4.35	4.03	7.64	4.91	4.59	7.73	7.35	6.09	7.82	7.44	6.76	6.42	6.16	1.07	5.69	1.71	3.74	4.44	6.24	2.53	3.41	2.93	2.05	1.29	1.76	2.31	3.35	3.06	3.55	4.08	4.37	4.50	4.60	4.69	4.68	4.64	4.63	4.52	4.34	3.86	3.52	4.32	7.75	7.15	6.83	9.03	7.04	5.56	4.52	4.89	4.95	5.03	5.39	4.80	3.78	3.59	8.75	9.79	6.37	5.61	5.83	8.19	6.27	5.61	5.39	5.40	5.27	5.33	6.43	6.18	4.49	2.34	4.71	8.34	6.99	5.09	2.14	2.71	6.15	5.08	3.21	2.93	2.93	
4.91	4.96	4.57	4.71	6.08	5.16	5.02	4.66	5.79	6.11	4.16	2.96	5.11	10.32	4.45	2.95	3.80	2.24	3.04	2.44	2.57	4.09	9.22	9.48	9.94	10.35	5.79	4.72	5.11	4.54	3.34	2.40	3.67	7.90	7.70	6.21	4.95	5.38	3.06	4.19	8.32	2.88	3.80	7.69	7.01	4.48	6.78	4.33	7.24	10.81	7.38	2.37	2.70	2.68	1.58	0.93	5.93	5.56	3.60	3.02	2.15	1.84	2.66	3.22	3.93	3.50	3.62	4.07	4.40	4.53	4.63	4.71	4.72	4.69	4.67	4.58	4.41	3.95	3.58	4.30	7.83	7.90	7.52	5.38	5.99	5.72	5.07	5.06	4.86	4.65	4.56	4.13	3.61	3.84	9.48	7.83	6.07	5.08	5.92	6.60	6.06	5.62	5.52	5.68	5.51	5.85	7.33	6.47	3.14	3.37	3.10	5.96	8.92	2.59	4.32	3.87	5.14	6.70	2.48	3.01	3.01	
5.21	5.25	4.75	4.76	6.56	4.86	4.22	4.34	6.46	6.96	4.89	2.86	3.74	9.19	3.11	1.93	3.33	5.07	3.81	3.13	3.09	6.35	6.56	5.84	9.30	10.24	4.19	6.14	5.71	4.76	2.80	2.45	2.31	6.10	10.91	7.57	4.04	5.19	4.81	4.86	5.41	5.87	3.04	5.68	7.71	3.91	3.37	3.37	4.32	7.73	11.71	1.78	0.96	5.37	2.38	5.36	7.36	8.96	2.45	3.40	3.05	3.12	3.80	3.61	4.12	3.79	3.85	4.16	4.44	4.59	4.66	4.71	4.75	4.73	4.70	4.62	4.47	4.06	3.67	4.21	7.74	8.18	8.04	5.70	5.79	5.87	5.57	5.39	4.87	4.29	4.00	3.65	3.38	5.97	7.48	5.84	5.06	4.79	5.20	5.77	5.66	5.30	5.24	5.55	5.82	7.33	8.22	5.07	4.67	3.63	3.12	7.65	9.50	5.86	4.61	3.51	3.94	5.95	5.24	4.33	4.33	
4.44	5.64	5.39	5.62	9.24	5.38	3.66	3.71	6.79	4.45	4.63	2.81	3.95	8.93	6.01	6.13	5.73	5.72	5.09	3.83	3.85	4.86	4.79	4.34	4.60	6.30	8.67	9.33	9.63	3.83	3.82	3.26	2.00	2.95	9.13	11.60	11.33	6.80	2.72	3.96	6.05	5.35	5.31	5.16	8.72	3.94	3.22	2.90	3.79	8.92	11.76	7.84	8.11	8.06	5.14	5.45	5.09	9.20	11.55	5.33	4.09	2.79	2.96	3.12	4.01	3.74	3.96	4.28	4.47	4.65	4.68	4.72	4.77	4.75	4.73	4.66	4.52	4.18	3.74	3.96	4.87	8.27	8.50	6.22	6.07	6.01	6.00	6.04	5.03	3.84	3.48	3.34	3.11	4.01	7.27	5.38	5.04	5.00	5.36	5.73	5.61	4.87	4.69	5.75	6.82	8.26	9.01	3.18	4.54	3.66	3.28	5.49	8.71	6.17	4.50	3.48	3.41	5.35	4.85	4.21	4.21	
4.90	4.57	4.78	7.56	10.76	5.57	3.52	3.26	9.58	4.77	4.22	3.15	5.58	6.36	5.25	5.19	5.44	5.40	4.88	4.20	4.67	6.28	4.79	4.31	4.52	4.81	4.83	5.90	8.63	8.88	5.69	4.75	2.52	2.39	6.47	9.96	11.07	11.04	5.65	3.40	3.86	6.10	4.67	4.36	5.23	3.96	3.19	2.47	3.52	7.36	11.53	7.87	7.11	9.08	8.22	4.17	3.11	6.64	9.24	9.13	6.24	4.20	3.51	2.87	4.00	3.65	3.98	4.33	4.49	4.67	4.70	4.73	4.78	4.76	4.74	4.70	4.57	4.32	3.91	3.76	4.21	7.84	8.61	7.61	6.77	6.40	6.47	6.49	4.67	3.68	3.07	3.02	2.89	3.80	6.47	5.43	5.13	5.33	5.45	5.78	5.95	4.66	4.42	7.02	7.50	9.09	8.00	3.26	4.46	3.45	3.21	7.85	10.14	4.08	5.00	3.77	3.68	5.01	4.00	3.51	3.51	
5.87	4.44	5.03	5.39	6.60	4.83	4.14	3.21	6.62	6.49	4.19	4.23	3.96	4.94	5.04	5.56	5.47	4.93	4.52	4.35	5.15	5.93	4.93	4.56	4.98	4.98	4.67	4.20	4.41	6.45	7.20	6.73	3.78	2.44	6.54	8.98	9.68	11.56	9.91	5.59	5.54	5.39	4.52	3.53	5.15	4.49	3.41	2.53	3.20	9.52	9.84	9.94	7.26	8.12	9.56	8.02	5.50	5.04	6.66	8.71	8.46	6.79	5.03	3.95	4.49	3.80	4.02	4.33	4.48	4.65	4.70	4.74	4.78	4.77	4.75	4.72	4.62	4.44	4.16	3.77	3.70	4.47	8.10	10.29	9.88	7.06	7.77	6.98	4.42	3.45	3.18	2.75	2.68	3.53	4.72	4.91	5.18	5.66	5.82	6.39	6.55	4.66	3.39	6.95	9.01	10.54	6.34	3.61	4.63	3.48	3.11	4.60	9.98	4.59	5.41	3.89	4.18	5.00	3.45	2.90	2.90	
3.59	4.15	6.38	8.54	6.94	7.33	4.49	4.36	7.99	6.26	5.01	5.10	4.90	4.71	5.09	5.93	5.62	4.94	4.46	4.48	6.68	4.61	5.30	4.85	5.44	5.58	4.82	4.09	3.88	4.13	4.64	5.25	5.02	3.04	3.44	7.15	9.16	10.73	11.64	6.67	6.62	5.11	3.47	3.02	4.78	5.07	4.01	2.26	3.19	8.87	8.25	9.52	8.59	7.94	8.79	8.25	7.26	5.11	4.35	6.01	6.79	6.61	6.49	5.87	4.95	3.98	3.99	4.28	4.44	4.60	4.68	4.73	4.78	4.78	4.77	4.74	4.67	4.53	4.35	3.95	3.62	3.79	4.34	7.84	11.22	11.25	10.63	8.12	4.65	3.50	3.15	3.05	2.80	3.18	3.95	4.44	5.08	6.44	6.66	8.21	7.33	5.13	2.48	2.83	4.45	9.48	5.50	4.00	4.79	3.71	3.60	4.47	8.80	6.38	4.04	3.19	4.91	3.96	4.06	2.96	2.96	
2.97	3.67	4.79	9.56	10.51	11.65	10.73	4.81	6.10	5.41	5.48	5.58	5.51	5.03	5.30	5.70	4.23	4.63	4.19	5.07	5.89	5.84	5.69	5.14	5.53	2.82	3.28	4.55	4.20	4.19	4.31	4.44	4.37	3.36	3.03	3.63	7.04	8.94	10.05	10.36	10.60	7.09	3.73	4.03	7.00	8.01	4.65	2.86	3.72	6.97	6.62	7.58	8.57	7.82	7.66	6.97	7.69	5.72	4.54	5.03	5.84	5.82	5.69	5.57	4.86	3.96	3.79	4.10	4.35	4.53	4.64	4.71	4.76	4.78	4.78	4.77	4.71	4.60	4.44	4.12	3.83	3.66	3.60	6.77	10.03	11.27	11.91	12.48	4.41	3.57	2.78	3.16	2.34	3.50	3.57	3.98	4.64	6.63	8.67	9.69	8.55	6.09	4.91	3.31	3.60	8.91	6.31	4.10	4.66	3.75	4.27	6.53	7.22	8.16	3.67	3.35	5.52	2.58	4.93	3.71	3.71	
2.76	6.02	8.60	9.12	9.54	6.91	7.31	7.06	5.39	4.65	4.98	5.26	5.32	5.18	7.38	5.50	4.75	5.92	4.58	4.77	5.82	6.30	6.02	5.23	1.81	5.45	5.31	5.30	5.18	4.85	4.65	4.46	4.31	3.77	3.12	2.93	3.32	7.35	8.11	9.14	9.92	8.80	4.23	2.44	3.74	6.55	5.10	3.94	3.83	4.58	4.40	5.00	5.66	5.85	5.88	5.27	5.70	5.99	5.21	5.16	5.59	5.82	5.88	4.63	4.48	3.88	3.52	3.75	4.20	4.46	4.60	4.68	4.75	4.78	4.79	4.78	4.75	4.65	4.50	4.21	4.02	3.84	3.34	3.45	7.19	10.39	11.25	13.06	7.90	5.21	4.66	4.67	4.23	4.45	3.79	3.71	4.17	6.34	8.75	9.80	9.82	7.20	4.59	4.01	3.18	7.85	7.76	3.97	4.49	3.65	4.50	7.16	7.50	5.45	5.06	4.44	5.14	7.88	5.43	4.75	4.75	
2.85	3.30	4.27	6.85	6.28	6.07	9.88	7.43	5.70	4.65	4.38	4.79	5.24	5.55	5.09	4.82	4.64	6.14	6.70	5.58	5.97	7.10	6.62	2.33	4.60	5.02	2.78	5.49	5.05	3.74	4.98	4.95	4.77	4.27	3.69	3.28	3.12	3.71	7.57	8.18	8.70	9.77	6.33	3.59	3.45	4.66	4.98	5.08	4.98	4.77	4.48	4.39	4.79	5.24	5.47	5.28	5.16	5.40	5.42	5.37	5.51	5.90	6.07	4.50	2.78	3.65	3.32	3.41	4.00	4.37	4.55	4.65	4.72	4.78	4.79	4.79	4.77	4.68	4.57	4.29	4.13	4.09	3.44	3.02	6.43	9.51	10.64	12.34	9.90	6.94	5.74	5.12	5.22	4.95	4.20	3.81	4.06	7.52	8.73	9.80	10.99	10.77	5.19	5.48	5.50	5.23	7.63	4.24	4.44	3.48	4.00	7.69	7.79	5.70	4.32	4.20	4.11	7.20	7.18	8.19	8.19	
3.24	3.85	4.59	5.23	7.71	5.32	6.17	11.41	3.88	5.15	4.48	4.86	5.63	5.67	4.93	4.41	3.81	4.14	6.14	6.89	10.29	9.09	3.33	6.19	5.46	3.01	5.21	5.51	4.32	3.95	3.99	3.98	3.21	4.95	4.49	4.10	3.49	3.21	3.88	5.00	7.08	8.06	8.65	6.74	5.29	5.06	5.11	6.05	6.04	4.90	3.87	4.20	4.69	4.85	4.90	5.31	5.21	4.91	5.17	5.35	5.98	6.22	6.14	4.21	2.68	3.27	3.09	3.17	3.80	4.28	4.50	4.61	4.70	4.77	4.80	4.80	4.78	4.71	4.64	4.39	4.21	4.25	3.79	3.12	3.36	6.89	9.87	11.12	9.89	7.59	5.99	5.42	5.35	5.07	4.43	4.04	3.97	8.43	10.11	11.01	11.56	12.15	12.77	5.44	5.18	6.62	3.95	4.11	4.46	3.45	3.60	7.11	10.40	4.81	3.02	3.57	3.44	4.28	4.81	5.32	5.32	
2.95	3.89	6.50	8.51	5.99	5.59	6.43	7.30	4.78	4.74	5.62	4.88	6.08	5.38	5.60	4.96	4.06	3.47	3.69	6.10	7.39	11.39	4.15	3.26	2.63	4.93	5.38	2.00	1.61	1.87	2.75	2.66	3.28	3.72	4.59	4.39	3.04	2.92	3.21	4.26	4.29	4.46	5.78	5.86	5.35	5.38	5.72	7.45	6.81	2.97	3.11	4.60	5.17	4.52	3.87	4.90	5.69	4.73	5.10	5.75	6.31	6.62	5.63	3.70	1.95	1.37	2.90	2.99	3.62	4.18	4.45	4.59	4.67	4.75	4.80	4.82	4.80	4.75	4.69	4.51	4.31	4.28	4.10	3.57	3.27	6.33	8.84	9.72	9.09	7.56	5.93	5.26	5.33	4.99	4.36	4.20	4.14	6.25	9.39	10.57	10.80	10.89	11.61	11.06	7.50	8.10	2.74	5.50	4.47	4.16	3.99	4.57	10.12	4.02	3.37	4.44	3.79	3.77	3.80	4.74	4.74	
2.37	3.02	4.07	6.89	9.37	9.34	10.56	12.08	7.56	5.55	5.18	6.36	5.23	6.67	5.32	5.12	5.14	3.93	3.06	3.10	6.46	11.59	10.07	3.56	3.31	1.09	5.26	5.24	5.27	5.23	7.56	7.64	2.17	4.98	5.41	4.08	3.06	3.14	3.34	4.07	2.80	4.08	5.18	5.47	4.68	5.24	7.43	8.36	3.93	4.57	1.60	6.62	6.37	4.12	2.60	5.21	7.08	4.75	5.13	6.33	6.65	6.20	3.19	2.59	2.19	1.91	2.94	2.90	3.44	4.04	4.38	4.55	4.64	4.73	4.80	4.83	4.81	4.78	4.73	4.62	4.45	4.29	4.23	4.06	3.69	3.88	7.08	7.77	7.49	6.83	5.73	5.12	5.13	4.71	4.05	3.95	6.07	8.35	8.95	9.37	9.50	6.18	9.21	10.30	10.13	4.18	4.72	5.24	4.36	4.29	5.38	6.16	7.49	3.68	3.35	2.80	4.82	4.04	3.75	3.62	3.62	
3.91	3.72	4.04	4.49	4.79	4.87	5.97	9.31	10.58	5.65	5.63	3.60	4.35	6.28	8.03	6.85	5.19	3.90	3.74	2.57	4.07	10.46	9.26	11.27	7.61	4.71	5.05	4.46	4.10	4.79	4.63	4.96	5.50	5.92	6.61	6.25	3.82	2.47	1.49	2.94	4.46	4.68	5.50	5.60	4.18	5.84	8.54	7.64	4.05	4.42	3.61	4.96	7.51	3.98	2.41	4.40	7.65	5.33	5.20	6.73	5.83	1.93	3.08	3.37	2.72	2.45	3.28	3.01	3.35	3.90	4.29	4.53	4.62	4.71	4.79	4.82	4.82	4.81	4.78	4.71	4.60	4.40	4.26	4.28	4.25	4.22	4.64	7.36	5.99	5.97	5.55	5.17	5.09	4.55	3.86	3.50	3.57	8.46	9.64	10.31	10.65	8.61	6.19	9.57	10.49	4.10	5.84	5.12	2.85	4.23	5.86	5.30	6.21	5.38	5.05	5.02	5.15	4.61	4.04	3.61	3.61	
4.75	5.15	4.96	4.47	4.22	4.50	4.46	4.80	7.70	7.93	4.07	5.02	4.03	4.64	7.69	5.70	5.78	6.07	4.66	2.96	3.50	9.40	9.47	10.44	11.96	6.56	5.46	5.62	5.38	4.93	4.51	4.57	4.20	7.34	6.65	6.17	7.38	6.55	6.31	5.23	5.08	5.38	7.30	6.36	4.30	6.08	9.74	3.48	5.65	2.25	4.80	5.92	7.23	3.51	2.75	3.68	6.92	7.03	5.69	9.66	5.46	5.32	4.91	4.03	3.15	2.89	2.10	3.35	3.49	3.81	4.19	4.51	4.63	4.71	4.77	4.80	4.83	4.83	4.81	4.77	4.70	4.57	4.38	4.31	4.56	4.66	4.72	5.22	5.51	5.52	5.28	5.04	5.00	4.59	4.03	3.55	3.13	5.47	5.76	8.63	11.90	12.87	11.86	11.92	13.43	7.69	6.32	2.77	4.22	4.65	5.81	3.63	4.57	4.84	4.59	4.70	4.49	4.30	4.05	3.67	3.67	
4.73	6.88	5.75	4.01	3.78	4.40	4.69	4.04	4.87	8.23	5.47	3.06	3.07	4.31	5.14	5.32	4.92	5.01	4.59	3.22	3.12	6.98	7.65	10.63	11.65	6.99	6.52	5.97	4.75	5.65	5.30	4.18	4.73	7.91	6.10	4.25	5.46	5.05	5.06	4.93	4.82	6.88	7.88	7.19	3.95	6.76	10.07	5.74	5.67	4.81	5.67	6.34	10.02	6.47	1.58	4.46	6.97	8.04	4.50	5.50	6.20	6.26	7.02	5.64	3.83	2.66	2.54	3.59	3.75	3.87	4.12	4.47	4.62	4.70	4.76	4.79	4.82	4.84	4.83	4.81	4.77	4.69	4.54	4.38	4.61	4.92	4.95	5.14	5.27	5.27	5.10	4.88	4.71	4.53	4.32	3.91	3.36	2.97	4.99	6.69	10.88	11.23	10.77	11.23	12.29	8.54	5.69	3.43	3.10	4.28	5.94	2.73	2.09	2.19	2.22	2.12	4.43	4.54	4.25	4.17	4.17	
4.35	5.34	7.40	5.02	4.21	4.59	4.98	3.74	3.97	7.58	6.34	6.01	2.69	4.18	4.83	5.38	5.09	5.19	4.88	3.61	2.90	2.97	6.84	9.74	9.90	10.94	9.36	5.76	6.45	8.13	4.67	5.49	2.40	6.64	7.56	5.40	4.50	4.65	4.70	4.58	4.90	6.90	8.69	10.34	7.39	9.31	10.47	6.99	3.13	4.69	6.49	6.39	6.19	8.43	9.56	10.45	10.33	11.15	4.67	3.07	3.56	3.89	4.35	3.81	3.49	2.82	2.59	3.64	3.93	4.09	4.20	4.45	4.59	4.67	4.73	4.77	4.81	4.84	4.84	4.85	4.82	4.78	4.69	4.52	4.62	4.95	5.09	5.17	5.23	5.24	5.15	4.84	4.40	4.35	4.45	4.15	3.63	3.16	2.68	5.02	10.24	11.73	11.24	10.94	11.35	12.70	5.76	5.11	5.63	5.50	7.22	8.07	3.42	2.84	3.46	3.66	4.75	4.58	4.48	4.95	4.95	
3.83	4.80	6.44	3.89	4.49	5.48	5.39	4.20	5.08	5.71	6.84	3.02	3.79	4.39	5.08	5.75	5.18	5.41	5.12	4.42	3.25	2.34	3.10	7.26	8.67	8.91	9.41	8.34	6.94	7.81	8.00	6.44	4.42	4.15	5.33	5.34	4.77	4.76	4.68	4.79	7.11	8.57	7.72	5.38	4.10	4.55	9.57	9.91	10.48	6.81	4.52	3.70	5.42	6.43	7.36	8.81	7.81	10.21	11.08	7.61	6.60	6.00	3.47	2.86	1.91	1.88	2.77	3.83	4.00	4.26	4.36	4.45	4.52	4.60	4.67	4.73	4.78	4.82	4.84	4.86	4.84	4.82	4.81	4.66	4.63	4.83	5.02	5.21	5.23	5.26	5.34	4.93	4.31	4.26	4.48	4.26	3.80	3.23	2.79	5.22	9.62	11.24	11.23	7.85	7.49	9.84	4.70	4.65	4.48	3.65	4.23	8.32	6.78	4.75	4.42	5.04	4.93	4.47	4.73	5.56	5.56	
4.95	5.89	8.51	6.95	9.82	6.96	4.52	5.28	4.61	6.18	5.88	5.68	5.47	4.73	5.24	6.31	4.31	5.21	5.60	3.84	2.55	2.70	2.42	4.16	7.37	8.01	8.37	8.42	6.96	7.05	7.11	6.75	5.80	4.65	4.81	4.85	4.68	4.77	4.96	6.78	9.16	6.82	5.29	4.46	3.77	4.13	5.05	8.90	8.86	7.38	6.61	5.23	3.39	3.19	4.10	8.03	6.63	8.11	11.89	12.55	5.68	3.52	3.03	2.42	2.98	3.42	3.88	4.31	4.17	4.39	4.55	4.48	4.35	4.42	4.56	4.66	4.73	4.78	4.82	4.86	4.85	4.85	4.88	4.81	4.73	4.74	4.79	5.05	5.16	5.21	5.38	4.98	4.34	4.24	4.46	4.34	3.92	3.34	2.81	4.97	8.22	10.07	11.96	11.38	7.36	7.18	3.34	3.79	3.74	3.48	3.62	5.24	7.74	5.83	5.70	4.96	4.83	4.20	4.48	5.54	5.54	
3.05	3.82	4.93	4.69	4.61	7.07	7.91	6.12	5.36	4.19	4.94	5.31	5.46	4.89	4.85	6.83	4.88	5.33	4.21	2.25	3.23	3.92	2.49	3.25	4.84	5.58	6.76	7.01	7.09	7.43	6.07	5.58	5.20	4.98	4.66	4.36	4.37	5.04	7.37	9.45	7.18	5.93	5.65	4.73	3.75	3.55	4.35	8.25	8.02	6.13	7.60	6.48	4.35	3.15	3.87	4.83	6.07	4.04	9.68	11.75	10.49	8.36	5.95	5.25	5.29	5.34	5.33	4.78	4.52	4.56	4.75	4.68	4.27	4.15	4.37	4.56	4.67	4.75	4.80	4.84	4.85	4.86	4.89	4.90	4.89	4.89	4.78	4.80	4.96	5.15	5.28	4.96	4.41	4.21	4.39	4.39	4.02	3.50	2.89	2.67	7.12	8.84	10.63	13.13	13.34	6.07	5.16	4.21	3.95	4.14	3.68	4.43	5.56	6.10	5.85	5.14	4.85	4.43	4.17	4.92	4.92	
3.66	4.37	5.32	4.92	4.01	4.15	7.49	7.34	5.45	5.60	5.24	4.73	5.19	5.39	4.69	6.48	6.14	3.66	2.26	2.90	3.41	3.26	4.01	3.30	4.19	5.52	5.33	4.99	4.95	5.25	5.79	5.34	4.91	4.85	4.44	4.05	4.02	5.03	5.32	5.62	5.68	5.54	5.64	5.64	4.29	3.19	3.64	4.95	5.99	5.51	4.81	5.50	5.25	4.15	3.71	3.95	3.22	2.37	8.07	10.67	8.94	8.65	8.54	6.10	4.96	5.34	5.44	5.13	4.91	4.77	4.69	4.70	4.37	3.98	4.13	4.43	4.58	4.70	4.77	4.82	4.84	4.85	4.88	4.88	4.92	5.10	5.11	4.88	4.85	5.09	5.26	5.04	4.55	4.26	4.35	4.39	4.14	3.67	3.07	2.73	5.13	7.76	9.15	12.26	14.60	4.25	3.14	3.18	3.33	4.49	4.33	4.18	4.40	4.98	5.37	5.29	5.19	5.05	4.41	3.98	3.98	
4.02	5.87	6.62	5.69	3.96	2.94	5.35	7.45	6.03	5.39	5.29	4.46	5.41	5.66	4.32	5.76	7.98	7.33	5.87	4.17	4.78	5.25	5.23	4.72	4.69	5.13	5.09	4.96	5.06	5.03	5.24	5.06	4.81	4.47	3.60	4.15	4.54	5.11	5.78	5.58	5.57	5.48	5.73	6.08	5.14	3.53	3.45	4.31	5.10	5.20	4.72	4.78	5.35	5.24	4.26	4.07	3.44	2.35	3.37	9.01	8.18	7.27	7.95	6.66	5.76	5.43	5.51	5.44	5.43	5.27	4.54	4.21	4.23	3.89	3.90	4.25	4.48	4.62	4.72	4.79	4.83	4.84	4.86	4.81	4.82	5.10	5.32	5.18	5.00	4.99	5.22	5.21	4.66	4.35	4.37	4.37	4.23	3.82	3.26	2.83	4.96	7.23	8.48	11.55	14.64	4.20	4.90	5.50	2.92	4.94	5.16	4.68	4.22	4.30	4.74	5.48	5.66	4.86	4.53	3.81	3.81	
3.92	4.10	7.04	6.33	4.62	2.69	4.83	7.90	4.67	5.04	4.89	3.82	5.71	8.29	7.09	7.24	7.12	7.40	7.99	6.87	6.46	5.75	5.56	6.04	6.08	5.22	4.86	5.25	5.46	5.04	5.17	4.93	4.49	4.39	3.94	4.68	4.52	6.39	6.66	5.58	5.42	6.09	6.10	4.74	2.97	4.55	4.19	4.63	4.73	4.72	4.63	4.58	5.41	5.82	4.88	4.51	2.44	2.78	3.05	5.29	7.17	6.08	6.47	6.36	5.88	5.50	5.60	5.80	6.09	5.60	3.62	3.75	3.80	3.63	3.66	4.04	4.36	4.53	4.65	4.74	4.81	4.84	4.85	4.76	4.70	4.96	5.25	5.26	5.23	4.98	5.03	5.26	4.81	4.47	4.45	4.38	4.30	3.93	3.44	2.96	3.05	6.97	8.61	11.68	14.02	7.69	6.36	3.29	5.17	5.01	4.22	2.82	4.71	4.40	4.65	5.65	6.24	3.73	4.42	3.80	3.80	
4.41	4.12	5.01	9.53	4.72	3.12	4.45	9.16	5.86	4.70	5.28	5.16	5.47	5.66	5.14	5.20	5.21	5.27	5.44	5.49	5.35	5.21	5.57	6.52	7.20	5.24	4.52	5.41	4.88	4.58	4.94	2.75	4.60	4.35	5.07	5.84	5.39	6.52	7.08	5.71	5.01	6.74	3.49	5.56	5.13	4.73	5.37	5.02	5.09	4.80	4.80	4.66	6.23	5.36	1.90	3.86	4.25	3.75	3.75	4.52	5.20	5.20	5.34	5.39	5.51	5.47	5.69	6.29	7.04	5.48	3.02	2.34	3.54	3.25	3.38	3.84	4.22	4.42	4.56	4.67	4.76	4.82	4.83	4.74	4.62	4.78	5.13	5.20	5.27	5.18	4.98	5.11	4.90	4.60	4.50	4.45	4.40	4.01	3.60	3.11	4.63	6.81	8.54	12.31	8.10	5.00	5.15	6.15	3.83	1.07	5.37	5.41	4.78	4.32	4.55	7.15	7.44	3.75	4.47	3.85	3.85	
4.62	5.86	5.69	8.90	6.00	4.49	4.77	6.69	5.03	4.69	4.88	4.95	4.91	4.80	5.10	5.32	5.24	5.16	5.15	4.84	4.40	4.44	5.33	7.51	8.60	5.24	4.00	5.94	1.38	3.52	5.08	4.56	4.75	4.45	6.94	5.81	5.69	6.65	8.18	6.09	4.71	6.38	2.54	5.32	4.63	4.34	5.51	5.05	3.42	4.79	4.75	4.31	2.49	5.93	6.39	5.29	5.12	5.22	4.89	4.90	4.84	4.68	4.76	4.40	4.73	5.47	5.96	7.59	7.93	4.68	2.49	1.49	1.81	3.02	3.08	3.61	4.03	4.28	4.44	4.57	4.68	4.77	4.80	4.74	4.61	4.61	4.94	5.16	5.21	5.30	5.16	5.00	4.88	4.69	4.49	4.42	4.52	4.15	3.68	3.13	3.23	7.15	9.03	12.89	7.84	7.77	7.36	4.04	3.24	5.08	5.14	5.08	4.77	4.37	4.05	4.84	8.41	4.51	4.69	3.80	3.80	
6.98	8.14	8.05	8.82	9.35	8.75	6.78	6.52	5.51	4.94	5.51	5.30	4.58	4.65	5.32	5.64	5.52	5.42	5.37	4.47	4.09	4.44	6.64	8.66	8.30	5.97	2.34	5.17	3.90	5.36	5.44	5.17	4.57	4.84	6.78	5.74	6.43	5.87	7.58	7.27	4.60	5.25	3.12	5.45	4.65	4.34	6.61	5.49	3.95	4.11	2.63	3.89	4.48	4.61	5.20	5.35	5.16	5.39	5.53	5.01	4.04	4.25	3.99	2.51	3.99	5.80	7.59	8.23	8.57	4.10	2.21	1.51	2.25	3.16	2.99	3.35	3.74	4.10	4.31	4.47	4.58	4.67	4.76	4.74	4.67	4.56	4.70	5.06	5.21	5.24	5.21	5.03	4.88	4.75	4.51	4.32	4.46	4.25	3.71	3.06	3.05	6.73	9.10	13.20	5.85	5.01	8.14	10.21	5.55	3.49	2.90	4.82	4.91	4.93	4.26	4.26	7.71	4.94	5.27	4.19	4.19	
3.40	3.99	4.64	4.92	5.49	5.57	6.45	7.27	5.34	4.85	6.34	3.22	4.24	4.89	6.22	5.68	4.97	5.34	3.25	3.93	3.78	6.17	6.66	8.60	9.24	2.03	3.42	4.06	4.21	3.84	5.36	4.61	4.40	5.00	7.04	6.39	7.33	6.04	7.01	7.45	6.57	7.35	6.52	5.82	2.53	4.37	5.24	7.27	1.83	4.06	6.07	6.02	5.10	4.73	5.26	5.67	5.64	5.82	6.14	3.31	2.71	4.48	1.88	3.67	3.48	5.16	8.58	10.07	8.12	3.23	2.39	2.04	1.87	3.64	3.25	3.20	3.34	3.79	4.11	4.34	4.49	4.59	4.71	4.73	4.72	4.63	4.60	4.96	5.25	5.18	5.12	5.02	4.89	4.78	4.58	4.33	4.33	4.16	3.75	3.04	2.94	6.50	8.16	13.32	6.47	4.08	5.05	8.50	9.87	3.14	3.99	5.03	4.79	5.31	5.15	4.68	5.47	8.60	5.75	5.31	5.31	
3.96	4.19	4.55	5.04	5.89	5.35	5.28	6.97	5.47	4.37	7.05	4.69	4.46	5.11	7.11	5.87	4.61	5.01	3.44	3.54	3.21	6.62	8.28	8.22	6.89	5.36	5.27	5.20	5.53	6.08	5.46	4.55	4.57	4.73	7.63	7.45	8.73	8.91	6.16	5.17	4.80	6.75	8.65	6.40	5.66	4.44	7.01	9.12	7.06	5.13	5.09	5.39	5.14	4.90	5.26	5.68	6.96	7.18	3.86	1.83	3.14	3.10	3.96	3.67	3.58	4.49	5.12	10.82	3.41	3.66	3.00	2.84	1.99	2.31	3.69	3.24	3.05	3.41	3.83	4.17	4.42	4.58	4.68	4.71	4.72	4.67	4.60	4.97	5.36	5.17	5.03	5.01	4.92	4.80	4.62	4.46	4.35	4.07	3.75	3.08	2.73	4.58	7.70	13.50	7.76	4.70	4.20	5.19	8.67	10.85	6.96	5.71	4.61	4.84	5.32	5.20	7.63	6.41	7.41	10.57	10.57	
4.83	4.48	4.28	6.37	6.95	5.63	4.56	6.16	4.65	4.79	5.23	5.00	4.49	5.34	7.12	6.53	4.57	3.70	3.53	3.53	3.10	4.38	9.76	6.94	5.22	5.30	5.17	4.91	5.17	6.08	5.32	4.33	5.07	5.94	4.55	7.43	6.02	5.37	5.31	5.17	4.48	4.30	4.70	7.89	7.73	4.55	6.01	6.73	7.12	6.93	5.64	5.46	5.32	5.10	5.29	5.50	7.61	6.77	2.25	1.44	3.53	2.18	4.25	3.56	3.70	4.74	7.10	10.20	3.68	3.63	2.25	1.43	2.74	3.08	3.04	3.44	2.88	3.15	3.60	3.95	4.32	4.53	4.66	4.72	4.71	4.67	4.50	4.91	5.53	5.24	5.02	5.04	4.97	4.85	4.61	4.56	4.43	4.09	3.79	3.20	2.67	4.39	6.90	12.34	9.03	6.44	4.08	3.86	4.92	8.42	9.73	5.79	4.84	7.51	4.70	7.81	8.03	6.63	5.77	10.75	10.75	
4.75	4.43	4.10	7.50	8.17	5.25	5.04	5.98	5.32	4.50	5.28	4.49	4.28	6.55	8.97	6.63	2.33	3.32	4.03	3.79	3.45	6.31	10.21	5.47	5.59	5.03	5.07	5.06	5.19	5.92	5.18	3.83	4.93	7.48	5.36	8.97	6.16	5.08	5.24	5.52	4.87	4.23	3.57	4.13	7.76	5.38	4.61	4.75	5.41	5.35	4.99	5.19	5.53	5.59	6.11	7.03	8.20	2.32	2.00	3.34	2.09	4.11	3.98	2.57	3.31	4.35	9.11	11.61	3.73	3.31	1.99	3.11	3.65	3.18	2.74	2.53	2.93	3.06	3.51	3.77	4.21	4.49	4.63	4.73	4.72	4.69	4.38	4.66	5.55	5.36	5.10	5.13	5.04	4.94	4.64	4.59	4.47	4.19	3.93	3.41	2.83	4.87	6.47	9.97	14.29	5.96	4.91	3.26	3.83	4.83	8.75	8.71	5.33	3.94	4.16	8.15	5.47	5.59	6.04	6.66	6.66	
5.04	4.75	5.33	7.31	3.37	5.65	5.96	6.74	5.29	5.49	4.79	4.26	4.43	6.55	9.98	6.25	5.50	5.34	5.07	4.01	3.84	6.92	10.46	4.94	4.40	4.84	5.04	5.43	5.36	5.92	5.29	3.69	4.34	5.63	7.11	7.97	6.24	4.96	5.37	5.24	5.42	4.90	4.13	3.51	4.75	5.71	5.16	4.96	5.53	5.00	4.06	4.98	5.56	6.85	6.75	7.49	8.16	2.42	1.58	1.61	5.34	4.32	2.96	3.80	3.57	2.96	4.34	10.22	3.56	3.13	2.69	3.66	3.33	2.36	1.66	1.69	3.28	3.12	3.45	3.69	4.12	4.45	4.59	4.71	4.72	4.72	4.38	4.46	5.33	5.37	5.16	5.16	5.08	5.03	4.73	4.63	4.50	4.27	4.06	3.66	3.15	5.10	4.94	8.54	13.49	5.91	5.80	3.75	3.19	3.71	5.13	9.26	5.81	4.11	4.36	4.97	5.20	5.40	6.11	6.65	6.65	
4.56	5.80	5.97	9.61	5.75	5.78	9.44	9.85	6.91	5.64	4.64	4.21	5.71	6.63	8.52	5.30	5.46	5.21	4.75	4.19	4.35	7.21	5.57	4.66	5.27	4.42	4.55	5.57	5.76	6.14	5.53	4.25	4.68	5.12	7.09	10.36	3.19	3.73	5.64	3.90	2.96	5.60	3.25	4.51	3.78	4.55	5.05	5.82	6.28	2.93	3.50	4.69	6.99	6.86	7.19	7.67	6.04	2.51	2.25	2.44	5.32	2.10	3.92	4.17	4.72	4.12	5.92	9.60	2.66	2.60	2.52	4.59	3.79	2.16	1.59	2.07	2.14	3.31	3.40	3.64	4.07	4.41	4.55	4.67	4.71	4.71	4.48	4.43	5.02	5.27	5.17	5.13	5.08	5.06	4.85	4.71	4.58	4.31	4.13	3.86	3.52	3.26	4.94	8.33	12.18	7.34	6.07	4.39	3.40	2.96	4.26	9.00	5.81	4.49	4.11	4.68	5.67	5.47	6.38	6.70	6.70	
4.04	7.24	6.07	6.68	5.77	4.55	4.94	7.76	7.44	6.41	5.22	4.46	4.65	7.00	7.03	2.92	3.86	4.80	4.49	4.55	5.82	8.56	4.91	3.58	3.59	4.28	3.76	5.12	6.04	7.24	5.80	5.00	5.56	6.59	6.76	5.86	5.82	5.68	6.25	6.51	6.27	6.34	6.39	5.02	4.86	4.40	4.60	7.65	6.38	5.10	3.36	4.04	7.20	8.56	7.86	5.32	9.06	5.70	2.94	3.18	2.43	2.91	4.34	4.86	4.57	3.74	6.54	7.97	6.47	6.17	8.97	7.40	3.97	2.77	2.10	2.10	2.47	3.54	3.46	3.62	4.04	4.39	4.54	4.65	4.70	4.70	4.59	4.46	4.74	5.14	5.20	5.13	5.07	4.99	4.89	4.82	4.69	4.41	4.17	3.94	3.66	3.64	5.17	8.67	11.58	6.44	5.98	4.98	3.82	2.87	2.97	5.21	7.36	4.82	4.33	4.80	5.01	5.47	7.89	7.40	7.40	
5.28	5.30	4.71	5.62	5.89	5.19	4.87	5.35	6.16	6.30	5.87	5.00	4.60	8.87	3.24	5.60	4.93	3.76	4.61	5.16	6.25	9.28	3.57	4.28	4.23	4.38	3.37	4.01	5.44	8.50	5.84	5.37	6.22	6.51	5.74	5.84	4.20	4.71	4.79	5.25	5.45	5.39	5.30	5.16	4.81	4.80	4.47	4.90	6.43	5.34	3.48	3.93	4.57	9.25	6.14	4.44	7.66	10.08	7.66	5.04	2.70	3.08	5.49	6.64	5.56	5.24	7.93	6.54	4.96	6.38	4.93	9.24	6.09	4.23	3.31	2.75	2.90	3.78	3.58	3.58	3.95	4.35	4.53	4.65	4.71	4.72	4.70	4.55	4.58	4.95	5.19	5.21	5.10	4.92	4.82	4.82	4.74	4.51	4.25	3.97	3.52	5.11	6.89	9.57	12.56	4.33	3.83	2.80	4.82	3.60	2.91	3.98	5.37	4.69	4.34	4.91	5.36	5.41	9.26	11.08	11.08	
4.67	4.63	4.86	5.67	6.03	5.82	5.14	4.75	5.30	5.44	5.85	5.36	4.82	5.91	7.01	7.60	8.43	6.04	5.38	5.94	7.04	10.35	4.78	4.14	5.25	4.72	3.75	3.30	4.40	9.29	7.65	5.33	7.70	6.69	6.30	5.20	3.73	4.99	4.80	4.92	5.10	5.52	5.24	4.68	4.59	5.00	5.04	5.65	6.60	5.33	3.22	4.34	6.06	7.45	4.66	3.43	5.50	8.12	9.67	10.08	9.92	8.01	8.02	8.01	5.15	8.47	5.98	5.82	5.92	4.42	3.76	5.02	10.41	7.98	5.92	4.21	3.68	4.13	3.81	3.66	3.85	4.29	4.53	4.64	4.71	4.74	4.75	4.64	4.57	4.73	5.03	5.28	5.20	4.89	4.73	4.73	4.69	4.50	4.34	4.06	3.48	4.82	6.88	10.56	13.84	7.44	5.64	5.02	4.27	4.15	3.57	3.60	4.25	4.71	4.19	5.16	5.38	8.51	11.06	10.25	10.25	
4.19	4.69	5.29	6.51	6.86	6.28	4.27	4.64	5.93	5.17	6.15	4.50	5.60	5.40	5.48	5.62	6.35	6.94	7.04	5.65	6.60	9.30	6.81	4.95	5.59	5.30	4.73	3.54	3.68	5.04	5.07	7.59	10.49	8.11	9.04	5.27	6.45	5.79	5.53	5.33	5.31	5.23	3.89	5.05	4.26	4.81	5.75	5.23	6.07	5.37	3.81	4.78	6.49	8.02	6.52	4.60	4.52	3.74	7.44	8.34	9.43	8.58	5.31	4.65	4.57	4.72	5.89	6.96	4.71	5.15	3.94	3.92	6.38	7.65	7.11	5.88	4.47	2.95	4.12	3.85	3.95	4.27	4.52	4.63	4.70	4.73	4.76	4.71	4.63	4.59	4.81	5.27	5.30	4.93	4.70	4.65	4.63	4.42	4.30	4.08	3.56	4.66	6.58	10.41	13.84	7.94	6.56	5.84	5.18	4.19	4.25	3.87	3.43	3.27	3.63	4.96	8.39	9.57	10.39	6.70	6.70	
3.54	6.36	6.50	7.07	10.29	4.39	4.69	4.34	8.48	5.14	5.67	5.96	4.36	3.89	4.35	4.00	4.56	4.69	5.52	6.57	5.15	6.51	7.19	7.01	6.13	6.60	5.45	4.40	3.82	4.66	4.64	7.81	9.73	7.28	5.97	7.13	5.67	2.60	2.57	2.34	4.37	4.19	3.68	4.66	3.32	4.96	7.83	8.04	6.45	5.85	4.87	5.24	7.78	4.98	5.40	5.76	4.32	3.46	4.43	5.10	9.42	9.95	6.00	4.97	4.38	4.98	6.07	6.52	6.30	4.67	3.31	3.71	5.68	6.49	5.51	6.19	4.53	3.90	4.69	4.06	4.07	4.32	4.49	4.61	4.67	4.72	4.75	4.74	4.71	4.55	4.67	5.22	5.44	5.11	4.72	4.58	4.62	4.38	4.17	3.92	3.40	4.90	6.85	10.10	13.68	4.80	4.33	3.41	5.41	4.78	4.81	4.12	3.32	2.64	2.88	4.60	4.86	9.49	10.50	6.54	6.54	
3.38	4.02	6.72	6.98	10.90	5.31	5.23	5.94	6.06	3.48	5.14	7.38	5.38	5.07	5.98	5.95	5.11	4.72	5.16	5.68	5.66	5.13	4.87	5.27	5.29	5.11	5.32	4.69	4.23	4.77	4.55	8.28	8.01	5.86	4.73	10.56	8.92	8.00	8.24	7.67	8.63	8.11	10.00	7.49	6.17	5.06	3.90	8.12	9.37	8.12	9.24	9.40	7.79	5.75	5.35	4.76	4.70	3.93	3.40	4.25	8.30	9.30	7.78	5.36	5.29	5.49	6.54	6.61	3.29	2.35	4.71	2.65	4.76	6.93	5.44	4.85	5.55	5.68	4.66	4.47	4.10	4.26	4.41	4.56	4.64	4.69	4.74	4.75	4.72	4.51	4.51	5.04	5.46	5.38	4.87	4.54	4.61	4.46	4.15	3.82	3.21	2.86	6.83	9.31	12.83	13.47	4.99	4.26	4.31	5.57	5.13	2.67	3.12	2.67	2.48	3.05	4.57	5.79	10.30	6.64	6.64	
4.34	5.31	4.09	4.51	9.76	10.27	5.12	3.37	3.31	4.01	4.42	5.16	5.52	5.13	5.16	5.60	5.50	5.32	5.32	5.38	5.94	5.63	4.38	4.37	4.69	4.39	4.48	4.33	4.10	4.77	4.67	8.44	6.90	4.72	7.10	7.44	7.10	7.25	7.31	5.65	7.05	4.95	8.58	6.69	5.44	5.39	3.78	4.28	7.47	4.95	8.03	7.99	6.54	6.24	5.25	4.96	5.30	4.85	3.53	2.97	3.54	5.20	7.29	5.27	5.39	5.63	10.80	4.07	4.18	6.14	4.86	4.72	1.30	4.23	5.79	5.23	5.07	5.03	5.29	4.81	4.20	4.05	4.21	4.45	4.59	4.65	4.71	4.74	4.71	4.51	4.37	4.71	5.21	5.42	5.06	4.59	4.60	4.55	4.23	3.88	3.27	2.65	4.97	8.66	11.27	13.12	12.45	7.83	7.83	5.84	4.20	2.64	4.02	3.32	2.64	2.76	3.08	5.53	9.89	6.70	6.70	
4.77	4.88	4.55	7.44	6.75	7.12	6.73	5.28	5.06	5.15	4.70	4.98	5.27	5.21	5.36	5.60	5.36	5.76	5.77	4.88	5.86	5.37	4.69	4.44	4.60	3.96	3.91	4.57	4.12	4.42	4.55	5.40	7.09	5.01	4.73	5.34	5.30	5.01	5.01	5.57	5.53	4.75	8.43	6.72	5.39	5.31	4.49	4.05	4.75	4.76	5.37	7.68	5.92	5.25	5.10	5.39	6.09	5.68	3.78	3.09	3.26	3.94	4.13	3.81	4.98	8.61	8.83	9.95	9.80	6.55	5.08	4.67	4.05	4.10	5.01	5.81	5.46	4.86	4.79	4.72	4.34	3.93	3.95	4.26	4.51	4.60	4.66	4.71	4.69	4.58	4.38	4.49	4.97	5.28	5.05	4.63	4.62	4.63	4.32	3.99	3.50	2.72	4.92	7.99	9.82	11.20	12.53	12.50	13.16	13.21	4.22	3.87	2.88	3.27	3.19	2.83	2.99	4.23	10.21	6.64	6.64	
4.03	6.14	5.34	8.23	8.55	8.17	3.68	4.74	5.16	5.01	4.91	5.04	5.26	5.26	5.53	5.69	5.25	6.47	4.30	4.76	6.45	4.23	2.97	2.66	2.66	4.12	3.98	4.26	4.43	4.34	4.42	5.09	5.65	5.15	4.90	5.20	5.38	4.99	4.31	4.80	5.46	4.86	5.27	5.93	5.44	5.14	4.92	4.61	4.41	4.06	4.98	5.80	5.36	5.02	5.08	5.80	6.43	3.62	4.25	3.85	3.61	3.48	3.29	3.26	4.65	4.82	4.84	7.28	8.28	8.13	7.34	6.12	6.10	5.50	5.24	5.68	5.85	5.21	4.57	4.39	4.32	4.00	3.77	4.05	4.41	4.55	4.63	4.67	4.67	4.63	4.44	4.39	4.80	5.20	5.00	4.64	4.69	4.73	4.45	4.16	3.78	3.02	2.54	5.59	8.05	8.80	10.16	11.19	12.03	13.12	11.28	4.90	3.22	3.82	3.83	3.16	3.14	4.14	9.55	6.38	6.38	
5.41	3.50	6.49	9.60	12.09	5.19	3.91	3.73	4.94	4.78	4.90	5.04	5.30	5.31	5.57	5.84	5.46	6.96	4.70	4.55	7.71	3.33	4.04	5.21	5.17	4.42	4.15	4.77	4.93	4.48	4.45	4.78	5.01	4.96	4.94	5.21	5.91	5.91	4.55	4.31	4.91	4.77	4.85	5.44	5.35	5.00	5.08	5.27	4.89	4.06	4.87	5.46	4.64	4.93	5.68	7.67	6.71	3.25	4.77	4.72	4.18	2.89	3.33	3.62	4.03	4.38	4.42	4.49	4.91	5.28	5.28	5.35	5.46	5.34	5.33	5.80	6.11	4.89	3.19	2.15	4.09	4.06	3.75	3.85	4.28	4.51	4.60	4.65	4.66	4.64	4.52	4.35	4.54	5.01	4.94	4.58	4.68	4.83	4.62	4.36	4.10	3.52	2.97	3.11	5.66	5.95	8.26	9.60	10.63	11.55	13.65	7.53	4.88	4.92	3.81	3.65	3.45	4.13	9.06	7.11	7.11	
3.33	3.41	3.34	3.84	9.58	8.33	5.05	3.10	2.20	4.87	5.00	5.21	5.37	5.60	6.42	6.86	8.37	7.26	4.13	3.22	4.67	4.59	4.02	4.94	5.35	4.17	3.85	5.52	5.97	4.88	4.56	4.71	4.57	4.67	4.87	5.16	5.82	6.39	5.47	4.76	4.67	4.68	4.85	5.64	5.74	5.03	5.09	5.44	5.55	4.65	5.05	5.31	4.32	4.39	5.56	8.98	5.22	3.65	4.25	3.92	2.18	3.29	4.12	4.59	4.21	4.54	4.98	4.50	4.31	4.51	4.66	4.97	5.17	5.10	5.12	6.09	6.80	4.00	2.12	2.05	3.83	3.94	3.77	3.75	4.16	4.46	4.56	4.62	4.63	4.62	4.58	4.44	4.41	4.70	4.76	4.46	4.51	4.80	4.75	4.57	4.42	4.04	3.59	3.36	3.44	5.90	6.17	8.50	9.42	10.21	11.83	11.99	7.69	5.22	4.78	4.35	3.97	4.32	5.03	5.55	5.55	
4.49	4.35	3.70	3.64	4.68	7.66	7.90	6.20	5.64	4.98	6.25	5.38	5.59	5.14	4.91	5.23	6.14	11.04	7.35	1.82	2.61	5.12	4.70	5.06	2.69	4.00	4.32	5.57	7.76	6.14	5.03	4.84	4.45	4.63	4.95	4.81	5.33	6.11	5.94	5.23	4.62	4.49	4.75	5.88	5.85	5.14	4.83	5.19	5.48	5.10	4.84	4.64	4.04	3.85	4.90	10.26	3.20	3.31	5.02	4.98	5.62	4.47	4.84	5.43	4.59	5.06	5.56	4.40	3.97	3.97	4.32	4.79	4.90	4.80	5.10	6.96	6.97	3.84	2.06	1.28	1.97	3.88	3.72	3.72	4.09	4.41	4.50	4.56	4.59	4.60	4.58	4.55	4.52	4.56	4.60	4.39	4.31	4.53	4.63	4.66	4.65	4.42	4.11	3.82	3.65	3.52	5.80	5.97	7.97	9.27	10.15	10.94	9.63	7.26	5.59	4.96	4.49	4.60	4.95	5.23	5.23	
5.04	5.31	4.38	4.17	3.88	5.38	10.24	5.51	4.90	4.70	4.35	5.19	7.59	5.24	4.52	4.93	5.65	8.00	4.31	3.24	3.79	3.57	4.90	5.28	2.67	3.48	3.07	4.51	9.58	6.36	3.46	5.03	4.90	4.89	5.13	5.02	5.29	6.04	6.24	5.47	4.47	4.39	4.89	7.92	5.78	4.73	4.68	5.49	5.91	5.60	5.14	4.25	3.83	3.84	7.49	10.41	4.45	5.04	5.15	5.71	5.59	4.63	4.80	6.07	5.51	6.10	5.47	3.53	2.06	3.07	3.89	4.77	4.69	4.74	5.83	7.44	6.49	2.91	2.25	1.73	2.56	2.42	3.77	3.71	4.07	4.32	4.41	4.47	4.51	4.54	4.56	4.57	4.59	4.58	4.56	4.44	4.31	4.30	4.30	4.45	4.60	4.57	4.47	4.25	3.96	3.77	3.69	3.58	6.04	6.80	9.59	10.22	9.85	7.04	5.90	5.23	4.82	4.84	4.95	5.04	5.04	
4.27	6.32	6.20	5.13	4.57	6.27	6.99	4.61	5.07	4.28	3.78	4.82	6.03	5.50	5.94	4.70	6.51	10.87	8.43	5.93	4.28	4.27	5.14	3.69	2.69	3.27	3.93	4.33	9.38	10.17	4.66	5.02	4.94	5.15	5.34	5.04	5.05	6.10	6.19	5.38	4.22	4.70	5.56	5.73	5.40	4.38	4.71	6.13	6.71	6.23	4.52	4.61	3.77	3.67	7.40	8.68	3.35	4.82	4.70	4.90	4.59	4.64	4.16	5.16	8.16	8.11	2.85	3.37	4.64	3.45	4.30	5.92	5.49	4.65	5.58	7.60	1.78	3.57	3.45	3.07	3.48	3.21	4.10	3.85	3.99	4.11	4.21	4.31	4.39	4.45	4.49	4.52	4.55	4.56	4.54	4.50	4.44	4.35	4.17	4.20	4.32	4.37	4.55	4.59	4.31	4.11	4.03	3.80	3.65	6.62	9.19	10.20	9.36	6.81	6.11	5.44	5.10	5.07	5.01	4.96	4.96	
5.69	8.61	10.24	10.70	10.27	6.36	3.79	5.40	4.35	4.73	3.62	4.14	5.94	5.78	3.99	4.17	6.89	10.22	13.27	4.95	2.91	3.99	4.81	3.45	3.81	3.23	2.43	2.77	9.90	9.94	6.61	5.46	5.14	5.47	5.77	5.14	4.54	8.33	4.87	5.28	4.20	5.11	7.72	3.73	4.75	4.26	4.47	5.76	9.05	6.53	4.58	4.85	3.86	3.52	5.13	6.86	3.61	4.89	4.62	4.69	5.36	5.36	3.87	3.77	5.17	9.05	4.30	5.41	4.85	1.74	4.74	6.73	6.81	4.76	4.83	2.15	5.56	6.18	5.78	4.85	4.62	4.12	4.80	4.40	4.09	3.78	3.82	4.03	4.18	4.29	4.37	4.44	4.49	4.52	4.52	4.52	4.50	4.47	4.31	4.24	4.20	4.12	4.29	4.58	4.55	4.42	4.33	4.11	3.88	6.44	7.14	9.63	9.44	6.26	6.05	5.60	5.29	5.28	5.14	4.98	4.98	
2.38	7.66	8.62	8.33	9.53	9.70	9.87	8.67	6.63	4.76	4.32	3.55	5.67	5.02	4.04	4.06	7.07	9.50	12.11	4.76	3.02	2.13	5.52	5.60	4.83	3.68	2.57	2.54	5.64	6.92	6.35	5.64	5.55	5.80	6.18	5.64	4.72	5.32	5.52	5.18	4.37	5.28	8.51	5.60	4.17	4.08	4.44	5.14	8.75	9.13	4.68	3.83	4.06	3.45	6.90	5.35	3.75	4.81	4.45	4.88	5.80	5.25	4.52	3.63	4.61	8.65	4.43	5.35	2.23	3.20	4.21	4.91	8.20	3.11	1.78	4.43	4.48	4.96	5.19	5.44	5.57	5.61	5.60	5.18	4.28	3.68	3.67	3.79	3.83	4.02	4.20	4.31	4.39	4.45	4.48	4.51	4.53	4.54	4.51	4.45	4.34	4.18	4.15	4.27	4.44	4.60	4.61	4.37	4.19	4.18	6.85	7.78	8.13	6.04	5.89	5.61	5.34	5.36	5.35	5.29	5.29	
2.18	6.93	4.98	4.60	6.95	7.14	7.62	8.47	8.52	10.05	5.34	3.77	5.55	5.16	4.25	4.63	5.81	5.15	6.08	9.09	7.07	6.39	6.42	6.64	5.66	4.48	3.49	3.62	6.21	5.76	5.01	5.02	5.72	5.77	7.68	5.99	5.32	5.11	5.02	4.94	4.80	5.51	4.94	5.25	3.91	3.97	4.62	7.62	8.06	11.00	7.15	5.09	4.65	4.26	5.32	2.86	4.06	4.92	4.41	4.82	6.06	5.39	4.82	3.74	4.33	8.41	4.22	1.16	3.30	3.74	4.55	5.92	7.56	5.41	5.33	5.64	5.27	4.89	4.83	5.20	5.33	5.46	6.00	4.81	2.82	3.98	4.09	3.79	3.41	3.61	3.94	4.12	4.26	4.36	4.42	4.49	4.53	4.57	4.58	4.56	4.49	4.38	4.28	4.18	4.17	4.44	4.74	4.63	4.43	4.44	4.47	7.52	8.17	7.66	5.84	5.65	5.40	5.22	5.34	6.29	6.29	
3.06	3.85	4.85	4.83	4.80	4.71	5.09	5.24	5.36	8.51	5.73	4.56	5.67	5.97	4.40	5.07	7.51	6.23	6.30	4.13	4.58	5.02	4.31	5.24	5.60	5.01	4.50	5.24	5.31	5.42	4.40	4.50	7.45	7.57	7.21	5.98	4.10	4.97	4.63	4.95	5.33	6.03	3.74	4.55	3.84	4.05	4.71	4.94	4.97	8.37	10.72	6.48	5.66	3.83	5.03	5.76	5.07	5.28	1.55	4.67	7.48	5.38	5.38	4.06	4.20	7.42	2.74	5.34	1.11	4.55	5.04	9.35	8.44	7.30	6.30	6.43	5.79	5.82	5.41	5.20	5.17	5.30	6.74	2.38	3.57	5.07	3.95	4.07	3.22	3.17	3.48	3.79	4.04	4.22	4.33	4.43	4.50	4.55	4.58	4.58	4.55	4.50	4.44	4.32	4.14	4.15	4.49	4.75	4.66	4.54	4.52	7.33	7.96	7.64	8.21	5.90	5.60	5.24	5.27	6.68	6.68	
4.55	4.90	5.27	5.38	4.93	4.25	4.18	4.27	4.50	5.38	5.14	4.70	8.14	5.61	4.53	4.97	8.43	7.43	2.47	2.86	3.50	3.69	3.54	4.10	5.03	5.03	5.15	7.02	5.63	6.15	4.92	3.95	8.19	9.02	6.38	5.97	5.36	4.65	4.94	5.39	7.03	6.38	3.61	4.10	3.91	4.30	7.27	7.46	7.28	7.30	9.29	10.45	5.18	4.84	4.11	5.34	5.33	5.19	5.03	4.88	5.53	6.37	5.70	4.60	5.26	7.77	3.42	4.85	5.78	7.16	7.97	7.11	7.30	7.19	5.61	5.19	5.24	5.29	5.08	5.08	5.36	6.49	3.36	4.49	5.36	6.57	5.03	3.56	3.39	2.99	3.04	3.29	3.68	4.01	4.20	4.34	4.44	4.49	4.53	4.56	4.55	4.53	4.50	4.45	4.32	4.16	4.18	4.56	4.86	4.66	4.46	4.84	7.83	7.07	7.70	8.82	5.94	5.67	5.66	5.53	5.53	
5.08	6.73	6.48	5.66	4.37	4.22	4.01	4.07	4.35	4.63	4.39	4.44	4.98	4.71	7.40	8.70	10.92	8.60	4.23	3.13	3.06	3.54	3.62	4.15	4.89	5.08	7.13	7.62	6.84	7.66	4.32	4.41	4.30	5.49	6.56	5.99	5.11	4.53	5.22	7.06	7.07	3.86	5.26	3.97	4.06	4.84	5.13	4.54	7.58	9.89	8.14	8.27	5.11	2.27	3.64	4.90	4.71	4.85	5.28	5.50	6.17	5.73	4.33	5.09	6.01	1.74	3.87	4.69	5.46	5.78	6.20	5.03	5.48	5.90	5.63	5.38	5.48	5.30	4.62	4.61	6.47	6.08	3.05	4.46	4.82	7.27	6.43	4.17	2.94	3.12	2.84	2.80	3.16	3.68	3.99	4.19	4.32	4.40	4.46	4.50	4.52	4.52	4.51	4.49	4.43	4.34	4.14	4.29	4.87	4.91	4.45	4.73	7.81	4.95	7.20	9.69	10.02	9.86	10.28	5.92	5.92	
4.17	7.48	8.25	5.46	3.51	3.29	4.49	4.06	4.90	4.93	4.38	4.82	4.47	3.62	4.02	4.97	10.55	8.76	4.17	2.93	3.21	3.80	3.92	4.58	5.52	5.37	7.61	7.49	5.97	6.83	5.83	4.52	4.69	5.06	5.92	5.63	4.81	4.57	5.14	7.75	2.69	4.30	4.97	4.07	4.15	5.20	6.64	4.99	6.28	4.64	6.98	7.12	6.48	5.21	4.43	5.18	4.60	4.55	5.26	6.70	8.09	4.16	3.49	4.40	5.17	3.45	3.70	4.66	5.83	4.74	4.68	4.98	5.24	5.48	5.28	5.23	5.66	5.47	4.48	4.11	7.41	2.56	4.83	4.77	4.68	6.78	8.58	5.14	3.54	2.67	1.86	2.70	2.77	3.22	3.66	3.98	4.17	4.27	4.33	4.40	4.44	4.47	4.49	4.49	4.47	4.43	4.23	4.13	4.65	5.03	4.60	4.61	7.59	7.07	7.09	7.79	9.80	9.44	5.82	6.14	6.14	
3.00	6.85	10.95	5.08	2.47	2.81	1.89	4.32	6.47	4.55	4.74	5.34	3.49	3.47	3.52	4.71	10.58	8.41	4.43	3.39	3.61	3.40	3.80	5.11	7.72	7.86	8.26	7.91	6.38	6.25	6.15	4.56	4.99	5.05	5.58	4.85	4.42	4.88	5.32	8.48	4.49	4.30	4.64	4.19	4.19	4.73	9.39	5.87	5.04	5.70	4.74	5.92	6.46	6.38	6.48	5.51	4.74	4.16	4.57	9.55	9.13	9.37	8.59	9.33	9.37	5.88	4.61	4.59	4.51	4.76	5.01	5.32	5.07	5.06	5.04	4.90	6.10	6.17	4.98	4.68	0.89	4.98	5.10	4.90	4.92	6.02	9.47	4.90	3.40	2.42	2.02	1.92	2.82	2.96	3.35	3.70	3.92	4.05	4.15	4.23	4.30	4.37	4.42	4.45	4.47	4.44	4.31	4.06	4.29	4.86	4.75	4.59	4.89	4.87	7.13	7.59	9.67	5.57	7.48	7.43	7.43	
2.74	5.84	8.25	5.74	4.81	5.07	5.08	4.51	5.33	4.26	5.44	4.51	5.13	4.07	3.34	4.48	8.80	6.50	4.75	3.68	3.56	3.20	3.37	4.94	8.74	9.72	10.43	10.87	8.97	7.53	4.94	3.62	2.84	5.36	5.57	4.44	4.12	5.12	5.91	5.65	4.41	4.99	4.37	4.40	4.74	4.57	7.83	10.02	8.24	5.23	7.08	5.79	3.58	4.54	6.12	6.48	5.60	4.17	7.16	6.98	7.01	7.46	7.40	7.66	8.73	7.81	5.98	4.94	4.72	5.05	5.64	6.04	5.33	4.61	4.73	4.78	6.56	7.19	4.41	3.40	5.28	5.27	4.95	4.74	5.38	7.56	7.86	3.43	2.75	2.29	2.51	1.99	1.90	3.45	3.44	3.50	3.58	3.67	3.82	3.97	4.09	4.20	4.29	4.37	4.42	4.43	4.39	4.19	4.14	4.60	4.77	4.66	4.71	4.73	7.01	7.48	9.62	5.92	5.63	9.35	9.35	
3.12	5.91	7.15	9.79	6.38	5.93	2.89	5.33	5.56	5.03	6.59	3.51	5.26	4.74	3.44	4.43	8.57	4.84	4.67	3.90	3.49	3.13	3.20	4.69	8.20	9.87	10.24	10.97	11.56	9.12	5.60	4.01	3.49	5.49	5.58	4.33	3.91	5.06	8.26	4.29	4.18	4.67	4.23	4.40	5.11	6.73	6.56	7.26	9.05	6.11	5.47	3.97	3.96	4.05	4.43	4.68	4.79	4.52	4.61	4.80	4.77	5.01	7.37	7.34	7.34	7.35	5.99	5.25	5.00	5.36	6.21	6.92	5.74	4.72	4.86	5.38	6.08	9.30	6.11	5.67	5.40	5.35	5.05	4.91	5.39	8.07	5.88	2.65	2.37	1.88	2.96	3.63	3.08	3.20	4.09	3.61	3.45	3.31	3.39	3.56	3.72	3.91	4.10	4.24	4.34	4.39	4.41	4.31	4.18	4.42	4.69	4.70	4.63	4.61	7.09	7.50	9.92	6.19	7.71	5.91	5.91	
3.71	6.39	5.24	5.33	9.44	6.77	6.06	6.04	4.15	5.06	4.63	5.52	5.41	3.60	3.77	4.51	10.16	5.37	4.82	4.17	3.50	2.96	3.19	4.90	8.48	9.33	9.54	9.93	11.42	12.67	4.51	4.76	5.46	5.64	5.43	4.13	3.97	5.19	8.29	4.20	5.29	4.39	4.16	4.27	4.70	8.00	9.36	8.17	9.01	9.50	3.01	4.06	4.39	4.72	4.54	4.34	4.43	4.48	4.60	4.68	4.61	4.70	5.03	5.32	5.35	5.35	5.19	4.87	4.87	5.73	6.22	8.11	7.58	5.70	5.01	4.93	1.86	5.46	5.90	5.26	5.14	5.11	5.01	6.23	7.35	8.56	2.94	1.96	2.65	4.47	5.39	5.55	3.65	5.17	4.25	3.23	2.99	3.26	3.08	3.24	3.30	3.45	3.80	4.08	4.24	4.34	4.39	4.37	4.22	4.30	4.57	4.69	4.57	4.43	7.04	7.49	8.24	8.05	6.17	6.44	6.44	
4.30	6.68	5.36	4.09	5.06	6.02	7.84	6.69	6.04	6.88	6.63	5.14	5.19	5.51	4.06	4.40	10.32	4.70	3.40	3.03	2.87	2.60	2.86	5.20	8.86	8.72	8.86	9.60	11.49	10.06	7.69	5.59	6.33	6.31	5.53	4.04	4.03	7.30	6.14	4.79	5.09	4.33	4.23	4.88	4.95	4.33	4.64	5.37	7.45	8.89	5.23	4.17	4.85	4.75	4.76	4.61	4.59	4.54	4.49	4.59	4.61	4.63	4.86	5.04	4.96	4.72	4.54	4.44	4.44	5.45	8.36	7.87	8.50	7.58	4.16	3.56	4.49	4.71	5.07	4.96	4.82	4.88	6.00	6.41	8.14	10.42	4.68	5.42	5.63	5.71	5.57	3.49	5.74	6.13	4.42	2.90	3.09	2.71	3.01	3.06	2.97	3.07	3.40	3.80	4.10	4.27	4.36	4.40	4.31	4.24	4.42	4.65	4.65	4.43	4.32	7.11	8.03	8.29	9.86	10.47	10.47	
4.81	5.79	4.65	4.24	3.98	4.63	7.71	10.46	6.24	5.68	7.46	6.64	4.36	4.52	3.35	3.93	9.21	4.12	3.67	2.37	2.64	2.43	2.50	5.11	9.01	8.40	8.23	9.46	11.47	7.03	8.03	8.60	11.90	6.08	5.82	4.31	4.30	5.57	5.53	5.75	4.78	4.36	4.44	5.22	6.78	4.96	4.09	4.67	5.92	6.46	5.57	4.95	4.96	4.80	5.05	5.23	5.06	4.78	4.72	4.81	4.77	4.74	4.89	5.01	4.00	4.15	4.20	4.35	4.29	4.95	8.29	8.43	8.71	9.08	3.88	3.94	4.12	4.51	5.04	4.91	4.60	4.84	5.87	6.14	7.77	7.08	5.67	6.15	6.29	6.14	5.51	5.60	6.31	6.77	4.41	3.01	3.63	3.11	2.66	2.03	2.82	2.98	3.24	3.48	3.91	4.20	4.33	4.39	4.36	4.26	4.26	4.50	4.70	4.56	4.31	4.38	7.60	7.61	8.50	11.64	11.64	
5.70	5.76	5.68	4.72	3.63	3.85	4.57	8.49	6.97	5.32	5.56	6.75	5.15	4.07	3.58	3.40	5.55	11.40	4.92	3.52	3.01	2.52	2.35	4.82	8.84	8.26	8.39	9.72	10.12	5.80	5.22	10.35	9.52	7.06	5.79	4.77	5.03	5.47	5.56	4.48	4.38	4.18	4.71	5.41	7.43	5.85	4.74	6.29	9.69	3.94	4.69	5.17	4.79	4.79	5.18	5.69	5.31	4.96	5.30	5.29	5.07	4.97	5.13	5.11	4.08	3.69	4.01	4.46	4.75	4.65	8.09	9.31	10.64	6.25	3.93	3.38	3.91	4.66	5.66	5.32	4.57	5.81	6.53	6.62	0.55	4.45	5.28	5.55	5.66	5.99	5.53	5.36	6.87	6.94	3.23	3.36	3.99	2.93	2.03	1.73	1.78	3.24	3.35	3.35	3.76	4.12	4.27	4.37	4.38	4.34	4.24	4.34	4.66	4.66	4.34	4.21	4.52	4.96	8.61	11.45	11.45	
4.82	5.87	5.57	5.27	3.69	3.28	3.80	5.46	9.63	5.43	6.88	7.11	4.48	3.53	3.21	3.14	4.48	10.46	6.28	3.69	2.95	2.59	2.32	3.40	5.76	5.58	8.81	9.60	8.11	5.62	5.19	5.55	6.54	6.14	6.12	5.46	5.81	3.82	5.85	5.18	4.12	3.84	4.55	7.73	9.51	9.62	5.96	5.19	3.68	4.63	4.67	4.89	4.80	4.92	5.32	1.92	5.01	5.06	5.77	5.76	5.37	5.30	5.51	2.50	3.90	3.63	4.05	4.66	5.01	6.84	7.57	8.51	10.47	4.25	3.72	4.46	3.89	4.91	7.35	5.82	3.70	5.84	8.03	0.61	4.08	4.30	4.94	5.17	5.24	5.67	5.56	5.34	7.56	5.95	2.91	3.62	1.75	3.55	4.44	4.02	2.92	3.49	3.32	3.31	3.68	4.03	4.21	4.33	4.38	4.40	4.33	4.36	4.71	4.86	4.56	4.32	4.14	4.54	8.67	8.75	8.75	
4.78	5.95	6.08	4.98	4.16	2.89	3.19	5.10	9.44	5.14	7.40	8.46	4.27	3.70	3.51	2.69	3.85	7.35	4.81	3.22	2.71	2.55	2.20	4.59	5.62	5.99	8.90	8.79	5.96	5.26	5.15	7.97	11.01	10.71	6.92	5.76	5.35	5.08	4.06	5.38	4.03	3.58	4.07	5.14	8.10	9.79	9.35	2.94	4.27	4.27	4.71	4.79	5.17	5.54	4.80	4.96	4.77	5.23	5.91	5.84	4.87	4.56	2.19	3.64	4.31	3.93	4.21	5.24	6.93	6.55	6.77	7.60	9.65	7.67	4.97	4.72	3.81	4.39	8.12	7.86	3.66	6.16	8.21	2.49	3.50	4.53	5.01	5.39	4.95	5.75	6.04	5.74	7.15	4.00	1.40	3.12	5.06	4.81	4.74	3.58	2.22	1.60	2.92	3.10	3.54	3.91	4.13	4.30	4.36	4.40	4.34	4.37	4.72	4.98	4.85	4.66	4.21	4.24	8.49	9.30	9.30	
5.98	5.54	6.28	3.53	5.06	3.12	2.86	4.82	8.14	4.65	7.26	11.37	6.61	4.84	4.00	2.79	3.41	6.65	5.06	3.82	3.33	2.72	2.02	2.75	3.77	8.80	8.17	7.77	9.08	5.16	8.98	10.39	6.74	9.53	11.07	7.12	6.37	6.55	6.54	5.60	4.15	3.56	3.95	7.30	7.75	9.63	10.63	3.53	3.53	4.61	4.24	4.68	5.73	6.54	5.32	4.52	4.80	5.25	6.67	7.02	3.98	2.07	4.91	5.28	4.88	4.27	4.34	5.40	7.16	6.84	6.39	6.98	9.01	5.76	5.16	5.08	3.96	4.04	7.70	9.57	5.31	6.43	6.23	4.40	4.73	4.71	5.49	5.80	4.64	4.78	6.64	7.49	5.89	6.66	6.36	6.68	5.86	5.57	1.69	3.38	2.30	1.57	2.46	2.71	3.26	3.74	4.02	4.23	4.34	4.38	4.30	4.29	4.66	4.93	4.91	4.85	4.54	4.24	8.04	9.23	9.23	
5.41	4.83	5.47	8.80	6.23	3.83	2.87	4.62	8.17	4.73	7.36	8.33	6.94	5.22	3.70	3.26	3.10	5.93	9.25	4.53	4.36	3.51	2.23	2.13	3.04	6.13	5.14	6.18	5.31	5.78	9.10	6.03	4.42	4.93	10.30	6.20	6.15	7.12	6.98	5.55	4.20	3.65	3.79	4.59	5.09	8.02	11.46	3.76	3.33	4.59	4.00	4.53	7.77	4.25	5.03	4.27	4.71	5.18	6.57	7.45	3.69	4.12	4.85	4.91	4.69	4.22	4.35	7.32	7.46	6.88	6.67	7.36	1.99	4.21	5.08	4.96	4.06	4.17	6.95	9.04	7.44	6.98	2.24	4.32	4.76	5.05	5.65	6.47	4.82	4.21	6.23	4.66	4.97	4.99	5.43	6.40	6.23	1.90	5.49	4.31	2.67	2.20	2.26	2.30	2.91	3.55	3.89	4.15	4.29	4.35	4.27	4.23	4.58	4.93	4.99	4.94	4.85	4.46	5.20	8.79	8.79	
5.48	4.68	4.59	8.35	5.92	5.04	3.11	4.16	8.65	5.35	7.43	9.52	5.44	5.66	4.30	3.27	2.97	5.50	10.13	5.75	3.51	4.19	3.15	2.00	2.68	5.93	5.89	5.97	5.90	6.23	6.42	4.88	4.31	5.20	8.27	5.49	5.51	7.30	7.61	5.73	4.12	3.89	4.16	4.53	4.71	7.74	8.22	5.31	4.68	4.72	4.03	4.58	8.22	6.45	4.95	4.09	4.54	6.25	6.52	8.51	6.02	5.20	4.95	4.90	4.81	4.19	3.97	8.32	8.98	7.27	6.50	5.14	3.13	4.00	4.46	4.62	4.25	3.87	8.15	9.61	8.31	4.78	3.17	4.06	4.52	4.84	6.54	7.72	4.76	4.35	3.46	3.19	4.77	5.02	5.31	1.87	5.99	5.80	5.43	4.20	3.30	2.74	1.68	2.26	2.61	3.31	3.75	4.06	4.23	4.31	4.27	4.19	4.39	4.80	5.05	5.05	5.02	4.71	5.07	8.22	8.22	
4.69	5.02	4.28	5.15	6.39	5.83	3.60	3.93	8.47	5.79	5.09	7.11	4.44	3.28	4.75	3.30	2.68	5.10	6.65	7.39	6.36	3.97	3.53	2.37	2.57	5.55	4.23	5.78	9.37	10.87	5.97	4.75	4.82	9.64	5.74	4.75	4.93	9.22	8.60	6.50	4.13	3.89	4.55	4.81	6.49	7.39	6.67	4.88	4.27	4.51	4.13	5.06	8.12	6.24	5.04	4.08	4.29	5.28	6.31	6.41	5.52	4.87	4.69	4.99	5.35	5.01	3.46	6.86	7.48	10.21	7.24	3.24	3.75	4.23	3.89	4.57	5.98	4.54	6.01	9.18	10.77	3.07	3.83	4.44	4.36	4.36	6.22	9.17	5.53	2.68	2.59	4.70	4.82	1.25	5.34	5.69	5.98	5.59	3.98	2.01	2.87	3.03	2.37	2.67	2.52	3.08	3.61	3.98	4.17	4.26	4.28	4.20	4.21	4.52	4.90	5.05	5.03	4.86	5.05	5.48	5.48	
6.54	5.61	4.77	4.76	5.19	5.44	3.94	3.69	7.76	5.94	5.54	7.07	4.80	3.73	3.32	3.27	2.72	3.62	5.73	5.88	6.26	7.31	4.59	3.04	2.45	3.44	3.79	5.70	10.18	8.19	6.68	4.91	5.36	6.04	5.26	4.29	4.79	10.25	9.72	5.30	4.98	4.03	4.59	4.81	7.20	9.75	5.86	5.75	5.63	4.39	4.03	7.20	8.93	3.70	5.11	2.22	4.32	5.67	5.14	5.53	4.60	4.44	4.44	5.02	7.27	6.43	4.07	2.72	3.93	7.65	7.58	4.06	3.61	3.79	3.60	4.59	7.73	4.84	4.35	4.98	10.28	5.06	4.29	4.39	4.50	5.09	5.22	9.23	8.02	3.68	4.28	4.81	0.39	5.08	5.38	5.37	5.54	2.80	4.49	5.13	4.42	3.57	2.44	3.03	2.58	2.94	3.49	3.91	4.14	4.25	4.30	4.27	4.24	4.39	4.69	4.94	4.96	4.94	5.07	5.32	5.32	
6.11	6.22	6.15	5.64	5.08	4.81	3.97	3.25	4.39	5.61	6.13	7.35	4.41	3.16	4.32	3.71	3.39	3.50	4.26	4.58	4.72	7.20	5.62	4.59	2.76	2.67	3.24	5.85	10.03	5.67	5.47	5.25	4.82	5.49	5.31	4.29	4.62	8.16	10.39	6.84	6.25	5.19	5.18	6.29	7.15	6.02	5.51	5.53	5.42	4.39	4.08	5.01	10.01	4.83	5.39	4.39	4.84	5.18	4.96	4.70	4.89	4.22	4.30	5.13	7.65	7.63	3.33	2.74	3.10	7.34	3.87	2.97	3.30	3.59	3.32	4.20	9.13	5.32	4.23	7.34	6.48	4.78	4.59	4.44	4.76	5.18	5.64	8.24	6.82	5.14	3.49	5.10	4.90	5.05	4.95	4.94	4.33	2.68	2.05	2.12	2.32	1.82	1.64	2.05	2.72	2.89	3.38	3.84	4.11	4.24	4.31	4.32	4.36	4.50	4.66	4.86	5.01	4.97	5.04	5.21	5.21	
4.83	5.64	6.89	6.23	4.76	4.98	4.30	3.26	3.66	5.40	6.60	8.95	3.53	3.10	2.86	4.49	3.63	4.23	4.06	3.77	3.72	4.86	7.51	5.07	4.09	2.32	2.57	6.10	6.53	5.49	5.15	5.68	5.52	5.70	5.87	4.75	4.32	8.77	8.47	5.60	6.07	5.84	5.57	7.24	7.83	5.22	5.39	5.19	4.84	4.00	4.29	4.88	10.17	4.31	3.06	3.91	4.75	5.24	5.79	5.77	4.46	3.97	4.08	4.89	8.94	8.35	4.14	3.22	2.94	6.88	7.26	2.98	3.52	3.59	3.07	3.60	9.04	8.53	5.24	7.15	7.33	5.19	4.52	4.41	5.58	7.22	4.40	7.86	5.66	2.92	3.68	2.83	3.15	5.33	5.48	4.74	0.86	2.01	2.01	5.77	3.88	3.18	2.64	2.80	3.07	2.97	3.30	3.76	4.07	4.23	4.32	4.33	4.40	4.65	4.84	4.92	5.00	4.97	5.00	5.10	5.10	
4.03	4.58	6.13	7.44	3.23	3.77	4.87	3.91	3.54	4.95	9.13	7.80	3.39	4.17	4.56	2.97	4.72	4.57	3.94	3.92	3.37	3.96	5.42	6.40	4.11	2.79	2.41	5.96	5.86	5.41	4.97	5.94	6.93	7.02	6.31	5.55	4.56	6.77	4.73	4.77	5.39	5.67	5.42	8.53	6.92	4.50	5.53	5.41	4.52	3.65	4.19	7.29	8.17	8.69	5.86	5.24	5.03	5.10	5.62	5.68	4.37	3.51	3.68	4.50	9.47	10.28	5.51	3.94	3.00	6.21	6.95	3.38	3.76	3.75	3.04	3.47	8.55	9.95	5.94	4.55	5.39	5.22	4.52	4.15	5.38	8.55	4.92	6.90	3.37	5.70	4.55	6.88	6.32	6.85	6.64	1.02	3.59	5.08	8.79	10.91	5.67	4.90	4.50	3.63	2.86	3.39	3.38	3.69	4.00	4.20	4.32	4.34	4.38	4.67	5.00	5.12	5.09	5.02	5.01	5.06	5.06	
3.75	4.34	5.92	8.31	4.98	5.24	5.04	4.54	3.95	4.53	9.23	9.16	3.88	2.02	3.02	5.27	6.24	6.07	4.10	3.99	3.78	4.04	5.23	6.10	4.39	3.63	2.78	4.15	5.57	5.64	5.32	6.98	8.70	10.75	11.75	5.30	5.60	4.30	4.08	4.46	5.09	5.58	7.46	8.60	10.44	4.59	5.95	3.58	4.53	3.69	4.15	7.70	10.09	5.79	5.60	5.18	5.38	5.52	5.14	5.12	4.33	2.93	2.74	6.45	9.30	12.12	4.72	5.15	4.33	4.74	7.07	3.96	3.93	3.84	2.99	3.37	6.59	10.84	4.81	5.08	4.60	4.75	4.72	4.82	4.51	7.92	6.95	0.79	7.17	6.75	4.59	4.44	3.30	5.83	9.81	9.64	7.21	6.45	6.85	8.37	9.03	8.22	7.05	5.42	3.97	3.75	3.43	3.62	3.90	4.14	4.29	4.35	4.36	4.53	4.92	5.23	5.22	5.07	5.04	5.06	5.06	
3.30	4.16	8.39	6.40	5.06	5.08	4.98	5.26	5.25	5.12	8.59	11.17	3.32	3.61	4.90	2.59	4.05	4.81	5.45	4.90	4.00	4.15	6.49	6.34	4.35	3.96	3.17	3.88	6.06	7.83	8.56	9.79	10.33	9.77	11.01	12.58	5.01	4.33	3.59	4.53	5.08	9.26	9.96	10.71	10.98	11.22	5.11	4.07	4.22	3.72	4.24	8.28	5.14	5.73	5.07	4.95	5.71	6.31	2.59	4.55	4.83	3.03	1.74	2.19	6.79	10.12	12.78	6.08	4.32	5.62	3.29	4.36	4.10	3.82	2.78	3.06	8.04	11.32	3.39	4.62	4.67	4.45	5.01	6.28	4.81	7.46	5.66	5.33	5.93	7.73	5.51	4.43	4.08	5.81	7.97	8.42	7.22	6.44	5.63	4.60	6.34	6.05	6.24	5.97	4.97	3.67	3.10	3.36	3.75	4.05	4.24	4.35	4.38	4.45	4.77	5.15	5.25	5.12	5.03	5.01	5.01	
2.96	4.09	10.36	6.60	5.57	4.88	4.78	5.33	5.58	7.79	9.07	7.14	4.76	4.76	4.77	3.53	3.33	4.24	4.66	4.44	3.80	3.86	6.86	7.35	4.54	3.88	3.18	3.38	8.40	9.56	9.36	9.56	8.71	9.39	10.46	12.45	5.73	4.30	4.20	4.58	9.15	8.71	9.33	8.28	10.23	11.30	5.24	3.91	3.58	3.96	4.62	8.55	7.23	5.92	5.00	4.88	5.81	5.85	3.04	4.73	5.45	4.10	1.95	1.51	2.74	7.04	11.58	7.75	6.98	2.94	3.43	4.01	4.70	3.57	2.65	2.90	6.28	10.71	4.34	4.87	4.27	4.01	5.29	7.61	4.38	7.19	6.41	4.38	4.41	6.39	7.37	4.79	3.42	3.36	6.31	6.88	6.89	5.99	5.90	4.69	5.05	5.37	5.34	5.42	3.89	3.67	2.59	2.84	3.50	3.95	4.19	4.36	4.41	4.48	4.78	5.01	5.19	5.22	5.03	4.96	4.96	
2.84	4.35	7.76	7.00	5.94	4.89	4.59	5.12	5.01	8.13	10.61	3.39	3.16	2.32	2.29	3.77	4.37	4.27	4.16	3.71	3.43	3.73	6.83	5.70	4.21	3.53	2.94	2.92	5.72	6.45	9.02	8.76	8.54	9.53	10.44	12.21	5.61	4.35	3.82	4.55	8.62	8.96	9.13	9.01	8.90	11.46	6.79	5.68	3.27	3.75	7.47	8.96	7.60	5.22	5.36	5.20	6.03	3.33	5.32	4.71	5.61	2.95	3.19	1.78	2.02	3.20	7.60	11.99	12.42	6.57	3.64	3.15	2.27	3.49	2.65	3.00	6.08	10.04	7.17	5.57	4.02	3.54	4.72	8.79	7.43	6.85	6.77	4.68	3.52	3.99	4.60	5.70	5.24	4.09	4.21	4.74	5.03	5.40	5.78	5.44	1.61	5.46	5.53	5.04	4.23	3.08	2.58	2.52	3.20	3.82	4.15	4.36	4.38	4.52	4.91	4.96	5.10	5.30	5.10	4.97	4.97	
3.33	7.87	6.00	5.89	5.63	5.23	4.93	4.94	7.47	8.90	12.54	4.09	2.96	4.15	5.63	4.90	4.94	4.47	3.46	3.32	3.04	3.71	6.99	3.75	4.21	3.37	2.95	3.03	3.79	6.35	8.81	6.13	8.62	9.03	10.99	9.70	5.56	4.52	3.63	4.83	8.16	8.81	8.65	8.67	8.45	10.75	9.39	4.75	3.94	3.00	4.43	10.71	6.73	5.21	5.05	5.22	6.35	5.38	5.45	4.78	5.65	3.41	4.33	2.80	1.59	2.05	6.27	10.32	12.75	3.83	2.86	5.24	1.93	3.79	2.80	3.01	6.05	10.88	4.15	5.69	4.23	3.63	4.43	4.95	7.76	6.17	7.33	7.25	5.84	5.72	5.34	4.89	4.74	4.67	4.55	4.48	4.55	4.67	5.27	5.49	5.03	5.44	5.61	4.68	3.30	2.58	2.36	2.84	3.12	3.70	4.12	4.39	4.36	4.49	5.00	4.97	4.95	5.23	5.15	5.05	5.05	
4.48	4.82	5.50	5.17	5.23	5.44	5.10	4.71	7.74	9.17	9.05	5.89	5.87	7.05	4.34	3.36	2.60	3.16	2.96	3.82	3.07	3.61	7.28	5.30	4.31	3.37	3.13	3.23	3.55	6.14	6.48	6.42	6.25	9.07	11.35	7.49	5.70	4.79	4.14	3.80	4.45	5.24	5.39	5.06	8.04	10.10	9.43	6.43	5.03	3.43	3.99	9.85	5.03	4.09	4.22	5.05	6.38	4.73	3.71	5.22	3.73	4.93	4.37	2.46	1.79	1.36	2.78	8.80	12.14	8.29	4.70	2.05	3.86	4.01	3.03	2.86	5.71	10.00	10.33	6.27	4.82	4.18	4.11	7.57	7.46	4.76	4.72	5.63	5.91	5.31	5.16	4.78	4.71	5.24	5.29	4.90	4.61	4.55	4.96	4.82	4.49	5.55	5.28	1.99	2.47	3.08	3.09	3.26	3.27	3.67	4.11	4.41	4.34	4.44	5.07	5.14	4.92	5.05	5.12	5.12	5.12	
4.00	4.84	5.61	5.48	5.35	5.16	5.25	4.91	7.42	10.20	7.35	6.57	5.67	5.32	7.95	6.07	6.00	8.61	5.81	4.71	3.43	3.60	7.30	6.82	4.47	3.29	3.08	3.34	3.55	4.27	6.18	6.50	6.23	8.87	11.45	6.50	5.43	4.73	4.32	3.96	4.34	5.81	9.27	8.37	5.50	5.44	7.05	6.49	4.98	4.07	4.88	10.49	5.74	3.53	3.83	4.83	8.63	7.89	5.94	2.87	5.39	5.09	5.35	2.34	2.55	1.31	2.26	6.61	10.72	12.19	6.84	5.13	4.04	4.12	3.16	3.17	3.58	6.46	11.19	6.84	5.42	5.22	2.71	5.97	7.21	6.67	5.98	5.14	5.47	5.34	5.27	5.06	4.99	5.14	4.71	4.41	4.27	3.89	4.11	4.92	5.08	5.48	3.17	2.52	2.89	3.12	3.17	3.50	3.45	3.79	4.22	4.49	4.41	4.42	5.01	5.31	5.05	4.96	5.02	5.06	5.06	
4.38	5.14	5.48	8.30	5.91	5.44	5.49	5.99	5.21	5.99	5.90	5.94	5.50	4.49	5.11	5.50	5.02	5.56	6.05	4.91	3.58	3.44	6.81	9.07	5.56	3.70	3.11	3.51	3.86	4.13	4.21	6.24	6.30	9.30	10.06	6.76	5.28	4.74	4.32	3.97	5.30	5.70	8.79	10.01	6.17	5.68	4.81	4.09	4.00	3.97	7.94	10.29	5.70	3.48	3.41	4.14	8.22	10.59	10.51	3.01	3.41	5.36	5.75	3.64	3.45	1.88	1.88	6.00	9.25	11.78	7.00	5.83	4.61	4.21	3.22	3.52	5.64	5.98	8.73	9.98	4.74	5.99	4.41	4.24	5.09	5.02	5.24	5.23	5.60	5.54	4.84	4.34	4.74	3.85	6.41	5.84	1.65	6.09	8.07	10.32	11.12	10.94	7.80	7.27	6.24	5.01	4.21	3.80	4.26	4.18	4.45	4.61	4.49	4.43	4.93	5.33	5.15	4.93	4.92	4.97	4.97	
4.62	6.97	5.14	4.83	5.36	7.46	7.10	5.89	5.63	3.97	2.74	4.90	2.60	4.83	4.71	5.51	5.73	5.11	5.21	5.04	3.63	2.90	4.40	8.54	4.77	3.80	3.23	3.36	4.04	4.15	3.91	4.13	6.39	9.04	6.49	6.42	5.31	4.84	4.43	4.14	4.21	5.60	5.72	6.16	6.38	5.19	4.43	3.70	3.57	4.42	8.59	9.11	4.61	4.32	3.52	3.65	4.81	9.76	7.78	6.64	6.29	5.69	3.07	3.83	4.42	2.71	1.87	2.64	6.59	11.23	4.15	4.13	3.74	4.40	3.17	3.45	6.43	5.39	7.88	5.65	5.50	5.60	5.93	5.03	4.73	4.81	4.95	5.10	5.65	5.46	1.04	4.82	6.52	6.38	6.80	7.72	7.63	7.07	7.10	7.80	7.99	8.06	7.92	7.67	9.30	9.27	7.50	6.04	5.18	4.66	4.73	4.77	4.59	4.46	4.86	5.41	5.42	5.10	4.90	4.87	4.87	
4.33	7.54	5.81	4.91	5.34	7.97	9.12	6.66	5.93	6.29	3.98	5.68	5.91	5.85	5.73	5.97	6.29	3.04	5.59	5.02	4.75	3.53	3.76	7.13	7.51	5.29	4.65	4.08	4.40	4.46	4.08	4.03	6.17	5.26	5.29	5.98	5.56	4.93	4.56	4.34	4.38	5.62	5.57	8.70	6.40	5.40	4.88	3.83	3.21	7.33	9.01	6.06	6.31	4.93	4.14	4.16	7.74	4.90	4.98	5.02	9.14	5.65	3.96	5.00	5.62	4.27	2.94	2.87	3.75	7.20	10.76	2.94	4.68	5.42	3.82	3.15	6.06	7.72	8.40	5.14	5.20	5.36	5.36	5.39	5.28	5.11	5.08	5.19	8.02	7.17	5.07	5.48	6.07	6.07	4.42	6.81	5.00	6.38	4.31	4.28	6.93	6.65	6.99	6.74	5.61	6.76	6.78	6.63	5.83	5.24	5.10	4.95	4.73	4.40	4.43	4.89	5.19	5.14	4.95	4.85	4.85	
4.12	7.86	7.38	4.58	3.57	7.44	5.24	7.58	5.20	3.35	3.80	4.39	4.08	7.06	6.37	6.37	4.32	6.17	5.37	4.06	4.97	4.56	3.91	4.96	6.59	4.16	5.25	5.30	4.79	4.67	4.31	4.23	4.77	5.06	4.95	5.17	5.31	4.97	4.62	4.43	4.42	5.73	4.26	8.29	5.65	5.32	5.29	4.03	3.20	7.80	4.95	5.42	5.53	4.84	4.05	3.67	4.37	4.69	4.59	4.29	8.54	4.60	5.13	6.38	3.16	5.57	4.07	3.34	4.04	4.49	5.32	6.22	6.47	6.31	4.58	3.16	5.72	8.42	4.89	4.94	5.15	5.38	5.50	5.66	5.63	5.33	5.34	4.81	4.69	5.30	5.35	4.71	4.63	4.57	4.18	4.29	4.52	4.42	4.02	3.79	4.25	4.42	4.70	4.69	4.45	5.04	5.98	4.72	6.30	5.63	5.29	5.03	4.76	4.36	4.15	4.40	4.80	5.01	5.00	4.91	4.91	
