ncols	121
nrows	160
xllcorner	1648855.938895
yllcorner	466851.943984
cellsize	500.000000
NODATA_value	nan
240	237	246	358	292	265	221	232	225	248	254	257	267	276	192	174	273	255	250	271	299	330	316	0	295	278	263	256	253	250	247	242	229	211	225	206	228	226	231	231	231	238	243	249	244	252	241	255	252	251	256	250	244	240	252	269	299	279	243	235	246	254	255	244	224	241	224	265	244	227	254	216	135	141	258	269	263	229	229	236	230	248	270	282	280	277	264	235	237	211	223	225	224	201	228	226	181	176	173	200	234	217	226	214	218	224	234	184	262	255	246	235	255	282	287	270	234	226	227	231	231	
240	237	246	358	292	265	221	232	225	248	254	257	267	276	192	174	273	255	250	271	299	330	316	0	295	278	263	256	253	250	247	242	229	211	225	206	228	226	231	231	231	238	243	249	244	252	241	255	252	251	256	250	244	240	252	269	299	279	243	235	246	254	255	244	224	241	224	265	244	227	254	216	135	141	258	269	263	229	229	236	230	248	270	282	280	277	264	235	237	211	223	225	224	201	228	226	181	176	173	200	234	217	226	214	218	224	234	184	262	255	246	235	255	282	287	270	234	226	227	231	231	
224	234	244	320	291	262	242	238	236	244	285	256	140	158	226	257	251	250	281	321	27	43	358	18	282	268	260	256	252	249	246	242	232	221	230	218	226	227	260	259	256	266	276	241	257	227	262	249	244	255	257	243	235	263	251	5	268	262	235	232	277	257	258	251	239	237	242	245	240	240	263	245	260	262	262	264	244	226	228	244	240	170	272	327	293	288	259	239	243	244	241	219	229	205	227	234	186	182	220	246	224	221	230	226	224	243	259	256	253	253	232	232	285	322	271	263	245	231	238	241	241	
229	230	244	221	264	281	269	270	253	252	254	194	193	184	245	235	240	281	287	129	142	125	143	275	266	259	258	255	251	249	246	242	237	236	244	237	226	254	261	266	265	263	254	196	212	251	238	240	237	255	251	240	240	248	233	189	250	248	228	229	244	262	274	250	258	255	244	266	258	266	153	178	54	245	334	158	225	227	256	259	252	242	187	280	326	252	244	241	247	229	246	249	230	240	240	230	191	188	215	229	214	227	237	252	254	252	254	214	242	237	221	231	276	273	252	249	257	257	257	250	250	
235	240	249	248	247	326	253	286	263	266	261	193	192	220	231	232	247	284	20	163	152	118	101	268	266	261	257	253	250	248	246	243	239	236	235	230	255	261	265	237	224	218	207	204	207	216	227	224	235	243	249	245	243	249	250	289	307	255	233	224	240	249	262	289	243	257	256	248	243	254	252	288	247	134	173	231	225	232	256	275	269	255	222	187	176	181	203	247	258	251	203	188	252	250	242	218	198	205	190	231	214	225	231	257	267	265	264	217	239	237	225	234	265	189	224	264	244	242	252	248	248	
239	242	248	260	296	290	247	281	288	288	284	194	182	238	222	234	266	312	126	156	136	65	325	261	263	262	258	253	250	248	246	243	240	234	232	252	258	254	221	211	223	221	214	213	218	227	231	226	225	232	240	244	244	246	247	247	292	153	226	215	237	248	250	288	238	240	279	256	255	249	248	320	156	241	235	228	229	250	244	274	153	251	251	247	230	243	247	256	268	265	251	230	254	264	263	226	207	241	210	234	213	222	229	250	253	260	269	259	240	237	226	243	238	186	235	309	209	233	246	251	251	
238	245	256	254	252	218	236	264	289	289	258	327	247	228	218	251	285	9	133	105	349	351	23	347	260	261	255	250	248	247	245	243	240	234	233	254	252	226	236	234	244	246	255	257	258	253	238	238	237	230	225	237	236	241	253	209	192	173	229	230	251	247	239	240	284	269	267	250	277	251	220	190	177	239	231	230	236	246	242	247	207	245	259	256	245	240	246	275	257	261	264	258	214	258	263	257	246	244	226	237	218	225	233	245	244	241	230	203	232	204	235	248	251	249	243	216	233	233	240	239	239	
230	255	255	259	255	244	237	287	291	275	344	281	162	225	220	247	275	123	107	315	292	334	21	323	341	257	249	247	247	246	245	244	241	237	240	244	234	222	253	255	260	262	262	266	270	267	266	272	276	268	232	223	236	238	253	196	242	241	237	249	271	270	244	233	231	230	249	184	205	267	239	212	238	238	238	240	240	238	242	234	245	190	250	245	239	252	260	166	238	245	266	275	264	258	256	256	251	249	247	241	225	228	240	250	237	225	221	217	213	225	222	244	298	209	169	235	230	239	269	228	228	
225	250	285	260	257	208	237	244	246	243	247	274	244	224	228	248	262	146	88	278	313	360	52	33	39	249	241	244	246	246	245	244	242	240	244	249	248	263	247	250	256	258	268	271	277	270	285	272	283	281	270	261	252	250	229	250	241	241	240	271	266	272	271	267	238	232	235	213	232	264	259	246	234	241	249	256	255	247	240	237	230	213	238	241	253	291	193	242	230	262	277	266	267	265	261	257	256	254	248	245	230	230	244	232	254	256	257	256	253	249	246	247	247	244	226	221	223	252	255	224	224	
239	249	245	195	237	246	246	229	246	235	246	228	239	220	234	260	262	248	228	245	323	62	93	103	116	152	232	239	244	245	245	245	243	241	241	255	255	263	249	245	273	279	282	293	319	290	280	283	267	266	265	264	265	267	254	239	231	246	255	303	347	247	265	277	261	251	246	245	234	258	248	239	235	249	251	249	252	258	256	230	228	228	232	237	297	247	248	239	232	237	298	247	281	299	256	257	261	261	257	247	234	235	245	246	252	256	260	260	258	257	260	262	265	261	238	210	221	266	289	226	226	
282	258	262	242	254	250	231	247	244	240	247	204	240	219	235	256	336	248	233	249	185	151	119	120	180	161	230	238	244	245	245	245	245	244	242	239	235	237	239	244	254	268	272	292	304	296	274	305	267	239	282	266	267	266	256	235	229	266	298	296	239	267	308	262	260	251	247	247	238	226	240	237	244	279	167	226	244	253	178	252	230	231	236	243	216	236	236	238	318	238	293	312	37	154	239	248	257	259	260	246	241	239	240	240	242	244	265	247	246	258	257	258	257	220	237	213	228	253	240	231	231	
250	268	256	256	249	250	251	252	250	248	256	254	240	224	237	263	254	247	244	260	183	167	135	114	118	240	232	240	244	245	245	245	245	245	246	245	242	239	236	235	236	240	254	287	301	311	258	295	253	233	235	266	287	255	250	245	241	242	266	248	241	293	246	248	256	258	252	248	217	246	237	237	286	143	175	158	163	198	249	252	257	238	230	225	213	231	260	288	296	254	313	240	216	235	276	284	296	243	251	257	248	238	235	253	255	264	271	271	268	272	273	282	304	250	242	229	253	253	245	237	237	
248	249	165	248	237	237	241	248	250	252	256	253	248	237	247	255	153	248	256	222	187	171	152	149	140	239	236	243	245	245	246	246	246	246	246	244	242	246	246	251	257	256	254	257	245	319	245	281	253	239	238	246	256	245	249	269	257	254	250	262	272	240	242	249	253	262	256	251	264	259	266	293	121	157	245	93	154	200	246	255	268	272	264	239	223	214	214	218	262	291	205	252	241	235	264	150	239	239	247	252	247	234	235	240	255	243	214	215	225	228	220	218	236	264	241	230	251	293	189	240	240	
240	205	254	242	223	233	238	247	244	252	255	248	247	242	258	283	248	243	253	14	137	121	104	86	216	244	241	246	246	245	246	246	246	246	245	243	241	240	247	254	258	260	260	262	254	313	247	255	220	239	244	254	245	283	240	249	255	258	256	228	241	234	237	243	299	258	256	254	246	219	201	203	200	184	169	181	210	239	246	257	271	280	278	266	232	228	230	247	256	295	277	307	236	242	234	246	236	239	289	297	242	223	231	243	259	215	215	229	240	232	211	217	229	221	246	276	295	199	178	236	236	
253	251	252	255	253	242	242	249	251	251	245	251	266	242	242	246	242	65	240	275	310	336	344	352	40	66	241	247	246	245	246	246	246	246	245	244	241	238	248	252	255	259	260	264	244	293	284	299	248	245	306	253	243	265	255	291	274	247	283	216	235	227	232	257	273	248	249	257	216	256	256	252	241	240	236	221	235	238	246	284	301	268	281	280	265	246	240	253	260	239	289	273	328	138	242	316	296	266	282	284	241	213	223	256	233	249	241	238	240	235	244	244	244	244	231	227	198	191	209	228	228	
249	244	241	248	261	251	240	251	260	248	253	257	216	186	251	244	207	205	235	262	291	320	44	88	96	116	8	241	240	243	245	246	246	246	246	245	241	238	250	256	260	262	256	247	252	271	270	293	240	232	235	242	241	235	231	218	284	254	174	192	227	227	236	244	301	242	242	251	251	181	249	245	238	260	253	238	233	242	268	338	274	293	261	274	279	263	241	243	228	205	223	211	237	237	235	312	301	259	297	299	232	206	224	246	251	244	249	260	262	257	249	259	251	258	260	245	197	235	235	221	221	
248	181	238	247	270	248	240	239	247	262	274	193	191	175	231	261	239	225	238	240	172	162	132	76	67	83	142	238	235	242	245	246	246	246	246	245	243	241	248	250	249	239	228	231	232	221	218	211	196	194	197	207	205	206	215	216	218	209	196	234	223	226	242	262	254	212	188	203	206	237	238	245	257	353	239	228	250	286	347	117	282	269	287	256	274	281	260	250	228	227	224	243	242	80	236	324	233	235	327	171	163	209	232	250	249	243	251	262	263	259	256	263	255	264	265	248	205	232	225	216	216	
223	244	243	245	189	240	237	238	241	233	223	211	193	247	255	261	261	257	258	240	217	180	159	142	136	125	156	239	236	242	245	245	246	246	246	246	246	246	249	248	241	229	229	243	236	220	222	214	199	202	206	210	211	215	220	231	241	227	218	195	226	228	245	243	216	191	236	227	225	229	240	241	270	243	219	217	271	332	145	343	309	329	273	305	313	275	273	246	228	208	240	248	243	302	259	294	233	241	183	181	219	215	235	248	280	237	274	268	279	251	271	255	272	265	248	205	242	227	222	238	238	
256	255	255	243	219	181	195	226	247	239	243	249	225	249	249	251	257	268	274	270	245	230	221	182	162	122	247	238	238	242	245	245	246	246	247	247	247	249	253	251	248	243	254	259	231	219	224	204	202	203	211	248	249	251	256	264	267	266	260	250	239	246	254	255	215	248	246	243	236	237	241	253	217	239	213	216	265	127	51	335	342	357	289	309	299	257	276	264	236	243	266	251	263	296	287	153	159	181	185	181	211	215	235	274	279	262	257	274	289	266	266	255	285	276	213	210	197	212	206	238	238	
259	260	265	232	230	221	182	233	242	247	251	253	271	206	239	243	247	257	266	268	262	252	181	297	319	76	114	239	240	244	245	246	246	247	247	248	248	249	251	253	252	259	263	257	215	215	218	210	204	243	248	250	251	252	259	265	265	269	268	260	253	256	272	272	219	192	242	236	229	237	242	251	268	240	220	228	258	248	239	231	223	233	236	301	276	296	251	249	237	239	248	259	247	200	186	179	188	191	199	227	207	215	231	272	280	286	246	242	267	288	296	292	192	195	204	210	193	227	230	246	246	
254	247	183	258	258	258	255	253	257	250	240	228	223	189	240	255	255	312	260	251	68	242	243	304	287	100	132	237	238	243	245	246	247	247	247	248	248	249	250	249	253	252	254	247	207	235	238	247	245	248	251	252	251	249	280	289	272	291	258	264	267	290	296	190	208	189	224	230	227	243	252	258	247	242	229	242	269	247	27	246	240	235	235	280	289	270	238	225	225	233	243	248	254	248	236	190	197	195	237	220	210	220	233	266	286	246	285	267	246	278	244	184	186	190	211	211	216	221	231	251	251	
195	207	244	246	251	256	263	273	280	275	241	228	230	227	245	298	185	185	214	211	238	233	248	313	187	135	116	236	238	244	246	246	247	247	247	248	248	248	248	249	256	251	251	239	200	240	242	242	245	255	254	252	283	274	286	289	278	288	288	286	303	304	187	185	190	231	214	226	227	254	260	266	252	243	243	243	317	6	219	235	236	238	235	240	190	168	161	220	211	229	248	251	197	179	174	178	187	196	184	219	212	228	261	263	279	239	294	255	267	230	182	184	177	179	214	211	237	220	237	251	251	
196	245	239	244	248	251	291	273	290	289	271	234	235	233	224	202	193	216	201	239	235	239	270	195	179	155	181	245	244	245	247	247	248	248	247	247	247	247	247	249	254	255	253	224	226	234	238	244	258	253	274	279	291	285	284	305	294	279	286	310	235	166	182	197	191	213	231	230	232	259	278	254	254	314	269	224	205	209	201	215	183	237	234	242	199	176	183	222	199	225	246	250	252	253	256	245	188	238	221	213	216	253	266	267	270	289	293	180	211	216	191	179	219	182	214	210	233	224	248	235	235	
247	243	238	244	278	277	301	301	274	288	286	274	241	242	233	214	194	207	235	230	233	246	274	199	156	110	9	293	247	247	249	248	248	248	247	247	247	248	248	249	251	259	242	253	238	234	251	252	277	284	277	274	284	287	284	299	316	269	249	198	181	171	177	219	218	232	226	237	264	251	255	266	246	253	255	256	256	259	257	251	248	214	240	239	229	179	163	222	195	216	249	254	249	179	171	167	154	235	220	204	223	250	259	270	275	241	186	182	196	221	213	190	178	188	234	214	233	230	245	236	236	
247	246	244	270	277	281	302	311	322	278	286	292	280	244	241	223	197	239	227	226	234	259	314	281	63	44	60	97	247	250	253	251	249	248	247	247	247	248	248	247	250	251	229	239	235	251	266	272	279	295	284	264	261	263	265	293	246	253	259	254	252	178	215	227	241	220	224	256	268	271	253	248	222	161	162	244	248	251	255	254	254	253	253	256	242	198	198	222	198	210	251	260	252	185	173	190	171	161	213	201	246	253	255	244	228	195	189	185	182	222	222	199	193	188	229	211	230	235	234	232	232	
247	249	279	274	294	299	309	326	314	318	266	280	291	278	237	230	210	235	220	230	255	260	183	184	131	92	42	276	325	249	253	253	250	248	247	247	248	248	248	247	250	252	243	250	248	248	269	275	278	296	302	282	276	261	258	282	306	247	107	150	174	165	215	216	235	211	222	266	256	261	287	253	217	242	242	244	241	300	246	233	245	249	254	263	268	234	187	225	202	209	249	256	225	186	177	172	167	228	212	202	231	258	233	221	220	201	194	198	188	212	223	213	241	192	230	243	242	244	248	250	250	
250	275	290	296	288	193	178	182	167	138	287	253	273	285	273	240	206	231	222	253	254	240	253	183	335	334	333	358	314	334	248	251	248	247	247	247	247	247	248	248	249	248	238	246	252	256	263	271	274	292	296	286	290	242	251	246	189	242	191	178	178	227	244	236	234	206	218	254	278	296	207	245	240	238	268	246	237	195	245	240	240	243	245	253	265	184	252	225	203	210	251	255	254	191	180	187	180	227	212	206	253	244	206	217	218	216	206	243	201	237	226	247	244	245	247	251	254	256	251	258	258	
309	292	291	358	187	200	197	208	210	210	208	199	157	262	273	260	208	229	224	258	262	258	270	311	313	319	333	30	65	28	84	245	245	246	247	247	247	247	248	247	247	246	237	240	242	244	246	251	244	226	241	221	197	209	222	224	207	193	213	241	242	240	251	239	229	207	228	236	219	215	239	245	241	247	246	242	127	253	242	250	258	257	237	265	268	252	338	224	199	208	248	253	266	256	311	351	149	228	213	213	242	222	214	219	217	250	245	245	247	251	250	248	246	250	251	252	259	260	256	253	253	
322	296	230	180	182	206	201	242	253	257	260	260	256	241	268	271	243	236	236	249	253	267	245	307	318	337	22	76	78	114	147	243	242	245	246	246	247	247	248	247	248	247	239	236	241	247	252	248	228	224	227	210	192	199	221	227	212	201	219	228	189	175	170	170	224	215	243	246	260	255	251	250	250	257	255	224	147	125	237	236	205	233	234	256	291	132	174	214	196	206	245	250	251	196	175	155	167	227	218	226	243	257	256	256	256	257	255	254	256	259	260	247	239	237	267	273	278	294	242	236	236	
160	198	201	192	196	242	244	247	254	260	265	266	264	263	270	275	267	255	252	241	237	245	256	319	319	344	130	112	96	92	137	243	243	243	245	246	247	247	247	247	249	248	244	242	246	251	254	238	221	230	224	212	193	190	223	228	212	206	222	224	209	205	202	186	225	222	240	257	262	256	249	249	249	250	270	201	169	177	180	207	200	233	242	208	182	176	175	209	198	208	240	258	255	199	185	172	166	223	219	223	248	257	261	261	259	260	253	248	251	255	257	252	232	251	268	286	305	228	226	209	209	
241	200	204	207	238	235	240	247	251	258	261	263	262	269	278	272	271	270	273	257	245	245	233	224	205	180	122	119	108	90	127	242	241	241	244	246	246	247	247	247	248	248	248	247	246	251	248	221	222	238	216	207	198	193	221	224	212	214	228	222	208	218	216	239	232	231	238	273	265	252	263	254	247	279	277	191	166	171	181	186	198	239	233	205	222	187	178	206	199	207	255	260	261	223	181	180	152	153	212	210	240	245	251	255	257	303	241	265	266	287	287	235	224	232	247	286	207	214	225	205	205	
204	214	204	192	230	222	235	277	283	278	286	288	288	301	310	339	257	265	278	282	257	246	241	247	266	298	134	132	115	89	203	238	237	239	243	246	246	247	247	248	248	248	249	250	252	250	239	223	238	237	211	209	208	209	217	221	219	224	230	227	220	245	243	241	239	245	248	262	285	244	255	254	249	232	198	181	171	173	178	198	202	248	208	244	227	192	186	207	198	205	251	255	253	189	180	162	162	220	207	203	231	257	267	280	294	292	239	264	269	306	228	232	226	235	252	275	203	223	225	204	204	
253	270	106	239	218	216	255	289	304	283	297	306	326	31	139	161	244	272	284	295	283	247	250	257	267	208	170	156	150	150	144	238	236	239	243	245	246	247	247	248	248	248	249	251	256	261	248	249	243	224	215	235	253	255	259	262	265	267	265	261	253	247	244	240	239	283	303	266	247	285	284	289	181	198	201	193	186	211	179	193	202	207	248	243	245	205	194	216	198	204	248	248	239	209	186	168	166	215	203	203	230	251	257	284	297	297	313	234	257	212	240	233	232	238	249	246	233	234	247	215	215	
189	184	200	228	215	219	253	290	320	282	301	109	220	246	246	245	311	303	345	288	311	265	248	237	236	198	186	165	150	156	194	243	238	241	244	245	246	247	247	248	248	248	248	251	252	251	262	256	238	251	248	249	256	261	262	264	268	271	270	263	253	246	246	243	268	275	256	301	256	253	248	213	188	185	196	194	206	204	240	195	187	248	246	242	245	247	213	228	199	205	247	239	237	231	185	168	170	205	200	206	248	249	247	261	287	298	229	285	261	237	235	268	234	243	249	249	239	234	305	228	228	
219	215	241	227	222	229	259	281	328	281	209	227	245	241	244	289	304	310	331	284	305	302	238	229	236	221	213	279	356	354	271	242	240	243	245	246	247	247	247	247	248	248	249	250	249	248	250	234	245	238	249	249	275	258	280	283	290	261	261	257	248	270	266	275	273	247	269	250	262	264	261	244	206	181	177	203	205	208	205	241	244	246	243	238	242	249	180	160	205	207	245	253	256	240	190	180	175	198	199	210	251	248	242	243	241	237	224	221	233	235	250	290	289	287	286	282	301	271	299	253	253	
255	252	244	232	230	261	264	269	83	243	260	249	239	235	262	291	319	326	347	258	274	301	292	251	248	249	280	269	283	332	87	212	237	242	244	246	247	248	248	248	248	248	248	249	249	253	258	248	237	241	257	274	274	280	281	284	293	300	289	294	292	269	249	281	297	287	247	287	253	258	263	263	254	225	179	245	246	245	243	241	244	245	241	237	246	222	191	175	219	212	244	260	252	219	196	187	178	216	202	218	257	261	259	256	226	220	197	210	233	221	201	233	244	269	236	264	291	298	238	236	236	
255	251	245	240	235	259	272	277	245	250	249	245	238	259	262	346	97	96	95	321	359	304	306	290	257	247	218	179	167	162	155	191	190	238	242	246	248	248	248	248	248	248	248	247	246	248	249	243	255	262	269	276	280	274	269	278	292	301	268	288	248	243	243	244	270	243	288	277	245	246	253	254	257	252	218	201	242	243	243	243	246	245	239	244	255	257	240	249	238	223	250	248	221	213	208	196	221	213	206	236	259	267	272	271	198	214	226	225	238	202	200	223	215	214	220	227	248	289	230	229	229	
248	244	245	249	246	260	263	279	272	244	239	266	240	258	297	144	218	214	164	162	148	272	301	309	252	247	226	209	202	197	187	196	191	240	244	248	249	249	249	248	248	248	247	246	243	239	237	260	264	263	260	258	250	244	245	238	244	296	299	309	247	243	244	246	244	247	273	232	201	190	172	237	245	250	250	245	242	241	242	245	248	246	245	248	259	254	262	260	249	247	255	232	219	216	238	234	223	220	209	232	254	260	260	232	200	199	220	226	240	210	229	222	221	236	239	241	246	271	233	220	220	
243	243	248	300	255	271	262	253	253	244	265	244	246	262	244	185	220	248	246	165	318	335	283	309	299	248	231	216	231	231	222	242	245	252	254	252	251	250	249	249	248	248	247	246	242	235	231	253	258	249	242	238	228	219	225	227	238	241	250	312	254	239	238	247	249	243	245	214	184	232	227	225	168	221	187	247	245	242	241	245	248	248	246	244	247	251	295	259	249	258	272	271	265	259	255	256	255	243	219	233	246	250	239	207	201	189	222	233	227	204	230	241	246	243	245	245	258	255	234	223	223	
240	243	276	305	296	285	270	260	255	245	264	272	270	258	257	229	249	244	241	247	303	322	280	289	297	283	267	257	256	258	254	248	253	262	266	261	256	252	250	249	248	248	247	246	243	236	234	250	248	243	239	237	227	213	223	236	247	256	255	250	247	242	239	250	248	248	248	251	187	178	250	249	223	207	241	243	243	241	239	242	244	245	248	243	240	276	312	189	241	251	264	268	266	258	254	256	274	260	237	235	244	242	231	192	240	227	229	240	247	244	240	241	242	240	260	242	265	250	237	240	240	
237	262	283	308	316	296	288	294	259	253	305	249	162	255	255	251	2	242	239	267	306	324	327	287	276	275	264	256	258	258	253	249	273	289	267	269	264	255	251	249	248	248	248	247	244	238	238	252	249	242	235	234	227	217	224	238	248	254	303	249	247	243	246	251	250	248	250	252	198	219	208	254	253	248	244	242	240	239	239	241	239	240	281	245	241	286	173	160	240	251	258	260	260	244	257	287	313	278	240	241	247	244	226	199	187	231	238	253	258	254	250	253	252	250	250	228	222	239	199	226	226	
233	269	280	308	305	290	307	254	245	311	243	245	245	246	255	241	260	266	238	282	346	296	312	330	330	249	249	265	267	270	265	279	289	309	290	318	263	257	252	249	248	247	248	247	246	242	243	248	243	239	234	234	230	225	235	248	252	253	254	246	245	242	246	251	251	250	249	248	187	244	249	257	252	251	246	242	240	240	240	240	237	260	291	243	274	282	246	329	275	296	349	238	283	274	276	293	318	260	241	242	248	250	223	197	228	229	238	246	254	259	260	253	245	245	234	223	243	240	247	242	242	
220	256	275	302	305	268	172	185	205	211	207	191	172	237	188	234	252	312	262	0	188	179	158	117	5	293	247	278	293	290	285	295	320	8	63	50	253	255	252	247	247	247	247	250	248	247	250	251	240	239	232	237	237	236	245	253	255	255	254	249	246	243	245	247	248	248	247	247	244	224	247	263	247	278	242	237	238	241	240	241	272	256	294	107	275	299	307	300	295	239	234	302	283	267	271	293	290	100	241	241	248	246	217	222	220	225	259	264	272	287	256	261	256	241	250	245	250	252	221	204	204	
220	237	246	231	256	258	215	241	233	233	233	229	217	205	206	225	209	187	218	193	187	211	242	233	91	272	272	277	286	284	295	332	36	109	77	278	305	249	245	244	245	246	247	249	249	249	254	256	254	238	228	236	238	239	247	254	261	263	272	295	249	255	245	246	244	243	246	229	246	245	310	246	247	272	237	232	238	278	237	269	279	267	305	228	275	296	347	37	240	240	318	285	290	289	256	240	192	209	233	239	247	238	230	233	224	237	253	258	271	268	247	246	261	255	251	246	263	200	194	245	245	
234	248	254	258	259	264	263	260	260	262	263	264	232	225	219	231	218	204	226	219	180	206	240	234	222	223	250	263	279	286	310	335	343	348	345	345	32	143	233	240	244	245	247	248	249	250	252	255	259	257	234	238	237	236	245	251	255	255	250	258	288	243	246	243	238	237	241	243	243	247	302	242	265	260	231	229	241	240	233	279	297	291	262	240	296	312	223	239	6	235	233	232	294	356	206	212	191	182	178	233	235	242	238	234	233	247	258	257	263	289	244	237	236	246	248	249	273	211	240	237	237	
240	247	263	284	255	258	251	253	256	257	257	260	263	260	256	257	233	219	228	223	216	204	178	235	226	229	233	238	246	270	308	321	336	334	6	87	133	165	225	236	243	245	247	249	250	250	251	253	257	259	255	238	233	230	238	240	237	229	219	221	229	226	239	228	231	235	241	242	238	246	288	294	315	233	225	224	257	238	230	274	310	294	253	338	230	215	237	342	231	232	316	162	212	208	199	242	241	192	179	150	222	217	223	244	246	243	270	268	262	293	240	233	229	265	241	272	185	195	223	223	223	
243	249	266	263	170	176	247	316	149	169	202	251	257	263	268	266	261	257	255	225	219	246	245	243	234	239	244	243	246	246	187	145	116	133	147	152	158	228	224	236	243	246	248	249	250	250	251	252	254	258	258	257	238	233	234	236	229	221	217	229	232	213	200	232	225	233	239	245	235	263	311	180	180	222	224	222	253	328	251	271	146	235	278	240	221	247	243	236	224	218	210	242	247	251	248	249	247	244	190	170	219	202	211	239	261	262	266	270	260	284	238	233	281	258	286	186	186	184	227	222	222	
253	265	264	257	213	203	200	202	217	247	247	251	255	261	269	272	270	267	263	259	254	251	252	256	261	265	258	243	241	231	219	203	188	179	175	174	171	226	228	239	245	248	249	250	250	250	250	251	253	255	257	261	263	234	238	234	222	219	228	235	223	212	206	196	244	236	236	240	242	231	246	239	229	223	227	225	255	275	255	249	241	216	238	236	226	245	251	253	252	249	247	246	249	255	257	260	262	259	243	190	200	206	208	237	250	241	228	220	229	237	238	239	276	240	190	196	197	225	224	226	226	
269	268	269	268	263	259	257	254	251	246	246	249	252	290	260	264	267	266	262	258	254	250	252	258	269	279	286	271	236	225	222	220	216	202	188	187	200	229	233	245	251	251	251	250	250	250	250	251	252	253	254	259	263	264	264	240	223	231	238	227	217	222	218	215	233	214	214	220	216	221	244	240	236	241	231	229	252	303	278	200	221	214	242	184	239	248	238	244	249	250	247	244	244	246	250	255	261	265	263	254	239	215	210	238	234	219	238	238	234	244	204	168	152	178	186	187	230	226	222	234	234	
263	264	279	266	264	262	257	249	249	246	244	270	277	312	253	292	257	253	252	252	248	246	249	285	309	277	288	291	261	254	252	249	247	217	224	211	237	235	242	253	258	257	254	252	251	251	250	251	251	252	253	255	257	262	268	264	254	240	233	221	227	249	246	244	219	214	221	230	228	230	238	253	241	248	260	230	243	303	243	248	238	230	245	194	180	214	215	234	209	232	233	233	262	263	264	269	239	245	246	263	250	221	216	242	237	235	231	247	255	256	205	196	184	179	190	191	225	220	225	239	239	
255	254	268	256	253	254	250	241	273	249	268	278	299	312	306	322	250	299	245	246	243	272	269	291	283	316	273	276	273	269	269	268	266	259	249	242	239	241	248	257	260	257	256	255	252	251	251	251	251	251	251	252	254	257	262	263	260	237	234	237	251	259	240	208	210	236	238	244	254	244	252	266	237	289	247	238	243	218	188	239	233	228	243	234	175	249	247	241	236	234	232	227	214	223	202	162	151	158	281	284	229	223	219	232	238	254	244	243	265	244	195	239	201	176	220	224	231	228	241	246	246	
241	286	291	253	257	327	42	234	288	331	268	275	306	330	339	236	241	287	287	291	280	277	270	292	210	135	115	123	200	262	269	271	268	261	252	244	239	262	286	313	290	249	254	254	252	251	251	251	251	251	251	251	252	253	255	259	262	258	249	245	248	246	213	230	213	238	239	257	249	254	257	235	235	234	237	242	252	251	243	217	230	225	248	252	238	204	246	248	251	253	251	248	244	244	219	241	205	232	233	175	223	226	226	228	237	256	268	269	252	211	187	214	216	190	215	230	233	239	247	249	249	
236	235	240	292	248	247	235	240	297	251	241	271	204	243	180	244	269	272	297	287	293	249	250	217	191	195	183	230	237	255	265	267	264	258	253	246	262	283	318	151	194	248	255	255	253	253	253	252	251	251	251	251	251	251	252	254	255	255	252	245	244	239	213	235	225	244	241	231	235	237	245	194	242	232	213	180	246	252	251	219	232	226	246	246	229	241	238	242	248	251	254	258	259	256	252	247	242	246	241	238	181	235	238	233	226	239	233	223	217	210	189	233	211	194	225	227	235	251	245	244	244	
235	238	221	243	251	239	231	248	300	250	267	288	322	249	247	245	311	234	286	311	252	181	212	215	198	233	233	228	236	276	293	275	275	270	266	269	300	184	192	243	244	254	261	259	258	257	255	254	252	251	251	250	250	250	250	251	251	253	255	254	247	232	231	226	233	241	250	249	253	261	254	231	183	245	229	218	241	244	249	247	236	232	239	234	233	238	235	239	266	214	240	250	258	256	253	253	253	252	253	252	251	245	270	244	236	241	233	215	210	224	213	189	198	221	223	229	248	252	272	271	271	
246	247	238	239	189	234	230	276	245	239	281	264	181	234	232	239	179	228	243	174	175	179	252	215	242	236	233	229	258	278	299	309	301	288	296	334	136	226	245	241	277	287	262	264	266	264	259	255	253	252	251	250	250	249	249	249	249	250	251	254	257	240	233	244	260	258	259	254	268	268	260	247	250	190	238	242	242	231	239	242	238	236	239	242	238	250	256	258	218	234	233	275	267	241	245	249	248	246	246	246	253	306	263	249	241	245	243	210	219	240	224	231	232	229	228	240	266	284	280	263	263	
258	258	255	246	235	195	232	220	199	200	210	209	203	196	199	191	193	224	230	210	195	192	241	246	239	235	243	238	263	288	319	324	298	297	355	154	224	234	235	242	268	309	289	264	272	272	265	259	255	253	251	250	249	249	248	248	248	248	247	247	248	260	267	242	251	269	270	270	272	279	257	237	249	238	231	244	228	220	206	238	236	236	239	245	239	182	178	184	225	258	262	268	148	231	239	245	243	243	241	244	300	307	319	244	242	246	244	210	227	247	215	223	222	226	245	246	265	286	287	292	292	
261	264	270	263	247	210	218	230	195	187	226	209	223	221	220	218	208	252	228	225	210	237	239	240	236	238	274	282	268	289	313	316	316	35	169	174	226	219	231	255	294	307	306	289	268	274	272	266	259	255	252	251	249	249	248	248	247	247	245	241	238	252	262	264	262	264	262	265	266	277	203	239	229	238	230	236	231	222	215	199	232	238	246	240	231	222	210	213	220	204	204	233	156	228	271	281	287	238	275	288	338	145	150	151	234	242	253	242	237	244	203	228	223	229	264	269	270	280	235	228	228	
269	258	266	271	265	235	228	231	211	199	249	252	257	261	263	263	261	262	264	260	251	242	236	236	263	268	295	300	271	285	317	6	155	179	187	218	216	215	261	276	296	296	294	304	324	318	272	269	263	258	255	252	250	249	248	248	247	246	245	240	238	244	243	244	240	225	227	241	238	215	189	235	231	241	233	240	237	219	215	229	228	238	250	259	259	255	250	248	246	242	213	204	227	226	258	285	272	277	279	122	186	242	230	169	219	240	246	237	247	233	236	222	226	261	264	253	246	255	236	230	230	
198	186	238	264	269	262	259	240	256	249	248	251	257	260	261	263	262	259	262	261	254	249	240	232	256	266	307	289	276	285	174	175	182	196	186	228	218	222	260	274	290	290	292	309	334	350	334	264	262	262	259	253	250	249	248	247	247	246	245	243	241	248	249	243	224	222	235	236	224	226	219	187	179	240	231	238	242	229	210	223	224	237	244	252	257	258	259	261	263	259	245	231	230	230	227	232	280	296	171	204	244	247	164	229	252	247	228	224	246	220	225	220	252	249	214	232	227	235	207	239	239	
254	253	251	256	263	262	260	260	254	248	249	252	281	253	254	299	249	247	251	255	255	303	249	233	259	267	296	288	280	174	183	183	185	231	233	233	232	251	268	270	290	286	293	306	328	341	358	328	256	259	260	255	252	250	249	247	247	246	246	245	245	246	242	229	217	227	233	234	241	253	221	228	182	196	234	234	244	232	205	222	223	236	236	235	239	246	248	250	256	262	252	237	235	225	225	239	252	165	211	136	8	356	321	236	309	231	216	219	241	236	224	242	236	236	241	244	254	253	222	242	242	
254	267	250	275	251	250	251	252	245	239	263	275	307	303	309	115	235	236	273	277	288	298	237	230	254	264	282	262	253	189	182	188	232	231	234	237	274	294	278	264	293	299	289	304	331	351	359	1	318	323	253	254	254	252	249	248	247	247	246	246	249	253	254	230	225	233	244	252	256	259	190	186	185	190	240	239	242	235	198	222	225	240	222	242	250	254	256	239	280	245	243	235	233	236	246	251	260	192	238	259	317	318	230	234	277	216	211	218	233	233	235	245	252	254	267	247	247	255	209	240	240	
251	261	264	238	243	241	242	249	243	250	276	313	310	313	251	243	228	236	268	288	321	226	239	238	246	252	220	202	215	203	191	225	222	226	237	269	281	336	293	257	288	329	285	311	304	338	358	26	41	206	245	253	259	256	251	248	247	247	246	247	250	254	256	249	233	239	248	247	244	237	222	191	211	197	246	246	242	246	188	208	237	219	213	219	228	235	248	263	159	183	144	221	226	237	254	250	245	239	251	131	140	317	339	143	162	213	210	212	226	231	235	238	254	250	249	268	267	250	244	230	230	
244	243	233	241	240	238	238	270	253	251	248	306	313	2	250	234	224	261	271	302	235	246	248	259	260	246	219	193	207	207	234	230	224	229	261	276	294	270	343	226	280	356	292	161	141	353	98	76	104	184	241	295	258	257	253	249	247	246	246	247	250	252	253	252	247	233	233	233	231	231	222	237	194	246	253	247	189	250	197	208	226	214	216	233	242	246	205	178	180	184	231	212	216	234	249	247	252	216	215	196	189	192	175	173	174	169	211	205	220	248	250	261	257	264	270	272	271	222	233	220	220	
245	253	244	237	267	270	234	276	253	298	255	248	321	208	227	226	222	256	298	187	215	243	251	262	272	268	227	198	243	243	235	235	240	228	257	276	301	312	222	227	269	84	168	190	190	183	175	177	216	238	299	324	310	252	250	248	247	245	246	247	248	249	250	252	254	252	250	237	234	237	234	215	214	185	233	243	247	256	229	212	236	233	238	255	258	253	227	183	213	222	233	207	211	234	252	255	264	173	167	191	244	242	239	191	190	208	212	204	220	247	253	248	250	251	259	273	209	205	235	228	228	
253	251	240	237	241	267	236	261	295	254	260	255	302	245	237	221	230	271	246	251	239	244	272	253	261	266	230	246	236	237	236	266	297	283	254	248	316	245	229	240	257	178	174	175	210	208	203	239	233	288	305	348	277	251	247	246	245	245	246	246	247	248	248	249	252	253	252	246	242	246	242	220	212	224	194	218	243	252	249	210	230	233	243	261	258	251	247	167	161	195	162	204	205	231	253	255	261	176	166	144	144	257	198	192	214	205	212	206	239	246	274	287	270	262	260	263	208	243	239	235	235	
250	247	235	236	239	266	241	249	260	287	253	260	210	235	227	222	256	283	252	234	239	259	239	216	153	252	251	238	232	239	238	274	312	321	265	255	253	249	241	254	259	189	182	214	196	241	241	240	238	289	312	337	298	255	249	245	245	246	246	247	247	247	247	248	249	250	252	244	242	243	239	215	217	233	233	239	237	242	234	222	220	237	255	257	254	252	251	245	209	188	172	207	203	230	244	248	245	186	169	243	246	248	252	243	238	196	211	209	237	241	266	294	282	259	246	218	188	234	227	226	226	
193	241	233	227	233	241	251	257	270	254	132	218	247	242	226	227	272	321	250	242	260	189	185	198	238	241	241	233	233	263	277	280	317	245	273	255	293	252	333	259	192	181	174	200	233	229	233	237	278	313	328	323	29	10	250	247	247	247	247	247	246	247	247	247	247	249	252	252	243	245	235	210	227	244	244	198	205	162	192	207	213	235	250	249	252	251	224	252	251	198	230	212	206	232	246	246	246	254	255	256	258	232	285	121	227	220	209	210	235	250	259	291	244	275	249	193	195	194	226	225	225	
196	207	231	230	249	251	253	261	272	216	257	255	250	243	235	241	266	174	168	179	194	215	207	241	239	242	239	233	258	261	274	281	317	248	236	262	294	279	246	158	187	178	181	233	218	222	255	263	310	12	36	160	119	264	251	253	251	249	248	247	247	246	246	246	247	248	251	252	252	248	230	214	238	250	239	206	186	172	193	202	211	238	252	250	251	252	196	204	248	251	234	214	206	230	245	246	249	257	166	168	161	159	161	157	187	214	207	211	233	246	253	278	239	267	245	188	236	240	237	233	233	
244	241	234	235	248	257	267	256	244	226	252	249	248	245	245	255	234	204	193	193	206	244	242	241	242	247	247	239	253	261	268	287	301	249	245	256	247	180	190	187	194	200	185	223	211	222	265	290	19	120	107	147	177	316	281	249	253	252	249	248	247	246	246	246	246	247	248	250	253	243	232	230	244	244	227	214	193	179	191	203	212	240	252	247	251	261	245	263	237	303	151	215	201	218	236	246	251	235	182	183	187	191	184	172	190	213	207	211	232	245	250	261	243	168	192	197	185	228	231	228	228	
251	248	242	257	264	253	256	274	259	250	287	237	289	252	249	221	215	207	219	246	240	239	241	243	244	280	251	245	245	244	251	264	293	294	299	282	207	196	194	189	187	215	238	220	217	249	269	78	157	154	152	153	144	133	45	257	245	252	253	250	248	246	246	245	246	246	247	249	254	254	246	238	243	238	230	224	195	182	216	204	214	242	255	254	254	260	248	170	168	174	164	198	201	212	245	252	256	271	172	136	139	164	174	201	227	216	208	210	219	250	249	250	243	245	239	184	204	198	216	227	227	
252	248	273	271	264	265	283	255	261	193	194	240	176	164	169	189	198	216	203	238	235	236	241	245	247	296	251	234	243	252	251	243	250	281	297	253	108	164	191	192	215	202	229	225	233	258	252	204	185	201	194	185	162	161	154	205	272	251	258	256	250	247	246	245	245	245	246	247	250	252	248	239	241	241	238	229	194	214	213	206	217	241	255	254	254	257	188	175	172	176	230	208	200	204	235	248	253	235	168	154	142	134	146	197	228	219	210	207	216	255	256	249	241	207	230	230	199	204	215	233	233	
299	249	247	256	263	263	270	176	190	190	206	216	207	197	195	196	212	207	239	234	233	237	266	271	291	317	249	232	238	271	280	259	247	246	227	193	169	158	133	220	201	232	225	234	274	269	259	233	247	196	133	69	92	135	140	258	282	297	254	256	253	248	245	244	244	245	245	246	247	248	250	249	241	242	237	226	199	208	212	210	220	243	254	252	253	255	186	176	170	304	140	210	199	203	237	250	251	215	180	174	164	152	149	194	191	222	214	206	213	247	246	233	216	196	179	172	175	208	217	238	238	
279	253	249	255	251	253	243	202	194	192	196	226	224	223	221	217	248	244	239	233	234	264	273	282	303	255	242	239	242	241	270	289	270	262	217	252	202	191	181	178	234	223	227	270	297	255	257	252	123	342	244	329	48	100	312	296	308	333	302	247	248	246	244	244	244	244	244	245	245	246	248	249	249	244	236	227	203	230	215	216	238	251	253	254	254	248	216	174	160	175	162	199	199	204	235	249	249	247	189	140	131	137	147	191	197	225	218	208	219	242	224	213	213	211	201	211	232	234	239	241	241	
257	249	242	267	268	261	260	188	188	190	218	215	249	252	254	252	249	247	241	231	234	274	277	277	299	234	237	244	246	241	248	281	255	259	187	242	231	226	223	210	227	224	256	272	251	250	358	248	244	240	268	61	236	80	239	294	319	29	192	156	244	241	242	243	243	243	243	244	244	245	246	248	251	244	240	229	217	228	218	222	239	244	244	246	251	237	209	196	193	182	172	195	197	204	233	246	249	257	233	153	143	151	154	185	192	199	222	216	232	241	231	228	228	229	221	238	237	239	239	240	240	
253	245	239	258	255	258	257	188	175	220	210	244	245	250	254	253	253	253	240	226	254	274	280	275	252	241	237	272	244	240	250	255	290	182	161	147	234	249	245	236	227	229	260	285	250	298	245	259	351	36	217	209	232	235	237	300	319	46	218	134	246	241	242	244	244	243	243	243	243	244	245	246	251	252	251	231	212	227	222	229	242	243	245	248	250	211	241	206	214	186	177	192	195	205	235	248	251	248	180	170	156	155	156	184	196	196	225	224	240	254	255	254	253	251	245	239	238	239	238	237	237	
248	245	242	253	255	258	257	190	223	210	240	239	242	247	250	278	283	291	236	223	247	261	277	296	248	235	241	261	240	237	250	254	240	192	181	182	230	242	242	299	229	253	250	287	247	293	302	159	219	214	245	238	233	234	280	333	183	253	41	339	247	244	244	245	244	243	242	242	242	243	243	245	249	252	254	250	240	230	228	245	243	247	252	254	244	192	236	221	237	182	177	192	195	207	238	254	250	229	202	177	164	160	193	185	195	230	228	229	242	252	254	254	255	253	249	244	242	239	237	235	235	
250	243	239	246	269	271	205	234	209	238	235	236	239	263	266	299	323	248	235	228	239	247	256	268	247	236	253	244	239	237	254	268	294	198	239	230	242	239	241	236	234	252	246	263	246	248	237	247	245	243	52	237	237	297	24	147	151	281	23	43	337	244	245	248	246	242	241	241	241	242	242	243	245	248	252	249	241	233	231	245	247	251	252	250	226	238	181	230	239	199	180	192	197	208	239	255	236	212	214	190	176	169	194	188	226	231	233	236	243	248	251	254	255	254	252	249	246	243	238	232	232	
238	240	229	242	251	257	205	217	238	236	237	236	256	277	305	182	226	246	240	233	240	247	252	248	242	241	313	246	241	239	238	248	249	200	238	243	237	240	329	233	238	266	256	260	30	179	230	230	239	15	232	258	324	97	138	109	316	304	297	27	283	333	241	249	247	241	240	240	240	240	241	242	243	244	245	244	241	236	232	236	253	247	242	237	218	183	209	235	220	206	187	195	201	211	241	253	205	199	216	199	184	179	198	225	229	233	237	243	247	245	245	250	253	254	253	249	244	245	236	223	223	
219	241	243	251	256	257	234	239	234	239	245	241	251	271	207	232	220	249	247	235	237	250	251	228	240	246	303	246	241	246	247	243	224	243	241	234	236	259	240	229	254	296	253	249	193	231	222	231	241	232	234	292	110	127	75	344	234	306	273	328	30	274	291	300	239	235	238	238	239	239	240	241	241	241	241	240	240	236	232	237	249	238	235	235	218	218	216	221	229	227	200	199	209	216	246	247	193	185	211	205	191	204	230	231	233	234	239	245	248	240	259	257	261	265	268	266	260	261	256	205	205	
246	248	252	254	256	258	249	232	235	245	307	243	249	268	286	324	316	312	249	231	234	252	246	242	242	258	190	178	217	253	174	255	233	220	240	239	243	245	236	229	272	248	239	221	192	192	187	220	229	230	251	96	245	15	329	316	233	19	169	154	93	21	346	212	229	229	234	236	238	239	239	240	240	240	240	239	238	235	232	239	245	233	237	234	235	244	245	252	252	250	244	231	218	223	253	224	193	184	215	209	213	232	231	234	235	234	257	261	267	266	249	261	277	294	344	239	270	285	236	199	199	
248	254	258	254	257	251	242	228	257	268	265	237	251	271	304	314	313	324	216	224	233	251	258	256	260	271	242	245	245	250	254	250	241	238	238	239	300	245	270	237	266	175	225	203	192	208	184	227	229	240	278	357	344	349	19	94	235	166	161	156	127	121	140	184	227	226	230	234	237	238	239	239	239	239	239	238	237	234	232	239	248	244	242	253	252	249	250	254	254	252	245	234	224	232	246	208	193	205	215	220	238	231	230	232	232	250	269	289	320	223	210	237	279	337	225	216	230	280	314	214	214	
249	264	248	247	264	251	235	226	250	297	251	229	234	267	309	141	168	224	205	222	235	260	250	245	237	226	180	238	243	246	235	243	236	239	243	237	273	242	238	250	238	177	168	180	197	207	231	227	231	238	247	108	77	231	128	168	187	194	133	163	151	150	163	184	229	226	228	233	236	238	238	238	238	238	238	237	237	235	232	236	245	247	257	247	249	249	250	254	256	252	244	235	228	245	241	219	209	235	240	242	239	235	232	232	248	262	276	307	236	219	205	252	283	241	233	219	219	233	226	219	219	
248	193	222	238	272	246	235	231	253	299	247	229	246	247	200	198	223	219	236	228	243	258	262	261	259	241	217	218	208	182	228	238	231	240	239	228	210	236	173	179	185	250	172	166	211	206	232	224	232	249	239	186	189	185	216	241	167	211	222	174	167	149	181	181	232	228	230	234	236	238	238	238	238	238	237	237	236	235	233	234	235	242	252	241	244	246	247	254	259	255	246	239	234	240	233	212	234	234	238	240	242	239	231	249	266	264	283	279	230	217	205	231	288	240	233	223	223	239	228	226	226	
220	241	242	239	251	249	240	239	261	223	244	239	262	215	230	249	251	248	241	237	247	284	263	263	266	267	263	235	222	206	181	236	230	239	244	230	224	213	176	182	219	188	214	235	238	208	234	216	233	246	228	192	183	200	187	155	141	186	211	198	177	162	189	189	232	227	231	235	236	238	238	238	238	238	237	237	237	236	234	234	233	239	246	257	238	240	241	265	274	255	250	244	238	243	222	237	231	234	237	240	264	242	258	264	265	268	296	219	230	216	206	247	267	243	234	226	228	245	228	222	222	
209	236	242	247	248	289	245	245	263	257	242	250	198	253	244	249	253	251	245	243	249	255	255	255	261	268	272	272	266	228	222	194	237	239	242	229	229	234	204	235	242	248	246	231	238	212	237	198	239	238	220	207	186	198	208	191	173	173	199	210	199	181	172	194	230	227	232	236	237	238	237	237	238	237	237	237	237	236	236	234	232	232	236	246	262	246	268	281	289	263	247	246	243	245	242	231	228	231	232	251	275	295	267	261	256	265	307	222	229	215	212	231	249	240	235	231	238	240	228	210	210	
228	231	248	263	250	246	292	257	288	248	240	244	232	238	239	247	248	246	245	246	265	257	250	250	253	258	264	268	269	268	263	254	200	239	253	232	233	236	223	177	236	242	209	226	240	176	234	178	244	227	212	217	201	198	207	201	194	180	211	227	225	217	213	238	236	233	235	237	237	238	237	237	237	237	237	237	237	236	236	234	233	233	229	234	240	250	260	277	272	276	244	233	236	237	232	223	221	244	242	265	279	297	342	222	229	251	314	209	228	215	219	237	257	300	259	306	291	312	221	200	200	
224	235	244	236	238	244	264	192	210	240	236	229	239	235	242	259	258	265	276	275	273	250	249	250	273	316	238	250	256	264	269	268	263	262	265	257	232	231	222	213	210	188	167	169	229	203	175	194	236	227	216	225	216	209	208	207	207	217	242	250	252	251	252	252	247	241	238	238	237	238	237	237	237	237	237	237	237	236	236	234	233	234	230	235	239	240	245	259	255	230	170	207	200	222	220	216	215	239	254	260	276	293	238	328	231	252	313	209	227	213	218	267	270	281	225	251	274	256	219	206	206	
226	237	240	249	248	248	251	252	257	256	251	244	240	242	281	244	260	253	296	266	293	290	255	264	4	252	244	242	247	254	258	262	265	269	276	277	270	236	230	222	221	203	174	147	230	211	223	243	263	273	271	247	244	239	237	256	254	248	247	253	254	253	256	294	252	246	241	238	237	237	237	237	237	237	237	237	237	236	236	234	234	235	232	229	237	238	239	238	189	174	166	191	183	218	213	210	214	241	256	258	267	285	268	230	225	254	304	222	226	210	216	255	295	241	174	225	226	191	224	220	220	
235	244	252	247	248	251	238	206	249	251	248	243	247	265	252	246	238	238	240	288	287	282	250	235	241	245	262	242	278	284	248	250	254	261	268	280	286	275	236	231	226	211	187	162	209	245	242	249	263	273	277	276	272	267	262	260	260	254	250	249	250	270	275	290	305	247	239	235	236	237	237	237	237	237	237	237	237	236	236	235	235	236	234	231	239	239	239	236	204	186	177	193	222	220	212	208	213	251	258	257	255	263	279	232	295	238	306	217	225	210	214	246	297	242	241	172	234	202	195	207	207	
230	240	251	256	266	257	256	261	277	243	239	243	257	252	253	253	253	249	234	232	243	269	228	246	245	266	239	243	302	269	280	284	296	246	254	270	281	287	273	255	220	217	209	193	231	236	239	258	267	279	287	263	265	265	258	253	253	251	268	265	281	284	297	318	295	245	236	231	234	236	236	237	237	237	237	237	237	236	236	235	235	236	235	234	237	238	235	228	209	193	204	221	222	221	212	210	212	244	240	235	226	228	245	257	298	261	320	210	224	217	220	246	262	229	195	231	236	233	227	233	233	
220	233	249	271	254	247	248	250	285	243	281	299	190	240	244	249	255	259	251	234	243	248	236	260	299	236	249	342	129	339	309	308	263	289	287	294	328	276	277	271	266	260	252	244	237	235	248	272	295	338	253	258	289	273	273	259	281	289	286	284	281	288	301	327	65	149	232	228	232	235	236	236	236	236	237	237	237	236	236	236	236	236	236	237	241	240	235	227	213	198	202	224	226	222	213	212	217	237	235	234	238	244	246	263	287	293	194	235	222	219	227	235	253	166	160	229	232	237	234	225	225	
242	253	256	238	231	227	236	235	243	239	230	204	244	235	238	245	244	249	250	241	245	238	208	282	291	38	244	225	245	243	195	190	314	272	290	298	286	247	250	256	249	248	249	248	241	245	265	283	332	243	337	272	287	308	332	282	279	297	289	281	286	301	343	133	138	167	228	226	231	234	235	236	236	236	237	237	236	236	236	236	237	237	236	238	241	248	239	232	224	211	232	228	230	224	215	213	231	244	250	257	269	240	270	261	277	315	223	233	223	221	257	263	296	162	157	162	225	222	224	222	222	
263	264	275	277	270	263	242	231	224	194	251	179	248	240	213	199	181	222	238	235	248	232	213	230	244	231	248	175	171	251	247	241	235	237	184	181	163	154	112	159	230	232	241	257	257	267	270	300	240	231	295	233	286	306	328	291	275	296	286	283	304	38	151	159	150	177	225	225	229	233	235	236	236	236	236	236	236	236	236	236	236	237	237	237	240	245	249	231	245	239	234	230	230	226	220	218	217	224	228	241	256	278	256	265	265	215	237	231	286	223	254	237	185	176	171	178	176	218	220	215	215	
288	282	264	275	274	270	272	265	247	246	187	250	251	253	217	224	218	217	201	237	250	234	226	249	235	244	244	247	247	248	251	180	245	232	195	198	196	189	186	227	221	226	261	279	300	274	273	238	237	315	260	281	284	306	306	302	275	286	298	274	168	169	167	164	155	185	164	222	227	232	233	235	236	236	236	236	236	236	236	236	236	236	237	237	239	243	245	247	244	240	236	232	231	227	224	224	223	222	221	232	242	235	228	235	235	234	232	301	313	221	255	163	176	188	179	228	223	216	221	215	215	
301	282	294	285	258	260	269	273	262	252	207	184	213	258	256	252	252	255	255	255	257	238	242	250	241	240	238	240	246	239	245	249	181	228	191	179	191	225	234	227	224	257	259	286	305	277	276	230	232	224	256	281	230	227	20	295	275	287	159	248	220	248	189	177	161	148	170	222	227	230	232	235	236	236	236	236	236	236	236	236	236	236	236	237	239	241	242	242	241	239	236	235	232	227	226	227	225	223	230	237	237	216	220	231	236	237	228	313	297	320	227	152	139	156	150	142	222	224	218	216	216	
237	240	287	259	246	250	273	265	260	261	261	253	239	252	251	252	253	256	260	268	273	263	243	236	223	221	199	175	178	194	166	240	143	209	203	187	216	235	233	229	241	268	274	241	192	233	219	234	317	265	189	189	210	202	209	215	219	214	166	152	163	169	176	170	160	150	174	222	226	229	232	235	236	236	236	236	236	236	236	236	236	236	236	236	237	239	238	238	237	236	237	236	231	228	229	228	226	222	215	240	245	241	258	264	258	258	229	169	172	195	219	190	159	151	168	164	217	219	217	229	229	
233	237	239	284	248	266	262	252	275	255	252	250	226	236	240	248	248	247	282	262	272	280	268	242	224	221	217	202	193	206	203	189	172	231	239	240	231	231	231	241	267	280	217	208	240	242	219	213	222	186	172	173	198	204	220	219	207	221	204	237	241	243	329	338	63	131	179	222	226	230	234	237	237	237	237	236	236	236	236	236	236	235	236	236	237	237	236	236	235	235	236	234	228	228	231	230	226	221	215	237	244	249	259	258	258	270	229	174	171	227	228	223	185	181	172	222	223	216	218	228	228	
205	226	222	229	222	241	283	244	271	272	244	230	237	230	234	264	276	244	296	276	314	272	280	264	233	220	221	211	198	207	211	206	195	225	243	237	231	231	243	267	270	225	209	248	243	248	246	235	217	202	189	238	237	222	237	225	192	222	233	216	238	306	322	131	144	150	184	223	227	233	237	240	240	238	237	236	236	236	235	235	235	235	235	236	236	237	236	236	235	236	237	233	229	229	231	230	227	222	216	231	237	238	247	268	258	247	169	160	163	166	228	236	210	189	228	219	224	220	224	232	232	
240	251	259	258	252	239	241	248	249	195	231	243	237	236	239	256	264	272	312	176	254	250	266	268	260	257	220	218	212	215	248	240	246	243	241	236	231	244	267	259	227	251	248	251	257	256	250	242	210	200	212	199	175	239	241	244	198	225	239	227	202	186	172	173	176	199	227	226	230	235	239	242	241	239	237	236	236	235	235	235	235	235	235	235	235	236	238	238	237	238	238	234	231	229	230	229	227	224	219	216	238	238	241	250	264	190	214	194	181	230	233	241	240	234	228	227	227	229	230	234	234	
240	247	256	264	267	255	248	250	241	251	246	239	238	263	245	256	292	313	169	161	165	204	242	254	263	258	260	260	261	261	257	251	248	247	243	237	236	246	249	254	255	251	249	254	262	267	263	257	253	247	249	248	244	250	263	266	263	253	243	231	207	205	199	185	201	230	230	231	235	241	244	243	240	237	236	236	235	235	235	235	235	234	235	234	233	234	236	236	236	236	235	233	230	228	228	229	228	226	220	217	235	239	242	247	242	180	160	158	171	230	238	246	245	239	232	228	229	234	226	220	220	
236	261	263	272	261	255	255	255	251	245	243	237	256	258	302	258	205	197	186	176	198	195	235	243	260	265	261	260	263	263	259	253	248	256	255	239	259	257	257	254	251	249	248	251	253	257	263	265	262	255	251	249	248	251	256	261	268	276	266	232	208	203	204	195	229	230	232	235	241	250	253	249	243	237	235	235	235	235	234	234	234	234	234	233	232	233	233	233	233	232	232	232	229	227	228	229	229	226	221	216	239	249	253	256	257	172	212	232	169	227	231	234	233	230	226	227	230	287	223	213	213	
243	242	253	296	251	246	253	264	254	241	253	260	241	210	202	207	206	210	210	213	202	235	233	239	254	257	259	256	255	256	254	253	250	238	250	251	257	286	289	249	246	273	277	286	218	238	243	255	259	255	249	243	247	245	249	252	339	256	269	248	218	230	226	239	233	231	233	237	264	296	297	251	246	239	234	234	234	234	234	234	234	234	234	233	232	232	233	232	232	231	231	232	229	227	228	228	228	225	221	215	216	250	254	260	241	242	236	200	229	224	254	174	222	218	218	225	268	277	222	212	212	
245	246	249	278	248	241	248	280	250	185	225	219	225	225	255	256	257	259	258	254	246	235	231	237	277	276	282	275	292	281	292	323	236	227	233	286	292	283	282	276	244	271	325	250	242	231	234	284	244	244	243	241	278	297	141	163	175	220	254	266	266	261	254	243	235	231	231	252	278	303	331	302	244	237	232	233	234	234	234	233	233	234	234	233	232	232	232	232	231	232	232	233	229	227	226	224	226	223	219	210	238	249	252	261	232	183	241	230	246	101	227	227	222	217	215	247	273	248	221	211	211	
239	284	257	274	245	238	248	253	233	249	253	256	258	255	254	256	259	260	260	256	246	234	234	262	275	299	306	298	81	203	207	196	227	221	265	289	288	285	274	293	283	271	304	246	238	228	236	285	295	283	287	300	150	196	197	230	244	245	249	259	262	257	252	241	229	227	247	269	283	313	5	46	191	235	232	234	234	234	233	233	233	233	233	233	232	231	231	232	232	233	233	232	230	228	226	222	223	222	217	207	206	242	246	253	186	220	226	276	163	229	232	228	223	220	216	220	246	244	222	212	212	
204	213	212	218	217	214	242	244	248	242	250	257	253	246	249	252	252	252	253	247	234	235	263	271	278	300	338	243	204	245	246	237	223	224	267	294	289	297	274	293	299	302	189	238	231	226	260	276	286	304	332	166	182	231	243	243	245	246	261	267	268	267	266	258	216	237	264	269	288	316	95	100	194	232	232	235	234	234	233	232	232	231	232	232	231	231	231	232	233	234	233	231	230	230	228	225	225	222	217	207	207	236	242	244	201	226	225	202	207	210	221	222	218	219	218	219	244	295	223	214	214	
241	248	251	253	258	256	250	250	242	232	259	295	236	233	267	276	280	280	316	237	222	260	270	271	280	358	178	175	201	211	241	230	224	230	259	286	283	296	292	297	187	192	238	234	278	226	230	276	123	167	199	197	230	234	236	237	247	248	286	321	317	300	3	220	211	233	250	264	298	150	140	133	133	231	234	237	236	234	233	232	231	229	231	231	231	230	230	232	234	234	233	232	231	230	228	227	227	224	218	208	207	236	242	250	238	228	232	222	190	224	221	217	212	216	216	216	226	201	224	222	222	
245	249	253	254	260	264	257	251	241	236	252	220	222	229	260	293	282	306	246	232	217	249	275	286	205	198	216	239	238	210	235	225	231	240	248	253	271	275	200	223	244	222	204	231	232	230	227	215	192	188	235	233	234	231	234	243	268	282	326	129	311	333	222	216	215	243	241	260	329	166	150	147	136	247	238	239	235	234	233	232	232	231	231	230	230	230	228	231	234	234	233	232	231	230	228	227	227	224	220	213	208	225	239	245	237	233	234	232	221	214	224	219	214	216	218	217	234	202	209	227	227	
250	250	247	266	267	257	255	251	262	249	230	235	220	233	260	289	303	313	237	227	219	237	264	207	201	250	245	241	242	243	237	226	234	276	247	254	252	230	252	252	253	254	244	224	199	184	206	214	210	200	231	233	232	233	243	238	271	299	131	19	325	154	230	217	216	234	267	271	172	166	134	79	318	311	280	237	231	230	231	231	231	231	230	230	230	229	227	228	234	233	231	231	230	230	228	227	227	224	222	218	212	228	236	237	238	237	236	234	232	219	204	188	221	193	220	221	212	203	232	230	230	
278	279	244	274	281	252	241	248	258	239	245	230	226	251	270	295	284	185	212	223	223	258	264	236	250	244	240	239	240	244	241	229	234	279	279	272	259	253	249	250	253	257	258	253	225	198	239	246	250	250	240	232	232	237	273	274	280	14	133	329	151	229	227	319	222	229	249	260	175	159	47	313	305	314	323	235	224	224	227	227	229	230	230	230	230	230	227	227	233	231	229	230	229	230	228	228	227	225	224	221	216	232	238	242	240	221	238	224	235	232	221	198	227	214	222	213	233	232	236	241	241	
271	268	284	279	297	236	234	247	237	248	239	229	235	259	261	246	233	223	237	226	232	260	264	237	222	239	235	237	238	243	242	233	240	242	257	286	250	241	239	262	243	244	250	259	255	245	238	243	251	250	235	237	237	267	278	274	290	131	19	53	240	233	236	229	252	238	239	253	300	189	316	305	320	350	60	122	222	221	224	224	227	229	230	230	230	230	227	228	233	231	229	230	230	230	228	228	227	226	224	221	219	240	243	252	254	228	240	234	234	231	231	222	229	216	218	229	232	234	239	240	240	
236	239	239	219	228	214	229	221	244	242	235	231	255	257	287	244	253	246	237	233	243	263	206	223	248	238	230	233	235	241	239	232	243	248	253	249	165	234	237	173	166	235	256	243	245	243	235	237	245	308	223	228	266	268	278	279	303	336	356	163	233	310	233	237	299	312	274	270	12	135	321	295	310	25	111	137	163	220	221	223	227	229	229	230	230	230	228	229	232	232	231	231	230	230	228	228	228	226	224	221	218	218	246	259	266	276	241	233	231	226	228	224	185	216	222	230	229	232	235	236	236	
240	209	224	228	245	244	251	239	231	236	234	237	241	255	252	269	247	242	235	237	264	281	259	229	219	236	226	231	234	257	234	228	238	290	262	254	249	218	221	218	210	208	206	193	233	233	231	260	288	237	220	224	252	267	282	237	202	213	176	187	254	306	261	263	296	266	277	251	177	229	184	253	297	138	128	132	169	220	219	221	226	228	229	230	230	230	230	230	231	232	231	231	231	230	228	227	227	225	223	220	215	213	239	256	271	270	238	232	228	225	228	233	189	225	221	227	228	231	255	261	261	
208	208	247	251	251	254	262	260	249	240	239	242	244	268	216	234	239	248	233	256	252	275	199	221	201	238	233	235	238	228	232	227	237	293	247	252	222	252	253	252	250	250	252	246	236	234	240	242	244	236	225	228	234	257	245	177	202	213	209	205	256	305	251	243	196	221	232	182	169	177	223	230	169	162	150	146	176	220	221	222	225	228	229	230	230	230	230	230	230	231	231	231	231	230	228	227	226	224	222	220	213	235	242	251	264	225	200	175	226	225	196	235	225	224	219	223	228	224	257	258	258	
240	240	243	250	254	258	262	260	256	249	245	261	248	250	201	202	203	232	234	219	237	228	195	211	241	239	240	242	243	222	209	231	248	243	242	229	221	248	252	253	250	250	249	242	235	234	281	286	279	237	296	230	264	258	179	187	189	214	210	203	198	187	194	202	231	205	236	176	239	233	224	236	208	184	169	160	186	221	221	222	224	227	229	230	230	230	230	230	230	230	230	231	231	230	228	228	227	224	222	219	211	234	239	247	241	214	193	182	168	218	227	234	234	203	217	225	222	244	237	211	211	
233	237	240	263	263	271	271	245	266	253	260	188	200	230	222	219	222	224	221	215	229	226	193	206	235	235	239	240	243	243	236	248	247	203	208	244	238	235	236	236	234	264	263	231	275	230	267	275	236	233	284	231	268	212	192	174	166	227	215	215	223	204	239	237	233	231	239	242	162	235	156	243	241	196	187	174	194	186	221	220	222	226	229	230	230	230	230	230	230	229	229	231	232	230	228	227	226	224	221	218	209	232	240	246	241	241	238	236	234	221	231	236	233	220	215	221	229	235	217	240	240	
227	259	263	257	267	290	247	243	280	253	242	204	224	212	212	212	248	248	248	224	250	228	222	213	198	202	238	235	235	242	239	250	225	200	233	235	244	200	166	200	252	243	254	267	248	183	219	231	232	228	223	233	200	181	196	192	225	234	234	236	242	241	235	230	225	232	244	247	186	168	149	240	235	189	179	181	166	192	222	220	223	227	229	230	230	230	230	230	230	228	227	230	231	230	228	226	226	224	222	218	209	229	238	243	243	189	208	215	232	230	231	238	228	217	215	221	223	237	215	236	236	
239	244	251	249	257	281	243	289	302	183	227	212	223	214	217	217	245	250	256	256	257	261	260	252	246	243	241	231	232	240	241	245	211	202	236	227	202	197	198	209	202	211	218	192	185	185	230	226	212	198	219	219	202	199	186	237	241	247	250	240	233	225	193	226	222	233	242	244	190	139	240	145	219	198	181	198	201	197	187	224	226	229	229	230	230	230	230	230	229	227	226	228	229	229	227	225	225	224	222	220	212	206	234	237	234	215	179	214	250	228	231	294	216	215	214	219	222	233	214	236	236	
291	285	249	247	257	273	295	304	182	228	250	251	249	246	249	250	249	252	258	257	256	260	265	263	259	254	247	240	239	243	243	240	216	241	227	226	217	213	211	240	210	237	226	205	240	190	234	241	217	236	224	221	207	197	234	235	244	252	259	260	255	243	206	217	228	232	245	223	239	234	232	234	120	201	213	205	236	237	235	232	232	231	230	230	230	230	230	229	229	228	227	229	230	230	228	224	225	225	223	221	216	209	230	237	231	224	204	221	219	249	257	168	215	216	213	217	221	234	218	238	238	
238	292	274	279	259	254	207	238	231	246	246	249	247	245	246	249	247	247	252	249	248	277	251	253	255	251	246	234	246	248	248	251	216	243	246	250	252	250	245	244	244	238	229	208	236	236	232	247	250	238	245	219	240	238	234	235	248	253	257	258	265	262	249	236	236	225	216	213	200	176	165	163	162	196	237	240	240	242	242	238	234	231	229	229	230	230	230	230	229	229	228	228	231	231	229	224	225	226	224	223	221	215	231	235	226	221	213	205	227	241	176	171	154	202	215	215	220	234	219	239	239	
229	224	228	261	280	294	207	237	251	247	244	243	243	242	242	270	244	266	302	242	267	299	253	257	195	237	238	243	248	251	253	254	248	246	247	249	252	256	257	252	245	238	243	243	243	244	245	251	257	254	253	253	243	234	233	245	247	302	245	247	258	261	255	251	242	239	239	221	216	206	199	216	214	235	238	242	243	244	242	238	234	230	228	228	229	229	230	230	230	229	228	228	229	230	228	224	224	226	225	225	225	221	220	229	219	217	213	213	218	218	197	179	162	206	217	214	219	231	219	239	239	
206	234	227	237	247	203	214	245	248	243	240	238	238	237	237	260	265	285	271	276	285	175	173	189	241	237	233	241	250	254	256	256	253	248	245	243	244	248	251	252	250	247	248	250	249	246	244	248	247	246	248	247	236	228	236	269	287	291	242	244	248	249	244	255	262	263	267	270	265	257	250	246	244	241	236	236	260	270	282	262	232	229	226	226	228	229	230	230	230	230	229	228	229	230	228	224	224	226	226	225	226	225	227	235	223	223	220	223	220	220	221	179	171	207	201	215	218	228	219	228	228	
243	251	259	257	238	243	211	237	201	234	233	234	236	259	249	243	265	283	303	325	228	219	182	240	244	237	223	234	248	252	253	254	251	246	243	243	242	244	241	245	247	244	240	242	245	246	239	237	237	233	242	240	231	226	232	268	297	282	282	291	147	212	232	245	252	256	264	272	269	261	252	247	242	236	232	251	281	316	10	211	231	229	226	224	227	229	230	230	230	230	229	229	230	231	229	225	225	226	225	225	226	227	229	233	236	226	227	224	220	222	222	204	181	171	203	215	217	225	231	234	234	
246	254	266	272	262	247	247	230	237	233	211	233	238	239	236	234	236	260	248	117	160	246	237	239	241	232	207	230	267	244	247	247	244	243	241	243	247	247	246	246	243	237	235	242	284	240	233	240	244	247	250	247	236	230	234	263	171	162	189	190	231	222	226	245	250	254	259	269	252	246	241	240	238	232	248	270	287	317	61	88	185	226	224	223	227	230	231	231	230	230	230	230	230	230	229	226	225	226	225	226	227	227	228	229	231	233	224	222	222	223	221	214	199	183	202	217	218	224	228	230	230	
241	284	270	256	261	259	227	231	215	237	231	236	235	241	235	236	239	246	290	200	215	179	235	245	189	221	207	224	253	272	271	237	234	236	240	242	243	245	247	245	236	232	236	271	247	238	232	238	244	249	250	249	241	234	258	264	206	243	241	238	232	224	224	230	276	274	288	298	344	234	249	251	254	286	273	272	294	50	130	124	179	172	223	223	228	231	232	232	231	231	230	230	229	229	228	227	226	227	227	227	228	226	227	228	230	231	233	234	227	230	226	220	206	210	204	221	221	224	227	227	227	
210	230	234	248	242	266	253	237	246	242	233	238	243	242	213	235	241	247	198	241	245	237	238	283	178	222	199	222	247	267	198	231	233	237	243	243	239	240	278	241	227	229	241	291	243	228	223	232	238	241	284	240	236	232	259	288	217	243	240	235	235	239	228	229	254	274	334	175	223	214	241	273	280	289	282	280	64	150	149	144	179	178	223	227	233	235	234	233	232	231	230	230	229	229	228	227	227	227	225	227	228	226	226	227	227	228	230	231	232	234	234	226	209	215	227	223	222	225	225	225	225	
204	217	226	218	246	239	212	234	233	238	236	237	243	244	236	237	238	241	246	256	256	232	270	163	171	203	201	218	239	218	200	230	232	238	244	245	241	260	211	235	220	230	270	204	233	221	220	228	263	283	281	240	234	227	240	248	212	237	231	228	233	238	239	228	231	256	205	235	229	333	274	261	274	293	304	128	173	179	172	167	189	182	225	233	240	240	237	235	233	232	231	230	230	229	229	228	228	227	223	225	228	227	227	227	226	227	229	230	230	233	232	226	211	232	228	225	223	225	225	224	224	
208	229	221	218	222	214	211	197	206	212	235	233	245	221	236	241	244	241	243	179	160	128	176	182	179	203	213	238	253	250	240	232	234	242	243	244	245	249	203	230	223	237	264	244	228	219	223	230	250	269	289	263	232	224	255	260	212	233	224	223	232	284	234	227	231	257	218	231	325	301	282	218	268	339	120	161	169	174	206	199	225	225	230	237	237	235	236	238	235	233	232	231	230	230	229	229	229	229	228	227	226	227	228	228	226	226	228	228	228	230	232	233	223	232	229	227	225	225	224	223	223	
220	227	255	257	232	228	227	212	215	221	235	227	245	220	231	237	253	262	265	214	195	190	190	192	183	224	225	248	259	259	247	238	242	242	271	245	246	246	238	231	234	246	210	239	221	220	230	249	243	242	283	247	232	282	238	296	208	227	219	220	230	297	234	226	230	255	226	74	300	295	281	256	249	166	167	171	169	172	198	230	230	228	233	290	231	228	236	241	238	235	233	232	231	230	229	229	229	229	228	227	226	226	227	227	226	226	227	227	227	228	229	236	230	214	229	227	226	225	224	245	245	
245	257	265	269	273	269	259	251	245	228	237	229	245	244	226	234	260	258	268	191	188	186	224	222	232	226	230	260	255	255	251	250	267	270	274	246	203	237	231	234	241	250	214	231	218	223	235	238	241	244	236	228	234	291	240	217	201	223	324	222	251	305	233	228	229	261	193	222	21	260	216	215	200	189	185	188	216	209	230	231	230	228	272	100	189	227	280	244	242	239	236	233	231	230	230	230	229	229	228	227	226	226	226	226	226	226	226	227	227	228	228	237	232	216	233	226	226	225	226	243	243	
247	254	263	269	274	275	270	264	262	256	246	241	236	240	229	237	254	261	343	171	174	225	208	233	235	231	234	276	250	282	248	248	268	269	281	247	242	228	228	237	269	249	199	226	218	227	256	257	259	267	263	256	248	236	208	241	232	224	223	228	236	291	234	226	269	278	150	160	177	192	200	195	202	199	223	237	241	241	235	229	246	270	343	207	216	270	288	282	243	242	239	235	232	231	230	230	229	229	228	227	227	226	226	226	226	226	226	227	228	228	225	227	233	211	236	255	224	223	248	228	228	
236	269	278	292	306	264	265	266	266	264	259	259	255	243	252	257	256	249	191	175	168	216	222	225	234	248	267	279	285	283	292	300	246	249	219	244	234	223	230	264	275	186	237	219	219	234	243	244	245	251	273	276	307	166	204	234	227	221	223	228	258	290	241	223	284	125	159	172	175	183	194	227	229	229	238	236	238	240	235	246	263	298	164	218	210	238	281	296	280	241	240	236	232	232	231	230	230	229	228	228	227	226	226	226	225	225	224	224	226	226	223	225	231	223	234	239	237	241	234	229	229	
221	250	279	292	293	298	249	251	251	256	256	259	260	250	243	245	256	243	199	165	164	223	213	219	242	242	270	282	288	289	284	292	302	252	250	242	229	226	234	261	235	204	231	217	219	229	269	246	277	242	240	241	186	213	204	227	220	215	219	242	259	294	165	246	247	156	158	168	183	221	235	241	245	245	240	235	235	250	247	239	275	142	211	212	211	234	277	281	295	263	317	233	234	233	232	231	231	230	229	228	227	227	226	225	225	225	223	221	224	226	223	224	224	212	233	236	232	221	232	234	234	
212	242	256	287	279	288	322	234	270	280	244	280	291	248	245	247	260	208	195	175	218	213	206	229	256	266	267	278	286	287	292	270	245	247	249	240	226	231	240	260	193	195	226	219	224	230	254	260	239	281	247	249	195	187	183	226	220	215	222	219	207	205	194	206	200	178	166	172	214	232	238	247	249	243	237	245	264	268	279	291	91	178	219	214	218	238	270	300	227	78	8	271	228	230	233	235	234	232	230	229	228	227	226	225	225	224	223	222	224	226	224	224	226	223	236	241	246	232	225	222	222	
221	249	250	209	227	238	239	235	244	282	281	278	245	243	243	247	260	201	191	175	212	204	204	230	246	249	248	254	272	286	301	247	229	241	243	232	223	233	242	273	210	235	222	220	231	238	245	238	277	240	289	249	170	189	198	197	184	223	222	215	212	215	210	213	208	193	187	213	224	228	235	241	242	251	244	235	267	270	307	149	178	215	219	218	233	266	284	340	138	113	303	123	171	227	237	242	241	237	233	231	228	227	226	225	225	224	224	223	223	225	225	224	224	223	240	241	249	231	231	220	220	
230	260	252	222	228	235	272	274	283	285	293	241	244	244	240	247	259	191	185	179	205	202	207	238	251	244	235	242	256	281	250	227	208	241	241	230	225	237	256	190	201	228	220	221	229	264	273	264	262	256	243	172	171	182	232	232	231	230	238	242	241	241	214	212	210	202	227	225	221	225	238	266	271	281	281	282	280	253	180	183	219	224	220	231	228	268	308	12	93	103	139	150	177	271	240	244	246	243	238	234	230	227	225	225	224	224	223	223	222	223	224	224	222	220	238	237	239	230	221	230	230	
236	264	259	250	215	232	229	256	298	276	301	246	245	270	241	248	231	194	185	177	205	202	208	239	253	239	240	249	253	257	200	218	239	243	243	232	228	240	262	189	237	224	221	228	236	239	251	268	262	275	165	176	190	233	232	235	238	241	244	244	244	246	247	242	238	244	236	225	220	232	231	262	270	280	283	302	130	191	190	232	228	224	230	259	256	271	355	106	132	163	210	225	257	281	270	285	298	241	238	235	231	226	224	224	223	223	223	223	222	222	223	223	222	221	228	229	229	221	228	230	230	
239	265	255	250	243	234	239	238	238	251	241	268	293	249	244	244	229	195	182	177	202	203	207	238	246	235	242	251	251	218	222	217	233	239	241	229	228	255	198	206	232	222	222	234	243	247	243	239	244	216	185	174	234	231	233	237	243	246	246	246	248	250	251	251	249	242	232	224	221	232	258	262	263	278	318	155	180	230	234	232	229	235	267	262	255	254	167	171	184	220	225	291	225	274	298	319	321	293	234	232	226	223	222	222	222	222	222	222	222	221	221	222	222	222	222	228	229	229	247	258	258	
245	249	227	245	243	240	233	227	240	240	231	240	294	239	198	236	240	234	234	172	204	204	206	238	244	237	247	250	235	217	218	219	246	255	238	228	234	246	210	241	229	221	223	233	270	248	250	247	250	201	190	197	230	228	231	237	241	240	241	245	247	248	249	249	251	234	225	223	224	232	254	262	265	280	166	184	225	229	233	233	236	229	271	280	275	197	198	191	229	229	224	221	254	273	296	303	298	304	254	266	216	216	218	218	220	221	222	222	222	221	221	222	223	224	223	223	228	230	240	248	248	
253	253	250	247	246	245	242	239	227	242	241	247	199	220	245	228	242	220	190	172	201	208	207	239	243	238	248	246	222	242	238	227	242	229	237	230	241	248	209	194	226	219	224	231	261	264	242	272	269	179	201	235	229	229	233	238	236	232	236	243	244	245	245	246	236	223	220	224	238	234	249	248	253	188	178	171	218	220	228	272	227	265	274	289	102	191	190	234	232	229	230	257	252	286	324	296	288	280	108	118	155	211	215	214	218	221	221	222	221	221	221	222	225	226	225	224	224	225	240	235	235	
251	249	247	251	252	247	241	245	225	238	252	249	277	233	239	220	243	235	200	181	203	213	209	232	242	237	243	238	220	237	234	240	245	240	232	232	240	199	244	238	226	219	225	247	252	264	239	244	176	206	190	230	228	232	240	158	232	229	235	239	237	235	237	301	221	214	217	226	239	270	261	249	248	178	178	223	204	209	251	278	285	261	274	74	194	184	233	233	228	226	262	260	261	298	326	304	77	142	154	154	167	215	214	212	216	220	220	221	221	221	220	220	223	224	224	224	223	224	240	226	226	
240	240	239	267	249	241	237	246	228	237	247	253	207	192	234	229	237	247	217	189	209	218	212	239	235	239	238	223	241	235	233	255	236	214	231	257	204	198	204	236	227	222	227	236	252	254	275	170	183	194	229	224	228	237	289	236	228	229	233	272	278	279	345	175	211	209	216	234	270	279	284	271	258	198	205	216	196	204	242	273	308	274	281	151	183	226	227	230	226	260	269	268	267	326	97	133	158	178	167	187	174	150	215	212	216	218	219	220	220	220	219	218	220	222	222	222	222	223	237	229	229	
242	235	236	260	242	234	233	245	237	240	248	240	195	206	231	224	230	245	204	193	220	226	222	232	235	241	216	214	227	239	259	236	209	220	223	212	233	236	240	238	229	223	227	249	248	254	264	192	200	235	221	218	229	271	239	227	225	229	257	274	303	141	182	179	218	211	217	233	270	282	289	285	275	186	195	215	198	208	246	262	295	281	308	212	223	215	220	260	272	273	265	269	209	185	203	201	191	231	109	316	2	147	213	211	214	217	218	219	219	219	218	217	219	222	222	222	223	223	236	234	234	
243	239	240	212	240	233	227	241	247	242	244	239	225	190	178	225	229	245	208	190	225	232	233	231	235	242	241	233	239	246	264	206	237	237	227	237	230	237	243	241	231	226	231	238	238	242	248	184	173	226	211	215	255	247	235	223	225	231	257	252	163	166	178	217	221	217	217	255	274	285	289	288	26	194	184	217	207	214	248	264	282	292	144	198	213	210	219	255	293	303	281	228	204	235	238	241	236	24	238	306	6	182	210	204	209	214	217	218	219	219	217	216	218	220	221	221	223	224	231	236	236	
247	246	246	233	216	234	226	238	240	244	226	236	201	248	238	234	232	246	222	186	181	229	232	223	234	240	224	241	244	248	209	241	221	241	217	233	227	237	243	240	230	228	235	241	243	254	244	191	199	221	207	219	256	243	233	223	225	258	258	215	183	186	217	222	224	226	228	251	263	279	290	258	159	183	221	218	219	219	248	256	278	334	162	186	209	210	239	268	298	303	358	186	234	236	237	118	232	230	262	298	299	127	148	198	204	212	215	217	218	218	217	216	217	218	219	220	223	224	227	232	232	
219	250	252	252	246	240	230	238	238	242	239	249	226	220	243	241	240	243	241	201	232	179	219	223	231	238	231	242	260	255	201	234	223	238	239	232	230	249	258	239	230	227	232	234	261	264	248	213	192	217	208	225	259	241	233	224	227	236	189	207	196	223	221	220	226	235	235	244	236	257	296	160	171	227	212	214	258	280	247	247	265	157	169	214	210	212	236	257	293	5	146	227	229	102	231	228	223	251	313	102	136	142	136	200	200	208	213	216	217	218	217	217	217	219	220	219	219	221	223	226	226	
249	248	253	260	259	251	238	243	224	239	240	252	202	187	174	234	249	255	241	227	221	199	230	231	232	235	229	245	253	214	201	230	229	242	243	238	242	247	238	228	229	226	233	235	254	256	193	210	229	216	211	246	273	300	234	299	232	207	191	194	183	223	215	218	255	272	236	224	226	242	196	173	187	217	200	208	259	233	273	238	246	181	193	211	213	250	242	248	289	166	207	229	74	226	225	220	246	359	149	159	158	151	138	206	197	203	211	215	217	217	218	218	218	220	221	220	214	218	220	223	223	
239	237	240	249	257	257	252	247	241	239	243	252	278	230	246	246	247	256	256	247	237	234	234	234	234	232	228	246	231	233	237	236	243	248	248	248	250	264	255	236	226	221	228	263	262	228	245	239	231	218	216	225	261	284	234	229	194	193	188	186	227	216	211	222	251	279	253	220	222	246	177	160	186	211	192	203	251	253	304	264	243	180	217	209	214	247	277	252	239	225	201	224	222	219	242	245	305	128	120	61	58	76	108	150	197	201	208	213	216	217	218	218	218	221	223	224	222	219	220	222	222	
232	233	235	261	268	245	243	234	229	237	246	267	202	219	274	239	244	245	252	250	240	237	227	231	235	229	232	246	238	238	234	240	244	252	249	249	244	267	206	234	228	225	228	247	251	221	240	238	232	218	217	226	248	281	154	158	230	233	236	236	221	212	208	217	253	281	238	222	219	246	241	159	186	207	188	201	247	270	299	281	199	213	212	208	234	267	303	258	319	159	210	258	254	226	231	283	92	116	9	227	230	139	129	164	198	199	206	212	215	217	218	218	218	221	223	223	222	221	220	221	221	
230	233	239	245	204	192	232	225	225	236	258	253	187	176	171	164	233	241	244	239	236	237	241	242	233	230	234	239	245	239	237	247	264	265	269	241	244	200	240	232	231	234	234	245	242	209	235	235	230	213	218	247	246	207	209	230	232	237	240	238	227	211	206	212	248	268	236	226	217	244	239	161	187	207	189	202	247	260	304	176	220	226	212	213	236	257	297	270	305	218	205	171	202	214	215	92	135	144	180	203	155	152	152	149	156	201	206	212	215	217	218	218	218	219	221	222	222	221	220	220	220	
224	230	243	263	217	236	229	227	233	245	253	266	292	160	165	180	192	184	176	213	226	230	241	247	241	234	228	237	238	237	246	264	260	253	242	257	243	240	231	228	231	232	249	245	217	232	234	231	225	210	219	253	226	218	240	232	233	239	242	237	230	215	204	232	235	240	257	227	302	235	200	165	184	208	191	202	238	256	183	223	209	219	215	249	245	256	278	71	176	170	201	152	208	212	215	197	177	172	184	201	194	185	173	165	170	208	208	212	214	216	217	218	218	219	221	222	222	221	220	220	220	
219	230	256	198	203	229	224	227	234	244	265	268	196	210	241	158	244	244	222	234	224	225	249	246	239	234	220	222	242	263	261	248	226	213	224	232	211	231	218	225	231	224	220	219	218	246	246	194	222	212	222	250	222	244	235	226	229	238	231	232	233	227	209	213	229	233	232	226	252	257	161	169	181	212	192	200	243	248	195	226	225	211	214	268	285	255	228	167	176	190	163	218	163	212	217	203	189	181	174	227	202	225	216	231	228	221	212	211	213	216	217	217	218	219	221	223	222	222	221	221	221	
216	236	242	217	194	225	224	232	234	258	274	274	203	199	189	170	217	250	247	238	227	225	246	237	231	232	216	216	244	227	223	221	211	217	240	240	208	228	203	229	220	215	222	222	229	245	195	193	213	214	225	250	241	235	226	219	226	264	182	225	232	233	220	214	224	234	234	229	283	339	161	190	227	215	191	198	238	247	179	220	219	208	226	258	300	265	180	162	159	187	189	160	142	219	212	209	201	233	185	220	246	248	247	243	281	230	212	208	211	214	216	217	217	218	221	222	222	223	222	221	221	
224	243	222	206	230	229	233	242	237	254	271	221	177	162	166	238	246	250	250	240	227	227	250	248	230	231	221	226	237	233	229	217	213	234	250	238	202	221	202	230	219	221	221	220	236	244	197	233	206	208	238	249	198	201	219	216	229	269	229	223	231	251	223	213	219	223	233	242	239	234	167	260	325	214	190	199	240	257	241	234	219	211	228	244	183	180	179	162	143	157	225	192	184	229	243	249	247	237	244	243	47	241	240	253	291	235	206	199	206	212	215	216	216	217	221	221	221	223	222	221	221	
233	222	245	241	235	237	245	241	256	255	255	188	181	251	235	238	240	248	251	235	222	225	250	265	233	231	229	235	240	239	229	226	227	247	252	217	196	220	224	225	225	224	225	229	240	241	205	198	211	202	224	244	199	231	221	220	233	233	228	224	271	179	227	228	221	217	234	238	234	213	302	229	133	213	191	197	234	251	240	231	219	217	235	229	194	183	191	187	174	174	190	234	238	243	250	255	254	249	244	241	233	235	263	271	303	130	159	196	202	209	213	215	215	216	221	222	222	224	222	222	222	
226	244	248	245	243	245	245	245	259	260	250	193	180	183	164	159	182	239	188	226	215	224	249	206	232	233	233	237	240	241	232	228	238	249	250	205	235	231	228	228	234	238	240	241	255	243	213	195	217	204	227	250	207	228	221	225	234	290	268	230	209	231	288	298	219	201	222	243	244	232	263	87	195	214	196	200	232	237	220	228	222	237	234	209	191	169	197	204	202	235	239	240	238	237	238	238	240	237	233	267	260	257	283	69	132	143	168	199	200	206	211	215	215	215	221	223	223	223	223	223	223	
238	241	243	244	251	251	248	249	273	263	239	203	196	238	207	228	225	208	188	225	216	224	249	258	243	238	237	239	241	244	231	236	243	252	250	201	229	233	231	228	231	237	250	263	244	250	205	196	215	212	232	267	245	221	218	223	244	253	255	308	232	226	233	335	220	192	212	238	241	239	183	172	167	216	200	208	226	240	241	229	227	224	143	184	196	186	181	232	238	240	238	231	222	250	245	243	249	244	245	257	258	266	320	126	137	144	171	200	198	203	210	215	214	215	221	224	223	222	223	223	223	
240	254	249	266	242	242	246	284	253	260	259	252	246	247	248	245	247	250	244	233	225	225	244	276	244	237	234	238	244	247	244	242	248	253	234	205	225	235	233	232	236	235	234	236	244	196	237	235	225	221	253	269	238	220	218	224	236	237	245	204	250	222	251	220	221	200	208	236	240	232	242	213	200	219	201	209	251	253	250	262	162	172	162	191	201	237	237	235	235	231	251	271	236	291	160	148	109	208	176	213	217	201	169	163	158	158	152	164	197	203	210	215	215	216	221	224	224	223	223	223	223	
235	275	259	254	247	267	271	283	254	269	202	249	174	246	244	243	248	251	244	240	238	232	237	242	210	227	235	239	243	246	247	248	250	240	242	235	222	236	235	237	243	245	246	246	249	195	228	227	223	240	256	236	197	221	220	227	237	232	226	230	244	228	160	164	224	215	213	227	238	235	187	235	215	220	201	206	245	258	258	235	222	218	182	195	234	239	236	230	248	269	96	210	199	194	196	205	200	191	190	204	208	203	197	188	193	184	170	179	204	205	212	216	216	216	218	222	223	222	222	222	222	
237	269	284	290	292	271	272	289	245	241	235	231	232	231	233	236	244	254	229	245	231	232	247	244	242	227	223	227	239	247	254	262	257	262	256	233	223	239	240	244	249	254	255	259	250	236	234	229	235	266	253	249	194	223	224	239	243	251	246	239	254	286	164	187	222	217	219	242	259	247	238	159	201	216	206	216	248	272	264	230	216	207	229	230	230	227	224	247	258	189	191	186	200	194	231	205	236	194	220	226	211	204	199	189	209	212	224	217	209	209	215	217	219	219	222	226	226	223	221	220	220	
248	267	286	264	286	285	254	286	241	226	207	215	208	221	225	237	269	214	229	270	218	227	253	265	247	256	206	217	235	249	258	271	274	267	258	252	245	241	245	251	255	260	263	272	250	231	227	234	254	278	261	252	241	236	243	258	265	260	256	251	265	308	194	220	232	213	220	250	275	276	252	229	218	214	211	228	258	266	236	234	232	229	227	226	223	246	241	286	225	232	226	226	235	237	239	245	244	240	241	249	254	249	244	237	237	240	230	188	209	211	216	218	221	224	230	235	231	225	221	219	219	
